;FLAVOR:Marlin
;TIME:314
;Filament used: 0.114734m
;Layer height: 0.2
;MINX:112.7
;MINY:112.702
;MINZ:0.2
;MAXX:122.299
;MAXY:122.298
;MAXZ:5
;Generated with Cura_SteamEngine 5.0.0
M82 ;absolute extrusion mode
START_PRINT EXTRUDER_TEMP=222 BED_TEMP=60
G92 E0
G92 E0
G1 F2700 E-5
;LAYER_COUNT:25
;LAYER:0
M107
;MESH:5x5x5 magnet holder v3.stl
G0 F2100 X117.339 Y119.454 Z0.2
;TYPE:WALL-OUTER
G1 F2700 E0
G1 F1200 X117.085 Y119.424 E0.00936
G1 X116.821 Y119.34 E0.01949
G1 X116.51 Y119.191 E0.03211
G1 X116.239 Y119.001 E0.04422
G1 X116.046 Y118.827 E0.05373
G1 X115.811 Y118.512 E0.0681
G1 X115.645 Y118.159 E0.08238
G1 X115.558 Y117.802 E0.09582
G1 X115.541 Y117.477 E0.10773
G1 X115.539 Y117.324 E0.11332
G1 X115.607 Y116.96 E0.12687
G1 X115.739 Y116.628 E0.13994
G1 X115.911 Y116.353 E0.15181
G1 X116.142 Y116.087 E0.1647
G1 X116.396 Y115.879 E0.17671
G1 X116.621 Y115.737 E0.18645
G1 X116.859 Y115.647 E0.19575
G1 X117.125 Y115.579 E0.2058
G1 X117.577 Y115.534 E0.22242
G1 X117.991 Y115.594 E0.23772
G1 X118.319 Y115.714 E0.2505
G1 X118.601 Y115.877 E0.26242
G1 X118.855 Y116.083 E0.27438
G1 X119.029 Y116.263 E0.28354
G1 X119.242 Y116.58 E0.29752
G1 X119.387 Y116.939 E0.31168
G1 X119.461 Y117.334 E0.32638
G1 X119.456 Y117.667 E0.33857
G1 X119.396 Y118.002 E0.35102
G1 X119.29 Y118.301 E0.36263
G1 X119.18 Y118.527 E0.37182
G1 X118.946 Y118.838 E0.38606
G1 X118.651 Y119.097 E0.40042
G1 X118.315 Y119.288 E0.41456
G1 X117.984 Y119.402 E0.42737
G1 X117.674 Y119.452 E0.43886
G1 X117.339 Y119.454 E0.45112
G0 F2100 X117.45 Y119.907
;TYPE:WALL-INNER
G1 F1200 X117.085 Y119.869 E0.46454
G1 X116.684 Y119.758 E0.47977
G1 X116.292 Y119.573 E0.49562
G1 X116.068 Y119.436 E0.50523
G1 X115.793 Y119.193 E0.51866
G1 X115.523 Y118.862 E0.53429
G1 X115.316 Y118.497 E0.54964
G1 X115.21 Y118.251 E0.55944
G1 X115.12 Y117.861 E0.57408
G1 X115.101 Y117.483 E0.58793
G1 X115.099 Y117.33 E0.59353
G1 X115.135 Y117.068 E0.6032
G1 X115.188 Y116.822 E0.61241
G1 X115.332 Y116.46 E0.62666
G1 X115.549 Y116.103 E0.64195
G1 X115.702 Y115.901 E0.65122
G1 X115.968 Y115.642 E0.6648
G1 X116.335 Y115.396 E0.68097
G1 X116.707 Y115.234 E0.69581
G1 X116.954 Y115.155 E0.7053
G1 X117.291 Y115.12 E0.71769
G1 X117.599 Y115.094 E0.729
G1 X117.864 Y115.127 E0.73877
G1 X118.112 Y115.169 E0.74798
G1 X118.475 Y115.302 E0.76212
G1 X118.839 Y115.507 E0.7774
G1 X119.059 Y115.666 E0.78733
G1 X119.35 Y115.957 E0.80239
G1 X119.562 Y116.267 E0.81613
G1 X119.742 Y116.643 E0.83138
G1 X119.828 Y116.885 E0.84078
G1 X119.895 Y117.258 E0.85464
G1 X119.896 Y117.681 E0.87012
G1 X119.824 Y118.104 E0.88582
G1 X119.745 Y118.366 E0.89583
G1 X119.59 Y118.692 E0.90904
G1 X119.353 Y119.031 E0.92417
G1 X119.057 Y119.327 E0.93949
G1 X118.853 Y119.492 E0.94908
G1 X118.468 Y119.707 E0.96522
G1 X118.118 Y119.822 E0.9787
G1 X117.715 Y119.89 E0.99365
G1 X117.45 Y119.907 E1.00336
G0 F2100 X117.243 Y120.329
G1 F1200 X116.924 Y120.29 E1.01512
G1 X116.547 Y120.176 E1.02953
G1 X116.254 Y120.058 E1.04109
G1 X115.905 Y119.859 E1.05579
G1 X115.654 Y119.658 E1.06755
G1 X115.418 Y119.443 E1.07923
G1 X115.17 Y119.125 E1.09399
G1 X115.003 Y118.868 E1.1052
G1 X114.834 Y118.502 E1.11995
G1 X114.747 Y118.201 E1.13141
G1 X114.676 Y117.878 E1.14351
G1 X114.661 Y117.488 E1.15779
G1 X114.659 Y117.336 E1.16335
G1 X114.704 Y116.98 E1.17648
G1 X114.764 Y116.702 E1.18689
G1 X114.925 Y116.293 E1.20297
G1 X115.052 Y116.047 E1.2131
G1 X115.289 Y115.706 E1.22829
G1 X115.528 Y115.457 E1.24092
G1 X115.732 Y115.264 E1.25119
G1 X116.101 Y115.023 E1.26732
G1 X116.343 Y114.899 E1.27726
G1 X116.681 Y114.774 E1.29045
G1 X116.954 Y114.711 E1.3007
G1 X117.49 Y114.658 E1.3204
G1 X117.745 Y114.663 E1.32974
G1 X118.144 Y114.727 E1.34452
G1 X118.433 Y114.815 E1.35557
G1 X118.753 Y114.939 E1.36813
G1 X119.078 Y115.137 E1.38205
G1 X119.286 Y115.277 E1.39123
G1 X119.475 Y115.459 E1.40082
G1 X119.686 Y115.672 E1.41179
G1 X119.927 Y116.021 E1.42731
G1 X120.069 Y116.277 E1.43802
G1 X120.204 Y116.612 E1.45124
G1 X120.292 Y116.977 E1.46497
G1 X120.34 Y117.267 E1.47573
G1 X120.336 Y117.694 E1.49135
G1 X120.304 Y117.988 E1.50217
G1 X120.208 Y118.384 E1.51708
G1 X120.085 Y118.679 E1.52877
G1 X119.952 Y118.953 E1.53991
G1 X119.704 Y119.296 E1.5554
G1 X119.5 Y119.526 E1.56665
G1 X119.2 Y119.784 E1.58112
G1 X118.925 Y119.956 E1.59299
G1 X118.652 Y120.107 E1.60441
G1 X118.252 Y120.241 E1.61984
G1 X117.954 Y120.31 E1.63103
G1 X117.563 Y120.346 E1.6454
G1 X117.243 Y120.329 E1.65712
G1 F2700 E-3.34288
G0 F2100 X117.404 Y120.547
G0 X117.373 Y121.176
G0 X117.368 Y121.789
G1 F2700 E1.65712
G0 F2100 X117.347 Y122.277
;TYPE:WALL-OUTER
G1 F1200 X117.64 Y122.278 E1.66784
G1 X117.934 Y122.259 E1.67862
G1 X118.223 Y122.224 E1.68927
G1 X118.515 Y122.169 E1.70014
G1 X118.789 Y122.1 E1.71048
G1 X119.082 Y122.011 E1.72168
G1 X119.357 Y121.904 E1.73248
G1 X119.626 Y121.78 E1.74331
G1 X119.886 Y121.641 E1.7541
G1 X120.17 Y121.463 E1.76636
G1 X120.376 Y121.316 E1.77562
G1 X120.605 Y121.134 E1.78632
G1 X120.824 Y120.935 E1.79715
G1 X121.028 Y120.724 E1.80789
G1 X121.22 Y120.5 E1.81868
G1 X121.398 Y120.267 E1.82941
G1 X121.561 Y120.021 E1.84021
G1 X121.706 Y119.766 E1.85094
G1 X121.84 Y119.501 E1.8618
G1 X121.955 Y119.231 E1.87254
G1 X122.054 Y118.954 E1.8833
G1 X122.133 Y118.673 E1.89398
G1 X122.197 Y118.384 E1.90481
G1 X122.242 Y118.093 E1.91558
G1 X122.271 Y117.799 E1.92639
G1 X122.279 Y117.506 E1.93712
G1 X122.271 Y117.211 E1.94791
G1 X122.238 Y116.881 E1.96005
G1 X122.199 Y116.628 E1.96941
G1 X122.135 Y116.341 E1.98017
G1 X122.058 Y116.07 E1.99048
G1 X121.959 Y115.779 E2.00172
G1 X121.844 Y115.508 E2.01249
G1 X121.711 Y115.244 E2.02331
G1 X121.565 Y114.987 E2.03412
G1 X121.404 Y114.745 E2.04476
G1 X121.225 Y114.508 E2.05562
G1 X121.035 Y114.285 E2.06634
G1 X120.83 Y114.073 E2.07713
G1 X120.613 Y113.876 E2.08785
G1 X120.383 Y113.69 E2.09868
G1 X120.145 Y113.519 E2.1094
G1 X119.895 Y113.365 E2.12014
G1 X119.635 Y113.224 E2.13096
G1 X119.373 Y113.103 E2.14152
G1 X119.094 Y112.993 E2.15249
G1 X118.801 Y112.9 E2.16374
G1 X118.53 Y112.834 E2.17394
G1 X118.237 Y112.778 E2.18486
G1 X117.946 Y112.742 E2.19559
G1 X117.651 Y112.723 E2.2064
G1 X117.36 Y112.722 E2.21705
G1 X117.028 Y112.745 E2.22922
G1 X116.774 Y112.776 E2.23858
G1 X116.496 Y112.827 E2.24893
G1 X116.16 Y112.914 E2.26162
G1 X115.904 Y112.994 E2.27144
G1 X115.644 Y113.096 E2.28165
G1 X115.374 Y113.22 E2.29253
G1 X115.117 Y113.357 E2.30318
G1 X114.867 Y113.513 E2.31396
G1 X114.626 Y113.683 E2.32475
G1 X114.395 Y113.868 E2.33558
G1 X114.178 Y114.065 E2.3463
G1 X113.972 Y114.278 E2.35714
G1 X113.781 Y114.5 E2.36786
G1 X113.602 Y114.735 E2.37867
G1 X113.441 Y114.977 E2.3893
G1 X113.293 Y115.235 E2.40018
G1 X113.16 Y115.497 E2.41093
G1 X113.039 Y115.783 E2.42229
G1 X112.948 Y116.044 E2.43241
G1 X112.858 Y116.369 E2.44474
G1 X112.803 Y116.616 E2.454
G1 X112.758 Y116.909 E2.46485
G1 X112.729 Y117.2 E2.47555
G1 X112.721 Y117.494 E2.48631
G1 X112.727 Y117.745 E2.49549
G1 X112.75 Y118.005 E2.50504
G1 X112.787 Y118.285 E2.51538
G1 X112.856 Y118.623 E2.528
G1 X112.925 Y118.881 E2.53777
G1 X113.026 Y119.177 E2.54921
G1 X113.139 Y119.451 E2.56005
G1 X113.27 Y119.721 E2.57103
G1 X113.409 Y119.97 E2.58147
G1 X113.569 Y120.217 E2.59223
G1 X113.749 Y120.461 E2.60333
G1 X113.963 Y120.715 E2.61548
G1 X114.168 Y120.927 E2.62627
G1 X114.385 Y121.124 E2.63699
G1 X114.614 Y121.31 E2.64778
G1 X114.853 Y121.479 E2.65849
G1 X115.105 Y121.635 E2.66934
G1 X115.365 Y121.776 E2.68016
G1 X115.632 Y121.9 E2.69093
G1 X115.92 Y122.012 E2.70223
G1 X116.219 Y122.101 E2.71365
G1 X116.473 Y122.167 E2.72325
G1 X116.761 Y122.222 E2.73398
G1 X117.094 Y122.261 E2.74624
G1 X117.347 Y122.277 E2.75552
G0 F2100 X117.322 Y121.836
M104 S205
;TYPE:WALL-INNER
G1 F1200 X117.626 Y121.838 E2.76664
G1 X117.894 Y121.821 E2.77647
G1 X118.154 Y121.789 E2.78605
G1 X118.421 Y121.739 E2.79599
G1 X118.696 Y121.669 E2.80637
G1 X118.938 Y121.595 E2.81563
G1 X119.185 Y121.498 E2.82534
G1 X119.43 Y121.386 E2.83519
G1 X119.666 Y121.259 E2.845
G1 X119.892 Y121.12 E2.85471
G1 X120.134 Y120.947 E2.86559
G1 X120.341 Y120.78 E2.87532
G1 X120.54 Y120.595 E2.88526
G1 X120.72 Y120.408 E2.89476
G1 X120.895 Y120.201 E2.90467
G1 X121.056 Y119.985 E2.91453
G1 X121.201 Y119.763 E2.92423
G1 X121.329 Y119.536 E2.93377
G1 X121.453 Y119.287 E2.94394
G1 X121.554 Y119.043 E2.9536
G1 X121.643 Y118.788 E2.96349
G1 X121.711 Y118.539 E2.97293
G1 X121.768 Y118.272 E2.98292
G1 X121.807 Y118.012 E2.99254
G1 X121.832 Y117.738 E3.0026
G1 X121.838 Y117.479 E3.01208
G1 X121.828 Y117.208 E3.022
G1 X121.803 Y116.947 E3.0316
G1 X121.759 Y116.676 E3.04164
G1 X121.701 Y116.424 E3.0511
G1 X121.629 Y116.177 E3.06051
G1 X121.548 Y115.937 E3.06978
G1 X121.444 Y115.693 E3.07948
G1 X121.311 Y115.43 E3.09027
G1 X121.172 Y115.19 E3.10041
G1 X121.028 Y114.977 E3.10982
G1 X120.865 Y114.764 E3.11963
G1 X120.688 Y114.56 E3.12952
G1 X120.499 Y114.367 E3.1394
G1 X120.306 Y114.193 E3.14891
G1 X120.094 Y114.024 E3.15882
G1 X119.873 Y113.869 E3.1687
G1 X119.651 Y113.734 E3.17821
G1 X119.411 Y113.605 E3.18818
G1 X119.174 Y113.498 E3.19769
G1 X118.916 Y113.398 E3.20781
G1 X118.649 Y113.316 E3.21803
G1 X118.397 Y113.257 E3.2275
G1 X118.139 Y113.21 E3.23709
G1 X117.876 Y113.178 E3.24679
G1 X117.599 Y113.162 E3.25694
G1 X117.344 Y113.164 E3.26627
G1 X117.08 Y113.182 E3.27595
G1 X116.811 Y113.217 E3.28587
G1 X116.562 Y113.265 E3.29515
G1 X116.291 Y113.334 E3.30538
G1 X116.05 Y113.41 E3.31463
G1 X115.816 Y113.501 E3.32381
G1 X115.57 Y113.615 E3.33373
G1 X115.337 Y113.739 E3.34339
G1 X115.111 Y113.879 E3.35312
G1 X114.868 Y114.053 E3.36405
G1 X114.66 Y114.222 E3.37386
G1 X114.461 Y114.405 E3.38375
G1 X114.28 Y114.594 E3.39332
G1 X114.105 Y114.8 E3.40321
G1 X113.944 Y115.017 E3.4131
G1 X113.8 Y115.237 E3.42272
G1 X113.67 Y115.466 E3.43235
G1 X113.547 Y115.713 E3.44245
G1 X113.439 Y115.971 E3.45268
G1 X113.334 Y116.294 E3.46511
G1 X113.243 Y116.665 E3.47908
G1 X113.2 Y116.928 E3.48883
G1 X113.172 Y117.194 E3.49862
G1 X113.162 Y117.466 E3.50857
G1 X113.161 Y117.494 E3.5096
G1 X113.168 Y117.765 E3.51952
G1 X113.198 Y118.051 E3.53004
G1 X113.241 Y118.324 E3.54015
G1 X113.299 Y118.578 E3.54968
G1 X113.374 Y118.84 E3.55965
G1 X113.463 Y119.085 E3.56919
G1 X113.57 Y119.334 E3.57911
G1 X113.689 Y119.57 E3.58878
G1 X113.826 Y119.808 E3.59882
G1 X113.972 Y120.025 E3.60839
G1 X114.134 Y120.236 E3.61812
G1 X114.31 Y120.441 E3.62801
G1 X114.498 Y120.633 E3.63784
G1 X114.692 Y120.806 E3.64735
G1 X114.905 Y120.977 E3.65734
G1 X115.121 Y121.127 E3.66696
G1 X115.351 Y121.267 E3.67682
G1 X115.589 Y121.394 E3.68669
G1 X115.834 Y121.506 E3.69654
G1 X116.096 Y121.605 E3.70679
G1 X116.389 Y121.691 E3.71796
G1 X116.643 Y121.752 E3.72752
G1 X117.068 Y121.816 E3.74324
G1 X117.322 Y121.836 E3.75256
G0 F2100 X117.122 Y121.38
G1 F1200 X117.375 Y121.397 E3.76184
G1 X117.629 Y121.397 E3.77113
G1 X118.068 Y121.357 E3.78726
G1 X118.341 Y121.305 E3.79743
G1 X118.774 Y121.184 E3.81388
G1 X119.013 Y121.092 E3.82325
G1 X119.248 Y120.984 E3.83271
G1 X119.572 Y120.8 E3.84634
G1 X119.834 Y120.621 E3.85795
G1 X120.034 Y120.463 E3.86728
G1 X120.224 Y120.29 E3.87668
G1 X120.408 Y120.095 E3.88649
G1 X120.669 Y119.77 E3.90174
G1 X120.81 Y119.56 E3.91099
G1 X120.936 Y119.338 E3.92033
G1 X121.048 Y119.114 E3.92949
G1 X121.173 Y118.802 E3.94179
G1 X121.274 Y118.472 E3.95442
G1 X121.331 Y118.221 E3.96383
G1 X121.369 Y117.969 E3.97316
G1 X121.398 Y117.521 E3.98958
G1 X121.392 Y117.266 E3.99891
G1 X121.368 Y117.013 E4.00821
G1 X121.296 Y116.624 E4.02268
G1 X121.221 Y116.346 E4.03322
G1 X121.137 Y116.094 E4.04294
G1 X121.037 Y115.863 E4.05215
G1 X120.915 Y115.624 E4.06196
G1 X120.695 Y115.269 E4.07724
G1 X120.539 Y115.059 E4.08682
G1 X120.372 Y114.865 E4.09618
G1 X120.092 Y114.591 E4.11051
G1 X119.862 Y114.4 E4.12145
G1 X119.642 Y114.243 E4.13134
G1 X119.421 Y114.11 E4.14078
G1 X119.193 Y113.99 E4.1502
G1 X118.814 Y113.829 E4.16527
G1 X118.563 Y113.748 E4.17492
G1 X118.315 Y113.69 E4.18424
G1 X117.926 Y113.626 E4.19866
G1 X117.639 Y113.604 E4.20919
G1 X117.388 Y113.602 E4.21837
G1 X117.133 Y113.619 E4.22772
G1 X116.807 Y113.665 E4.23977
G1 X116.54 Y113.723 E4.24977
G1 X116.214 Y113.819 E4.2622
G1 X115.975 Y113.912 E4.27158
G1 X115.713 Y114.034 E4.28216
G1 X115.367 Y114.238 E4.29685
G1 X115.155 Y114.387 E4.30633
G1 X114.954 Y114.549 E4.31578
G1 X114.648 Y114.845 E4.33135
G1 X114.473 Y115.043 E4.34102
G1 X114.31 Y115.261 E4.35098
G1 X114.163 Y115.489 E4.3609
G1 X113.986 Y115.814 E4.37444
G1 X113.868 Y116.083 E4.38519
G1 X113.785 Y116.323 E4.39448
G1 X113.716 Y116.567 E4.40376
G1 X113.647 Y116.92 E4.41692
G1 X113.61 Y117.238 E4.42863
G1 X113.601 Y117.494 E4.438
G1 X113.609 Y117.755 E4.44756
G1 X113.639 Y118.033 E4.45779
G1 X113.716 Y118.433 E4.47269
G1 X113.783 Y118.677 E4.48195
G1 X113.869 Y118.914 E4.49117
G1 X114.049 Y119.31 E4.50709
G1 X114.175 Y119.536 E4.51655
G1 X114.313 Y119.747 E4.52578
G1 X114.469 Y119.952 E4.5352
G1 X114.659 Y120.174 E4.54589
G1 X114.947 Y120.445 E4.56036
G1 X115.146 Y120.608 E4.56977
G1 X115.353 Y120.753 E4.57902
G1 X115.734 Y120.974 E4.59513
G1 X115.961 Y121.082 E4.60433
G1 X116.209 Y121.18 E4.61409
G1 X116.497 Y121.264 E4.62506
G1 X116.858 Y121.343 E4.63858
G1 X117.122 Y121.38 E4.64833
G0 F2100 X116.826 Y120.807
;TYPE:SKIN
G1 F763 X117.195 Y120.854 E4.66974
G1 F757.5 X117.49 Y120.87 E4.68686
G1 X117.814 Y120.854 E4.70566
G1 F765.2 X118.17 Y120.807 E4.72626
G1 F763 X118.417 Y120.741 E4.74097
G1 F754.3 X118.778 Y120.617 E4.76319
G1 F761.9 X119.347 Y120.321 E4.80015
G1 F763 X119.571 Y120.155 E4.81619
G1 F759.7 X119.851 Y119.916 E4.83747
G1 X120.074 Y119.673 E4.85653
G1 F761.9 X120.264 Y119.429 E4.87435
G1 X120.405 Y119.205 E4.8896
G1 F756.4 X120.561 Y118.905 E4.90922
G1 F763 X120.667 Y118.66 E4.92458
G1 F765.2 X120.765 Y118.327 E4.9445
G1 X120.821 Y118.074 E4.95937
G1 F769.7 X120.855 Y117.814 E4.97432
G1 F767.4 X120.869 Y117.328 E5.00214
G1 F765.2 X120.811 Y116.894 E5.02726
G1 F768.6 X120.749 Y116.602 E5.04431
G1 X120.563 Y116.092 E5.07532
G1 F764.1 X120.414 Y115.808 E5.09375
G1 F761.9 X120.19 Y115.475 E5.11688
G1 F759.7 X119.997 Y115.237 E5.13458
G1 F766.3 X119.708 Y114.955 E5.15772
G1 F765.2 X119.379 Y114.704 E5.18146
G1 F768.6 X119.076 Y114.515 E5.20186
G1 F767.4 X118.811 Y114.397 E5.21845
G1 F759.7 X118.419 Y114.254 E5.24257
G1 X118.017 Y114.172 E5.26628
G1 F763 X117.687 Y114.13 E5.28542
G1 F758.6 X117.206 Y114.15 E5.31328
G1 F756.4 X116.807 Y114.201 E5.33662
G1 F759.7 X116.501 Y114.286 E5.35498
G1 F755.4 X116.186 Y114.398 E5.37441
G1 F756.4 X115.638 Y114.692 E5.4105
G1 F759.7 X115.405 Y114.86 E5.4271
G1 F758.6 X115.152 Y115.086 E5.44674
G1 F760.8 X114.919 Y115.329 E5.46616
G1 F763 X114.749 Y115.556 E5.48248
G1 X114.54 Y115.879 E5.50462
G1 F766.3 X114.361 Y116.281 E5.52983
G1 X114.241 Y116.637 E5.55135
G1 F767.4 X114.164 Y117.013 E5.57331
G1 F761.9 X114.138 Y117.279 E5.58871
G1 F755.4 X114.131 Y117.5 E5.60156
G1 F760.8 X114.148 Y117.876 E5.62328
G1 F766.3 X114.234 Y118.313 E5.6488
G1 F767.4 X114.339 Y118.67 E5.67008
G1 F766.3 X114.52 Y119.072 E5.69534
G1 F763 X114.741 Y119.43 E5.71955
G1 F764.1 X114.956 Y119.715 E5.74006
G1 F761.9 X115.296 Y120.048 E5.76749
G1 F760.8 X115.527 Y120.239 E5.78478
G1 F759.7 X115.803 Y120.408 E5.80348
G1 X116.253 Y120.632 E5.83253
G1 X116.559 Y120.732 E5.85114
G1 F763 X116.826 Y120.807 E5.8671
G0 F2100 X116.76 Y121.205
G0 X118.068 Y121.174
G0 X119.012 Y120.894
G0 X119.918 Y120.326
G0 X120.454 Y119.723
G0 X121.085 Y118.69
G0 X120.721 Y118.557
G1 F774.2 X120.637 Y118.557 E5.87186
G1 X120.594 Y118.63 E5.87666
G1 X120.637 Y118.703 E5.88147
G1 X120.721 Y118.703 E5.88623
G1 X120.764 Y118.63 E5.89104
G0 F2100 X121.228 Y118.799
G1 F2700 E0.89104
;MESH:NONMESH
G0 F300 X121.228 Y118.799 Z0.4
G0 F2100 X120.37 Y119.8
G0 X119.717 Y119.599
G0 X118.593 Y119.762
G0 X117.07 Y119.917
G1 F2700 E5.89104
G0 F2100 X117.153 Y119.413
;TIME_ELAPSED:17.104062
;LAYER:1
;TYPE:WALL-OUTER
;MESH:5x5x5 magnet holder v3.stl
G1 F1145.6 X116.839 Y119.326 E5.90187
G1 X116.538 Y119.188 E5.91289
G1 X116.324 Y119.057 E5.92123
G1 X116.049 Y118.801 E5.93373
G1 X115.813 Y118.477 E5.94706
G1 X115.662 Y118.139 E5.95937
G1 X115.583 Y117.812 E5.97056
