;FLAVOR:Marlin
;TIME:3420
;Filament used: 2.96679m
;Layer height: 0.2
;MINX:90.471
;MINY:76.559
;MINZ:0.2
;MAXX:144.528
;MAXY:179.172
;MAXZ:5.6
;Generated with Cura_SteamEngine 5.0.0
M82 ;absolute extrusion mode
START_PRINT EXTRUDER_TEMP=222 BED_TEMP=60
G92 E0
G92 E0
G1 F2700 E-5
;LAYER_COUNT:28
;LAYER:0
M107
G0 F2100 X93.242 Y80.61 Z0.2
G0 X90.474 Y88.602
;TYPE:SKIRT
G1 F2700 E0
G1 F1200 X90.483 Y87.968 E0.0232
G1 X90.536 Y87.028 E0.05764
G1 X90.656 Y86.157 E0.08981
G1 X90.846 Y85.234 E0.12429
G1 X91.113 Y84.331 E0.15874
G1 X91.456 Y83.453 E0.19323
G1 X91.872 Y82.608 E0.22768
G1 X92.549 Y81.523 E0.27447
G1 X92.667 Y81.356 E0.28196
G1 X93.242 Y80.61 E0.31642
G1 X93.879 Y79.916 E0.35088
G1 X94.573 Y79.278 E0.38537
G1 X95.318 Y78.702 E0.41982
G1 X96.11 Y78.19 E0.45433
G1 X96.941 Y77.748 E0.48876
G1 X97.692 Y77.422 E0.51872
G1 X97.953 Y77.32 E0.52897
G1 X98.844 Y77.015 E0.56342
G1 X99.758 Y76.786 E0.5979
G1 X100.688 Y76.636 E0.63236
G1 X101.994 Y76.559 E0.68023
G1 X127.602 Y76.562 E1.61712
G1 X128.386 Y76.573 E1.64581
G1 X129.105 Y76.604 E1.67214
G1 X129.792 Y76.666 E1.69738
G1 X130.219 Y76.718 E1.71312
G1 X131.221 Y76.887 E1.75029
G1 X131.758 Y77.003 E1.77039
G1 X132.731 Y77.26 E1.80721
G1 X133.111 Y77.379 E1.82178
G1 X133.928 Y77.67 E1.85351
G1 X134.394 Y77.857 E1.87188
G1 X135.361 Y78.3 E1.9108
G1 X135.792 Y78.523 E1.92855
G1 X136.606 Y78.989 E1.96287
G1 X137.003 Y79.239 E1.98003
G1 X137.778 Y79.775 E2.01451
G1 X138.15 Y80.056 E2.03156
G1 X138.946 Y80.717 E2.06942
G1 X139.304 Y81.044 E2.08716
G1 X139.962 Y81.698 E2.1211
G1 X140.275 Y82.036 E2.13795
G1 X140.898 Y82.77 E2.17318
G1 X141.183 Y83.137 E2.19018
G1 X141.748 Y83.934 E2.22592
G1 X142.005 Y84.333 E2.24328
G1 X142.484 Y85.151 E2.27796
G1 X142.719 Y85.595 E2.29634
G1 X143.151 Y86.511 E2.3334
G1 X143.313 Y86.899 E2.34878
G1 X143.628 Y87.749 E2.38194
G1 X143.789 Y88.245 E2.40102
G1 X144.057 Y89.219 E2.43798
G1 X144.149 Y89.625 E2.45321
G1 X144.317 Y90.549 E2.48757
G1 X144.39 Y91.074 E2.50696
G1 X144.475 Y91.919 E2.53804
G1 X144.507 Y92.563 E2.56163
G1 X144.528 Y93.513 E2.59639
G1 X144.526 Y94.244 E2.62314
G1 X144.493 Y95.809 E2.68041
G1 X144.455 Y96.514 E2.70624
G1 X144.39 Y97.275 E2.73418
G1 X144.2 Y99.964 E2.83281
G1 X144.096 Y102.445 E2.92366
G1 X144.06 Y104.97 E3.01605
G1 X144.096 Y107.48 E3.10789
G1 X144.203 Y109.98 E3.19944
G1 X144.406 Y112.82 E3.30361
G1 X144.475 Y113.669 E3.33477
G1 X144.507 Y114.28 E3.35715
G1 X144.528 Y115.23 E3.39192
G1 X144.525 Y115.963 E3.41874
G1 X144.491 Y117.549 E3.47678
G1 X144.456 Y118.233 E3.50183
G1 X144.238 Y121.253 E3.61261
G1 X144.135 Y123.722 E3.70302
G1 X144.1 Y126.247 E3.79541
G1 X144.137 Y128.757 E3.88725
G1 X144.246 Y131.292 E3.98008
G1 X144.482 Y134.565 E4.10014
G1 X144.507 Y135.08 E4.119
G1 X144.528 Y136.03 E4.15377
G1 X144.525 Y136.799 E4.1819
G1 X144.492 Y138.342 E4.23837
G1 X144.441 Y139.203 E4.26993
G1 X144.212 Y141.508 E4.35467
G1 X144.032 Y144.018 E4.44674
G1 X143.924 Y146.534 E4.53887
G1 X143.886 Y149.035 E4.63039
G1 X143.92 Y151.569 E4.7231
G1 X144.024 Y154.058 E4.81425
G1 X144.199 Y156.569 E4.90634
G1 X144.418 Y158.787 E4.98788
G1 X144.477 Y159.544 E5.01566
G1 X144.507 Y160.124 E5.03691
G1 X144.528 Y161.074 E5.07167
G1 X144.525 Y161.844 E5.09985
G1 X144.492 Y163.361 E5.15536
G1 X144.413 Y164.466 E5.19589
G1 X144.364 Y164.867 E5.21067
G1 X144.193 Y165.879 E5.24822
G1 X144.078 Y166.408 E5.26803
G1 X143.835 Y167.33 E5.30291
G1 X143.715 Y167.718 E5.31777
G1 X143.413 Y168.572 E5.35091
G1 X143.226 Y169.038 E5.36928
G1 X142.787 Y169.996 E5.40784
G1 X142.565 Y170.426 E5.42554
G1 X142.091 Y171.255 E5.46048
G1 X141.84 Y171.653 E5.47769
G1 X141.308 Y172.422 E5.5119
G1 X141.027 Y172.794 E5.52896
G1 X140.366 Y173.59 E5.56682
G1 X140.039 Y173.948 E5.58456
G1 X139.383 Y174.608 E5.6186
G1 X139.047 Y174.919 E5.63535
G1 X138.322 Y175.535 E5.67016
G1 X137.953 Y175.822 E5.68726
G1 X137.149 Y176.392 E5.72332
G1 X136.75 Y176.649 E5.74068
G1 X136.039 Y177.07 E5.77091
G1 X135.763 Y177.22 E5.78241
G1 X135.103 Y177.55 E5.8094
G1 X134.701 Y177.735 E5.82559
G1 X134.052 Y178.011 E5.8514
G1 X133.321 Y178.276 E5.87984
G1 X132.826 Y178.436 E5.89888
G1 X131.879 Y178.696 E5.93481
G1 X131.471 Y178.789 E5.95012
G1 X130.53 Y178.962 E5.98512
G1 X130.004 Y179.035 E6.00455
G1 X129.168 Y179.119 E6.03529
G1 X128.515 Y179.152 E6.05921
G1 X127.558 Y179.172 E6.09423
G1 X102.457 Y179.168 E7.01258
G1 X101.759 Y179.158 E7.03812
G1 X100.818 Y179.104 E7.0726
G1 X99.886 Y178.971 E7.10705
G1 X98.968 Y178.76 E7.14151
G1 X98.071 Y178.471 E7.17599
G1 X97.202 Y178.107 E7.21046
G1 X96.567 Y177.784 E7.23652
G1 X96.378 Y177.68 E7.24442
G1 X95.572 Y177.191 E7.27891
G1 X94.811 Y176.636 E7.31337
G1 X94.1 Y176.018 E7.34783
G1 X93.444 Y175.342 E7.3823
G1 X92.847 Y174.613 E7.41677
G1 X92.335 Y173.868 E7.44984
G1 X92.194 Y173.644 E7.45953
G1 X91.727 Y172.826 E7.49399
G1 X91.33 Y171.972 E7.52844
G1 X91.007 Y171.086 E7.56294
G1 X90.761 Y170.177 E7.5974
G1 X90.592 Y169.25 E7.63187
G1 X90.49 Y167.927 E7.68042
G1 X90.471 Y166.768 E7.72283
G1 X90.474 Y156.187 E8.10995
G1 X90.493 Y155.155 E8.14771
G1 X90.526 Y154.405 E8.17518
G1 X90.605 Y153.028 E8.22564
G1 X90.677 Y150.549 E8.31637
G1 X90.679 Y148.057 E8.40755
G1 X90.557 Y144.396 E8.54156
G1 X90.496 Y143.133 E8.58782
G1 X90.471 Y141.713 E8.63978
G1 X90.474 Y131.122 E9.02727
G1 X90.489 Y130.228 E9.05998
G1 X90.565 Y127.541 E9.15833
G1 X90.565 Y125.061 E9.24906
G1 X90.526 Y123.841 E9.29372
G1 X90.471 Y120.913 E9.40086
G1 X90.474 Y110.339 E9.78772
G1 X90.493 Y109.329 E9.82468
G1 X90.514 Y108.831 E9.84292
G1 X90.587 Y106.291 E9.93589
G1 X90.587 Y103.793 E10.02728
G1 X90.515 Y101.595 E10.10774
G1 X90.471 Y99.196 E10.19552
G1 X90.474 Y88.602 E10.58312
G0 F2100 X90.914 Y88.609
G1 F1200 X90.923 Y87.975 E10.60631
G1 X90.976 Y87.053 E10.6401
G1 X91.091 Y86.227 E10.67061
G1 X91.277 Y85.323 E10.70438
G1 X91.541 Y84.438 E10.73817
G1 X91.881 Y83.58 E10.77193
G1 X92.294 Y82.754 E10.80572
G1 X92.908 Y81.776 E10.84797
G1 X93.026 Y81.609 E10.85545
G1 X93.591 Y80.879 E10.88922
G1 X94.217 Y80.201 E10.92299
G1 X94.899 Y79.579 E10.95676
G1 X95.633 Y79.018 E10.99056
G1 X96.412 Y78.523 E11.02432
G1 X97.232 Y78.098 E11.05812
G1 X97.852 Y77.832 E11.0828
G1 X98.113 Y77.73 E11.09305
G1 X98.986 Y77.432 E11.1268
G1 X99.883 Y77.21 E11.16061
G1 X100.795 Y77.067 E11.19438
G1 X101.994 Y76.999 E11.23832
G1 X127.596 Y77.002 E12.175
G1 X128.38 Y77.013 E12.20368
G1 X129.079 Y77.044 E12.22928
G1 X129.739 Y77.103 E12.25353
G1 X130.166 Y77.155 E12.26926
G1 X131.128 Y77.317 E12.30496
G1 X131.665 Y77.433 E12.32505
G1 X132.6 Y77.68 E12.36044
G1 X132.98 Y77.799 E12.37501
G1 X133.764 Y78.079 E12.40546
G1 X134.23 Y78.266 E12.42383
G1 X135.159 Y78.691 E12.46121
G1 X135.59 Y78.914 E12.47896
G1 X136.371 Y79.362 E12.51191
G1 X136.768 Y79.612 E12.52907
G1 X137.513 Y80.126 E12.56218
G1 X137.885 Y80.407 E12.57924
G1 X138.649 Y81.042 E12.61559
G1 X139.007 Y81.369 E12.63333
G1 X139.639 Y81.997 E12.66592
G1 X139.952 Y82.335 E12.68278
G1 X140.55 Y83.04 E12.7166
G1 X140.835 Y83.407 E12.7336
G1 X141.378 Y84.173 E12.76795
G1 X141.635 Y84.572 E12.78532
G1 X142.095 Y85.357 E12.8186
G1 X142.33 Y85.801 E12.83698
G1 X142.745 Y86.681 E12.87258
G1 X142.907 Y87.069 E12.88796
G1 X143.209 Y87.885 E12.9198
G1 X143.37 Y88.381 E12.93887
G1 X143.627 Y89.316 E12.97435
G1 X143.719 Y89.722 E12.98958
G1 X143.881 Y90.61 E13.02261
G1 X143.954 Y91.135 E13.042
G1 X144.036 Y91.946 E13.07182
G1 X144.068 Y92.574 E13.09483
G1 X144.088 Y93.513 E13.12919
G1 X144.086 Y94.235 E13.15561
G1 X144.053 Y95.8 E13.21288
G1 X144.017 Y96.477 E13.23768
G1 X143.947 Y97.307 E13.26815
G1 X143.763 Y99.915 E13.36381
G1 X143.656 Y102.455 E13.45682
G1 X143.62 Y104.97 E13.54884
G1 X143.656 Y107.505 E13.6416
G1 X143.763 Y109.994 E13.73274
G1 X143.968 Y112.859 E13.83783
G1 X144.036 Y113.705 E13.86888
G1 X144.068 Y114.291 E13.89035
G1 X144.088 Y115.23 E13.92472
G1 X144.086 Y115.953 E13.95117
G1 X144.052 Y117.539 E14.00921
G1 X144.017 Y118.196 E14.03328
G1 X143.8 Y121.203 E14.14358
G1 X143.695 Y123.734 E14.23626
G1 X143.66 Y126.247 E14.32821
G1 X143.697 Y128.783 E14.421
G1 X143.805 Y131.296 E14.51303
G1 X144.043 Y134.597 E14.63411
G1 X144.068 Y135.091 E14.65221
G1 X144.088 Y136.03 E14.68657
G1 X144.086 Y136.79 E14.71438
G1 X144.053 Y138.333 E14.77084
G1 X144.003 Y139.159 E14.80112
G1 X143.773 Y141.469 E14.88605
G1 X143.592 Y144.001 E14.97892
G1 X143.484 Y146.509 E15.07076
G1 X143.446 Y149.035 E15.16319
G1 X143.48 Y151.557 E15.25547
G1 X143.586 Y154.108 E15.34888
G1 X143.761 Y156.61 E15.44064
G1 X143.98 Y158.822 E15.52197
G1 X144.039 Y159.579 E15.54975
G1 X144.068 Y160.135 E15.57012
G1 X144.088 Y161.074 E15.60448
G1 X144.085 Y161.835 E15.63232
G1 X144.052 Y163.352 E15.68784
G1 X143.976 Y164.413 E15.72675
G1 X143.927 Y164.814 E15.74153
G1 X143.763 Y165.786 E15.7776
G1 X143.648 Y166.315 E15.7974
G1 X143.415 Y167.2 E15.83089
G1 X143.295 Y167.588 E15.84575
G1 X143.004 Y168.408 E15.87758
G1 X142.817 Y168.874 E15.89595
G1 X142.396 Y169.794 E15.93297
G1 X142.174 Y170.224 E15.95067
G1 X141.719 Y171.02 E15.98422
G1 X141.468 Y171.418 E16.00143
G1 X140.957 Y172.157 E16.0343
G1 X140.676 Y172.529 E16.05136
G1 X140.041 Y173.293 E16.0877
G1 X139.714 Y173.651 E16.10544
G1 X139.084 Y174.285 E16.13814
G1 X138.748 Y174.596 E16.15489
G1 X138.052 Y175.187 E16.1883
G1 X137.683 Y175.474 E16.2054
G1 X136.91 Y176.022 E16.24007
G1 X136.511 Y176.279 E16.25743
G1 X135.829 Y176.683 E16.28644
G1 X135.553 Y176.833 E16.29793
G1 X134.919 Y177.151 E16.32388
G1 X134.517 Y177.336 E16.34007
G1 X133.888 Y177.603 E16.36507
G1 X133.186 Y177.857 E16.39238
G1 X132.691 Y178.017 E16.41141
G1 X131.781 Y178.267 E16.44594
G1 X131.373 Y178.36 E16.46125
G1 X130.469 Y178.526 E16.49488
G1 X129.943 Y178.599 E16.51431
G1 X129.14 Y178.679 E16.54383
G1 X128.504 Y178.712 E16.56713
G1 X127.558 Y178.732 E16.60175
G1 X102.463 Y178.728 E17.51988
G1 X101.765 Y178.718 E17.54542
G1 X100.844 Y178.665 E17.57917
G1 X99.93 Y178.532 E17.61296
G1 X99.031 Y178.321 E17.64675
G1 X98.154 Y178.032 E17.68053
G1 X97.305 Y177.669 E17.71431
G1 X96.59 Y177.294 E17.74385
G1 X95.801 Y176.815 E17.77762
G1 X95.057 Y176.269 E17.81138
G1 X94.362 Y175.66 E17.84519
G1 X93.723 Y174.994 E17.87896
G1 X93.144 Y174.275 E17.91273
G1 X92.707 Y173.634 E17.94112
G1 X92.566 Y173.41 E17.9508
G1 X92.109 Y172.608 E17.98457
G1 X91.723 Y171.769 E18.01836
G1 X91.41 Y170.901 E18.05212
G1 X91.174 Y170.008 E18.08591
G1 X91.016 Y169.098 E18.1197
G1 X90.93 Y167.92 E18.16292
G1 X90.911 Y166.768 E18.20507
G1 X90.914 Y156.193 E18.59197
G1 X90.933 Y155.174 E18.62926
G1 X90.966 Y154.43 E18.6565
G1 X91.042 Y153.1 E18.70524
G1 X91.117 Y150.527 E18.79942
G1 X91.119 Y148.043 E18.8903
G1 X90.998 Y144.409 E19.02333
G1 X90.936 Y143.124 E19.07039
G1 X90.911 Y141.713 E19.12202
G1 X90.914 Y131.129 E19.50925
G1 X90.929 Y130.241 E19.54175
G1 X91.005 Y127.554 E19.64009
G1 X91.005 Y125.046 E19.73185
G1 X90.966 Y123.833 E19.77625
G1 X90.911 Y120.913 E19.8831
G1 X90.914 Y110.345 E20.26975
G1 X90.933 Y109.347 E20.30626
G1 X90.951 Y108.931 E20.3215
G1 X91.027 Y106.269 E20.41893
G1 X91.027 Y103.779 E20.51003
G1 X90.955 Y101.586 E20.59031
G1 X90.911 Y99.196 E20.67776
G1 X90.914 Y88.609 E21.0651
G0 F2100 X91.354 Y88.615
G1 F1200 X91.363 Y87.981 E21.0883
G1 X91.416 Y87.078 E21.12139
G1 X91.525 Y86.297 E21.15024
G1 X91.708 Y85.412 E21.18331
G1 X91.97 Y84.547 E21.21637
G1 X92.306 Y83.708 E21.24944
G1 X92.715 Y82.902 E21.28251
G1 X93.267 Y82.03 E21.32027
G1 X93.385 Y81.863 E21.32775
G1 X93.939 Y81.149 E21.36081
G1 X94.554 Y80.486 E21.3939
G1 X95.225 Y79.88 E21.42697
G1 X95.947 Y79.336 E21.46005
G1 X96.714 Y78.858 E21.49311
G1 X97.52 Y78.449 E21.52618
G1 X98.273 Y78.14 E21.55596
G1 X99.129 Y77.849 E21.58904
G1 X100.007 Y77.634 E21.62211
G1 X100.9 Y77.498 E21.65516
G1 X101.994 Y77.439 E21.69524
G1 X127.589 Y77.442 E22.63166
G1 X128.373 Y77.453 E22.66035
G1 X129.053 Y77.483 E22.68525
G1 X129.685 Y77.54 E22.70847
G1 X130.112 Y77.592 E22.72421
G1 X131.035 Y77.747 E22.75845
G1 X131.572 Y77.863 E22.77855
G1 X132.468 Y78.1 E22.81246
G1 X132.848 Y78.219 E22.82703
G1 X133.6 Y78.487 E22.85623
G1 X134.066 Y78.674 E22.8746
G1 X134.956 Y79.082 E22.91042
G1 X135.387 Y79.305 E22.92818
G1 X136.137 Y79.734 E22.95979
G1 X136.534 Y79.984 E22.97695
G1 X137.248 Y80.477 E23.0087
G1 X137.62 Y80.758 E23.02576
G1 X138.353 Y81.367 E23.06062
G1 X138.711 Y81.694 E23.07836
G1 X139.317 Y82.296 E23.10961
G1 X139.63 Y82.634 E23.12647
G1 X140.203 Y83.31 E23.15889
G1 X140.488 Y83.677 E23.17589
G1 X141.008 Y84.411 E23.2088
G1 X141.265 Y84.81 E23.22616
G1 X141.706 Y85.563 E23.25809
G1 X141.941 Y86.007 E23.27647
G1 X142.339 Y86.85 E23.31058
G1 X142.501 Y87.238 E23.32596
G1 X142.791 Y88.021 E23.35651
G1 X142.952 Y88.517 E23.37559
G1 X143.198 Y89.413 E23.40958
G1 X143.29 Y89.819 E23.42481
G1 X143.446 Y90.67 E23.45646
G1 X143.519 Y91.195 E23.47586
G1 X143.597 Y91.973 E23.50446
G1 X143.628 Y92.586 E23.52692
G1 X143.648 Y93.513 E23.56084
G1 X143.646 Y94.225 E23.58689
G1 X143.613 Y95.79 E23.64416
G1 X143.578 Y96.439 E23.66794
G1 X143.512 Y97.213 E23.69636
G1 X143.323 Y99.9 E23.79491
G1 X143.216 Y102.431 E23.88759
G1 X143.18 Y104.97 E23.9805
G1 X143.216 Y107.496 E24.07292
G1 X143.325 Y110.046 E24.1663
G1 X143.522 Y112.799 E24.26728
G1 X143.598 Y113.74 E24.30182
G1 X143.628 Y114.303 E24.32245
G1 X143.648 Y115.23 E24.35637
G1 X143.646 Y115.944 E24.38249
G1 X143.612 Y117.53 E24.44053
G1 X143.579 Y118.16 E24.46361
G1 X143.36 Y121.189 E24.57472
G1 X143.255 Y123.708 E24.66696
G1 X143.22 Y126.248 E24.7599
G1 X143.257 Y128.808 E24.85357
G1 X143.364 Y131.288 E24.94439
G1 X143.605 Y134.628 E25.0669
G1 X143.628 Y135.103 E25.0843
G1 X143.648 Y136.03 E25.11823
G1 X143.646 Y136.781 E25.1457
G1 X143.613 Y138.324 E25.20217
G1 X143.565 Y139.116 E25.2312
G1 X143.335 Y141.431 E25.31631
G1 X143.152 Y143.987 E25.41006
G1 X143.044 Y146.483 E25.50147
G1 X143.006 Y149.035 E25.59485
G1 X143.04 Y151.582 E25.68804
G1 X143.146 Y154.121 E25.78101
G1 X143.323 Y156.651 E25.8738
G1 X143.541 Y158.856 E25.95487
G1 X143.6 Y159.613 E25.98265
G1 X143.628 Y160.147 E26.00221
G1 X143.648 Y161.074 E26.03614
G1 X143.646 Y161.825 E26.06361
G1 X143.613 Y163.342 E26.11913
G1 X143.54 Y164.36 E26.15647
G1 X143.491 Y164.761 E26.17125
G1 X143.333 Y165.692 E26.20579
G1 X143.218 Y166.221 E26.2256
G1 X142.995 Y167.07 E26.25772
G1 X142.875 Y167.458 E26.27258
G1 X142.596 Y168.244 E26.30309
G1 X142.409 Y168.71 E26.32146
G1 X142.005 Y169.592 E26.35695
G1 X141.783 Y170.022 E26.37466
G1 X141.347 Y170.786 E26.40684
G1 X141.096 Y171.184 E26.42406
G1 X140.606 Y171.892 E26.45556
G1 X140.325 Y172.264 E26.47261
G1 X139.716 Y172.997 E26.50748
G1 X139.389 Y173.355 E26.52522
G1 X138.785 Y173.962 E26.55655
G1 X138.449 Y174.273 E26.5733
G1 X137.781 Y174.84 E26.60536
G1 X137.412 Y175.127 E26.62246
G1 X136.672 Y175.652 E26.65565
G1 X136.273 Y175.909 E26.67302
G1 X135.619 Y176.297 E26.70084
G1 X135.343 Y176.447 E26.71233
G1 X134.736 Y176.751 E26.73717
G1 X134.334 Y176.936 E26.75336
G1 X133.724 Y177.195 E26.77761
G1 X133.05 Y177.439 E26.80383
G1 X132.555 Y177.599 E26.82286
G1 X131.683 Y177.838 E26.85594
G1 X131.275 Y177.931 E26.87125
G1 X130.409 Y178.09 E26.90347
G1 X129.883 Y178.163 E26.9229
G1 X129.113 Y178.24 E26.95121
G1 X128.493 Y178.272 E26.97392
G1 X127.558 Y178.292 E27.00814
G1 X102.47 Y178.288 E27.92601
G1 X101.772 Y178.278 E27.95155
G1 X100.869 Y178.225 E27.98464
G1 X99.975 Y178.093 E28.01771
G1 X99.096 Y177.882 E28.05078
G1 X98.239 Y177.594 E28.08386
G1 X97.411 Y177.231 E28.11693
G1 X96.802 Y176.909 E28.14214
G1 X96.03 Y176.439 E28.1752
G1 X95.303 Y175.902 E28.20827
G1 X94.626 Y175.303 E28.24134
G1 X94.004 Y174.646 E28.27444
G1 X93.443 Y173.938 E28.30749
G1 X93.08 Y173.399 E28.33127
G1 X92.939 Y173.175 E28.34095
G1 X92.492 Y172.39 E28.374
G1 X92.116 Y171.568 E28.40707
G1 X91.814 Y170.716 E28.44014
G1 X91.588 Y169.84 E28.47324
G1 X91.441 Y168.948 E28.50632
G1 X91.37 Y167.912 E28.54431
G1 X91.351 Y166.768 E28.58617
G1 X91.354 Y156.199 E28.97285
G1 X91.372 Y155.192 E29.0097
G1 X91.405 Y154.455 E29.03669
G1 X91.483 Y153.102 E29.08627
G1 X91.557 Y150.54 E29.18005
G1 X91.559 Y148.029 E29.27191
G1 X91.437 Y144.369 E29.40589
G1 X91.376 Y143.116 E29.45179
