;FLAVOR:Marlin
;TIME:4970
;Filament used: 2.48897m
;Layer height: 0.2
;MINX:5.692
;MINY:30.25
;MINZ:0.2
;MAXX:93.305
;MAXY:128.732
;MAXZ:12.6
;Generated with Cura_SteamEngine 4.7.1
M140 S60
M105
M190 S60
M104 S220
M105
M109 S220
M82 ;absolute extrusion mode
; Ender 3 Custom Start G-code
G92 E0 ; Reset Extruder
G28 ; Home all axes
G1 Z2.0 F3000 ; Move Z Axis up little to prevent scratching of Heat Bed
G1 X0.1 Y20 Z0.3 F5000.0 ; Move to start position
G1 X0.1 Y200.0 Z0.3 F1500.0 E15 ; Draw the first line
G1 X0.4 Y200.0 Z0.3 F5000.0 ; Move to side a little
G1 X0.4 Y20 Z0.3 F1500.0 E30 ; Draw the second line
G92 E0 ; Reset Extruder
G1 Z2.0 F3000 ; Move Z Axis up little to prevent scratching of Heat Bed
G1 X5 Y20 Z0.3 F5000.0 ; Move over to prevent blob squish
G92 E0
G92 E0
G1 F2700 E-5
;LAYER_COUNT:63
;LAYER:0
M107
G0 F6000 X31.396 Y38.396 Z0.2
;TYPE:SKIRT
G1 F2700 E0
G1 F720 X31.765 Y38.093 E0.01588
G1 X32.048 Y37.868 E0.02791
G1 X32.857 Y37.247 E0.06183
G1 X33.158 Y37.024 E0.07429
G1 X33.442 Y36.821 E0.0859
G1 X33.701 Y36.642 E0.09637
G1 X34.339 Y36.213 E0.12194
G1 X34.623 Y36.028 E0.13321
G1 X34.833 Y35.896 E0.14146
G1 X35.146 Y35.707 E0.15362
G1 X36.302 Y35.034 E0.19811
G1 X36.607 Y34.865 E0.20971
G1 X37.278 Y34.502 E0.23508
G1 X37.551 Y34.359 E0.24534
G1 X38.119 Y34.072 E0.2665
G1 X38.764 Y33.758 E0.29036
G1 X39.269 Y33.521 E0.30892
G1 X39.565 Y33.387 E0.31972
G1 X40.418 Y33.017 E0.35065
G1 X40.751 Y32.877 E0.36266
G1 X41.202 Y32.696 E0.37883
G1 X41.569 Y32.557 E0.39188
G1 X42.863 Y32.095 E0.43758
G1 X43.24 Y31.969 E0.4508
G1 X43.824 Y31.784 E0.47117
G1 X44.076 Y31.707 E0.47994
G1 X44.365 Y31.623 E0.48995
G1 X44.704 Y31.53 E0.50164
G1 X45.466 Y31.336 E0.52779
G1 X45.862 Y31.241 E0.54134
G1 X46.224 Y31.161 E0.55367
G1 X47.476 Y30.905 E0.59617
G1 X47.896 Y30.828 E0.61037
G1 X48.2 Y30.778 E0.62062
G1 X48.425 Y30.737 E0.62823
G1 X48.798 Y30.676 E0.6408
G1 X49.117 Y30.631 E0.65151
G1 X49.682 Y30.56 E0.67045
G1 X50.036 Y30.519 E0.6823
G1 X50.253 Y30.496 E0.68956
G1 X50.733 Y30.45 E0.7056
G1 X50.929 Y30.433 E0.71214
G1 X52.304 Y30.326 E0.75801
G1 X52.668 Y30.304 E0.77014
G1 X53.365 Y30.273 E0.79335
G1 X53.687 Y30.263 E0.80406
G1 X54.479 Y30.251 E0.83041
G1 X56.354 Y30.25 E0.89277
G1 X56.513 Y30.251 E0.89806
G1 X57.068 Y30.259 E0.91652
G1 X57.412 Y30.27 E0.92797
G1 X58.351 Y30.313 E0.95923
G1 X58.695 Y30.334 E0.9707
G1 X59.55 Y30.4 E0.99922
G1 X59.867 Y30.429 E1.00981
G1 X60.29 Y30.474 E1.02395
G1 X60.509 Y30.499 E1.03128
G1 X61.282 Y30.597 E1.0572
G1 X61.591 Y30.641 E1.06758
G1 X62.169 Y30.731 E1.08704
G1 X62.449 Y30.778 E1.09648
G1 X63.146 Y30.905 E1.12004
G1 X63.474 Y30.97 E1.13117
G1 X64.096 Y31.103 E1.15232
G1 X64.388 Y31.17 E1.16229
G1 X64.953 Y31.307 E1.18162
G1 X65.264 Y31.387 E1.1923
G1 X65.984 Y31.584 E1.21713
G1 X66.299 Y31.675 E1.22804
G1 X66.969 Y31.88 E1.25134
G1 X67.23 Y31.963 E1.26045
G1 X67.77 Y32.143 E1.27938
G1 X68.302 Y32.328 E1.29812
G1 X69.443 Y32.72 E1.33824
G1 X70.139 Y32.967 E1.36281
G1 X71.026 Y33.326 E1.39463
G1 X71.506 Y33.545 E1.41218
G1 X71.808 Y33.689 E1.42331
G1 X72.193 Y33.879 E1.43759
G1 X72.491 Y34.031 E1.44871
G1 X72.632 Y34.106 E1.45403
G1 X73.307 Y34.482 E1.47972
G1 X74.048 Y34.912 E1.50822
G1 X75.241 Y35.624 E1.55443
G1 X76.144 Y36.18 E1.5897
G1 X76.938 Y36.685 E1.621
G1 X77.137 Y36.814 E1.62888
G1 X77.682 Y37.182 E1.65076
G1 X77.834 Y37.287 E1.6569
G1 X78.272 Y37.595 E1.67471
G1 X78.804 Y37.993 E1.69681
G1 X79.629 Y38.651 E1.73191
G1 X79.926 Y38.897 E1.74473
G1 X80.372 Y39.279 E1.76426
G1 X80.591 Y39.471 E1.77395
G1 X81.22 Y40.041 E1.80218
G1 X81.449 Y40.257 E1.81265
G1 X82.065 Y40.848 E1.84105
G1 X82.245 Y41.025 E1.84944
G1 X82.571 Y41.353 E1.86482
G1 X82.938 Y41.733 E1.8824
G1 X83.683 Y42.524 E1.91854
G1 X83.792 Y42.643 E1.9239
G1 X83.939 Y42.807 E1.93123
G1 X84.35 Y43.276 E1.95197
G1 X84.93 Y43.952 E1.9816
G1 X85.088 Y44.14 E1.98976
G1 X85.321 Y44.425 E2.00201
G1 X85.555 Y44.717 E2.01445
G1 X86.214 Y45.564 E2.05015
G1 X86.372 Y45.772 E2.05883
G1 X86.693 Y46.207 E2.07682
G1 X86.921 Y46.523 E2.08978
G1 X87.371 Y47.165 E2.11585
G1 X87.541 Y47.415 E2.12591
G1 X87.837 Y47.863 E2.14377
G1 X88.074 Y48.233 E2.15838
G1 X88.364 Y48.698 E2.17661
G1 X88.544 Y48.998 E2.18824
G1 X88.999 Y49.782 E2.21839
G1 X89.163 Y50.074 E2.22953
G1 X89.384 Y50.483 E2.24499
G1 X89.542 Y50.788 E2.25642
G1 X89.943 Y51.589 E2.28621
G1 X90.093 Y51.9 E2.2977
G1 X90.463 Y52.701 E2.32704
G1 X90.574 Y52.949 E2.33608
G1 X90.705 Y53.252 E2.34706
G1 X90.803 Y53.486 E2.3555
G1 X91.128 Y54.288 E2.38428
G1 X91.214 Y54.507 E2.3921
G1 X91.378 Y54.938 E2.40744
G1 X91.481 Y55.222 E2.41749
G1 X91.713 Y55.886 E2.44088
G1 X91.805 Y56.16 E2.4505
G1 X91.967 Y56.666 E2.46817
G1 X92.057 Y56.961 E2.47843
G1 X92.222 Y57.531 E2.49816
G1 X92.306 Y57.839 E2.50878
G1 X92.477 Y58.501 E2.53152
G1 X92.558 Y58.833 E2.54289
G1 X92.643 Y59.21 E2.55574
G1 X92.71 Y59.531 E2.56665
G1 X92.9 Y60.509 E2.59979
G1 X92.977 Y60.954 E2.61481
G1 X93.027 Y61.283 E2.62587
G1 X93.071 Y61.604 E2.63665
G1 X93.132 Y62.104 E2.6534
G1 X93.167 Y62.436 E2.66451
G1 X93.187 Y62.655 E2.67182
G1 X93.214 Y63.007 E2.68356
G1 X93.28 Y64.125 E2.72081
G1 X93.297 Y64.555 E2.73513
G1 X93.303 Y64.858 E2.74521
G1 X93.305 Y65.168 E2.75552
G1 X93.299 Y65.517 E2.76713
G1 X93.286 Y65.926 E2.78074
G1 X93.274 Y66.198 E2.78979
G1 X93.255 Y66.534 E2.80099
G1 X93.227 Y66.922 E2.81392
G1 X93.05 Y68.159 E2.85549
G1 X92.936 Y68.724 E2.87466
G1 X92.846 Y69.13 E2.88849
G1 X92.782 Y69.395 E2.89756
G1 X92.622 Y69.983 E2.91782
G1 X92.407 Y70.697 E2.94262
G1 X91.67 Y73.269 E3.03161
G1 X91.048 Y75.703 E3.11517
G1 X90.492 Y78.16 E3.19896
G1 X90.011 Y80.613 E3.2821
G1 X89.594 Y83.109 E3.36626
G1 X89.249 Y85.604 E3.45004
G1 X88.973 Y88.128 E3.53449
G1 X88.775 Y90.574 E3.61611
G1 X88.605 Y94.167 E3.73574
G1 X88.6 Y94.357 E3.74207
G1 X88.569 Y94.935 E3.76132
G1 X88.557 Y95.086 E3.76636
G1 X88.492 Y95.695 E3.78673
G1 X88.418 Y96.24 E3.80502
G1 X88.229 Y97.264 E3.83965
G1 X88.211 Y97.341 E3.84228
G1 X88.108 Y97.747 E3.85622
G1 X87.998 Y98.148 E3.87005
G1 X87.552 Y99.449 E3.91579
G1 X87.196 Y100.308 E3.94672
G1 X87.059 Y100.624 E3.95817
G1 X86.882 Y101.016 E3.97248
G1 X86.254 Y102.208 E4.01729
G1 X85.744 Y103.046 E4.04992
G1 X85.528 Y103.386 E4.06331
G1 X85.266 Y103.783 E4.07913
G1 X84.716 Y104.543 E4.11034
G1 X84.337 Y104.998 E4.13003
G1 X83.943 Y105.445 E4.14985
G1 X83.748 Y105.66 E4.1595
G1 X83.3 Y106.142 E4.18139
G1 X82.425 Y106.985 E4.2218
G1 X82.215 Y107.166 E4.23102
G1 X81.934 Y107.4 E4.24319
G1 X81.687 Y107.599 E4.25374
G1 X81.201 Y107.969 E4.27405
G1 X80.648 Y108.366 E4.29669
G1 X79.554 Y109.128 E4.34104
G1 X77.525 Y110.624 E4.42488
G1 X75.554 Y112.167 E4.50814
G1 X73.602 Y113.784 E4.59244
G1 X71.71 Y115.446 E4.6762
G1 X69.85 Y117.174 E4.76064
G1 X68.125 Y118.869 E4.84108
G1 X65.493 Y121.639 E4.96817
G1 X65.187 Y121.947 E4.98261
G1 X64.915 Y122.21 E4.99519
G1 X64.606 Y122.5 E5.00929
G1 X64.014 Y123.04 E5.03594
G1 X63.561 Y123.442 E5.05608
G1 X62.82 Y124.044 E5.08784
G1 X62.046 Y124.619 E5.11991
G1 X61.759 Y124.825 E5.13166
G1 X61.226 Y125.195 E5.15324
G1 X60.124 Y125.868 E5.19618
G1 X59.341 Y126.285 E5.22569
G1 X59.032 Y126.443 E5.23723
G1 X58.417 Y126.746 E5.26004
G1 X57.279 Y127.229 E5.30115
G1 X56.484 Y127.515 E5.32925
G1 X56.163 Y127.624 E5.34053
G1 X55.53 Y127.832 E5.36269
G1 X54.322 Y128.155 E5.40428
G1 X53.533 Y128.318 E5.43108
G1 X53.19 Y128.383 E5.44269
G1 X52.574 Y128.49 E5.46348
G1 X51.319 Y128.634 E5.5055
G1 X50.462 Y128.683 E5.53405
G1 X49.854 Y128.71 E5.55429
G1 X49.217 Y128.728 E5.57549
G1 X48.865 Y128.732 E5.58719
G1 X47.668 Y128.725 E5.62701
G1 X47.278 Y128.716 E5.63998
G1 X46.649 Y128.69 E5.66092
G1 X46.343 Y128.673 E5.67111
G1 X45.983 Y128.644 E5.68313
G1 X45.351 Y128.583 E5.70425
G1 X45.045 Y128.549 E5.71449
G1 X44.316 Y128.458 E5.73892
G1 X43.725 Y128.368 E5.7588
G1 X43.448 Y128.318 E5.76817
G1 X43.108 Y128.251 E5.77969
G1 X42.588 Y128.139 E5.79738
G1 X41.979 Y127.998 E5.81817
G1 X41.044 Y127.737 E5.85046
G1 X40.236 Y127.473 E5.87873
G1 X39.902 Y127.358 E5.89048
G1 X39.458 Y127.197 E5.90619
G1 X38.57 Y126.831 E5.93814
G1 X38.299 Y126.705 E5.94808
G1 X38.018 Y126.569 E5.95846
G1 X37.754 Y126.437 E5.96828
G1 X37.087 Y126.091 E5.99327
G1 X36.225 Y125.591 E6.02641
G1 X35.454 Y125.096 E6.05689
G1 X35.119 Y124.872 E6.07029
G1 X34.755 Y124.619 E6.08503
G1 X34.453 Y124.402 E6.0974
G1 X34.382 Y124.349 E6.10035
G1 X33.976 Y124.03 E6.11752
G1 X33.509 Y123.646 E6.13763
G1 X33.28 Y123.454 E6.14757
G1 X31.656 Y122.043 E6.21913
G1 X31.658 Y122.04 E6.21925
G1 X31.548 Y121.95 E6.22397
G1 X31.347 Y121.771 E6.23292
G1 X29.435 Y120.167 E6.31593
G1 X27.444 Y118.59 E6.40041
G1 X25.433 Y117.088 E6.48389
G1 X23.4 Y115.657 E6.56658
G1 X21.276 Y114.251 E6.6513
G1 X19.168 Y112.939 E6.73388
G1 X16.183 Y111.215 E6.84853
G1 X15.177 Y110.658 E6.88678
G1 X14.893 Y110.495 E6.89767
G1 X14.625 Y110.336 E6.90804
G1 X14.408 Y110.204 E6.91648
G1 X14.1 Y110.009 E6.92861
G1 X13.496 Y109.615 E6.95259
G1 X12.727 Y109.065 E6.98404
G1 X12.635 Y108.993 E6.98793
G1 X12.431 Y108.829 E6.99663
G1 X12.117 Y108.571 E7.01015
G1 X11.896 Y108.385 E7.01976
G1 X11.454 Y108.002 E7.03921
G1 X10.741 Y107.325 E7.07191
G1 X10.116 Y106.677 E7.10185
G1 X9.864 Y106.407 E7.11414
G1 X9.653 Y106.173 E7.12462
G1 X9.055 Y105.451 E7.1558
G1 X8.667 Y104.905 E7.17808
G1 X8.308 Y104.366 E7.19962
G1 X8.117 Y104.069 E7.21136
G1 X7.973 Y103.837 E7.22044
G1 X7.513 Y103.02 E7.25163
G1 X7.005 Y101.861 E7.29372
G1 X6.791 Y101.284 E7.31418
G1 X6.665 Y100.923 E7.3269
G1 X6.593 Y100.706 E7.33451
G1 X6.327 Y99.767 E7.36697
G1 X6.144 Y98.991 E7.39348
G1 X6.068 Y98.643 E7.40533
G1 X6.025 Y98.43 E7.41256
G1 X5.921 Y97.831 E7.43278
G1 X5.892 Y97.631 E7.4395
G1 X5.851 Y97.322 E7.44987
G1 X5.823 Y97.081 E7.45794
G1 X5.794 Y96.795 E7.4675
G1 X5.76 Y96.416 E7.48016
G1 X5.72 Y95.717 E7.50344
G1 X5.696 Y94.788 E7.53435
G1 X5.692 Y94.416 E7.54672
G1 X5.694 Y94.167 E7.55501
G1 X5.717 Y93.54 E7.57588
G1 X5.734 Y93.279 E7.58457
G1 X5.778 Y92.783 E7.60114
G1 X5.854 Y92.097 E7.62409
G1 X5.916 Y91.627 E7.63986
G1 X5.987 Y91.215 E7.65377
G1 X6.06 Y90.832 E7.66673
G1 X6.146 Y90.421 E7.6807
G1 X6.226 Y90.074 E7.69254
G1 X6.474 Y89.176 E7.72353
G1 X6.714 Y88.43 E7.74959
G1 X7.046 Y87.532 E7.78144
G1 X7.179 Y87.216 E7.79284
G1 X7.572 Y86.382 E7.8235
G1 X7.639 Y86.254 E7.82831
G1 X7.781 Y85.991 E7.83825
G1 X8.358 Y84.958 E7.8776
G1 X9.592 Y82.676 E7.96389
G1 X10.717 Y80.442 E8.04708
G1 X11.797 Y78.142 E8.1316
G1 X12.8 Y75.835 E8.21527
G1 X13.723 Y73.541 E8.29751
G1 X14.613 Y71.133 E8.38289
G1 X15.411 Y68.769 E8.46588
G1 X16.153 Y66.347 E8.55013
G1 X16.817 Y63.938 E8.63324
G1 X17.411 Y61.524 E8.71593
G1 X17.665 Y60.385 E8.75474
G1 X17.898 Y59.367 E8.78948
G1 X17.97 Y59.071 E8.79961
G1 X18.113 Y58.521 E8.81851
G1 X18.425 Y57.355 E8.85866
G1 X18.474 Y57.178 E8.86476
G1 X18.663 Y56.516 E8.88766
G1 X18.948 Y55.652 E8.91792
G1 X19.225 Y54.918 E8.94401
G1 X19.353 Y54.595 E8.95557
G1 X19.608 Y53.979 E8.97775
G1 X19.73 Y53.696 E8.988
G1 X20.052 Y52.978 E9.01417
G1 X20.259 Y52.531 E9.03055
G1 X20.341 Y52.358 E9.03692
G1 X21.098 Y50.795 E9.09468
G1 X21.434 Y50.128 E9.11952
G1 X21.696 Y49.627 E9.13833
G1 X21.863 Y49.32 E9.14995
G1 X22.281 Y48.579 E9.17825
G1 X22.44 Y48.306 E9.18875
G1 X22.716 Y47.848 E9.20654
G1 X23.115 Y47.234 E9.23089
G1 X23.221 Y47.082 E9.23706
G1 X23.614 Y46.537 E9.25941
G1 X24.053 Y45.945 E9.28392
G1 X24.857 Y44.897 E9.32785
G1 X25.054 Y44.663 E9.33803
G1 X25.048 Y44.658 E9.33828
G1 X25.338 Y44.301 E9.35358
G1 X25.567 Y44.028 E9.36543
G1 X26.065 Y43.454 E9.39071
G1 X26.266 Y43.229 E9.40074
G1 X26.531 Y42.94 E9.41379
G1 X26.788 Y42.669 E9.42621
G1 X27.577 Y41.865 E9.46367
G1 X27.73 Y41.713 E9.47085
G1 X28.572 Y40.888 E9.51005
G1 X29.223 Y40.267 E9.53998
G1 X29.429 Y40.075 E9.54934
G1 X29.585 Y39.934 E9.55634
G1 X29.79 Y39.754 E9.56541
G1 X30.036 Y39.543 E9.57619
G1 X31.396 Y38.396 E9.63536
G0 F6000 X31.539 Y38.797
G1 F720 X32.019 Y38.402 E9.65604
G1 X32.292 Y38.186 E9.66762
G1 X33.101 Y37.565 E9.70154
G1 X33.391 Y37.349 E9.71357
G1 X33.675 Y37.146 E9.72518
G1 X33.924 Y36.974 E9.73524
G1 X34.562 Y36.545 E9.76081
G1 X34.836 Y36.367 E9.77168
G1 X35.046 Y36.235 E9.77993
G1 X35.347 Y36.052 E9.79165
G1 X36.333 Y35.477 E9.82961
G1 X36.797 Y35.217 E9.8473
G1 X37.468 Y34.854 E9.87268
G1 X37.732 Y34.716 E9.88258
G1 X38.3 Y34.429 E9.90375
G1 X38.934 Y34.12 E9.92721
G1 X39.439 Y33.883 E9.94576
G1 X39.724 Y33.754 E9.95617
G1 X40.711 Y33.327 E9.99194
G1 X40.905 Y33.246 E9.99893
G1 X41.35 Y33.068 E10.01487
G1 X41.704 Y32.934 E10.02746
G1 X42.998 Y32.472 E10.07316
G1 X43.361 Y32.35 E10.08589
G1 X43.945 Y32.165 E10.10627
G1 X44.187 Y32.091 E10.11469
G1 X44.476 Y32.007 E10.1247
G1 X44.803 Y31.918 E10.13597
G1 X45.559 Y31.725 E10.16192
G1 X45.955 Y31.63 E10.17546
G1 X46.305 Y31.553 E10.18738
G1 X47.557 Y31.297 E10.22989
G1 X47.961 Y31.222 E10.24355
G1 X48.331 Y31.161 E10.25603
G1 X48.497 Y31.131 E10.26164
G1 X48.856 Y31.072 E10.27374
G1 X49.168 Y31.028 E10.28422
G1 X49.728 Y30.957 E10.30299
G1 X50.082 Y30.916 E10.31484
G1 X50.291 Y30.894 E10.32183
G1 X50.771 Y30.848 E10.33787
G1 X50.96 Y30.832 E10.34418
G1 X52.335 Y30.725 E10.39005
G1 X52.686 Y30.703 E10.40175
G1 X53.383 Y30.672 E10.42495
G1 X53.693 Y30.663 E10.43527
G1 X54.485 Y30.651 E10.46161
G1 X56.354 Y30.65 E10.52378
G1 X57.062 Y30.659 E10.54733
G1 X57.394 Y30.669 E10.55837
G1 X58.333 Y30.712 E10.58964
G1 X58.664 Y30.732 E10.60067
G1 X59.519 Y30.798 E10.62919
G1 X59.824 Y30.826 E10.63938
G1 X60.247 Y30.871 E10.65353
G1 X60.459 Y30.896 E10.66063
G1 X61.232 Y30.994 E10.68654
G1 X61.53 Y31.036 E10.69655
G1 X62.108 Y31.126 E10.71601
G1 X62.377 Y31.172 E10.72508
G1 X63.074 Y31.299 E10.74865
G1 X63.39 Y31.361 E10.75936
G1 X64.012 Y31.494 E10.78051
G1 X64.294 Y31.559 E10.79014
G1 X64.859 Y31.696 E10.80948
G1 X65.158 Y31.773 E10.81974
G1 X65.878 Y31.97 E10.84457
G1 X66.182 Y32.058 E10.8551
G1 X66.852 Y32.263 E10.8784
G1 X67.103 Y32.343 E10.88716
G1 X67.78 Y32.569 E10.9109
G1 X68.219 Y32.722 E10.92637
G1 X69.309 Y33.097 E10.9647
G1 X70.005 Y33.344 E10.98927
G1 X70.86 Y33.69 E11.01995
G1 X71.34 Y33.909 E11.03749
G1 X71.631 Y34.048 E11.04822
G1 X72.016 Y34.238 E11.0625
G1 X72.303 Y34.385 E11.07322
G1 X72.635 Y34.564 E11.08577
G1 X73.106 Y34.828 E11.10373
G1 X73.718 Y35.182 E11.12724
G1 X75.159 Y36.042 E11.18306
G1 X75.796 Y36.434 E11.20794
G1 X76.724 Y37.023 E11.24449
G1 X76.915 Y37.147 E11.25207
G1 X77.457 Y37.513 E11.27382
G1 X77.604 Y37.614 E11.27975
G1 X78.042 Y37.922 E11.29756
G1 X78.555 Y38.306 E11.31887
G1 X79.38 Y38.964 E11.35397
G1 X79.665 Y39.2 E11.36628
G1 X80.111 Y39.582 E11.38581
G1 X80.323 Y39.768 E11.39519
G1 X80.821 Y40.218 E11.41751
G1 X81.173 Y40.546 E11.43352
G1 X81.789 Y41.137 E11.46191
G1 X81.962 Y41.307 E11.46998
G1 X82.284 Y41.632 E11.48519
G1 X82.647 Y42.008 E11.50258
G1 X83.388 Y42.794 E11.5385
G1 X83.497 Y42.913 E11.54387
G1 X83.638 Y43.071 E11.55092
G1 X84.047 Y43.537 E11.57154
G1 X84.627 Y44.213 E11.60116
G1 X84.778 Y44.393 E11.60898
G1 X85.009 Y44.675 E11.6211
G1 X85.341 Y45.091 E11.6388
G1 X85.899 Y45.809 E11.66905
G1 X86.051 Y46.01 E11.67743
G1 X86.369 Y46.441 E11.69525
G1 X86.593 Y46.753 E11.70802
G1 X87.043 Y47.395 E11.7341
G1 X87.207 Y47.636 E11.74379
G1 X87.596 Y48.227 E11.76732
G1 X87.734 Y48.445 E11.77591
G1 X88.024 Y48.91 E11.79413
G1 X88.198 Y49.198 E11.80532
G1 X88.653 Y49.982 E11.83547
G1 X88.811 Y50.264 E11.84622
G1 X89.032 Y50.673 E11.86169
G1 X89.185 Y50.967 E11.87271
G1 X89.586 Y51.768 E11.9025
G1 X89.73 Y52.068 E11.91357
G1 X90.1 Y52.869 E11.94292
G1 X90.207 Y53.107 E11.9516
G1 X90.338 Y53.41 E11.96258
G1 X90.432 Y53.636 E11.97072
G1 X90.757 Y54.438 E11.9995
G1 X90.84 Y54.649 E12.00704
G1 X91.004 Y55.08 E12.02238
G1 X91.104 Y55.354 E12.03208
G1 X91.336 Y56.018 E12.05547
G1 X91.424 Y56.282 E12.06473
G1 X91.586 Y56.788 E12.0824
G1 X91.673 Y57.073 E12.09231
G1 X91.838 Y57.643 E12.11205
G1 X91.919 Y57.939 E12.12225
G1 X92.09 Y58.601 E12.145
G1 X92.167 Y58.921 E12.15594
G1 X92.252 Y59.298 E12.1688
G1 X92.317 Y59.607 E12.1793
G1 X92.507 Y60.585 E12.21244
G1 X92.582 Y61.014 E12.22692
G1 X92.632 Y61.343 E12.23799
G1 X92.674 Y61.652 E12.24836
G1 X92.735 Y62.152 E12.26511
