;FLAVOR:Marlin
;TIME:1422
;Filament used: 0.796276m
;Layer height: 0.2
;MINX:79.5
;MINY:66.01
;MINZ:0.4
;MAXX:151.5
;MAXY:146.5
;MAXZ:8.4
;Generated with Cura_SteamEngine 4.7.1
M140 S50
M105
M190 S50
M104 S200
M105
M109 S200
M82 ;absolute extrusion mode
; Ender 3 Custom Start G-code
G92 E0 ; Reset Extruder
G28 ; Home all axes
G1 Z2.0 F3000 ; Move Z Axis up little to prevent scratching of Heat Bed
G1 X0.1 Y20 Z0.3 F5000.0 ; Move to start position
G1 X0.1 Y200.0 Z0.3 F1500.0 E15 ; Draw the first line
G1 X0.4 Y200.0 Z0.3 F5000.0 ; Move to side a little
G1 X0.4 Y20 Z0.3 F1500.0 E30 ; Draw the second line
G92 E0 ; Reset Extruder
G1 Z2.0 F3000 ; Move Z Axis up little to prevent scratching of Heat Bed
G1 X5 Y20 Z0.3 F5000.0 ; Move over to prevent blob squish
G92 E0
G92 E0
G1 F2700 E-5
;LAYER_COUNT:41
;LAYER:0
M107
G0 F6000 X98.635 Y72.372 Z0.4
;TYPE:SKIRT
G1 F2700 E0
G1 F1200 X98.92 Y71.994 E0.03149
G1 X99.07 Y71.804 E0.04759
G1 X99.442 Y71.358 E0.08623
G1 X99.58 Y71.201 E0.10013
G1 X99.895 Y70.857 E0.13116
G1 X100.029 Y70.717 E0.14405
G1 X100.398 Y70.349 E0.17872
G1 X100.559 Y70.196 E0.19349
G1 X100.882 Y69.902 E0.22254
G1 X101.037 Y69.766 E0.23626
G1 X101.996 Y69.014 E0.31733
G1 X102.569 Y68.614 E0.36381
G1 X103.306 Y68.142 E0.42203
G1 X103.417 Y68.077 E0.43059
G1 X103.957 Y67.781 E0.47155
G1 X104.152 Y67.681 E0.48613
G1 X104.546 Y67.489 E0.51528
G1 X104.628 Y67.451 E0.5213
G1 X105.195 Y67.207 E0.56236
G1 X105.714 Y67.001 E0.5995
G1 X106.922 Y66.601 E0.68415
G1 X107.242 Y66.519 E0.70612
G1 X107.837 Y66.376 E0.74683
G1 X108.852 Y66.182 E0.81557
G1 X109.386 Y66.117 E0.85135
G1 X109.97 Y66.061 E0.89038
G1 X110.923 Y66.011 E0.95386
G1 X111.036 Y66.01 E0.96138
G1 X111.585 Y66.019 E0.9979
G1 X112.241 Y66.046 E1.04158
G1 X113.66 Y66.126 E1.13612
G1 X116.209 Y66.198 E1.30575
G1 X118.686 Y66.198 E1.47052
G1 X122.167 Y66.083 E1.7022
G1 X123.134 Y66.033 E1.76661
G1 X123.835 Y66.019 E1.81325
G1 X124.258 Y66.024 E1.84139
G1 X125.205 Y66.076 E1.90448
G1 X125.632 Y66.118 E1.93302
G1 X126.449 Y66.229 E1.98787
G1 X126.655 Y66.265 E2.00178
G1 X127.56 Y66.463 E2.0634
G1 X127.954 Y66.572 E2.0906
G1 X128.576 Y66.757 E2.13376
G1 X129.454 Y67.059 E2.19553
G1 X129.602 Y67.117 E2.2061
G1 X130.124 Y67.338 E2.24381
G1 X130.314 Y67.424 E2.25768
G1 X130.737 Y67.626 E2.28886
G1 X130.937 Y67.727 E2.30377
G1 X131.907 Y68.281 E2.37808
G1 X132.468 Y68.64 E2.42238
G1 X133.243 Y69.184 E2.48537
G1 X133.377 Y69.287 E2.49661
G1 X133.8 Y69.629 E2.53279
G1 X133.954 Y69.76 E2.54624
G1 X134.312 Y70.078 E2.5781
G1 X134.466 Y70.221 E2.59207
G1 X134.858 Y70.604 E2.62853
G1 X135.013 Y70.763 E2.6433
G1 X135.296 Y71.064 E2.67078
G1 X135.428 Y71.21 E2.68388
G1 X135.807 Y71.652 E2.72261
G1 X135.941 Y71.817 E2.73675
G1 X136.353 Y72.358 E2.78198
G1 X136.383 Y72.4 E2.78542
G1 X136.658 Y72.805 E2.81798
G1 X137.004 Y73.338 E2.86025
G1 X137.473 Y74.131 E2.92154
G1 X137.555 Y74.284 E2.93308
G1 X137.753 Y74.67 E2.96194
G1 X137.841 Y74.851 E2.97533
G1 X138.128 Y75.493 E3.02211
G1 X138.223 Y75.725 E3.03878
G1 X138.557 Y76.661 E3.10489
G1 X138.735 Y77.24 E3.14519
G1 X138.929 Y77.953 E3.19434
G1 X138.941 Y78.004 E3.19783
G1 X139.097 Y78.798 E3.25165
G1 X139.184 Y79.346 E3.28856
G1 X139.296 Y80.346 E3.3555
G1 X139.311 Y80.573 E3.37063
G1 X139.331 Y81.008 E3.3996
G1 X139.338 Y81.273 E3.41723
G1 X139.341 Y81.739 E3.44823
G1 X139.312 Y83.537 E3.56785
G1 X139.343 Y86.017 E3.73283
G1 X139.447 Y88.547 E3.90127
G1 X139.621 Y91.063 E4.06904
G1 X139.867 Y93.584 E4.23753
G1 X140.176 Y96.035 E4.40186
G1 X140.569 Y98.563 E4.57205
G1 X141.023 Y101.03 E4.73891
G1 X141.544 Y103.471 E4.90494
G1 X142.137 Y105.911 E5.07197
G1 X142.808 Y108.359 E5.24082
G1 X143.538 Y110.76 E5.40776
G1 X144.342 Y113.157 E5.57594
G1 X145.208 Y115.517 E5.74316
G1 X146.143 Y117.854 E5.9106
G1 X147.144 Y120.166 E6.07819
G1 X148.216 Y122.464 E6.24687
G1 X149.333 Y124.69 E6.41254
G1 X149.608 Y125.201 E6.45114
G1 X150.236 Y126.402 E6.54129
G1 X150.635 Y127.251 E6.60369
G1 X150.96 Y128.131 E6.6661
G1 X151.162 Y128.839 E6.71507
G1 X151.35 Y129.758 E6.77747
G1 X151.46 Y130.689 E6.83983
G1 X151.485 Y131.167 E6.87167
G1 X151.495 Y131.49 E6.89317
G1 X151.5 Y131.83 E6.91579
G1 X151.499 Y134.9 E7.12001
G1 X151.49 Y135.627 E7.16837
G1 X151.439 Y136.564 E7.23079
G1 X151.307 Y137.492 E7.29314
G1 X151.098 Y138.406 E7.35551
G1 X150.811 Y139.299 E7.41791
G1 X150.449 Y140.165 E7.48034
G1 X150.015 Y140.996 E7.54271
G1 X149.511 Y141.787 E7.6051
G1 X148.942 Y142.532 E7.66746
G1 X148.311 Y143.227 E7.7299
G1 X147.624 Y143.865 E7.79227
G1 X146.885 Y144.442 E7.85463
G1 X146.099 Y144.954 E7.91703
G1 X145.273 Y145.397 E7.97938
G1 X144.411 Y145.769 E8.04184
G1 X143.522 Y146.065 E8.10416
G1 X142.61 Y146.285 E8.16657
G1 X141.683 Y146.426 E8.22894
G1 X140.799 Y146.487 E8.28789
G1 X140.478 Y146.496 E8.30925
G1 X140.17 Y146.5 E8.32974
G1 X91.065 Y146.499 E11.59622
G1 X90.367 Y146.49 E11.64265
G1 X89.431 Y146.438 E11.70501
G1 X88.502 Y146.306 E11.76743
G1 X87.588 Y146.096 E11.82981
G1 X86.695 Y145.809 E11.89221
G1 X85.83 Y145.446 E11.95461
G1 X84.999 Y145.012 E12.01697
G1 X84.208 Y144.508 E12.07936
G1 X83.463 Y143.938 E12.14176
G1 X82.769 Y143.307 E12.20416
G1 X82.132 Y142.62 E12.26648
G1 X81.555 Y141.88 E12.3289
G1 X81.043 Y141.094 E12.3913
G1 X80.6 Y140.267 E12.45371
G1 X80.229 Y139.406 E12.51607
G1 X79.933 Y138.516 E12.57846
G1 X79.714 Y137.604 E12.64085
G1 X79.573 Y136.677 E12.70323
G1 X79.513 Y135.788 E12.7625
G1 X79.504 Y135.455 E12.78466
G1 X79.5 Y135.158 E12.80441
G1 X79.501 Y132.051 E13.01109
G1 X79.511 Y131.347 E13.05793
G1 X79.564 Y130.41 E13.12036
G1 X79.697 Y129.482 E13.18272
G1 X79.909 Y128.568 E13.24513
G1 X80.197 Y127.676 E13.30748
G1 X80.561 Y126.811 E13.36991
G1 X81.15 Y125.724 E13.45215
G1 X81.312 Y125.463 E13.47259
G1 X82.556 Y123.501 E13.62712
G1 X83.868 Y121.301 E13.79751
G1 X85.074 Y119.138 E13.96225
G1 X86.241 Y116.9 E14.13015
G1 X87.344 Y114.63 E14.29803
G1 X88.379 Y112.339 E14.46526
G1 X89.33 Y110.067 E14.6291
G1 X90.249 Y107.68 E14.79924
G1 X91.089 Y105.302 E14.96701
G1 X91.863 Y102.893 E15.13532
G1 X92.56 Y100.495 E15.30144
G1 X93.198 Y98.04 E15.47017
G1 X93.751 Y95.641 E15.63394
G1 X94.261 Y93.098 E15.80647
G1 X94.678 Y90.66 E15.971
G1 X95.035 Y88.152 E16.13952
G1 X95.315 Y85.688 E16.30448
G1 X95.617 Y81.809 E16.56329
G1 X95.69 Y80.511 E16.64977
G1 X95.742 Y79.898 E16.69069
G1 X95.75 Y79.827 E16.69545
G1 X95.824 Y79.291 E16.73144
G1 X95.917 Y78.72 E16.76992
G1 X96.107 Y77.801 E16.83235
G1 X96.278 Y77.196 E16.87417
G1 X96.475 Y76.568 E16.91795
G1 X96.766 Y75.753 E16.97552
G1 X96.832 Y75.589 E16.98728
G1 X97.076 Y75.03 E17.02785
G1 X97.165 Y74.84 E17.04181
G1 X97.382 Y74.402 E17.07432
G1 X97.47 Y74.234 E17.08694
G1 X97.709 Y73.801 E17.11984
G1 X97.829 Y73.595 E17.1357
G1 X98.107 Y73.143 E17.17099
G1 X98.218 Y72.972 E17.18456
G1 X98.526 Y72.523 E17.22077
G1 X98.635 Y72.372 E17.23316
G0 F6000 X98.959 Y72.606
G1 F1200 X99.234 Y72.242 E17.26351
G1 X99.384 Y72.052 E17.27961
G1 X99.742 Y71.622 E17.31683
G1 X99.88 Y71.465 E17.33074
G1 X100.184 Y71.134 E17.36063
G1 X100.318 Y70.994 E17.37352
G1 X100.674 Y70.639 E17.40697
G1 X100.835 Y70.486 E17.42174
G1 X101.146 Y70.202 E17.44976
G1 X101.301 Y70.066 E17.46347
G1 X102.225 Y69.342 E17.54156
G1 X102.798 Y68.942 E17.58804
G1 X103.509 Y68.487 E17.6442
G1 X103.62 Y68.422 E17.65275
G1 X104.139 Y68.137 E17.69214
G1 X104.334 Y68.037 E17.70672
G1 X104.714 Y67.852 E17.73483
G1 X104.796 Y67.814 E17.74084
G1 X105.342 Y67.579 E17.78038
G1 X105.861 Y67.373 E17.81753
G1 X107.025 Y66.987 E17.8991
G1 X107.336 Y66.907 E17.92047
G1 X107.931 Y66.764 E17.96117
G1 X108.909 Y66.578 E18.02739
G1 X109.424 Y66.515 E18.06191
G1 X110.008 Y66.459 E18.10093
G1 X110.926 Y66.411 E18.16208
G1 X111.039 Y66.41 E18.1696
G1 X111.569 Y66.419 E18.20486
G1 X112.392 Y66.454 E18.25966
G1 X113.66 Y66.526 E18.34414
G1 X116.198 Y66.598 E18.51304
G1 X118.699 Y66.598 E18.6794
G1 X122.149 Y66.484 E18.90902
G1 X123.155 Y66.432 E18.97603
G1 X123.83 Y66.419 E19.02094
G1 X124.253 Y66.424 E19.04908
G1 X125.166 Y66.474 E19.10991
G1 X125.593 Y66.516 E19.13845
G1 X126.38 Y66.623 E19.19128
G1 X126.586 Y66.659 E19.20519
G1 X127.459 Y66.85 E19.26464
G1 X127.84 Y66.956 E19.29094
G1 X128.462 Y67.141 E19.33411
G1 X129.308 Y67.432 E19.39362
G1 X129.456 Y67.49 E19.4042
G1 X129.959 Y67.702 E19.44051
G1 X130.149 Y67.788 E19.45438
G1 X130.556 Y67.983 E19.4844
G1 X130.756 Y68.084 E19.49931
G1 X131.692 Y68.618 E19.57099
G1 X132.253 Y68.977 E19.61529
G1 X132.999 Y69.501 E19.67594
G1 X133.133 Y69.604 E19.68718
G1 X133.541 Y69.934 E19.72209
G1 X133.695 Y70.065 E19.73553
G1 X134.04 Y70.371 E19.76621
G1 X134.194 Y70.514 E19.78019
G1 X134.571 Y70.883 E19.81528
G1 X134.726 Y71.042 E19.83005
G1 X134.999 Y71.332 E19.85655
G1 X135.131 Y71.478 E19.86964
G1 X135.496 Y71.905 E19.90701
G1 X135.63 Y72.07 E19.92115
G1 X136.028 Y72.591 E19.96476
G1 X136.058 Y72.633 E19.96819
G1 X136.323 Y73.022 E19.9995
G1 X136.669 Y73.555 E20.04177
G1 X137.121 Y74.32 E20.10088
G1 X137.203 Y74.473 E20.11243
G1 X137.393 Y74.845 E20.14021
G1 X137.481 Y75.026 E20.1536
G1 X137.757 Y75.644 E20.19862
G1 X137.852 Y75.876 E20.2153
G1 X138.175 Y76.778 E20.27903
G1 X138.353 Y77.357 E20.31933
G1 X138.539 Y78.044 E20.36667
G1 X138.551 Y78.095 E20.37016
G1 X138.702 Y78.861 E20.42209
G1 X138.789 Y79.409 E20.459
G1 X138.897 Y80.372 E20.52346
G1 X138.912 Y80.599 E20.5386
G1 X138.931 Y81.018 E20.5665
G1 X138.938 Y81.283 E20.58413
G1 X138.941 Y81.733 E20.61406
G1 X138.912 Y83.536 E20.73402
G1 X138.943 Y86.038 E20.90046
G1 X139.046 Y88.557 E21.06817
G1 X139.222 Y91.094 E21.23733
G1 X139.467 Y93.601 E21.4049
G1 X139.788 Y96.149 E21.57573
G1 X140.167 Y98.592 E21.74018
G1 X140.631 Y101.107 E21.9103
G1 X141.16 Y103.585 E22.07886
G1 X141.749 Y106.007 E22.24466
G1 X142.425 Y108.476 E22.41495
G1 X143.159 Y110.888 E22.58266
G1 X143.962 Y113.285 E22.75082
G1 X144.837 Y115.667 E22.91962
G1 X145.763 Y117.983 E23.08554
G1 X146.786 Y120.345 E23.25676
G1 X147.847 Y122.619 E23.42369
G1 X148.981 Y124.88 E23.59194
G1 X149.253 Y125.386 E23.63016
G1 X149.881 Y126.587 E23.72031
G1 X150.272 Y127.421 E23.78158
G1 X150.589 Y128.285 E23.8428
G1 X150.774 Y128.936 E23.88782
G1 X150.958 Y129.838 E23.94906
G1 X151.085 Y131.179 E24.03866
G1 X151.095 Y131.502 E24.06016
G1 X151.1 Y131.83 E24.08198
G1 X151.099 Y134.895 E24.28587
G1 X151.09 Y135.622 E24.33423
G1 X151.039 Y136.541 E24.39546
G1 X150.908 Y137.453 E24.45674
G1 X150.698 Y138.349 E24.51796
G1 X150.412 Y139.224 E24.5792
G1 X150.051 Y140.071 E24.64044
G1 X149.617 Y140.883 E24.70169
G1 X149.115 Y141.655 E24.76295
G1 X148.547 Y142.38 E24.82421
G1 X147.919 Y143.053 E24.88544
G1 X147.235 Y143.669 E24.94667
G1 X146.5 Y144.223 E25.0079
G1 X145.72 Y144.712 E25.06914
G1 X144.9 Y145.131 E25.13039
G1 X144.047 Y145.477 E25.19163
G1 X143.167 Y145.748 E25.25288
G1 X142.267 Y145.941 E25.31411
G1 X141.353 Y146.056 E25.37539
G1 X140.788 Y146.087 E25.41303
G1 X140.467 Y146.096 E25.43439
G1 X140.17 Y146.1 E25.45415
G1 X91.07 Y146.099 E28.72029
G1 X90.372 Y146.09 E28.76673
G1 X89.453 Y146.038 E28.82796
G1 X88.542 Y145.907 E28.88918
G1 X87.646 Y145.697 E28.9504
G1 X86.771 Y145.41 E29.01165
G1 X85.924 Y145.048 E29.07293
G1 X85.112 Y144.614 E29.13417
G1 X84.341 Y144.112 E29.19537
G1 X83.616 Y143.544 E29.25664
G1 X82.943 Y142.915 E29.31791
G1 X82.328 Y142.231 E29.3791
G1 X81.774 Y141.496 E29.44033
G1 X81.286 Y140.715 E29.50159
G1 X80.867 Y139.895 E29.56284
G1 X80.521 Y139.042 E29.62407
G1 X80.251 Y138.162 E29.68531
G1 X80.058 Y137.261 E29.7466
G1 X79.944 Y136.348 E29.8078
G1 X79.913 Y135.777 E29.84584
G1 X79.904 Y135.444 E29.868
G1 X79.9 Y135.158 E29.88703
G1 X79.901 Y132.056 E30.09337
G1 X79.911 Y131.352 E30.14021
G1 X79.964 Y130.433 E30.20144
G1 X80.097 Y129.522 E30.26269
G1 X80.308 Y128.626 E30.32392
G1 X80.596 Y127.752 E30.38513
G1 X80.959 Y126.906 E30.44637
G1 X81.491 Y125.934 E30.52008
G1 X81.65 Y125.677 E30.54018
G1 X82.905 Y123.698 E30.69606
G1 X84.202 Y121.521 E30.86463
G1 X85.42 Y119.339 E31.03086
G1 X86.612 Y117.053 E31.20236
G1 X87.697 Y114.82 E31.3675
G1 X88.748 Y112.492 E31.53741
G1 X89.701 Y110.217 E31.70149
G1 X90.624 Y107.82 E31.87235
G1 X91.471 Y105.42 E32.04165
G1 X92.245 Y103.012 E32.2099
G1 X92.942 Y100.611 E32.37621
G1 X93.589 Y98.124 E32.54715
G1 X94.149 Y95.697 E32.71284
G1 X94.647 Y93.213 E32.88136
G1 X95.076 Y90.707 E33.05049
G1 X95.435 Y88.187 E33.21981
G1 X95.713 Y85.736 E33.3839
G1 X96.018 Y81.817 E33.64538
G1 X96.09 Y80.533 E33.73093
G1 X96.14 Y79.943 E33.77031
G1 X96.148 Y79.872 E33.77507
G1 X96.219 Y79.355 E33.80978
G1 X96.312 Y78.784 E33.84826
G1 X96.499 Y77.883 E33.90948
G1 X96.66 Y77.315 E33.94875
G1 X96.857 Y76.687 E33.99253
G1 X97.137 Y75.903 E34.04791
G1 X97.203 Y75.739 E34.05967
G1 X97.438 Y75.2 E34.09878
G1 X97.527 Y75.01 E34.11274
G1 X97.736 Y74.588 E34.14406
G1 X97.824 Y74.42 E34.15668
G1 X98.055 Y74.002 E34.18845
G1 X98.175 Y73.796 E34.20431
G1 X98.443 Y73.361 E34.23829
G1 X98.554 Y73.19 E34.25186
G1 X98.85 Y72.757 E34.28675
G1 X98.959 Y72.606 E34.29913
G0 F6000 X99.284 Y72.84
G1 F1200 X99.548 Y72.49 E34.3283
G1 X99.698 Y72.3 E34.3444
G1 X100.043 Y71.886 E34.38025
G1 X100.181 Y71.729 E34.39415
G1 X100.473 Y71.41 E34.42292
G1 X100.607 Y71.27 E34.43581
G1 X100.95 Y70.929 E34.46799
G1 X101.111 Y70.776 E34.48276
G1 X101.41 Y70.503 E34.50969
G1 X101.565 Y70.367 E34.52341
G1 X102.453 Y69.67 E34.5985
G1 X103.026 Y69.27 E34.64499
G1 X103.711 Y68.832 E34.69907
G1 X103.822 Y68.767 E34.70763
G1 X104.322 Y68.493 E34.74556
G1 X104.517 Y68.393 E34.76013
G1 X104.882 Y68.214 E34.78718
G1 X104.964 Y68.176 E34.79319
G1 X105.49 Y67.95 E34.83127
G1 X106.009 Y67.744 E34.86841
G1 X107.129 Y67.373 E34.9469
G1 X107.429 Y67.296 E34.9675
G1 X108.024 Y67.153 E35.00821
G1 X108.966 Y66.974 E35.07199
G1 X109.462 Y66.914 E35.10523
G1 X110.046 Y66.858 E35.14425
G1 X110.93 Y66.811 E35.20314
G1 X111.043 Y66.81 E35.21066
G1 X111.552 Y66.819 E35.24452
G1 X112.208 Y66.846 E35.28819
G1 X112.369 Y66.854 E35.29892
G1 X113.626 Y66.926 E35.38267
G1 X116.186 Y66.998 E35.55303
G1 X118.712 Y66.998 E35.72106
G1 X122.184 Y66.884 E35.95214
G1 X123.176 Y66.832 E36.01822
G1 X123.826 Y66.819 E36.06147
G1 X124.249 Y66.824 E36.08961
G1 X125.126 Y66.872 E36.14803
G1 X125.553 Y66.914 E36.17657
G1 X126.311 Y67.017 E36.22746
G1 X126.517 Y67.053 E36.24137
G1 X127.357 Y67.237 E36.29857
G1 X127.726 Y67.339 E36.32404
G1 X128.348 Y67.524 E36.36721
G1 X129.162 Y67.804 E36.42447
G1 X129.31 Y67.862 E36.43504
G1 X129.794 Y68.067 E36.47001
G1 X129.984 Y68.153 E36.48388
G1 X130.376 Y68.34 E36.51277
G1 X130.576 Y68.441 E36.52767
G1 X131.476 Y68.955 E36.59662
G1 X132.037 Y69.314 E36.64092
G1 X132.755 Y69.818 E36.69928
G1 X132.889 Y69.921 E36.71052
G1 X133.282 Y70.239 E36.74415
G1 X133.436 Y70.37 E36.7576
G1 X133.768 Y70.665 E36.78714
G1 X133.922 Y70.808 E36.80112
G1 X134.285 Y71.162 E36.83485
G1 X134.44 Y71.321 E36.84962
G1 X134.702 Y71.6 E36.87508
G1 X134.834 Y71.746 E36.88817
G1 X135.186 Y72.157 E36.92417
G1 X135.32 Y72.322 E36.93831
G1 X135.702 Y72.823 E36.98022
G1 X135.732 Y72.865 E36.98365
G1 X135.987 Y73.24 E37.01382
G1 X136.333 Y73.773 E37.05609
G1 X136.768 Y74.509 E37.11296
G1 X136.85 Y74.662 E37.12451
G1 X137.033 Y75.02 E37.15125
G1 X137.121 Y75.201 E37.16464
G1 X137.387 Y75.796 E37.20799
G1 X137.482 Y76.028 E37.22467
G1 X137.793 Y76.896 E37.286
G1 X137.971 Y77.475 E37.3263
G1 X138.15 Y78.136 E37.37185
G1 X138.162 Y78.187 E37.37534
G1 X138.307 Y78.924 E37.4253
G1 X138.394 Y79.472 E37.46221
G1 X138.498 Y80.398 E37.5242
G1 X138.513 Y80.625 E37.53933
G1 X138.531 Y81.029 E37.56623
G1 X138.538 Y81.294 E37.58386
G1 X138.541 Y81.726 E37.6126
G1 X138.512 Y83.534 E37.73289
G1 X138.543 Y86.06 E37.90093
G1 X138.646 Y88.566 E38.06777
G1 X138.823 Y91.124 E38.23833
G1 X139.07 Y93.654 E38.40743
G1 X139.39 Y96.189 E38.5774
G1 X139.778 Y98.688 E38.74562
G1 X140.234 Y101.165 E38.91316
G1 X140.765 Y103.65 E39.0822
G1 X141.364 Y106.117 E39.25107
G1 X142.03 Y108.55 E39.41887
G1 X142.783 Y111.026 E39.59102
G1 X143.584 Y113.414 E39.75857
G1 X144.462 Y115.805 E39.92801
G1 X145.401 Y118.154 E40.09628
G1 X146.414 Y120.493 E40.26584
G1 X147.498 Y122.817 E40.43642
G1 X148.622 Y125.057 E40.60313
G1 X148.899 Y125.572 E40.64203
