;FLAVOR:Marlin
;TIME:918
;Filament used: 0.55885m
;Layer height: 0.2
;MINX:71.5
;MINY:81.5
;MINZ:0.2
;MAXX:163.5
;MAXY:153.5
;MAXZ:1
;Generated with Cura_SteamEngine 4.7.1
M140 S60
M105
M190 S60
M104 S220
M105
M109 S220
M82 ;absolute extrusion mode
; Ender 3 Custom Start G-code
G92 E0 ; Reset Extruder
G28 ; Home all axes
G1 Z2.0 F3000 ; Move Z Axis up little to prevent scratching of Heat Bed
G1 X0.1 Y20 Z0.3 F5000.0 ; Move to start position
G1 X0.1 Y200.0 Z0.3 F1500.0 E15 ; Draw the first line
G1 X0.4 Y200.0 Z0.3 F5000.0 ; Move to side a little
G1 X0.4 Y20 Z0.3 F1500.0 E30 ; Draw the second line
G92 E0 ; Reset Extruder
G1 Z2.0 F3000 ; Move Z Axis up little to prevent scratching of Heat Bed
G1 X5 Y20 Z0.3 F5000.0 ; Move over to prevent blob squish
G92 E0
G92 E0
G1 F2700 E-5
;LAYER_COUNT:5
;LAYER:0
M107
G0 F6000 X75.386 Y84.127 Z0.2
;TYPE:SKIRT
G1 F2700 E0
G1 F1200 X76.126 Y83.551 E0.03119
G1 X76.912 Y83.039 E0.06239
G1 X77.739 Y82.597 E0.09358
G1 X78.601 Y82.227 E0.12478
G1 X79.491 Y81.931 E0.15597
G1 X80.403 Y81.713 E0.18716
G1 X81.33 Y81.572 E0.21835
G1 X82.201 Y81.513 E0.24738
G1 X82.522 Y81.504 E0.25806
G1 X82.83 Y81.5 E0.26831
G1 X85.953 Y81.501 E0.37218
G1 X86.641 Y81.511 E0.39507
G1 X87.289 Y81.54 E0.41664
G1 X87.452 Y81.552 E0.42208
G1 X88.383 Y81.66 E0.45325
G1 X89.336 Y81.856 E0.48561
G1 X89.546 Y81.909 E0.49281
G1 X90.151 Y82.081 E0.51373
G1 X90.767 Y82.274 E0.5352
G1 X93.262 Y83.019 E0.62181
G1 X95.657 Y83.661 E0.70428
G1 X98.148 Y84.253 E0.78944
G1 X100.569 Y84.759 E0.8717
G1 X103.083 Y85.208 E0.95664
G1 X105.562 Y85.579 E1.04001
G1 X108.077 Y85.883 E1.12427
G1 X110.574 Y86.114 E1.20767
G1 X113.074 Y86.274 E1.29099
G1 X115.585 Y86.363 E1.37456
G1 X118.112 Y86.382 E1.45861
G1 X120.64 Y86.328 E1.54271
G1 X123.145 Y86.205 E1.62613
G1 X125.682 Y86.007 E1.71077
G1 X128.157 Y85.744 E1.79355
G1 X130.633 Y85.41 E1.87665
G1 X133.157 Y84.997 E1.96171
G1 X135.591 Y84.526 E2.04417
G1 X138.08 Y83.972 E2.12898
G1 X140.503 Y83.361 E2.21209
G1 X142.941 Y82.672 E2.29636
G1 X144.753 Y82.111 E2.35945
G1 X145.232 Y81.97 E2.37605
G1 X146.143 Y81.747 E2.40725
G1 X147.206 Y81.587 E2.443
G1 X147.425 Y81.565 E2.45032
G1 X148.363 Y81.511 E2.48157
G1 X149.047 Y81.501 E2.50432
G1 X151.793 Y81.5 E2.59566
G1 X151.951 Y81.501 E2.60091
G1 X152.649 Y81.511 E2.62413
G1 X153.585 Y81.565 E2.65531
G1 X154.513 Y81.697 E2.68649
G1 X155.427 Y81.909 E2.7177
G1 X156.319 Y82.198 E2.74888
G1 X157.184 Y82.561 E2.78008
G1 X158.014 Y82.997 E2.81127
G1 X158.805 Y83.502 E2.84248
G1 X159.549 Y84.073 E2.87367
G1 X160.242 Y84.705 E2.90487
G1 X160.879 Y85.393 E2.93605
G1 X161.454 Y86.134 E2.96725
G1 X161.965 Y86.92 E2.99843
G1 X162.407 Y87.748 E3.02965
G1 X162.776 Y88.61 E3.06083
G1 X163.071 Y89.5 E3.09202
G1 X163.289 Y90.412 E3.12321
G1 X163.429 Y91.34 E3.15442
G1 X163.486 Y92.192 E3.18282
G1 X163.495 Y92.503 E3.19317
G1 X163.5 Y92.821 E3.20375
G1 X163.499 Y141.9 E4.83612
G1 X163.49 Y142.627 E4.8603
G1 X163.439 Y143.564 E4.89152
G1 X163.307 Y144.492 E4.92269
G1 X163.098 Y145.406 E4.95388
G1 X162.811 Y146.299 E4.98507
G1 X162.449 Y147.165 E5.01629
G1 X162.015 Y147.996 E5.04747
G1 X161.511 Y148.787 E5.07867
G1 X160.942 Y149.532 E5.10985
G1 X160.311 Y150.227 E5.14107
G1 X159.624 Y150.865 E5.17225
G1 X158.885 Y151.442 E5.20344
G1 X158.099 Y151.954 E5.23464
G1 X157.273 Y152.397 E5.26581
G1 X156.411 Y152.769 E5.29704
G1 X155.522 Y153.065 E5.3282
G1 X154.61 Y153.285 E5.35941
G1 X153.683 Y153.426 E5.39059
G1 X152.799 Y153.487 E5.42006
G1 X152.478 Y153.496 E5.43074
G1 X152.17 Y153.5 E5.44099
G1 X123.05 Y153.499 E6.40952
G1 X122.348 Y153.489 E6.43288
G1 X121.412 Y153.436 E6.46406
G1 X120.484 Y153.303 E6.49524
G1 X119.57 Y153.091 E6.52644
G1 X118.677 Y152.803 E6.55765
G1 X117.813 Y152.439 E6.58884
G1 X116.982 Y152.003 E6.62005
G1 X116.192 Y151.498 E6.65123
G1 X115.448 Y150.928 E6.68241
G1 X114.755 Y150.296 E6.7136
G1 X114.361 Y149.885 E6.73254
G1 X113.78 Y149.245 E6.76129
G1 X112.02 Y147.358 E6.84711
G1 X110.262 Y145.575 E6.93039
G1 X108.445 Y143.835 E7.01407
G1 X106.564 Y142.132 E7.09846
G1 X104.658 Y140.503 E7.18185
G1 X102.696 Y138.919 E7.26572
G1 X100.699 Y137.4 E7.34917
G1 X100.073 Y136.948 E7.37486
G1 X99.251 Y136.341 E7.40884
G1 X98.521 Y135.752 E7.44004
G1 X97.843 Y135.103 E7.47126
G1 X97.466 Y134.683 E7.49003
G1 X97.464 Y134.684 E7.4901
G1 X95.674 Y132.653 E7.58014
G1 X93.991 Y130.846 E7.66227
G1 X92.217 Y129.05 E7.74624
G1 X90.39 Y127.3 E7.83038
G1 X88.524 Y125.613 E7.91405
G1 X86.653 Y124.013 E7.99593
G1 X84.648 Y122.394 E8.08164
G1 X82.648 Y120.873 E8.16521
G1 X80.596 Y119.4 E8.24923
G1 X78.528 Y118.004 E8.33222
G1 X76.932 Y116.99 E8.39511
G1 X76.482 Y116.696 E8.41298
G1 X75.72 Y116.149 E8.44418
G1 X75.007 Y115.539 E8.47539
G1 X74.349 Y114.871 E8.50658
G1 X73.751 Y114.149 E8.53776
G1 X73.216 Y113.379 E8.56894
G1 X72.748 Y112.566 E8.60014
G1 X72.352 Y111.716 E8.63133
G1 X72.029 Y110.835 E8.66254
G1 X71.783 Y109.93 E8.69374
G1 X71.614 Y109.007 E8.72495
G1 X71.515 Y107.833 E8.76413
G1 X71.505 Y107.508 E8.77495
G1 X71.5 Y107.17 E8.78619
G1 X71.501 Y93.025 E9.25665
G1 X71.51 Y92.36 E9.27877
G1 X71.563 Y91.424 E9.30995
G1 X71.695 Y90.495 E9.34116
G1 X71.906 Y89.581 E9.37236
G1 X72.194 Y88.689 E9.40354
G1 X72.557 Y87.824 E9.43474
G1 X72.992 Y86.993 E9.46594
G1 X73.496 Y86.203 E9.4971
G1 X74.066 Y85.458 E9.5283
G1 X74.698 Y84.764 E9.55952
G1 X75.386 Y84.127 E9.59071
G0 F6000 X75.774 Y84.323
G1 F1200 X76.51 Y83.77 E9.62133
G1 X77.291 Y83.282 E9.65196
G1 X78.111 Y82.864 E9.68257
G1 X78.965 Y82.519 E9.7132
G1 X79.845 Y82.249 E9.74382
G1 X80.745 Y82.057 E9.77443
G1 X81.659 Y81.943 E9.80506
G1 X82.212 Y81.913 E9.82348
G1 X82.533 Y81.904 E9.83416
G1 X82.83 Y81.9 E9.84404
G1 X85.947 Y81.901 E9.94771
G1 X86.635 Y81.911 E9.9706
G1 X87.259 Y81.939 E9.99138
G1 X87.422 Y81.951 E9.99681
G1 X88.337 Y82.058 E10.02745
G1 X89.238 Y82.244 E10.05805
G1 X89.448 Y82.297 E10.06525
G1 X90.031 Y82.462 E10.08541
G1 X90.679 Y82.666 E10.108
G1 X93.149 Y83.403 E10.19373
G1 X95.599 Y84.059 E10.27809
G1 X98.045 Y84.641 E10.36172
G1 X100.482 Y85.149 E10.44451
G1 X102.992 Y85.599 E10.52933
G1 X105.526 Y85.977 E10.61454
G1 X108.026 Y86.28 E10.6983
G1 X110.551 Y86.513 E10.78264
G1 X113.068 Y86.674 E10.86653
G1 X115.568 Y86.763 E10.94973
G1 X118.118 Y86.782 E11.03455
G1 X120.668 Y86.728 E11.11938
G1 X123.164 Y86.605 E11.2025
G1 X125.684 Y86.408 E11.28657
G1 X128.217 Y86.139 E11.37129
G1 X130.715 Y85.802 E11.45513
G1 X133.226 Y85.391 E11.53975
G1 X135.683 Y84.916 E11.62299
G1 X138.16 Y84.365 E11.70739
G1 X140.596 Y83.75 E11.79095
G1 X143.064 Y83.053 E11.87625
G1 X144.872 Y82.493 E11.9392
G1 X145.045 Y82.441 E11.94521
G1 X145.344 Y82.354 E11.95556
G1 X146.238 Y82.136 E11.98617
G1 X147.245 Y81.985 E12.02004
G1 X147.464 Y81.963 E12.02736
G1 X148.369 Y81.911 E12.05751
G1 X149.053 Y81.901 E12.08026
G1 X151.793 Y81.9 E12.17139
G1 X152.643 Y81.911 E12.19967
G1 X153.562 Y81.964 E12.23028
G1 X154.473 Y82.097 E12.2609
G1 X155.369 Y82.308 E12.29152
G1 X156.243 Y82.596 E12.32213
G1 X157.09 Y82.959 E12.35278
G1 X157.901 Y83.394 E12.38339
G1 X158.671 Y83.898 E12.414
G1 X159.395 Y84.467 E12.44462
G1 X160.067 Y85.097 E12.47526
G1 X160.682 Y85.782 E12.50588
G1 X161.235 Y86.518 E12.5365
G1 X161.722 Y87.299 E12.56711
G1 X162.139 Y88.12 E12.59774
G1 X162.484 Y88.974 E12.62837
G1 X162.753 Y89.854 E12.65898
G1 X162.945 Y90.755 E12.68962
G1 X163.058 Y91.668 E12.72021
G1 X163.087 Y92.203 E12.73804
G1 X163.096 Y92.514 E12.74838
G1 X163.1 Y92.821 E12.7586
G1 X163.099 Y141.895 E14.3908
G1 X163.09 Y142.622 E14.41498
G1 X163.039 Y143.541 E14.4456
G1 X162.908 Y144.453 E14.47624
G1 X162.698 Y145.349 E14.50685
G1 X162.412 Y146.224 E14.53747
G1 X162.051 Y147.071 E14.56809
G1 X161.617 Y147.883 E14.59872
G1 X161.115 Y148.655 E14.62934
G1 X160.547 Y149.38 E14.65998
G1 X159.919 Y150.053 E14.69059
G1 X159.235 Y150.669 E14.72121
G1 X158.5 Y151.223 E14.75182
G1 X157.72 Y151.712 E14.78244
G1 X156.9 Y152.131 E14.81307
G1 X156.047 Y152.477 E14.84368
G1 X155.167 Y152.748 E14.87431
G1 X154.267 Y152.941 E14.90492
G1 X153.353 Y153.056 E14.93556
G1 X152.788 Y153.087 E14.95438
G1 X152.467 Y153.096 E14.96506
G1 X152.17 Y153.1 E14.97494
G1 X123.056 Y153.099 E15.94328
G1 X122.354 Y153.089 E15.96663
G1 X121.435 Y153.036 E15.99725
G1 X120.524 Y152.903 E16.02787
G1 X119.628 Y152.692 E16.05848
G1 X118.753 Y152.404 E16.08912
G1 X117.907 Y152.041 E16.11974
G1 X117.096 Y151.606 E16.15035
G1 X116.325 Y151.102 E16.18099
G1 X115.601 Y150.534 E16.21159
G1 X114.657 Y149.616 E16.25539
G1 X114.045 Y148.942 E16.28567
G1 X112.333 Y147.105 E16.36919
G1 X110.54 Y145.288 E16.45409
G1 X108.689 Y143.515 E16.53934
G1 X106.847 Y141.847 E16.62199
G1 X104.924 Y140.204 E16.70612
G1 X102.944 Y138.606 E16.79075
G1 X100.911 Y137.059 E16.87571
G1 X100.31 Y136.626 E16.90035
G1 X99.488 Y136.019 E16.93434
G1 X98.772 Y135.441 E16.96494
G1 X98.109 Y134.802 E16.99557
G1 X97.766 Y134.418 E17.01269
G1 X97.764 Y134.419 E17.01277
G1 X96 Y132.417 E17.10152
G1 X94.251 Y130.54 E17.18685
G1 X92.496 Y128.763 E17.26992
G1 X90.671 Y127.015 E17.35397
G1 X88.805 Y125.327 E17.43766
G1 X86.88 Y123.681 E17.5219
G1 X84.901 Y122.084 E17.60648
G1 X82.895 Y120.558 E17.69031
G1 X80.807 Y119.059 E17.7758
G1 X78.745 Y117.667 E17.85854
G1 X77.147 Y116.652 E17.92151
G1 X76.701 Y116.361 E17.93922
G1 X75.953 Y115.824 E17.96985
G1 X75.255 Y115.224 E18.00046
G1 X74.612 Y114.565 E18.03109
G1 X74.029 Y113.853 E18.06169
G1 X73.509 Y113.093 E18.09232
G1 X73.057 Y112.291 E18.12294
G1 X72.677 Y111.453 E18.15354
G1 X72.37 Y110.584 E18.1842
G1 X72.14 Y109.693 E18.2148
G1 X71.989 Y108.785 E18.24542
G1 X71.915 Y107.821 E18.27758
G1 X71.905 Y107.496 E18.28839
G1 X71.9 Y107.17 E18.29923
G1 X71.901 Y93.031 E18.7695
G1 X71.91 Y92.366 E18.79162
G1 X71.962 Y91.446 E18.82227
G1 X72.094 Y90.535 E18.85288
G1 X72.305 Y89.639 E18.8835
G1 X72.592 Y88.764 E18.91413
G1 X72.955 Y87.918 E18.94475
G1 X73.389 Y87.106 E18.97537
G1 X73.892 Y86.335 E19.00599
G1 X74.461 Y85.611 E19.03662
G1 X75.089 Y84.939 E19.06721
G1 X75.774 Y84.323 E19.09785
G0 F6000 X76.162 Y84.524
G1 F1200 X76.894 Y83.994 E19.12791
G1 X77.669 Y83.531 E19.15793
G1 X78.482 Y83.138 E19.18797
G1 X79.327 Y82.818 E19.21802
G1 X80.196 Y82.575 E19.24803
G1 X81.084 Y82.409 E19.27808
G1 X82.223 Y82.313 E19.31609
G1 X82.544 Y82.304 E19.32678
G1 X82.83 Y82.3 E19.33629
G1 X85.793 Y82.3 E19.43484
G1 X86.629 Y82.311 E19.46265
G1 X87.23 Y82.338 E19.48266
G1 X87.393 Y82.35 E19.48809
G1 X88.29 Y82.456 E19.51813
G1 X89.14 Y82.632 E19.547
G1 X89.35 Y82.685 E19.55421
G1 X89.911 Y82.844 E19.5736
G1 X90.508 Y83.032 E19.59442
G1 X93.037 Y83.786 E19.68219
G1 X95.508 Y84.448 E19.76728
G1 X97.95 Y85.029 E19.85077
G1 X100.401 Y85.541 E19.93405
G1 X102.961 Y85.999 E20.02054
G1 X105.455 Y86.371 E20.10441
G1 X107.977 Y86.677 E20.18891
G1 X110.522 Y86.912 E20.27392
G1 X113.03 Y87.073 E20.35751
G1 X115.587 Y87.163 E20.4426
G1 X118.123 Y87.182 E20.52695
G1 X120.661 Y87.128 E20.61139
G1 X123.214 Y87.002 E20.6964
G1 X125.721 Y86.807 E20.78004
G1 X128.276 Y86.535 E20.8655
G1 X130.761 Y86.2 E20.9489
G1 X133.294 Y85.785 E21.03427
G1 X135.746 Y85.311 E21.11733
G1 X138.273 Y84.749 E21.20343
G1 X140.697 Y84.137 E21.28659
G1 X143.165 Y83.44 E21.37188
G1 X144.99 Y82.875 E21.43543
G1 X145.156 Y82.825 E21.44119
G1 X145.455 Y82.738 E21.45155
G1 X146.333 Y82.524 E21.48161
G1 X147.285 Y82.383 E21.51362
G1 X147.504 Y82.361 E21.52094
G1 X148.375 Y82.311 E21.54995
G1 X149.208 Y82.3 E21.57766
G1 X151.939 Y82.301 E21.66849
G1 X152.637 Y82.311 E21.69171
G1 X153.539 Y82.364 E21.72177
G1 X154.432 Y82.496 E21.75179
G1 X155.31 Y82.707 E21.78182
G1 X156.166 Y82.995 E21.81186
G1 X156.993 Y83.357 E21.84189
G1 X157.785 Y83.792 E21.87194
G1 X158.536 Y84.294 E21.90199
G1 X159.239 Y84.861 E21.93203
G1 X159.889 Y85.488 E21.96206
G1 X160.481 Y86.17 E21.9921
G1 X161.011 Y86.901 E22.02213
G1 X161.473 Y87.677 E22.05217
G1 X161.866 Y88.49 E22.0822
G1 X162.184 Y89.335 E22.11223
G1 X162.427 Y90.205 E22.14228
G1 X162.592 Y91.093 E22.17232
G1 X162.687 Y92.215 E22.20977
G1 X162.696 Y92.526 E22.22012
G1 X162.7 Y92.821 E22.22993
G1 X162.699 Y141.89 E23.86197
G1 X162.69 Y142.617 E23.88615
G1 X162.639 Y143.519 E23.9162
G1 X162.508 Y144.413 E23.94625
G1 X162.299 Y145.291 E23.97627
G1 X162.013 Y146.148 E24.00632
G1 X161.652 Y146.976 E24.03636
G1 X161.22 Y147.768 E24.06637
G1 X160.719 Y148.52 E24.09642
G1 X160.153 Y149.224 E24.12647
G1 X159.528 Y149.875 E24.15648
G1 X158.847 Y150.469 E24.18654
G1 X158.116 Y151 E24.21659
G1 X157.342 Y151.464 E24.24661
G1 X156.529 Y151.858 E24.27665
G1 X155.685 Y152.178 E24.30668
G1 X154.815 Y152.423 E24.33674
G1 X153.928 Y152.589 E24.36675
G1 X152.777 Y152.687 E24.40517
G1 X152.456 Y152.696 E24.41585
G1 X152.17 Y152.7 E24.42537
G1 X123.062 Y152.699 E25.3935
G1 X122.36 Y152.689 E25.41685
G1 X121.458 Y152.636 E25.44691
G1 X120.565 Y152.504 E25.47693
G1 X119.687 Y152.293 E25.50696
G1 X118.831 Y152.005 E25.537
G1 X118.003 Y151.643 E25.56706
G1 X117.211 Y151.209 E25.5971
G1 X116.461 Y150.706 E25.62713
G1 X115.758 Y150.14 E25.65715
G1 X114.954 Y149.347 E25.69471
G1 X114.391 Y148.726 E25.72259
G1 X112.61 Y146.817 E25.80943
G1 X110.819 Y145.001 E25.89426
G1 X108.988 Y143.247 E25.97859
G1 X107.092 Y141.531 E26.06365
G1 X105.151 Y139.872 E26.14857
G1 X103.193 Y138.291 E26.23227
G1 X101.183 Y136.762 E26.31627
G1 X100.548 Y136.304 E26.34231
G1 X99.726 Y135.697 E26.3763
G1 X99.024 Y135.129 E26.40633
G1 X98.375 Y134.501 E26.43637
G1 X98.065 Y134.154 E26.45185
G1 X98.064 Y134.155 E26.45189
G1 X96.276 Y132.126 E26.54184
G1 X94.541 Y130.264 E26.62649
G1 X92.792 Y128.494 E26.70925
G1 X90.933 Y126.712 E26.7949
G1 X89.069 Y125.027 E26.87848
G1 X87.129 Y123.368 E26.96338
G1 X85.144 Y121.766 E27.04822
G1 X83.131 Y120.235 E27.13233
G1 X81.074 Y118.758 E27.21656
G1 X78.961 Y117.331 E27.30136
G1 X77.361 Y116.315 E27.3644
G1 X76.92 Y116.027 E27.38192
G1 X76.187 Y115.499 E27.41197
G1 X75.504 Y114.908 E27.44201
G1 X74.876 Y114.26 E27.47202
G1 X74.307 Y113.558 E27.50208
G1 X73.803 Y112.809 E27.5321
G1 X73.367 Y112.018 E27.56214
G1 X73.003 Y111.191 E27.5922
G1 X72.714 Y110.336 E27.62221
G1 X72.501 Y109.458 E27.65226
G1 X72.366 Y108.565 E27.6823
G1 X72.315 Y107.809 E27.7075
G1 X72.305 Y107.484 E27.71832
G1 X72.3 Y107.17 E27.72876
G1 X72.301 Y93.036 E28.19886
G1 X72.31 Y92.371 E28.22098
G1 X72.362 Y91.469 E28.25103
G1 X72.494 Y90.576 E28.28106
G1 X72.704 Y89.698 E28.31108
G1 X72.991 Y88.841 E28.34114
G1 X73.353 Y88.014 E28.37117
G1 X73.786 Y87.222 E28.40119
G1 X74.288 Y86.471 E28.43124
G1 X74.855 Y85.767 E28.4613
G1 X75.481 Y85.117 E28.49132
G1 X76.162 Y84.524 E28.52135
G1 F2700 E23.52135
;MESH:156576c7-bd56-40e6-9a72-8324d3c2d767.stl
G0 F6000 X82.92 Y91.835
G0 X82.92 Y92.92
G0 X83.282 Y106.718
G0 X106.207 Y107.072
G0 X106.561 Y126.718
G0 X122.928 Y127.072
G0 X123.1 Y141.9
;TYPE:WALL-INNER
G1 F2700 E28.52135
G1 F1200 X123.1 Y126.9 E29.02025
G1 X106.379 Y126.9 E29.57639
G1 X106.379 Y106.9 E30.2416
G1 X83.1 Y106.9 E31.01586
G1 X83.1 Y93.1 E31.47485
G1 X86.474 Y93.1 E31.58707
G1 X86.574 Y93.108 E31.59041
G1 X86.631 Y93.123 E31.59237
G1 X86.698 Y93.155 E31.59484
G1 X86.759 Y93.198 E31.59732
G1 X86.802 Y93.241 E31.59934
G1 X86.845 Y93.302 E31.60182
G1 X86.877 Y93.369 E31.60429
G1 X86.893 Y93.431 E31.60642
G1 X86.9 Y93.512 E31.60913
G1 X86.9 Y103.1 E31.92802
G1 X92.9 Y103.1 E32.12759
G1 X92.9 Y98.412 E32.28351
G1 X92.907 Y98.331 E32.28621
G1 X92.923 Y98.269 E32.28834
G1 X92.955 Y98.202 E32.29081
G1 X92.998 Y98.141 E32.29329
G1 X93.041 Y98.098 E32.29532
G1 X93.102 Y98.055 E32.2978
G1 X93.169 Y98.023 E32.30027
G1 X93.226 Y98.008 E32.30223
G1 X93.326 Y98 E32.30557
G1 X109.074 Y98 E32.82935
G1 X109.174 Y98.008 E32.83268
G1 X109.231 Y98.023 E32.83464
G1 X109.298 Y98.055 E32.83711
G1 X109.359 Y98.098 E32.8396
G1 X109.402 Y98.141 E32.84162
G1 X109.445 Y98.202 E32.8441
G1 X109.477 Y98.269 E32.84657
G1 X109.493 Y98.331 E32.8487
G1 X109.5 Y98.412 E32.8514
G1 X109.5 Y102.8 E32.99735
G1 X113.574 Y102.8 E33.13285
G1 X113.674 Y102.808 E33.13619
G1 X113.731 Y102.823 E33.13815
G1 X113.798 Y102.855 E33.14062
G1 X113.859 Y102.898 E33.1431
G1 X113.902 Y102.941 E33.14512
G1 X113.945 Y103.002 E33.1476
G1 X113.977 Y103.069 E33.15007
