;FLAVOR:Marlin
;TIME:2359
;Filament used: 1.82333m
;Layer height: 0.2
;MINX:94.908
;MINY:72.4
;MINZ:0.2
;MAXX:140.092
;MAXY:162.6
;MAXZ:10
;Generated with Cura_SteamEngine 4.7.1
M140 S60
M105
M190 S60
M104 S220
M105
M109 S220
M82 ;absolute extrusion mode
; Ender 3 Custom Start G-code
G92 E0 ; Reset Extruder
G28 ; Home all axes
G1 Z2.0 F3000 ; Move Z Axis up little to prevent scratching of Heat Bed
G1 X0.1 Y20 Z0.3 F5000.0 ; Move to start position
G1 X0.1 Y200.0 Z0.3 F1500.0 E15 ; Draw the first line
G1 X0.4 Y200.0 Z0.3 F5000.0 ; Move to side a little
G1 X0.4 Y20 Z0.3 F1500.0 E30 ; Draw the second line
G92 E0 ; Reset Extruder
G1 Z2.0 F3000 ; Move Z Axis up little to prevent scratching of Heat Bed
G1 X5 Y20 Z0.3 F5000.0 ; Move over to prevent blob squish
G92 E0
G92 E0
G1 F2700 E-5
;LAYER_COUNT:50
;LAYER:0
M107
G0 F6000 X105.593 Y76.963 Z0.2
;TYPE:SKIRT
G1 F2700 E0
G1 F1200 X106.174 Y76.227 E0.03119
G1 X106.816 Y75.543 E0.06239
G1 X107.514 Y74.917 E0.09357
G1 X108.263 Y74.352 E0.12478
G1 X109.057 Y73.854 E0.15595
G1 X109.891 Y73.424 E0.18716
G1 X110.759 Y73.068 E0.21836
G1 X111.653 Y72.786 E0.24954
G1 X112.569 Y72.582 E0.28075
G1 X113.498 Y72.456 E0.31194
G1 X114.134 Y72.416 E0.33313
G1 X114.282 Y72.411 E0.33806
G1 X114.519 Y72.406 E0.34594
G1 X115.062 Y72.4 E0.364
G1 X119.95 Y72.401 E0.52658
G1 X120.652 Y72.411 E0.54993
G1 X121.588 Y72.464 E0.58111
G1 X122.516 Y72.597 E0.61229
G1 X123.43 Y72.809 E0.6435
G1 X124.323 Y73.097 E0.67471
G1 X125.187 Y73.461 E0.70589
G1 X126.018 Y73.897 E0.7371
G1 X126.808 Y74.402 E0.76829
G1 X127.552 Y74.972 E0.79946
G1 X128.273 Y75.632 E0.83197
G1 X128.369 Y75.728 E0.83649
G1 X129.003 Y76.419 E0.86768
G1 X129.577 Y77.161 E0.89888
G1 X130.084 Y77.95 E0.93007
G1 X130.523 Y78.778 E0.96124
G1 X130.89 Y79.642 E0.99246
G1 X131.182 Y80.533 E1.02365
G1 X131.396 Y81.446 E1.05484
G1 X131.511 Y82.185 E1.07971
G1 X131.606 Y82.978 E1.10628
G1 X131.749 Y84.308 E1.15077
G1 X132.086 Y86.798 E1.23434
G1 X132.497 Y89.294 E1.31848
G1 X132.972 Y91.749 E1.40164
G1 X133.533 Y94.256 E1.48709
G1 X134.141 Y96.656 E1.56944
G1 X134.83 Y99.087 E1.65348
G1 X135.582 Y101.481 E1.73694
G1 X136.402 Y103.852 E1.82038
G1 X137.302 Y106.236 E1.90513
G1 X137.911 Y107.741 E1.95913
G1 X138.383 Y108.879 E2.00011
G1 X138.484 Y109.131 E2.00914
G1 X138.55 Y109.302 E2.01524
G1 X138.673 Y109.637 E2.02711
G1 X138.726 Y109.79 E2.03249
G1 X138.868 Y110.18 E2.0463
G1 X138.973 Y110.482 E2.05693
G1 X139.011 Y110.597 E2.06096
G1 X139.085 Y110.831 E2.06912
G1 X139.148 Y111.037 E2.07629
G1 X139.255 Y111.41 E2.08919
G1 X139.38 Y111.877 E2.10527
G1 X139.487 Y112.311 E2.12014
G1 X139.606 Y112.841 E2.13821
G1 X139.683 Y113.216 E2.15094
G1 X139.739 Y113.524 E2.16135
G1 X139.829 Y114.063 E2.17953
G1 X139.907 Y114.618 E2.19817
G1 X139.976 Y115.218 E2.21825
G1 X140.025 Y115.767 E2.23659
G1 X140.062 Y116.341 E2.25572
G1 X140.084 Y116.887 E2.27389
G1 X140.092 Y117.431 E2.29199
G1 X140.091 Y117.811 E2.30463
G1 X140.084 Y118.092 E2.31398
G1 X140.063 Y118.642 E2.33228
G1 X140.029 Y119.18 E2.35021
G1 X139.984 Y119.695 E2.36741
G1 X139.949 Y120.04 E2.37894
G1 X139.909 Y120.363 E2.38976
G1 X139.845 Y120.823 E2.40521
G1 X139.751 Y121.388 E2.42426
G1 X139.599 Y122.177 E2.45099
G1 X139.462 Y122.793 E2.47198
G1 X139.353 Y123.224 E2.48676
G1 X139.212 Y123.73 E2.50423
G1 X139.005 Y124.41 E2.52787
G1 X138.829 Y124.94 E2.54645
G1 X138.614 Y125.536 E2.56752
G1 X138.446 Y125.973 E2.58309
G1 X138.089 Y126.843 E2.61437
G1 X137.712 Y127.731 E2.64646
G1 X136.789 Y130.081 E2.73043
G1 X135.933 Y132.462 E2.81459
G1 X135.154 Y134.838 E2.89775
G1 X134.432 Y137.267 E2.98203
G1 X133.78 Y139.718 E3.06639
G1 X133.21 Y142.131 E3.14886
G1 X132.704 Y144.577 E3.23193
G1 X132.257 Y147.093 E3.31693
G1 X131.89 Y149.57 E3.40021
G1 X131.519 Y152.752 E3.50676
G1 X131.371 Y153.678 E3.53795
G1 X131.145 Y154.588 E3.56914
G1 X130.841 Y155.475 E3.60032
G1 X130.464 Y156.334 E3.63152
G1 X130.014 Y157.157 E3.66272
G1 X129.496 Y157.939 E3.69392
G1 X128.876 Y158.717 E3.72701
G1 X128.779 Y158.828 E3.73191
G1 X128.132 Y159.508 E3.76313
G1 X127.43 Y160.129 E3.7943
G1 X126.677 Y160.689 E3.82551
G1 X125.88 Y161.182 E3.85668
G1 X125.043 Y161.606 E3.88789
G1 X124.174 Y161.957 E3.91906
G1 X123.277 Y162.233 E3.95028
G1 X122.36 Y162.431 E3.98148
G1 X121.43 Y162.55 E4.01266
G1 X120.865 Y162.584 E4.03149
G1 X120.716 Y162.589 E4.03645
G1 X120.481 Y162.594 E4.04427
G1 X119.938 Y162.6 E4.06233
G1 X115.05 Y162.599 E4.2249
G1 X114.348 Y162.589 E4.24825
G1 X113.412 Y162.536 E4.27944
G1 X112.484 Y162.403 E4.31062
G1 X111.57 Y162.191 E4.34182
G1 X110.677 Y161.903 E4.37303
G1 X109.813 Y161.539 E4.40421
G1 X108.982 Y161.103 E4.43543
G1 X108.192 Y160.598 E4.46661
G1 X107.448 Y160.028 E4.49778
G1 X106.755 Y159.396 E4.52898
G1 X106.39 Y159.016 E4.5465
G1 X106.293 Y158.91 E4.55128
G1 X105.69 Y158.192 E4.58247
G1 X105.15 Y157.425 E4.61367
G1 X104.678 Y156.615 E4.64485
G1 X104.276 Y155.767 E4.67606
G1 X103.948 Y154.888 E4.70727
G1 X103.696 Y153.985 E4.73845
G1 X103.487 Y152.804 E4.77834
G1 X103.403 Y152.109 E4.80162
G1 X103.248 Y150.669 E4.84979
G1 X102.915 Y148.206 E4.93246
G1 X102.503 Y145.705 E5.01676
G1 X102.028 Y143.25 E5.09993
G1 X101.48 Y140.8 E5.18343
G1 X100.86 Y138.349 E5.26752
G1 X100.173 Y135.923 E5.35138
G1 X99.417 Y133.519 E5.4352
G1 X98.59 Y131.127 E5.51938
G1 X97.698 Y128.764 E5.60339
G1 X97.063 Y127.196 E5.65965
G1 X96.617 Y126.121 E5.69836
G1 X96.516 Y125.869 E5.70739
G1 X96.45 Y125.698 E5.71349
G1 X96.327 Y125.363 E5.72536
G1 X96.278 Y125.222 E5.73032
G1 X96.136 Y124.833 E5.7441
G1 X96.01 Y124.468 E5.75694
G1 X95.908 Y124.148 E5.76811
G1 X95.848 Y123.951 E5.77496
G1 X95.749 Y123.606 E5.7869
G1 X95.623 Y123.138 E5.80302
G1 X95.509 Y122.673 E5.81894
G1 X95.391 Y122.144 E5.83697
G1 X95.313 Y121.761 E5.84997
G1 X95.262 Y121.481 E5.85943
G1 X95.171 Y120.938 E5.87775
G1 X95.091 Y120.369 E5.89686
G1 X95.023 Y119.774 E5.91678
G1 X94.975 Y119.231 E5.93491
G1 X94.938 Y118.656 E5.95407
G1 X94.916 Y118.112 E5.97218
G1 X94.908 Y117.568 E5.99027
G1 X94.909 Y117.188 E6.00291
G1 X94.916 Y116.906 E6.0123
G1 X94.937 Y116.358 E6.03054
G1 X94.97 Y115.825 E6.0483
G1 X95.017 Y115.285 E6.06633
G1 X95.06 Y114.879 E6.0799
G1 X95.093 Y114.622 E6.08852
G1 X95.156 Y114.171 E6.10367
G1 X95.25 Y113.603 E6.12282
G1 X95.405 Y112.802 E6.14995
G1 X95.541 Y112.194 E6.17067
G1 X95.647 Y111.775 E6.18505
G1 X95.788 Y111.27 E6.20249
G1 X95.995 Y110.59 E6.22613
G1 X96.17 Y110.062 E6.24463
G1 X96.386 Y109.463 E6.26581
G1 X96.555 Y109.024 E6.28146
G1 X96.926 Y108.121 E6.31393
G1 X97.291 Y107.262 E6.34497
G1 X98.211 Y104.919 E6.42869
G1 X99.067 Y102.538 E6.51284
G1 X99.846 Y100.162 E6.59601
G1 X100.568 Y97.733 E6.68029
G1 X101.225 Y95.264 E6.76527
G1 X101.79 Y92.869 E6.84711
G1 X102.296 Y90.423 E6.93019
G1 X102.743 Y87.907 E7.01518
G1 X103.111 Y85.423 E7.0987
G1 X103.477 Y82.28 E7.20394
G1 X103.625 Y81.354 E7.23513
G1 X103.851 Y80.444 E7.26632
G1 X104.154 Y79.556 E7.29753
G1 X104.532 Y78.698 E7.32871
G1 X104.981 Y77.874 E7.35992
G1 X105.491 Y77.104 E7.39064
G1 X105.593 Y76.963 E7.39643
G0 F6000 X105.917 Y77.197
G1 F1200 X106.488 Y76.475 E7.42705
G1 X107.12 Y75.806 E7.45766
G1 X107.808 Y75.194 E7.48828
G1 X108.546 Y74.644 E7.51889
G1 X109.329 Y74.16 E7.54951
G1 X110.151 Y73.745 E7.58014
G1 X111.006 Y73.404 E7.61075
G1 X111.888 Y73.138 E7.64139
G1 X112.789 Y72.95 E7.67201
G1 X114.147 Y72.816 E7.71739
G1 X114.295 Y72.811 E7.72232
G1 X114.523 Y72.806 E7.7299
G1 X115.062 Y72.8 E7.74783
G1 X119.793 Y72.8 E7.90519
G1 X120.646 Y72.811 E7.93356
G1 X121.565 Y72.864 E7.96418
G1 X122.476 Y72.997 E7.9948
G1 X123.372 Y73.208 E8.02541
G1 X124.247 Y73.496 E8.05605
G1 X125.093 Y73.859 E8.08667
G1 X125.904 Y74.294 E8.11728
G1 X126.675 Y74.798 E8.14792
G1 X127.399 Y75.366 E8.17852
G1 X127.99 Y75.915 E8.20535
G1 X128.086 Y76.011 E8.20987
G1 X128.708 Y76.689 E8.24047
G1 X129.269 Y77.419 E8.27109
G1 X129.765 Y78.195 E8.30172
G1 X130.191 Y79.011 E8.33234
G1 X130.545 Y79.861 E8.36296
G1 X130.823 Y80.739 E8.3936
G1 X131.025 Y81.637 E8.42421
G1 X131.114 Y82.233 E8.44425
G1 X131.209 Y83.021 E8.47065
G1 X131.353 Y84.368 E8.51571
G1 X131.694 Y86.878 E8.59996
G1 X132.097 Y89.33 E8.68261
G1 X132.583 Y91.84 E8.76764
G1 X133.149 Y94.369 E8.85383
G1 X133.754 Y96.758 E8.9358
G1 X134.44 Y99.178 E9.01946
G1 X135.209 Y101.626 E9.10481
G1 X136.022 Y103.976 E9.18751
G1 X136.937 Y106.401 E9.27372
G1 X137.533 Y107.872 E9.32651
G1 X138.014 Y109.032 E9.36827
G1 X138.111 Y109.275 E9.37698
G1 X138.177 Y109.446 E9.38307
G1 X138.296 Y109.769 E9.39452
G1 X138.361 Y109.954 E9.40104
G1 X138.492 Y110.316 E9.41385
G1 X138.593 Y110.607 E9.42409
G1 X138.703 Y110.948 E9.43601
G1 X138.766 Y111.154 E9.44318
G1 X138.869 Y111.513 E9.4556
G1 X138.994 Y111.98 E9.47168
G1 X139.097 Y112.399 E9.48603
G1 X139.216 Y112.929 E9.50409
G1 X139.29 Y113.29 E9.51635
G1 X139.344 Y113.59 E9.52649
G1 X139.434 Y114.129 E9.54467
G1 X139.51 Y114.664 E9.56264
G1 X139.579 Y115.264 E9.58273
G1 X139.626 Y115.793 E9.60039
G1 X139.663 Y116.367 E9.61952
G1 X139.684 Y116.893 E9.63703
G1 X139.692 Y117.437 E9.65512
G1 X139.691 Y117.806 E9.6674
G1 X139.684 Y118.076 E9.67638
G1 X139.663 Y118.626 E9.69469
G1 X139.631 Y119.145 E9.71198
G1 X139.586 Y119.66 E9.72918
G1 X139.551 Y119.997 E9.74045
G1 X139.513 Y120.308 E9.75087
G1 X139.449 Y120.768 E9.76631
G1 X139.359 Y121.312 E9.78465
G1 X139.207 Y122.101 E9.81138
G1 X139.074 Y122.695 E9.83162
G1 X138.965 Y123.126 E9.84641
G1 X138.83 Y123.614 E9.86325
G1 X138.623 Y124.294 E9.88689
G1 X138.453 Y124.804 E9.90477
G1 X138.238 Y125.4 E9.92585
G1 X138.076 Y125.822 E9.94088
G1 X137.772 Y126.564 E9.96755
G1 X137.335 Y127.595 E10.00479
G1 X136.423 Y129.917 E10.08777
G1 X135.559 Y132.321 E10.17273
G1 X134.763 Y134.747 E10.25765
G1 X134.048 Y137.155 E10.3412
G1 X133.398 Y139.595 E10.42519
G1 X132.815 Y142.064 E10.50956
G1 X132.312 Y144.491 E10.592
G1 X131.861 Y147.036 E10.67797
G1 X131.495 Y149.504 E10.76095
G1 X131.122 Y152.705 E10.86814
G1 X130.976 Y153.614 E10.89876
G1 X130.751 Y154.507 E10.92939
G1 X130.45 Y155.377 E10.96001
G1 X130.075 Y156.218 E10.99063
G1 X129.628 Y157.023 E11.02126
G1 X129.113 Y157.786 E11.05187
G1 X128.575 Y158.454 E11.0804
G1 X128.478 Y158.565 E11.08531
G1 X127.842 Y159.231 E11.11593
G1 X127.152 Y159.84 E11.14654
G1 X126.411 Y160.386 E11.17716
G1 X125.625 Y160.866 E11.20779
G1 X124.801 Y161.277 E11.23842
G1 X123.944 Y161.614 E11.26904
G1 X123.061 Y161.875 E11.29967
G1 X122.159 Y162.059 E11.33029
G1 X120.852 Y162.184 E11.37396
G1 X120.703 Y162.189 E11.37892
G1 X120.477 Y162.194 E11.38643
G1 X119.938 Y162.2 E11.40436
G1 X115.056 Y162.199 E11.56674
G1 X114.354 Y162.189 E11.59009
G1 X113.435 Y162.136 E11.62071
G1 X112.524 Y162.003 E11.65133
G1 X111.628 Y161.792 E11.68194
G1 X110.753 Y161.504 E11.71258
G1 X109.907 Y161.141 E11.7432
G1 X109.096 Y160.706 E11.77381
G1 X108.325 Y160.202 E11.80445
G1 X107.601 Y159.634 E11.83505
G1 X106.685 Y158.746 E11.87749
G1 X106.588 Y158.64 E11.88227
G1 X105.997 Y157.934 E11.91289
G1 X105.469 Y157.18 E11.9435
G1 X105.008 Y156.383 E11.97413
G1 X104.618 Y155.549 E12.00475
G1 X104.303 Y154.684 E12.03537
G1 X104.063 Y153.795 E12.06599
G1 X103.885 Y152.756 E12.10106
G1 X103.784 Y151.915 E12.12923
G1 X103.648 Y150.645 E12.17171
G1 X103.306 Y148.119 E12.25649
G1 X102.903 Y145.669 E12.33907
G1 X102.417 Y143.158 E12.42414
G1 X101.864 Y140.686 E12.50839
G1 X101.244 Y138.235 E12.59248
G1 X100.556 Y135.808 E12.67638
G1 X99.801 Y133.406 E12.76013
G1 X98.97 Y131.003 E12.8447
G1 X98.063 Y128.599 E12.93015
G1 X97.467 Y127.128 E12.98294
G1 X96.986 Y125.968 E13.02471
G1 X96.889 Y125.725 E13.03341
G1 X96.823 Y125.554 E13.03951
G1 X96.704 Y125.231 E13.05096
G1 X96.636 Y125.036 E13.05783
G1 X96.512 Y124.696 E13.06986
G1 X96.391 Y124.344 E13.08224
G1 X96.291 Y124.031 E13.09317
G1 X96.231 Y123.834 E13.10002
G1 X96.135 Y123.502 E13.11152
G1 X96.009 Y123.034 E13.12764
G1 X95.899 Y122.586 E13.14298
G1 X95.781 Y122.057 E13.16101
G1 X95.706 Y121.688 E13.17353
G1 X95.657 Y121.415 E13.18276
G1 X95.566 Y120.872 E13.20107
G1 X95.489 Y120.324 E13.21947
G1 X95.421 Y119.729 E13.23939
G1 X95.374 Y119.206 E13.25686
G1 X95.337 Y118.631 E13.27602
G1 X95.316 Y118.106 E13.2935
G1 X95.308 Y117.562 E13.31159
G1 X95.309 Y117.193 E13.32387
G1 X95.316 Y116.921 E13.33292
G1 X95.337 Y116.373 E13.35116
G1 X95.369 Y115.86 E13.36825
G1 X95.416 Y115.32 E13.38628
G1 X95.446 Y115.02 E13.39631
G1 X95.489 Y114.678 E13.40777
G1 X95.552 Y114.227 E13.42292
G1 X95.643 Y113.679 E13.44139
G1 X95.798 Y112.878 E13.46853
G1 X95.929 Y112.292 E13.4885
G1 X96.035 Y111.873 E13.50288
G1 X96.17 Y111.386 E13.51968
G1 X96.377 Y110.706 E13.54333
G1 X96.547 Y110.197 E13.56117
G1 X96.763 Y109.598 E13.58235
G1 X96.925 Y109.176 E13.59739
G1 X97.294 Y108.277 E13.62971
G1 X97.673 Y107.385 E13.66194
G1 X98.577 Y105.083 E13.7442
G1 X99.444 Y102.672 E13.82942
G1 X100.237 Y100.253 E13.91409
G1 X100.952 Y97.845 E13.99763
G1 X101.602 Y95.405 E14.08162
G1 X102.185 Y92.936 E14.166
G1 X102.688 Y90.509 E14.24843
G1 X103.139 Y87.964 E14.3344
G1 X103.506 Y85.494 E14.41745
G1 X103.874 Y82.326 E14.52353
G1 X104.02 Y81.417 E14.55415
G1 X104.244 Y80.524 E14.58477
G1 X104.545 Y79.654 E14.61539
G1 X104.921 Y78.814 E14.646
G1 X105.367 Y78.009 E14.67661
G1 X105.815 Y77.338 E14.70345
G1 X105.917 Y77.197 E14.70923
G0 F6000 X106.241 Y77.432
G1 F1200 X106.802 Y76.724 E14.73928
G1 X107.424 Y76.069 E14.76932
G1 X108.101 Y75.471 E14.79937
G1 X108.828 Y74.936 E14.82939
G1 X109.6 Y74.467 E14.85943
G1 X110.41 Y74.068 E14.88946
G1 X111.252 Y73.743 E14.91948
G1 X112.12 Y73.493 E14.94953
G1 X113.007 Y73.321 E14.97958
G1 X114.161 Y73.216 E15.01812
G1 X114.528 Y73.206 E15.03033
G1 X115.062 Y73.2 E15.04809
G1 X119.793 Y73.2 E15.20544
G1 X120.64 Y73.211 E15.23362
G1 X121.542 Y73.264 E15.26367
G1 X122.435 Y73.396 E15.29369
G1 X123.313 Y73.607 E15.32373
G1 X124.169 Y73.895 E15.35377
G1 X124.997 Y74.257 E15.38382
G1 X125.789 Y74.691 E15.41386
G1 X126.539 Y75.194 E15.4439
G1 X127.242 Y75.76 E15.47392
G1 X127.707 Y76.198 E15.49516
G1 X127.803 Y76.294 E15.49968
G1 X128.413 Y76.96 E15.52972
G1 X128.962 Y77.677 E15.55975
G1 X129.444 Y78.441 E15.5898
G1 X129.858 Y79.244 E15.61985
G1 X130.198 Y80.08 E15.64986
G1 X130.464 Y80.943 E15.6799
G1 X130.652 Y81.826 E15.70993
G1 X130.717 Y82.281 E15.72521
G1 X130.811 Y83.064 E15.75144
G1 X130.953 Y84.393 E15.7959
G1 X131.297 Y86.927 E15.88095
G1 X131.709 Y89.433 E15.96542
G1 X132.193 Y91.932 E16.05008
G1 X132.756 Y94.449 E16.13587
G1 X133.367 Y96.86 E16.21859
G1 X134.059 Y99.302 E16.30301
G1 X134.825 Y101.74 E16.38801
G1 X135.641 Y104.1 E16.47106
G1 X136.558 Y106.529 E16.55741
G1 X137.196 Y108.104 E16.61393
G1 X137.644 Y109.185 E16.65285
G1 X137.738 Y109.419 E16.66124
G1 X137.804 Y109.59 E16.66734
G1 X137.918 Y109.901 E16.67835
G1 X137.957 Y110.014 E16.68233
G1 X138.116 Y110.452 E16.69783
G1 X138.213 Y110.733 E16.70772
G1 X138.32 Y111.065 E16.71932
G1 X138.383 Y111.271 E16.72648
G1 X138.482 Y111.617 E16.73845
G1 X138.607 Y112.084 E16.75453
G1 X138.706 Y112.486 E16.7683
G1 X138.825 Y113.016 E16.78637
G1 X138.897 Y113.364 E16.79819
G1 X138.95 Y113.656 E16.80806
G1 X139.04 Y114.195 E16.82623
G1 X139.112 Y114.71 E16.84353
G1 X139.181 Y115.31 E16.86362
G1 X139.227 Y115.819 E16.88061
G1 X139.264 Y116.393 E16.89975
G1 X139.284 Y116.899 E16.91659
G1 X139.292 Y117.443 E16.93468
G1 X139.291 Y117.801 E16.94659
G1 X139.285 Y118.061 E16.95524
G1 X139.264 Y118.611 E16.97355
G1 X139.232 Y119.11 E16.99018
G1 X139.187 Y119.625 E17.00737
G1 X139.154 Y119.953 E17.01834
G1 X139.117 Y120.253 E17.02839
G1 X139.053 Y120.713 E17.04384
G1 X138.966 Y121.237 E17.0615
G1 X138.814 Y122.026 E17.08823
G1 X138.687 Y122.597 E17.10768
G1 X138.578 Y123.028 E17.12247
G1 X138.447 Y123.497 E17.13867
G1 X138.24 Y124.177 E17.16231
G1 X138.077 Y124.668 E17.17952
G1 X137.862 Y125.264 E17.20059
G1 X137.706 Y125.67 E17.21506
G1 X137.402 Y126.412 E17.24173
G1 X136.971 Y127.428 E17.27843
G1 X136.039 Y129.803 E17.36329
G1 X135.183 Y132.184 E17.44744
G1 X134.386 Y134.614 E17.5325
G1 X133.671 Y137.018 E17.61592
G1 X133.006 Y139.514 E17.70184
G1 X132.42 Y141.996 E17.78666
G1 X131.92 Y144.412 E17.86872
G1 X131.471 Y146.945 E17.95428
G1 X131.098 Y149.46 E18.03884
