;FLAVOR:Marlin
;TIME:27481
;Filament used: 26.7562m
;Layer height: 0.2
;MINX:41.5
;MINY:24.016
;MINZ:0.2
;MAXX:193.5
;MAXY:211
;MAXZ:14
;Generated with Cura_SteamEngine 4.7.1
M140 S55
M105
M190 S55
M104 S200
M105
M109 S200
M82 ;absolute extrusion mode
; Ender 3 Custom Start G-code
G92 E0 ; Reset Extruder
G28 ; Home all axes
G1 Z2.0 F3000 ; Move Z Axis up little to prevent scratching of Heat Bed
G1 X0.1 Y20 Z0.3 F5000.0 ; Move to start position
G1 X0.1 Y200.0 Z0.3 F1500.0 E15 ; Draw the first line
G1 X0.4 Y200.0 Z0.3 F5000.0 ; Move to side a little
G1 X0.4 Y20 Z0.3 F1500.0 E30 ; Draw the second line
G92 E0 ; Reset Extruder
G1 Z2.0 F3000 ; Move Z Axis up little to prevent scratching of Heat Bed
G1 X5 Y20 Z0.3 F5000.0 ; Move over to prevent blob squish
G92 E0
G92 E0
G1 F2700 E-5
;LAYER_COUNT:70
;LAYER:0
M107
G0 F6000 X85.457 Y43.641 Z0.2
;TYPE:SKIRT
G1 F2700 E0
G1 F1200 X85.843 Y42.902 E0.02773
G1 X86.154 Y42.325 E0.04953
G1 X86.472 Y41.774 E0.07069
G1 X87.008 Y40.906 E0.10462
G1 X87.441 Y40.227 E0.13141
G1 X87.815 Y39.657 E0.15408
G1 X88.191 Y39.12 E0.17588
G1 X88.682 Y38.461 E0.20322
G1 X89.311 Y37.64 E0.23762
G1 X89.687 Y37.163 E0.25782
G1 X90.113 Y36.656 E0.27984
G1 X90.802 Y35.884 E0.31426
G1 X91.344 Y35.295 E0.34088
G1 X91.818 Y34.793 E0.36385
G1 X92.256 Y34.355 E0.38445
G1 X92.869 Y33.775 E0.41252
G1 X93.004 Y33.649 E0.41866
G1 X93.587 Y33.117 E0.44491
G1 X94.104 Y32.657 E0.46793
G1 X94.585 Y32.253 E0.48882
G1 X95.206 Y31.761 E0.51517
G1 X95.338 Y31.658 E0.52074
G1 X95.915 Y31.215 E0.54493
G1 X96.054 Y31.11 E0.55073
G1 X96.579 Y30.72 E0.57248
G1 X97.084 Y30.366 E0.59299
G1 X97.759 Y29.921 E0.61988
G1 X98.503 Y29.446 E0.64924
G1 X99.208 Y29.011 E0.67679
G1 X99.726 Y28.711 E0.6967
G1 X100.456 Y28.315 E0.72433
G1 X101.359 Y27.844 E0.7582
G1 X101.977 Y27.533 E0.78121
G1 X102.573 Y27.255 E0.80308
G1 X103.263 Y26.958 E0.82807
G1 X104.244 Y26.552 E0.86338
G1 X104.857 Y26.308 E0.88532
G1 X105.455 Y26.09 E0.90649
G1 X106.198 Y25.843 E0.93254
G1 X106.365 Y25.789 E0.93837
G1 X107.165 Y25.538 E0.96626
G1 X107.854 Y25.332 E0.99018
G1 X108.458 Y25.17 E1.01098
G1 X109.437 Y24.938 E1.04444
G1 X110.087 Y24.794 E1.06659
G1 X110.885 Y24.627 E1.0937
G1 X111.541 Y24.511 E1.11586
G1 X112.467 Y24.376 E1.14698
G1 X113.31 Y24.266 E1.17526
G1 X114.007 Y24.184 E1.1986
G1 X114.649 Y24.128 E1.22004
G1 X115.617 Y24.072 E1.25229
G1 X116.283 Y24.042 E1.27446
G1 X117.152 Y24.016 E1.30338
G1 X117.79 Y24.016 E1.3246
G1 X118.762 Y24.045 E1.35694
G1 X119.419 Y24.073 E1.37881
G1 X120.277 Y24.122 E1.40739
G1 X120.908 Y24.177 E1.42846
G1 X121.76 Y24.276 E1.45699
G1 X121.929 Y24.297 E1.46265
G1 X122.73 Y24.403 E1.48953
G1 X123.405 Y24.502 E1.51222
G1 X124.016 Y24.61 E1.53285
G1 X124.993 Y24.811 E1.56603
G1 X125.645 Y24.956 E1.58825
G1 X126.486 Y25.155 E1.61699
G1 X127.079 Y25.313 E1.6374
G1 X127.849 Y25.542 E1.66412
G1 X128.679 Y25.803 E1.69306
G1 X129.463 Y26.061 E1.72051
G1 X130.071 Y26.282 E1.74203
G1 X130.971 Y26.64 E1.77424
G1 X131.634 Y26.914 E1.7981
G1 X131.795 Y26.982 E1.80392
G1 X132.383 Y27.236 E1.82522
G1 X132.946 Y27.498 E1.84587
G1 X133.689 Y27.87 E1.87351
G1 X134.456 Y28.268 E1.90225
G1 X134.604 Y28.346 E1.90781
G1 X135.182 Y28.658 E1.92966
G1 X135.724 Y28.971 E1.95048
G1 X136.455 Y29.421 E1.97903
G1 X137.251 Y29.928 E2.01042
G1 X137.833 Y30.309 E2.03355
G1 X138.377 Y30.689 E2.05563
G1 X139.141 Y31.259 E2.08733
G1 X139.84 Y31.796 E2.11665
G1 X140.335 Y32.186 E2.13761
G1 X140.845 Y32.613 E2.15973
G1 X141.469 Y33.169 E2.18753
G1 X142.196 Y33.835 E2.22032
G1 X142.705 Y34.316 E2.24361
G1 X143.139 Y34.749 E2.264
G1 X143.724 Y35.367 E2.29231
G1 X143.855 Y35.508 E2.29871
G1 X144.374 Y36.077 E2.32432
G1 X144.839 Y36.599 E2.34757
G1 X145.25 Y37.089 E2.36885
G1 X145.843 Y37.84 E2.40067
G1 X146.375 Y38.535 E2.42978
G1 X146.772 Y39.068 E2.45189
G1 X147.13 Y39.579 E2.47264
G1 X147.669 Y40.397 E2.50522
G1 X148.057 Y41.007 E2.52927
G1 X148.485 Y41.701 E2.55639
G1 X148.789 Y42.226 E2.57656
G1 X149.185 Y42.956 E2.60419
G1 X149.272 Y43.119 E2.61033
G1 X149.559 Y43.67 E2.63099
G1 X149.962 Y44.468 E2.66073
G1 X150.241 Y45.064 E2.68262
G1 X150.603 Y45.906 E2.7131
G1 X150.894 Y46.61 E2.73844
G1 X151.186 Y47.342 E2.76465
G1 X151.406 Y47.944 E2.78597
G1 X151.451 Y48.08 E2.79073
G1 X152.323 Y50.588 E2.87905
G1 X153.213 Y52.935 E2.96253
G1 X154.166 Y55.247 E3.0457
G1 X155.192 Y57.547 E3.12947
G1 X156.292 Y59.839 E3.21403
G1 X157.438 Y62.061 E3.29718
G1 X158.648 Y64.255 E3.38052
G1 X159.925 Y66.421 E3.46415
G1 X161.265 Y68.557 E3.54801
G1 X162.671 Y70.661 E3.63218
G1 X164.133 Y72.72 E3.71617
G1 X165.634 Y74.713 E3.79915
G1 X167.207 Y76.683 E3.883
G1 X168.839 Y78.611 E3.96701
G1 X170.532 Y80.501 E4.05141
G1 X172.224 Y82.287 E4.13324
G1 X174.05 Y84.107 E4.21898
G1 X175.853 Y85.805 E4.30136
G1 X177.744 Y87.487 E4.38553
G1 X179.672 Y89.107 E4.46929
G1 X181.634 Y90.664 E4.5526
G1 X183.666 Y92.185 E4.63702
G1 X184.397 Y92.701 E4.66678
G1 X185.087 Y93.204 E4.69518
G1 X185.588 Y93.592 E4.71626
G1 X185.752 Y93.727 E4.72332
G1 X185.971 Y93.913 E4.73288
G1 X186.274 Y94.176 E4.74622
G1 X186.444 Y94.326 E4.75376
G1 X186.937 Y94.772 E4.77588
G1 X187.591 Y95.415 E4.80638
G1 X187.808 Y95.647 E4.81695
G1 X188.033 Y95.895 E4.82808
G1 X188.322 Y96.225 E4.84267
G1 X188.796 Y96.78 E4.86695
G1 X189.4 Y97.556 E4.89965
G1 X189.52 Y97.725 E4.90655
G1 X189.655 Y97.919 E4.91441
G1 X189.851 Y98.208 E4.92602
G1 X189.973 Y98.391 E4.93334
G1 X190.373 Y99.007 E4.95777
G1 X190.852 Y99.82 E4.98915
G1 X191.003 Y100.103 E4.99982
G1 X191.161 Y100.411 E5.01133
G1 X191.342 Y100.778 E5.02494
G1 X191.653 Y101.429 E5.04894
G1 X192.001 Y102.241 E5.07832
G1 X192.071 Y102.424 E5.08484
G1 X192.185 Y102.736 E5.09589
G1 X192.317 Y103.115 E5.10924
G1 X192.402 Y103.369 E5.11815
G1 X192.623 Y104.057 E5.14218
G1 X192.849 Y104.865 E5.17009
G1 X192.903 Y105.091 E5.17781
G1 X192.982 Y105.447 E5.18994
G1 X193.051 Y105.785 E5.20142
G1 X193.093 Y106.003 E5.2088
G1 X193.226 Y106.729 E5.23335
G1 X193.36 Y107.707 E5.26618
G1 X193.392 Y108.056 E5.27784
G1 X193.414 Y108.335 E5.28715
G1 X193.439 Y108.728 E5.30024
G1 X193.464 Y109.219 E5.3166
G1 X193.476 Y109.569 E5.32824
G1 X193.498 Y110.729 E5.36683
G1 X193.5 Y110.938 E5.37378
G1 X193.499 Y114.427 E5.48983
G1 X193.488 Y115.163 E5.51431
G1 X193.434 Y116.1 E5.54553
G1 X193.3 Y117.028 E5.57671
G1 X193.088 Y117.942 E5.60792
G1 X192.7 Y119.09 E5.64822
G1 X192.351 Y119.961 E5.67943
G1 X192.006 Y120.788 E5.70924
G1 X191.085 Y123.175 E5.79433
G1 X190.255 Y125.522 E5.87713
G1 X189.478 Y127.932 E5.96135
G1 X188.783 Y130.321 E6.0441
G1 X188.138 Y132.793 E6.12908
G1 X187.584 Y135.186 E6.21077
G1 X187.076 Y137.713 E6.2965
G1 X186.651 Y140.185 E6.37993
G1 X186.296 Y142.672 E6.46348
G1 X186.015 Y145.144 E6.54623
G1 X185.795 Y147.702 E6.63163
G1 X185.652 Y150.205 E6.71501
G1 X185.581 Y152.693 E6.7978
G1 X185.579 Y155.218 E6.88178
G1 X185.65 Y157.747 E6.96593
G1 X185.79 Y160.252 E7.04937
G1 X186.004 Y162.782 E7.13382
G1 X186.285 Y165.261 E7.2168
G1 X186.639 Y167.755 E7.30058
G1 X187.066 Y170.255 E7.38494
G1 X187.554 Y172.699 E7.46783
G1 X188.113 Y175.137 E7.55102
G1 X188.755 Y177.607 E7.63591
G1 X189.45 Y180.002 E7.71885
G1 X190.224 Y182.413 E7.80307
G1 X191.05 Y184.757 E7.88573
G1 X191.634 Y186.26 E7.93936
G1 X192.094 Y187.484 E7.98285
G1 X192.185 Y187.736 E7.99177
G1 X192.317 Y188.115 E8.00511
G1 X192.402 Y188.369 E8.01402
G1 X192.623 Y189.057 E8.03806
G1 X192.849 Y189.865 E8.06596
G1 X192.903 Y190.091 E8.07369
G1 X192.987 Y190.471 E8.08663
G1 X193.055 Y190.808 E8.09807
G1 X193.09 Y190.99 E8.10423
G1 X193.224 Y191.717 E8.12882
G1 X193.36 Y192.707 E8.16206
G1 X193.392 Y193.056 E8.17371
G1 X193.414 Y193.335 E8.18302
G1 X193.439 Y193.728 E8.19612
G1 X193.464 Y194.219 E8.21247
G1 X193.476 Y194.569 E8.22412
G1 X193.498 Y195.729 E8.26271
G1 X193.5 Y195.938 E8.26966
G1 X193.499 Y199.414 E8.38527
G1 X193.489 Y200.142 E8.40949
G1 X193.436 Y201.078 E8.44067
G1 X193.304 Y202.007 E8.47188
G1 X193.093 Y202.921 E8.50308
G1 X192.805 Y203.813 E8.53425
G1 X192.441 Y204.678 E8.56547
G1 X192.006 Y205.509 E8.59666
G1 X191.501 Y206.299 E8.62785
G1 X190.931 Y207.044 E8.65905
G1 X190.3 Y207.737 E8.69022
G1 X189.612 Y208.374 E8.72141
G1 X188.872 Y208.951 E8.75262
G1 X188.085 Y209.462 E8.78383
G1 X187.258 Y209.904 E8.81501
G1 X186.396 Y210.274 E8.84621
G1 X185.506 Y210.569 E8.8774
G1 X184.594 Y210.788 E8.9086
G1 X183.667 Y210.928 E8.93978
G1 X182.799 Y210.987 E8.96871
G1 X182.479 Y210.996 E8.97936
G1 X182.17 Y211 E8.98964
G1 X53.207 Y211 E13.27897
G1 X52.367 Y210.99 E13.30691
G1 X51.431 Y210.938 E13.33809
G1 X50.502 Y210.806 E13.36929
G1 X49.588 Y210.596 E13.40049
G1 X48.695 Y210.309 E13.43168
G1 X47.83 Y209.946 E13.46288
G1 X46.999 Y209.512 E13.49407
G1 X46.208 Y209.008 E13.52526
G1 X45.463 Y208.438 E13.55646
G1 X44.769 Y207.807 E13.58766
G1 X44.132 Y207.12 E13.61882
G1 X43.555 Y206.38 E13.65003
G1 X43.043 Y205.594 E13.68123
G1 X42.6 Y204.767 E13.71243
G1 X42.229 Y203.906 E13.74362
G1 X41.933 Y203.016 E13.77481
G1 X41.714 Y202.104 E13.80601
G1 X41.573 Y201.177 E13.83719
G1 X41.512 Y200.268 E13.86749
G1 X41.503 Y199.911 E13.87937
G1 X41.5 Y199.631 E13.88869
G1 X41.502 Y195.523 E14.02532
G1 X41.508 Y195.081 E14.04002
G1 X41.519 Y194.709 E14.0524
G1 X41.568 Y193.675 E14.08683
G1 X41.591 Y193.319 E14.09869
G1 X41.631 Y192.819 E14.11538
G1 X41.751 Y191.858 E14.14759
G1 X41.811 Y191.504 E14.15953
G1 X41.868 Y191.194 E14.17001
G1 X41.947 Y190.803 E14.18328
G1 X42.096 Y190.107 E14.20695
G1 X42.326 Y189.215 E14.23759
G1 X42.411 Y188.935 E14.24733
G1 X42.516 Y188.61 E14.25869
G1 X42.674 Y188.145 E14.27502
G1 X42.908 Y187.487 E14.29825
G1 X43.013 Y187.204 E14.30829
G1 X43.393 Y186.222 E14.34331
G1 X44.309 Y183.753 E14.4309
G1 X45.104 Y181.408 E14.51325
G1 X45.852 Y178.981 E14.59772
G1 X46.52 Y176.568 E14.681
G1 X47.128 Y174.106 E14.76534
G1 X47.654 Y171.69 E14.84758
G1 X48.123 Y169.191 E14.93215
G1 X48.52 Y166.686 E15.01651
G1 X48.841 Y164.214 E15.09942
G1 X49.097 Y161.686 E15.18393
G1 X49.278 Y159.188 E15.26723
G1 X49.388 Y156.693 E15.35029
G1 X49.429 Y154.134 E15.43542
G1 X49.398 Y151.644 E15.51824
G1 X49.296 Y149.126 E15.60206
G1 X49.122 Y146.609 E15.68598
G1 X48.878 Y144.114 E15.76936
G1 X48.561 Y141.604 E15.8535
G1 X48.171 Y139.093 E15.93802
G1 X47.723 Y136.658 E16.02037
G1 X47.196 Y134.191 E16.10427
G1 X46.603 Y131.753 E16.18772
G1 X45.933 Y129.301 E16.27227
G1 X45.202 Y126.897 E16.35584
G1 X44.405 Y124.521 E16.43919
G1 X43.539 Y122.162 E16.52277
G1 X42.479 Y119.519 E16.61749
G1 X42.356 Y119.225 E16.62809
G1 X42.033 Y118.344 E16.6593
G1 X41.785 Y117.44 E16.69047
G1 X41.616 Y116.517 E16.72168
G1 X41.515 Y115.337 E16.76107
G1 X41.505 Y115.016 E16.77175
G1 X41.5 Y114.67 E16.78326
G1 X41.502 Y110.523 E16.92119
G1 X41.508 Y110.081 E16.9359
G1 X41.519 Y109.709 E16.94827
G1 X41.568 Y108.675 E16.9827
G1 X41.591 Y108.319 E16.99457
G1 X41.631 Y107.819 E17.01125
G1 X41.751 Y106.858 E17.04346
G1 X41.811 Y106.504 E17.05541
G1 X41.868 Y106.194 E17.06589
G1 X41.947 Y105.803 E17.07916
G1 X42.096 Y105.107 E17.10283
G1 X42.326 Y104.215 E17.13347
G1 X42.411 Y103.935 E17.1432
G1 X42.516 Y103.61 E17.15456
G1 X42.672 Y103.149 E17.17075
G1 X42.905 Y102.493 E17.1939
G1 X43.247 Y101.645 E17.22431
G1 X43.327 Y101.468 E17.23077
G1 X43.452 Y101.202 E17.24055
G1 X43.639 Y100.816 E17.25482
G1 X43.754 Y100.584 E17.26343
G1 X44.068 Y99.973 E17.28628
G1 X44.509 Y99.195 E17.31602
G1 X44.66 Y98.952 E17.32554
G1 X44.803 Y98.728 E17.33437
G1 X44.94 Y98.519 E17.34269
G1 X45.087 Y98.301 E17.35143
G1 X45.537 Y97.649 E17.37778
G1 X46.096 Y96.908 E17.40865
G1 X46.226 Y96.75 E17.41546
G1 X46.413 Y96.529 E17.42509
G1 X46.676 Y96.226 E17.43843
G1 X46.825 Y96.057 E17.44593
G1 X47.27 Y95.565 E17.46799
G1 X47.93 Y94.896 E17.49925
G1 X48.164 Y94.678 E17.50988
G1 X48.376 Y94.485 E17.51942
G1 X48.583 Y94.302 E17.52861
G1 X49.28 Y93.705 E17.55913
G1 X50.025 Y93.121 E17.59062
G1 X50.821 Y92.552 E17.62316
G1 X52.872 Y91.038 E17.70795
G1 X54.87 Y89.476 E17.7923
G1 X56.796 Y87.878 E17.87554
G1 X58.698 Y86.209 E17.9597
G1 X60.553 Y84.485 E18.04393
G1 X62.317 Y82.751 E18.1262
G1 X64.076 Y80.92 E18.21065
G1 X65.759 Y79.066 E18.29393
G1 X67.416 Y77.134 E18.37859
G1 X68.997 Y75.182 E18.46213
G1 X70.506 Y73.206 E18.54483
G1 X71.995 Y71.139 E18.62956
G1 X73.406 Y69.056 E18.71324
G1 X74.75 Y66.948 E18.79639
G1 X76.051 Y64.772 E18.88071
G1 X77.271 Y62.596 E18.96368
G1 X78.45 Y60.348 E19.04811
G1 X79.557 Y58.08 E19.13205
G1 X80.589 Y55.806 E19.21511
G1 X81.542 Y53.541 E19.29684
G1 X82.473 Y51.139 E19.38252
G1 X83.596 Y47.937 E19.49538
G1 X83.597 Y47.938 E19.49543
G1 X83.779 Y47.435 E19.51322
G1 X84.083 Y46.668 E19.54066
G1 X84.147 Y46.51 E19.54633
G1 X84.418 Y45.856 E19.56988
G1 X84.741 Y45.106 E19.59704
G1 X85.005 Y44.54 E19.61781
G1 X85.457 Y43.641 E19.65128
G0 F6000 X85.737 Y43.971
G1 F1200 X86.195 Y43.092 E19.68424
G1 X86.506 Y42.515 E19.70604
G1 X86.812 Y41.984 E19.72643
G1 X87.345 Y41.121 E19.76016
G1 X87.775 Y40.447 E19.78676
G1 X88.149 Y39.877 E19.80943
G1 X88.512 Y39.359 E19.83047
G1 X89.091 Y38.583 E19.86267
G1 X89.625 Y37.888 E19.89182
G1 X90.001 Y37.411 E19.91202
G1 X90.412 Y36.922 E19.93327
G1 X91.097 Y36.154 E19.9675
G1 X91.533 Y35.679 E19.98894
G1 X92.109 Y35.068 E20.01687
G1 X92.531 Y34.645 E20.03674
G1 X93.144 Y34.065 E20.06481
G1 X93.274 Y33.944 E20.07072
G1 X93.744 Y33.514 E20.09191
G1 X94.37 Y32.956 E20.1198
G1 X94.833 Y32.567 E20.13991
G1 X95.582 Y31.975 E20.17167
G1 X96.159 Y31.532 E20.19586
G1 X96.818 Y31.041 E20.22319
G1 X97.305 Y30.7 E20.24297
G1 X98.117 Y30.166 E20.27529
G1 X98.861 Y29.693 E20.30461
G1 X99.417 Y29.351 E20.32633
G1 X99.917 Y29.063 E20.34552
G1 X100.805 Y28.582 E20.37911
G1 X101.539 Y28.201 E20.40661
G1 X102.157 Y27.89 E20.42962
G1 X102.731 Y27.623 E20.45068
G1 X103.555 Y27.269 E20.48051
G1 X104.255 Y26.979 E20.50571
G1 X105.005 Y26.68 E20.53256
G1 X105.581 Y26.469 E20.55297
G1 X106.324 Y26.222 E20.57901
G1 X106.485 Y26.17 E20.58463
G1 X107.28 Y25.921 E20.61234
G1 X107.969 Y25.715 E20.63626
G1 X108.551 Y25.559 E20.6563
G1 X109.362 Y25.366 E20.68403
G1 X109.523 Y25.329 E20.68952
G1 X110.3 Y25.158 E20.71599
G1 X110.966 Y25.019 E20.73861
G1 X111.599 Y24.906 E20.76
G1 X112.372 Y24.793 E20.78598
G1 X113.209 Y24.682 E20.81407
G1 X114.053 Y24.582 E20.84233
G1 X114.673 Y24.527 E20.86304
G1 X115.493 Y24.479 E20.89036
G1 X116.472 Y24.435 E20.92295
G1 X117.164 Y24.415 E20.94598
G1 X117.779 Y24.415 E20.96643
G1 X118.603 Y24.439 E20.99385
G1 X119.567 Y24.481 E21.02594
G1 X120.254 Y24.521 E21.04883
G1 X120.861 Y24.574 E21.0691
G1 X121.877 Y24.693 E21.10312
G1 X122.672 Y24.799 E21.1298
G1 X123.347 Y24.898 E21.15249
G1 X123.935 Y25.001 E21.17234
G1 X124.731 Y25.164 E21.19937
G1 X125.558 Y25.347 E21.22754
G1 X125.707 Y25.381 E21.23262
G1 X126.393 Y25.544 E21.25607
G1 X126.965 Y25.697 E21.27577
G1 X127.903 Y25.977 E21.30832
G1 X128.559 Y26.184 E21.3312
G1 X129.338 Y26.441 E21.35849
G1 X129.924 Y26.653 E21.37921
G1 X130.68 Y26.953 E21.40627
G1 X131.482 Y27.284 E21.43512
G1 X131.636 Y27.349 E21.44068
G1 X132.224 Y27.603 E21.46199
G1 X132.767 Y27.856 E21.48191
G1 X133.51 Y28.228 E21.50955
G1 X133.657 Y28.303 E21.51504
G1 X134.414 Y28.698 E21.54344
G1 X134.992 Y29.01 E21.56528
G1 X135.514 Y29.311 E21.58532
G1 X136.245 Y29.761 E21.61387
G1 X137.032 Y30.262 E21.6449
G1 X137.614 Y30.643 E21.66804
G1 X138.138 Y31.01 E21.68932
G1 X138.898 Y31.576 E21.72083
G1 X139.48 Y32.022 E21.74522
G1 X140.087 Y32.5 E21.77092
G1 X140.579 Y32.912 E21.79226
G1 X141.304 Y33.559 E21.82458
G1 X141.794 Y34.007 E21.84667
G1 X142.43 Y34.607 E21.87575
G1 X142.848 Y35.024 E21.89538
G1 X143.433 Y35.642 E21.92369
G1 X144.075 Y36.343 E21.9553
G1 X144.54 Y36.865 E21.97856
G1 X144.936 Y37.337 E21.99905
G1 X145.526 Y38.083 E22.03068
G1 X145.964 Y38.654 E22.05462
G1 X146.451 Y39.307 E22.08171
G1 X146.796 Y39.799 E22.1017
G1 X147.233 Y40.461 E22.12808
G1 X147.331 Y40.612 E22.13407
G1 X147.8 Y41.351 E22.16318
G1 X148.145 Y41.911 E22.18505
G1 X148.437 Y42.417 E22.20449
G1 X148.917 Y43.304 E22.23803
G1 X149.267 Y43.978 E22.26329
G1 X149.605 Y44.648 E22.28825
G1 X149.874 Y45.222 E22.30933
G1 X150.17 Y45.908 E22.33418
G1 X150.577 Y46.892 E22.3696
G1 X150.815 Y47.49 E22.39101
