;FLAVOR:Marlin
;TIME:5349
;Filament used: 4.06886m
;Layer height: 0.2
;MINX:40.767
;MINY:74.72
;MINZ:0.4
;MAXX:186.241
;MAXY:155.197
;MAXZ:7
;Generated with Cura_SteamEngine 4.7.1
M140 S55
M105
M190 S55
M104 S200
M105
M109 S200
M82 ;absolute extrusion mode
; Ender 3 Custom Start G-code
G92 E0 ; Reset Extruder
G28 ; Home all axes
G1 Z2.0 F3000 ; Move Z Axis up little to prevent scratching of Heat Bed
G1 X0.1 Y20 Z0.3 F5000.0 ; Move to start position
G1 X0.1 Y200.0 Z0.3 F1500.0 E15 ; Draw the first line
G1 X0.4 Y200.0 Z0.3 F5000.0 ; Move to side a little
G1 X0.4 Y20 Z0.3 F1500.0 E30 ; Draw the second line
G92 E0 ; Reset Extruder
G1 Z2.0 F3000 ; Move Z Axis up little to prevent scratching of Heat Bed
G1 X5 Y20 Z0.3 F5000.0 ; Move over to prevent blob squish
G92 E0
G92 E0
G1 F2700 E-5
;LAYER_COUNT:34
;LAYER:0
M107
G0 F6000 X57.956 Y81.973 Z0.4
;TYPE:SKIRT
G1 F2700 E0
G1 F1200 X58.84 Y81.373 E0.07107
G1 X59.149 Y81.172 E0.09559
G1 X59.932 Y80.678 E0.15718
G1 X60.254 Y80.482 E0.18225
G1 X61.136 Y79.967 E0.25019
G1 X61.443 Y79.794 E0.27363
G1 X62.292 Y79.334 E0.33786
G1 X62.622 Y79.163 E0.36259
G1 X63.49 Y78.73 E0.42711
G1 X63.837 Y78.564 E0.4527
G1 X64.756 Y78.145 E0.51989
G1 X65.093 Y77.998 E0.54435
G1 X65.987 Y77.626 E0.60876
G1 X66.32 Y77.494 E0.63259
G1 X67.2 Y77.161 E0.69517
G1 X67.555 Y77.033 E0.72028
G1 X68.556 Y76.693 E0.7906
G1 X68.906 Y76.581 E0.81505
G1 X69.801 Y76.31 E0.87725
G1 X70.16 Y76.208 E0.90208
G1 X71.122 Y75.952 E0.9683
G1 X71.478 Y75.864 E0.99269
G1 X72.449 Y75.64 E1.05898
G1 X72.801 Y75.564 E1.08293
G1 X73.722 Y75.383 E1.14537
G1 X74.097 Y75.316 E1.17071
G1 X75.142 Y75.148 E1.24112
G1 X75.507 Y75.096 E1.26564
G1 X76.376 Y74.986 E1.32391
G1 X76.735 Y74.947 E1.34793
G1 X77.807 Y74.847 E1.41955
G1 X78.193 Y74.817 E1.4453
G1 X79.126 Y74.763 E1.50747
G1 X79.488 Y74.748 E1.53157
G1 X80.493 Y74.723 E1.59844
G1 X80.858 Y74.72 E1.62273
G1 X81.82 Y74.728 E1.68672
G1 X82.179 Y74.737 E1.71061
G1 X83.18 Y74.778 E1.77725
G1 X83.568 Y74.801 E1.80311
G1 X84.55 Y74.876 E1.86862
G1 X84.905 Y74.909 E1.89234
G1 X85.831 Y75.01 E1.9543
G1 X86.214 Y75.058 E1.97998
G1 X87.285 Y75.213 E2.05196
G1 X87.638 Y75.27 E2.07575
G1 X88.497 Y75.423 E2.13379
G1 X88.844 Y75.491 E2.15731
G1 X89.87 Y75.708 E2.22707
G1 X90.253 Y75.796 E2.25321
G1 X91.978 Y76.226 E2.37147
G1 X94.513 Y76.819 E2.54465
G1 X96.855 Y77.298 E2.70366
G1 X99.444 Y77.75 E2.87849
G1 X101.924 Y78.112 E3.04521
G1 X104.44 Y78.406 E3.21371
G1 X106.932 Y78.626 E3.38013
G1 X109.428 Y78.776 E3.54646
G1 X111.975 Y78.857 E3.71597
G1 X114.465 Y78.864 E3.88161
G1 X116.996 Y78.801 E4.05002
G1 X119.536 Y78.666 E4.21922
G1 X122.001 Y78.464 E4.38375
G1 X124.545 Y78.184 E4.554
G1 X126.989 Y77.844 E4.71814
G1 X129.519 Y77.419 E4.88879
G1 X131.962 Y76.937 E5.05443
G1 X134.415 Y76.381 E5.22175
G1 X136.08 Y75.958 E5.33602
G1 X136.318 Y75.901 E5.3523
G1 X137.449 Y75.64 E5.42951
G1 X137.803 Y75.564 E5.4536
G1 X138.725 Y75.383 E5.5161
G1 X139.096 Y75.317 E5.54117
G1 X140.14 Y75.149 E5.61151
G1 X140.507 Y75.096 E5.63617
G1 X141.376 Y74.986 E5.69444
G1 X141.735 Y74.947 E5.71846
G1 X142.807 Y74.847 E5.79008
G1 X143.193 Y74.817 E5.81583
G1 X144.126 Y74.763 E5.878
G1 X144.488 Y74.748 E5.9021
G1 X145.493 Y74.723 E5.96898
G1 X145.858 Y74.72 E5.99326
G1 X146.821 Y74.728 E6.05732
G1 X147.181 Y74.737 E6.08127
G1 X148.18 Y74.778 E6.14778
G1 X148.565 Y74.801 E6.17344
G1 X149.549 Y74.876 E6.23908
G1 X149.908 Y74.909 E6.26307
G1 X150.832 Y75.01 E6.3249
G1 X151.208 Y75.058 E6.35011
G1 X152.268 Y75.211 E6.42135
G1 X152.621 Y75.268 E6.44514
G1 X153.499 Y75.424 E6.50446
G1 X153.869 Y75.496 E6.52953
G1 X154.896 Y75.715 E6.59939
G1 X155.25 Y75.797 E6.62356
G1 X156.145 Y76.019 E6.6849
G1 X156.511 Y76.116 E6.71008
G1 X157.515 Y76.402 E6.77953
G1 X157.868 Y76.509 E6.80406
G1 X158.742 Y76.79 E6.86513
G1 X159.09 Y76.908 E6.88958
G1 X160.096 Y77.269 E6.96067
G1 X160.448 Y77.402 E6.98571
G1 X161.305 Y77.743 E7.04706
G1 X161.627 Y77.878 E7.07029
G1 X162.537 Y78.274 E7.1363
G1 X162.89 Y78.435 E7.16211
G1 X163.769 Y78.855 E7.22692
G1 X164.086 Y79.013 E7.25048
G1 X164.976 Y79.474 E7.31715
G1 X165.317 Y79.658 E7.34292
G1 X166.144 Y80.124 E7.40607
G1 X166.457 Y80.307 E7.43019
G1 X167.352 Y80.851 E7.49986
G1 X167.659 Y81.044 E7.52398
G1 X168.413 Y81.537 E7.58391
G1 X168.727 Y81.75 E7.60915
G1 X169.579 Y82.35 E7.67846
G1 X169.876 Y82.567 E7.70293
G1 X170.649 Y83.151 E7.76738
G1 X170.931 Y83.372 E7.79121
G1 X171.681 Y83.978 E7.85535
G1 X171.973 Y84.222 E7.88066
G1 X172.716 Y84.866 E7.94607
G1 X172.989 Y85.111 E7.97047
G1 X173.714 Y85.783 E8.03623
G1 X173.987 Y86.044 E8.06135
G1 X174.697 Y86.749 E8.12791
G1 X174.944 Y87.003 E8.15148
G1 X175.603 Y87.701 E8.21533
G1 X175.86 Y87.983 E8.24071
G1 X176.51 Y88.721 E8.30613
G1 X176.745 Y88.997 E8.33025
G1 X177.362 Y89.746 E8.3948
G1 X177.586 Y90.027 E8.4187
G1 X178.193 Y90.815 E8.48487
G1 X178.418 Y91.118 E8.50997
G1 X178.996 Y91.924 E8.57595
G1 X179.213 Y92.238 E8.60134
G1 X179.753 Y93.049 E8.66615
G1 X179.949 Y93.354 E8.69027
G1 X180.466 Y94.189 E8.7556
G1 X180.656 Y94.507 E8.78024
G1 X181.139 Y95.349 E8.84481
G1 X181.316 Y95.671 E8.86925
G1 X181.793 Y96.571 E8.93701
G1 X181.958 Y96.895 E8.9612
G1 X182.379 Y97.757 E9.02501
G1 X182.541 Y98.104 E9.05049
G1 X182.937 Y98.992 E9.11516
G1 X183.076 Y99.316 E9.13862
G1 X183.451 Y100.235 E9.20464
G1 X183.589 Y100.592 E9.2301
G1 X183.929 Y101.516 E9.29559
G1 X184.052 Y101.869 E9.32046
G1 X184.369 Y102.83 E9.38778
G1 X184.475 Y103.17 E9.41147
G1 X184.742 Y104.077 E9.47436
G1 X184.846 Y104.453 E9.50031
G1 X185.094 Y105.421 E9.56678
G1 X185.174 Y105.756 E9.58969
G1 X185.383 Y106.693 E9.65355
G1 X185.46 Y107.068 E9.67902
G1 X185.647 Y108.069 E9.74676
G1 X185.708 Y108.43 E9.77111
G1 X185.852 Y109.374 E9.83463
G1 X185.902 Y109.746 E9.8596
G1 X186.017 Y110.722 E9.92497
G1 X186.054 Y111.086 E9.94931
G1 X186.137 Y112.072 E10.01513
G1 X186.162 Y112.433 E10.03921
G1 X186.212 Y113.41 E10.10428
G1 X186.225 Y113.794 E10.12984
G1 X186.241 Y114.781 E10.1955
G1 X186.24 Y115.141 E10.21945
G1 X186.224 Y116.109 E10.28385
G1 X186.212 Y116.479 E10.30848
G1 X186.162 Y117.475 E10.37481
G1 X186.138 Y117.837 E10.39895
G1 X186.058 Y118.797 E10.46303
G1 X186.019 Y119.182 E10.48877
G1 X185.897 Y120.208 E10.5575
G1 X185.848 Y120.567 E10.5816
G1 X185.708 Y121.485 E10.64337
G1 X185.647 Y121.845 E10.66766
G1 X185.46 Y122.847 E10.73547
G1 X185.387 Y123.204 E10.75971
G1 X185.18 Y124.14 E10.82347
G1 X185.091 Y124.513 E10.84898
G1 X184.841 Y125.482 E10.91555
G1 X184.742 Y125.84 E10.94026
G1 X184.475 Y126.747 E11.00315
G1 X184.369 Y127.087 E11.02684
G1 X184.053 Y128.045 E11.09395
G1 X183.932 Y128.394 E11.11852
G1 X183.592 Y129.319 E11.18407
G1 X183.455 Y129.673 E11.20932
G1 X183.084 Y130.584 E11.27476
G1 X182.933 Y130.937 E11.3003
G1 X182.532 Y131.831 E11.36547
G1 X182.388 Y132.138 E11.38803
G1 X181.97 Y132.998 E11.45164
G1 X181.801 Y133.331 E11.47648
G1 X181.315 Y134.25 E11.54563
G1 X181.132 Y134.583 E11.57091
G1 X180.662 Y135.402 E11.63372
G1 X180.472 Y135.719 E11.65831
G1 X179.961 Y136.544 E11.72286
G1 X179.766 Y136.849 E11.74694
G1 X179.208 Y137.687 E11.81391
G1 X178.99 Y138.002 E11.83939
G1 X178.424 Y138.791 E11.90399
G1 X178.21 Y139.079 E11.92785
G1 X177.604 Y139.868 E11.99403
G1 X177.372 Y140.16 E12.01884
G1 X176.752 Y140.913 E12.08373
G1 X176.517 Y141.189 E12.10784
G1 X175.892 Y141.899 E12.17076
G1 X175.645 Y142.17 E12.19515
G1 X174.941 Y142.918 E12.26348
G1 X174.669 Y143.197 E12.2894
G1 X173.982 Y143.877 E12.3537
G1 X173.736 Y144.113 E12.37638
G1 X173.005 Y144.793 E12.44279
G1 X172.703 Y145.064 E12.46978
G1 X171.962 Y145.704 E12.53491
G1 X171.704 Y145.92 E12.5573
G1 X170.95 Y146.532 E12.62189
G1 X170.64 Y146.775 E12.6481
G1 X169.864 Y147.36 E12.71274
G1 X169.573 Y147.572 E12.73669
G1 X168.746 Y148.154 E12.80396
G1 X168.445 Y148.358 E12.82815
G1 X167.644 Y148.883 E12.89186
G1 X167.312 Y149.092 E12.91795
G1 X166.45 Y149.614 E12.98499
G1 X166.153 Y149.788 E13.00788
G1 X165.296 Y150.271 E13.07332
G1 X164.959 Y150.453 E13.0988
G1 X164.126 Y150.885 E13.16122
G1 X163.81 Y151.043 E13.18472
G1 X162.882 Y151.487 E13.25315
G1 X162.528 Y151.648 E13.27902
G1 X161.649 Y152.031 E13.3428
G1 X161.317 Y152.17 E13.36675
G1 X160.416 Y152.528 E13.43124
G1 X160.063 Y152.661 E13.45633
G1 X159.097 Y153.007 E13.52459
G1 X158.753 Y153.124 E13.54876
G1 X157.866 Y153.409 E13.61073
G1 X157.51 Y153.516 E13.63546
G1 X156.508 Y153.801 E13.70476
G1 X156.151 Y153.897 E13.72935
G1 X155.221 Y154.128 E13.79309
G1 X154.867 Y154.209 E13.81725
G1 X153.959 Y154.403 E13.87901
G1 X153.588 Y154.476 E13.90416
G1 X152.565 Y154.658 E13.97328
G1 X152.201 Y154.716 E13.9978
G1 X151.205 Y154.859 E14.06474
G1 X150.843 Y154.905 E14.08901
G1 X149.914 Y155.007 E14.15118
G1 X149.55 Y155.041 E14.1755
G1 X148.567 Y155.116 E14.24108
G1 X148.193 Y155.138 E14.266
G1 X147.219 Y155.179 E14.33085
G1 X146.842 Y155.189 E14.35593
G1 X145.817 Y155.197 E14.42412
G1 X145.456 Y155.194 E14.44813
G1 X144.497 Y155.17 E14.51195
G1 X144.123 Y155.154 E14.53685
G1 X143.142 Y155.096 E14.60222
G1 X142.78 Y155.068 E14.62637
G1 X141.805 Y154.978 E14.6915
G1 X141.432 Y154.938 E14.71646
G1 X140.486 Y154.818 E14.77989
G1 X140.118 Y154.765 E14.80462
G1 X139.089 Y154.599 E14.87396
G1 X138.747 Y154.538 E14.89707
G1 X137.829 Y154.36 E14.95927
G1 X137.447 Y154.279 E14.98524
G1 X136.261 Y154.005 E15.06622
G1 X136.056 Y153.955 E15.08025
G1 X133.962 Y153.429 E15.22387
G1 X131.533 Y152.891 E15.38937
G1 X129.045 Y152.413 E15.5579
G1 X126.568 Y152.011 E15.72482
G1 X124.052 Y151.674 E15.89368
G1 X121.557 Y151.413 E16.06056
G1 X119.027 Y151.219 E16.22935
G1 X116.541 Y151.099 E16.39491
G1 X114.022 Y151.05 E16.5625
G1 X111.494 Y151.072 E16.73067
G1 X108.974 Y151.164 E16.89842
G1 X106.457 Y151.329 E17.06621
G1 X103.965 Y151.562 E17.2327
G1 X101.445 Y151.87 E17.40158
G1 X98.979 Y152.243 E17.56748
G1 X96.49 Y152.691 E17.73571
G1 X94.061 Y153.199 E17.90078
G1 X91.93 Y153.703 E18.04645
G1 X90.236 Y154.124 E18.16256
G1 X89.878 Y154.207 E18.18701
G1 X88.931 Y154.409 E18.25142
G1 X88.562 Y154.481 E18.27643
G1 X87.578 Y154.656 E18.34291
G1 X87.215 Y154.714 E18.36737
G1 X86.205 Y154.859 E18.43524
G1 X85.843 Y154.905 E18.45951
G1 X84.914 Y155.007 E18.52168
G1 X84.55 Y155.041 E18.546
G1 X83.567 Y155.116 E18.61158
G1 X83.193 Y155.138 E18.6365
G1 X82.219 Y155.179 E18.70135
G1 X81.842 Y155.189 E18.72644
G1 X80.817 Y155.197 E18.79462
G1 X80.456 Y155.194 E18.81864
G1 X79.497 Y155.17 E18.88245
G1 X79.123 Y155.154 E18.90735
G1 X78.142 Y155.096 E18.97272
G1 X77.78 Y155.068 E18.99688
G1 X76.805 Y154.978 E19.06201
G1 X76.432 Y154.938 E19.08696
G1 X75.486 Y154.818 E19.15039
G1 X75.118 Y154.765 E19.17513
G1 X74.089 Y154.599 E19.24446
G1 X73.747 Y154.538 E19.26757
G1 X72.829 Y154.36 E19.32977
G1 X72.437 Y154.276 E19.35644
G1 X71.463 Y154.05 E19.42295
G1 X71.118 Y153.964 E19.4466
G1 X70.153 Y153.707 E19.51303
G1 X69.801 Y153.607 E19.53738
G1 X68.878 Y153.328 E19.60152
G1 X68.512 Y153.211 E19.62708
G1 X67.582 Y152.894 E19.69244
G1 X67.251 Y152.775 E19.71583
G1 X66.349 Y152.435 E19.77996
G1 X65.996 Y152.295 E19.80522
G1 X65.039 Y151.896 E19.87419
G1 X64.702 Y151.749 E19.89865
G1 X63.859 Y151.364 E19.96029
G1 X63.527 Y151.205 E19.98478
G1 X62.603 Y150.745 E20.05344
G1 X62.28 Y150.578 E20.07763
G1 X61.513 Y150.164 E20.13561
G1 X61.18 Y149.976 E20.16105
G1 X60.198 Y149.401 E20.23674
G1 X59.882 Y149.209 E20.26134
G1 X59.149 Y148.746 E20.31901
G1 X58.841 Y148.545 E20.34348
G1 X57.952 Y147.941 E20.41497
G1 X57.655 Y147.731 E20.43917
G1 X56.932 Y147.204 E20.49868
G1 X56.642 Y146.986 E20.52282
G1 X55.844 Y146.363 E20.59016
G1 X55.547 Y146.122 E20.6156
G1 X54.762 Y145.464 E20.68374
G1 X54.486 Y145.225 E20.70803
G1 X53.811 Y144.62 E20.76832
G1 X53.539 Y144.368 E20.79299
G1 X52.78 Y143.64 E20.86295
G1 X52.52 Y143.382 E20.88731
G1 X51.846 Y142.691 E20.95152
G1 X51.59 Y142.42 E20.97632
G1 X50.941 Y141.708 E21.04041
G1 X50.696 Y141.43 E21.06506
G1 X50.036 Y140.655 E21.13277
G1 X49.797 Y140.364 E21.15782
G1 X49.226 Y139.645 E21.2189
G1 X49.005 Y139.357 E21.24304
G1 X48.373 Y138.505 E21.31361
G1 X48.163 Y138.212 E21.33759
G1 X47.646 Y137.465 E21.39802
G1 X47.442 Y137.16 E21.42243
G1 X46.896 Y136.312 E21.48952
G1 X46.693 Y135.983 E21.51524
G1 X46.174 Y135.111 E21.58274
G1 X45.997 Y134.803 E21.60637
G1 X45.537 Y133.97 E21.66967
G1 X45.36 Y133.635 E21.69487
G1 X44.924 Y132.777 E21.75889
G1 X44.761 Y132.444 E21.78355
G1 X44.303 Y131.462 E21.85563
G1 X44.152 Y131.123 E21.88032
G1 X43.827 Y130.36 E21.93549
G1 X43.692 Y130.029 E21.95927
G1 X43.286 Y128.983 E22.0339
G1 X43.158 Y128.635 E22.05857
G1 X42.867 Y127.803 E22.1172
G1 X42.75 Y127.45 E22.14194
G1 X42.444 Y126.47 E22.21023
G1 X42.339 Y126.112 E22.23505
G1 X42.076 Y125.157 E22.30094
G1 X41.981 Y124.787 E22.32635
G1 X41.765 Y123.881 E22.38831
G1 X41.689 Y123.54 E22.41155
G1 X41.478 Y122.511 E22.48142
G1 X41.407 Y122.13 E22.5072
G1 X41.252 Y121.211 E22.5692
G1 X41.198 Y120.855 E22.59315
G1 X41.061 Y119.841 E22.66122
G1 X41.019 Y119.485 E22.68506
G1 X40.925 Y118.564 E22.74664
G1 X40.893 Y118.183 E22.77208
G1 X40.822 Y117.124 E22.84268
G1 X40.803 Y116.754 E22.86733
G1 X40.773 Y115.854 E22.92723
G1 X40.767 Y115.488 E22.95158
G1 X40.767 Y114.434 E23.02169
G1 X40.773 Y114.067 E23.04611
G1 X40.803 Y113.169 E23.10587
G1 X40.822 Y112.792 E23.13098
G1 X40.896 Y111.701 E23.20372
G1 X40.927 Y111.341 E23.22776
G1 X41.015 Y110.469 E23.28606
G1 X41.057 Y110.106 E23.31037
G1 X41.198 Y109.058 E23.38071
G1 X41.256 Y108.678 E23.40628
G1 X41.412 Y107.762 E23.46809
G1 X41.477 Y107.416 E23.49151
G1 X41.678 Y106.428 E23.55858
G1 X41.759 Y106.062 E23.58351
G1 X41.987 Y105.109 E23.6487
G1 X42.084 Y104.732 E23.67459
G1 X42.349 Y103.775 E23.74065
G1 X42.449 Y103.434 E23.76428
G1 X42.747 Y102.479 E23.83083
G1 X42.864 Y102.126 E23.85557
G1 X43.165 Y101.265 E23.91624
G1 X43.289 Y100.929 E23.94007
G1 X43.669 Y99.946 E24.01017
G1 X43.814 Y99.59 E24.03574
G1 X44.19 Y98.71 E24.0994
G1 X44.34 Y98.374 E24.12388
G1 X44.756 Y97.484 E24.18923
G1 X44.916 Y97.156 E24.2135
G1 X45.365 Y96.273 E24.2794
G1 X45.532 Y95.957 E24.30317
G1 X45.987 Y95.13 E24.36596
G1 X46.182 Y94.79 E24.39204
G1 X46.703 Y93.918 E24.45961
G1 X46.887 Y93.62 E24.4829
G1 X47.431 Y92.772 E24.54992
G1 X47.651 Y92.444 E24.57619
G1 X48.169 Y91.697 E24.63666
G1 X48.373 Y91.412 E24.65998
G1 X49.005 Y90.56 E24.73054
G1 X49.226 Y90.272 E24.75469
G1 X49.797 Y89.553 E24.81577
G1 X50.04 Y89.257 E24.84124
G1 X50.711 Y88.47 E24.91004
G1 X50.953 Y88.196 E24.93436
G1 X51.604 Y87.482 E24.99863
G1 X51.862 Y87.208 E25.02367
G1 X52.523 Y86.531 E25.08661
G1 X52.78 Y86.277 E25.11064
G1 X53.539 Y85.549 E25.1806
G1 X53.811 Y85.297 E25.20527
G1 X54.486 Y84.692 E25.26556
G1 X54.764 Y84.451 E25.29004
G1 X55.553 Y83.79 E25.35851
G1 X55.847 Y83.552 E25.38367
G1 X56.641 Y82.932 E25.45068
G1 X56.932 Y82.713 E25.47491
G1 X57.655 Y82.186 E25.53442
G1 X57.956 Y81.973 E25.55895
G0 F6000 X58.181 Y82.304
G1 F1200 X59.065 Y81.704 E25.63002
G1 X59.362 Y81.51 E25.65362
G1 X60.145 Y81.016 E25.7152
G1 X60.456 Y80.827 E25.73941
G1 X61.338 Y80.312 E25.80735
G1 X61.633 Y80.146 E25.82987
G1 X62.482 Y79.686 E25.8941
G1 X62.8 Y79.521 E25.91793
G1 X63.668 Y79.088 E25.98246
G1 X64.003 Y78.928 E26.00715
G1 X64.922 Y78.509 E26.07434
G1 X65.247 Y78.367 E26.09793
G1 X66.141 Y77.995 E26.16234
G1 X66.461 Y77.868 E26.18525
G1 X67.341 Y77.535 E26.24783
G1 X67.684 Y77.412 E26.27207
G1 X68.685 Y77.072 E26.3424
G1 X69.022 Y76.964 E26.36594
G1 X69.917 Y76.693 E26.42814
G1 X70.263 Y76.594 E26.45208
G1 X71.225 Y76.338 E26.5183
G1 X71.568 Y76.253 E26.54181
G1 X72.539 Y76.029 E26.6081
G1 X72.878 Y75.957 E26.63115
G1 X73.799 Y75.776 E26.69359
G1 X74.16 Y75.711 E26.71799
G1 X75.205 Y75.543 E26.78839
G1 X75.557 Y75.493 E26.81204
G1 X76.426 Y75.383 E26.87031
G1 X76.772 Y75.345 E26.89346
G1 X77.844 Y75.245 E26.96508
G1 X78.217 Y75.217 E26.98997
G1 X79.15 Y75.163 E27.05213
G1 X79.498 Y75.148 E27.0753
G1 X80.503 Y75.123 E27.14218
G1 X80.855 Y75.12 E27.16559
G1 X81.817 Y75.128 E27.22959
G1 X82.163 Y75.137 E27.25261
G1 X83.164 Y75.178 E27.31925
G1 X83.537 Y75.2 E27.34411
G1 X84.519 Y75.275 E27.40962
G1 X84.861 Y75.306 E27.43247
G1 X85.787 Y75.407 E27.49443
