;FLAVOR:Marlin
;TIME:4283
;Filament used: 2.09979m
;Layer height: 0.2
;MINX:75.62
;MINY:70.5
;MINZ:0.2
;MAXX:159.375
;MAXY:164.483
;MAXZ:12
;Generated with Cura_SteamEngine 4.7.1
M140 S60
M105
M190 S60
M104 S220
M105
M109 S220
M82 ;absolute extrusion mode
; Ender 3 Custom Start G-code
G92 E0 ; Reset Extruder
G28 ; Home all axes
G1 Z2.0 F3000 ; Move Z Axis up little to prevent scratching of Heat Bed
G1 X0.1 Y20 Z0.3 F5000.0 ; Move to start position
G1 X0.1 Y200.0 Z0.3 F1500.0 E15 ; Draw the first line
G1 X0.4 Y200.0 Z0.3 F5000.0 ; Move to side a little
G1 X0.4 Y20 Z0.3 F1500.0 E30 ; Draw the second line
G92 E0 ; Reset Extruder
G1 Z2.0 F3000 ; Move Z Axis up little to prevent scratching of Heat Bed
G1 X5 Y20 Z0.3 F5000.0 ; Move over to prevent blob squish
G92 E0
G92 E0
G1 F2700 E-5
;LAYER_COUNT:60
;LAYER:0
M107
G0 F6000 X94.997 Y83.103 Z0.2
;TYPE:SKIRT
G1 F2700 E0
G1 F1200 X95.207 Y82.868 E0.01048
G1 X95.413 Y82.644 E0.0206
G1 X95.672 Y82.372 E0.0331
G1 X96.441 Y81.591 E0.06955
G1 X96.585 Y81.447 E0.07632
G1 X97.333 Y80.715 E0.11113
G1 X97.952 Y80.125 E0.13958
G1 X98.16 Y79.931 E0.14904
G1 X98.371 Y79.74 E0.1585
G1 X98.649 Y79.496 E0.1708
G1 X99.933 Y78.41 E0.22674
G1 X100.336 Y78.077 E0.24413
G1 X100.642 Y77.834 E0.25712
G1 X101.472 Y77.198 E0.2919
G1 X101.78 Y76.971 E0.30463
G1 X102.027 Y76.795 E0.31471
G1 X102.273 Y76.624 E0.32468
G1 X102.871 Y76.222 E0.34864
G1 X103.185 Y76.018 E0.3611
G1 X103.411 Y75.877 E0.36996
G1 X103.693 Y75.707 E0.38091
G1 X104.59 Y75.184 E0.41544
G1 X104.906 Y75.005 E0.42752
G1 X105.69 Y74.58 E0.45718
G1 X105.967 Y74.435 E0.46758
G1 X106.654 Y74.089 E0.49317
G1 X107.058 Y73.892 E0.50812
G1 X107.544 Y73.663 E0.52599
G1 X107.851 Y73.524 E0.5372
G1 X108.772 Y73.124 E0.57059
G1 X109.088 Y72.993 E0.58197
G1 X109.455 Y72.847 E0.59511
G1 X109.831 Y72.705 E0.60847
G1 X111.033 Y72.277 E0.65091
G1 X111.36 Y72.167 E0.66239
G1 X111.93 Y71.984 E0.6823
G1 X112.303 Y71.871 E0.69526
G1 X112.65 Y71.773 E0.70725
G1 X112.917 Y71.701 E0.71645
G1 X113.371 Y71.585 E0.73204
G1 X113.904 Y71.457 E0.75027
G1 X114.258 Y71.378 E0.76233
G1 X115.5 Y71.124 E0.8045
G1 X115.917 Y71.047 E0.8186
G1 X116.225 Y70.996 E0.82898
G1 X116.375 Y70.969 E0.83405
G1 X116.761 Y70.906 E0.84706
G1 X117.07 Y70.863 E0.85744
G1 X117.671 Y70.788 E0.87758
G1 X117.911 Y70.76 E0.88562
G1 X118.138 Y70.736 E0.89321
G1 X118.577 Y70.694 E0.90788
G1 X118.765 Y70.678 E0.91415
G1 X120.104 Y70.573 E0.95883
G1 X120.483 Y70.55 E0.97145
G1 X121.1 Y70.523 E0.992
G1 X121.412 Y70.513 E1.00238
G1 X122.195 Y70.501 E1.02842
G1 X123.909 Y70.5 E1.08543
G1 X124.073 Y70.501 E1.09089
G1 X124.61 Y70.509 E1.10875
G1 X124.942 Y70.519 E1.1198
G1 X125.872 Y70.561 E1.15076
G1 X126.23 Y70.583 E1.16269
G1 X127.013 Y70.644 E1.18881
G1 X127.292 Y70.669 E1.19813
G1 X127.659 Y70.707 E1.2104
G1 X127.906 Y70.736 E1.21867
G1 X128.665 Y70.832 E1.24412
G1 X128.982 Y70.877 E1.25477
G1 X129.52 Y70.961 E1.27288
G1 X129.81 Y71.01 E1.28266
G1 X130.469 Y71.131 E1.30494
G1 X130.757 Y71.188 E1.31471
G1 X131.372 Y71.318 E1.33562
G1 X131.69 Y71.39 E1.34646
G1 X132.197 Y71.513 E1.36381
G1 X132.514 Y71.595 E1.3747
G1 X133.181 Y71.778 E1.39771
G1 X133.467 Y71.861 E1.40761
G1 X134.063 Y72.042 E1.42833
G1 X134.373 Y72.141 E1.43915
G1 X135.013 Y72.356 E1.46161
G1 X135.904 Y72.663 E1.49295
G1 X136.491 Y72.863 E1.51358
G1 X137.147 Y73.096 E1.53673
G1 X138.054 Y73.465 E1.5693
G1 X138.481 Y73.661 E1.58493
G1 X138.749 Y73.788 E1.59479
G1 X139.194 Y74.007 E1.61129
G1 X139.73 Y74.29 E1.63145
G1 X140.344 Y74.636 E1.65489
G1 X140.843 Y74.926 E1.67408
G1 X142.112 Y75.682 E1.72321
G1 X142.876 Y76.153 E1.75307
G1 X143.73 Y76.697 E1.78674
G1 X143.956 Y76.845 E1.79573
G1 X144.267 Y77.054 E1.80819
G1 X144.45 Y77.18 E1.81558
G1 X144.933 Y77.519 E1.83521
G1 X145.473 Y77.923 E1.85764
G1 X146.283 Y78.569 E1.8921
G1 X146.578 Y78.813 E1.90483
G1 X146.995 Y79.17 E1.92309
G1 X147.236 Y79.383 E1.93379
G1 X147.769 Y79.867 E1.95773
G1 X147.972 Y80.056 E1.96696
G1 X148.576 Y80.633 E1.99474
G1 X148.804 Y80.857 E2.00537
G1 X149.1 Y81.157 E2.01939
G1 X149.404 Y81.471 E2.03392
G1 X150.033 Y82.137 E2.06439
G1 X150.189 Y82.305 E2.07202
G1 X150.362 Y82.496 E2.08059
G1 X150.768 Y82.958 E2.10105
G1 X151.372 Y83.664 E2.13195
G1 X151.773 Y84.152 E2.15296
G1 X152.017 Y84.457 E2.16595
G1 X152.587 Y85.19 E2.19683
G1 X152.734 Y85.384 E2.20493
G1 X152.887 Y85.59 E2.21346
G1 X153.232 Y86.069 E2.23309
G1 X153.641 Y86.652 E2.25678
G1 X153.809 Y86.897 E2.26666
G1 X154.181 Y87.459 E2.28908
G1 X154.346 Y87.716 E2.29924
G1 X154.62 Y88.156 E2.31648
G1 X154.795 Y88.448 E2.3278
G1 X155.245 Y89.223 E2.3576
G1 X155.41 Y89.518 E2.36885
G1 X155.598 Y89.866 E2.382
G1 X155.761 Y90.18 E2.39377
G1 X156.155 Y90.969 E2.4231
G1 X156.299 Y91.267 E2.43411
G1 X156.642 Y92.009 E2.4613
G1 X156.758 Y92.269 E2.47077
G1 X156.874 Y92.538 E2.48051
G1 X156.958 Y92.739 E2.48776
G1 X157.277 Y93.521 E2.51585
G1 X157.382 Y93.787 E2.52536
G1 X157.512 Y94.131 E2.53759
G1 X157.609 Y94.4 E2.5471
G1 X157.839 Y95.06 E2.57035
G1 X157.926 Y95.32 E2.57947
G1 X158.08 Y95.8 E2.59623
G1 X158.172 Y96.101 E2.6067
G1 X158.324 Y96.626 E2.62488
G1 X158.41 Y96.941 E2.63574
G1 X158.58 Y97.601 E2.65841
G1 X158.647 Y97.874 E2.66776
G1 X158.73 Y98.234 E2.68004
G1 X158.812 Y98.62 E2.69317
G1 X158.985 Y99.516 E2.72352
G1 X159.063 Y99.973 E2.73894
G1 X159.104 Y100.247 E2.74816
G1 X159.144 Y100.544 E2.75812
G1 X159.208 Y101.069 E2.77571
G1 X159.24 Y101.367 E2.78568
G1 X159.288 Y101.876 E2.80269
G1 X159.314 Y102.202 E2.81356
G1 X159.337 Y102.559 E2.82546
G1 X159.357 Y103.016 E2.84068
G1 X159.372 Y103.677 E2.86267
G1 X159.375 Y103.927 E2.87098
G1 X159.375 Y104.066 E2.87561
G1 X159.37 Y104.413 E2.88715
G1 X159.363 Y104.635 E2.89454
G1 X159.35 Y104.918 E2.90396
G1 X159.322 Y105.406 E2.92022
G1 X159.228 Y106.339 E2.95141
G1 X159.123 Y106.949 E2.97199
G1 X159.015 Y107.485 E2.99018
G1 X158.923 Y107.9 E3.00432
G1 X158.862 Y108.152 E3.01294
G1 X158.745 Y108.596 E3.02821
G1 X157.995 Y111.21 E3.11866
G1 X157.365 Y113.679 E3.20341
G1 X156.815 Y116.113 E3.28641
G1 X156.328 Y118.596 E3.37057
G1 X155.914 Y121.072 E3.45406
G1 X155.573 Y123.542 E3.53699
G1 X155.297 Y126.065 E3.62141
G1 X155.098 Y128.523 E3.70343
G1 X154.986 Y130.869 E3.78155
G1 X154.931 Y131.846 E3.81409
G1 X154.901 Y132.25 E3.82757
G1 X154.841 Y132.802 E3.84604
G1 X154.768 Y133.345 E3.86426
G1 X154.567 Y134.427 E3.90086
G1 X154.532 Y134.574 E3.90589
G1 X154.445 Y134.915 E3.91759
G1 X154.359 Y135.231 E3.92849
G1 X154.214 Y135.72 E3.94545
G1 X153.947 Y136.46 E3.97161
G1 X153.85 Y136.702 E3.98029
G1 X153.74 Y136.966 E3.9898
G1 X153.608 Y137.272 E4.00088
G1 X153.521 Y137.469 E4.00805
G1 X153.259 Y138.045 E4.02909
G1 X152.639 Y139.216 E4.07316
G1 X152.155 Y140.01 E4.10409
G1 X151.949 Y140.334 E4.11686
G1 X151.708 Y140.7 E4.13144
G1 X151.159 Y141.461 E4.16265
G1 X150.776 Y141.921 E4.18255
G1 X150.392 Y142.357 E4.20188
G1 X150.19 Y142.58 E4.21189
G1 X149.789 Y143.011 E4.23147
G1 X148.897 Y143.867 E4.27258
G1 X148.644 Y144.084 E4.28367
G1 X148.36 Y144.32 E4.29595
G1 X148.169 Y144.473 E4.30409
G1 X147.7 Y144.829 E4.32368
G1 X146.667 Y145.569 E4.36594
G1 X144.578 Y147.11 E4.45228
G1 X142.607 Y148.653 E4.53553
G1 X140.651 Y150.274 E4.62003
G1 X138.77 Y151.926 E4.70329
G1 X136.923 Y153.643 E4.78717
G1 X135.146 Y155.391 E4.87007
G1 X134.024 Y156.572 E4.92425
G1 X133.949 Y156.644 E4.92771
G1 X132.973 Y157.656 E4.97447
G1 X132.711 Y157.919 E4.98682
G1 X132.551 Y158.074 E4.99423
G1 X132.114 Y158.484 E5.01416
G1 X131.773 Y158.797 E5.02956
G1 X131.639 Y158.918 E5.03556
G1 X131.166 Y159.338 E5.0566
G1 X130.416 Y159.948 E5.08875
G1 X129.684 Y160.491 E5.11907
G1 X129.399 Y160.695 E5.13073
G1 X128.903 Y161.039 E5.1508
G1 X127.813 Y161.704 E5.19327
G1 X127.056 Y162.108 E5.22181
G1 X126.71 Y162.285 E5.23474
G1 X126.158 Y162.555 E5.25517
G1 X125.484 Y162.857 E5.27974
G1 X125.413 Y162.886 E5.28229
G1 X124.96 Y163.06 E5.29843
G1 X124.306 Y163.294 E5.32153
G1 X124.035 Y163.387 E5.33106
G1 X123.387 Y163.6 E5.35375
G1 X122.175 Y163.923 E5.39547
G1 X121.385 Y164.086 E5.4223
G1 X121.038 Y164.152 E5.43404
G1 X120.495 Y164.246 E5.45237
G1 X119.251 Y164.389 E5.49402
G1 X118.399 Y164.438 E5.52241
G1 X117.894 Y164.46 E5.53922
G1 X117.278 Y164.478 E5.55971
G1 X116.894 Y164.483 E5.57249
G1 X115.75 Y164.476 E5.61054
G1 X115.371 Y164.467 E5.62315
G1 X114.804 Y164.444 E5.64202
G1 X114.185 Y164.401 E5.66266
G1 X113.486 Y164.333 E5.68602
G1 X113.197 Y164.301 E5.69569
G1 X112.544 Y164.22 E5.71757
G1 X111.874 Y164.116 E5.74012
G1 X111.516 Y164.049 E5.75224
G1 X111.21 Y163.987 E5.76262
G1 X110.848 Y163.908 E5.77495
G1 X110.284 Y163.777 E5.7942
G1 X109.359 Y163.519 E5.82614
G1 X108.575 Y163.263 E5.85358
G1 X108.262 Y163.155 E5.86459
G1 X107.851 Y163.007 E5.87912
G1 X106.983 Y162.652 E5.91031
G1 X106.687 Y162.514 E5.92117
G1 X106.38 Y162.367 E5.93249
G1 X106.056 Y162.203 E5.94457
G1 X105.533 Y161.931 E5.96418
G1 X104.66 Y161.425 E5.99774
G1 X103.904 Y160.939 E6.02763
G1 X103.601 Y160.737 E6.03974
G1 X103.268 Y160.507 E6.0532
G1 X102.743 Y160.121 E6.07488
G1 X102.456 Y159.892 E6.08709
G1 X102.057 Y159.564 E6.10427
G1 X101.83 Y159.373 E6.11413
G1 X100.696 Y158.389 E6.16407
G1 X98.718 Y156.719 E6.25017
G1 X96.762 Y155.16 E6.33336
G1 X94.718 Y153.623 E6.41842
G1 X92.711 Y152.202 E6.50021
G1 X90.571 Y150.775 E6.58576
G1 X88.484 Y149.467 E6.66768
G1 X85.23 Y147.582 E6.79276
G1 X84.886 Y147.392 E6.80583
G1 X84.613 Y147.236 E6.81629
G1 X84.352 Y147.082 E6.82637
G1 X84.104 Y146.931 E6.83603
G1 X83.835 Y146.76 E6.84663
G1 X83.286 Y146.402 E6.86843
G1 X82.525 Y145.859 E6.89952
G1 X82.37 Y145.738 E6.90606
G1 X82.16 Y145.569 E6.91503
G1 X81.92 Y145.372 E6.92535
G1 X81.7 Y145.187 E6.93491
G1 X81.261 Y144.807 E6.95423
G1 X80.536 Y144.119 E6.98747
G1 X79.993 Y143.555 E7.01351
G1 X79.764 Y143.31 E7.02466
G1 X79.543 Y143.066 E7.03561
G1 X78.944 Y142.345 E7.06679
G1 X78.541 Y141.78 E7.08987
G1 X78.172 Y141.226 E7.11201
G1 X77.993 Y140.949 E7.12298
G1 X77.877 Y140.763 E7.13027
G1 X77.415 Y139.947 E7.16146
G1 X76.891 Y138.751 E7.20489
G1 X76.681 Y138.182 E7.22506
G1 X76.565 Y137.852 E7.2367
G1 X76.51 Y137.687 E7.24248
G1 X76.238 Y136.727 E7.27567
G1 X76.066 Y135.996 E7.30064
G1 X75.995 Y135.669 E7.31177
G1 X75.946 Y135.428 E7.31995
G1 X75.831 Y134.756 E7.34263
G1 X75.782 Y134.392 E7.35484
G1 X75.75 Y134.12 E7.36395
G1 X75.718 Y133.806 E7.37445
G1 X75.672 Y133.287 E7.39178
G1 X75.635 Y132.678 E7.41207
G1 X75.625 Y132.374 E7.42219
G1 X75.62 Y131.904 E7.43782
G1 X75.626 Y131.291 E7.45821
G1 X75.649 Y130.67 E7.47888
G1 X75.669 Y130.369 E7.48892
G1 X75.71 Y129.906 E7.50438
G1 X75.773 Y129.328 E7.52371
G1 X75.831 Y128.882 E7.53867
G1 X75.924 Y128.337 E7.55706
G1 X75.995 Y127.977 E7.56927
G1 X76.058 Y127.679 E7.5794
G1 X76.129 Y127.365 E7.5901
G1 X76.385 Y126.428 E7.62241
G1 X76.63 Y125.665 E7.64906
G1 X77.03 Y124.608 E7.68665
G1 X77.152 Y124.33 E7.69675
G1 X77.44 Y123.725 E7.71904
G1 X77.478 Y123.651 E7.7218
G1 X77.664 Y123.304 E7.7349
G1 X77.846 Y122.978 E7.74732
G1 X79.049 Y120.747 E7.83162
G1 X80.195 Y118.469 E7.91643
G1 X81.259 Y116.196 E7.99991
G1 X82.251 Y113.91 E8.08279
G1 X83.195 Y111.556 E8.16715
G1 X84.065 Y109.194 E8.25087
G1 X84.876 Y106.786 E8.33538
G1 X85.604 Y104.401 E8.41831
G1 X86.271 Y101.975 E8.502
G1 X86.89 Y99.438 E8.58885
G1 X87.124 Y98.416 E8.62373
G1 X87.195 Y98.128 E8.63359
G1 X87.342 Y97.557 E8.6532
G1 X87.661 Y96.373 E8.69399
G1 X87.851 Y95.703 E8.71715
G1 X88.144 Y94.817 E8.74819
G1 X88.405 Y94.126 E8.77275
G1 X88.534 Y93.799 E8.78445
G1 X88.753 Y93.271 E8.80346
G1 X88.868 Y93.005 E8.8131
G1 X89.241 Y92.171 E8.84348
G1 X89.475 Y91.671 E8.86185
G1 X90.202 Y90.17 E8.91732
G1 X90.511 Y89.557 E8.94015
G1 X90.732 Y89.135 E8.95599
G1 X90.89 Y88.845 E8.96698
G1 X91.34 Y88.045 E8.99751
G1 X91.519 Y87.739 E9.0093
G1 X91.751 Y87.356 E9.02419
G1 X92.109 Y86.802 E9.04613
G1 X92.185 Y86.692 E9.05058
G1 X92.334 Y86.482 E9.05914
G1 X92.681 Y86.005 E9.07876
G1 X93.005 Y85.571 E9.09677
G1 X93.798 Y84.535 E9.14017
G1 X93.969 Y84.318 E9.14935
G1 X94.181 Y84.055 E9.16059
G1 X94.438 Y83.747 E9.17393
G1 X94.997 Y83.103 E9.2023
G0 F6000 X95.299 Y83.366
G1 F1200 X95.502 Y83.139 E9.21242
G1 X95.708 Y82.915 E9.22255
G1 X95.957 Y82.653 E9.23457
G1 X96.726 Y81.872 E9.27102
G1 X96.865 Y81.733 E9.27756
G1 X97.613 Y81.001 E9.31237
G1 X98.228 Y80.414 E9.34065
G1 X98.428 Y80.227 E9.34975
G1 X98.639 Y80.036 E9.35922
G1 X98.908 Y79.802 E9.37108
G1 X100.295 Y78.63 E9.43147
G1 X100.591 Y78.386 E9.44423
G1 X100.886 Y78.151 E9.45678
G1 X101.716 Y77.515 E9.49156
G1 X102.012 Y77.296 E9.5038
G1 X102.259 Y77.12 E9.51389
G1 X102.496 Y76.956 E9.52348
G1 X103.094 Y76.554 E9.54744
G1 X103.397 Y76.358 E9.55944
G1 X103.623 Y76.217 E9.5683
G1 X103.895 Y76.053 E9.57887
G1 X104.952 Y75.438 E9.61954
G1 X105.232 Y75.283 E9.63019
G1 X105.88 Y74.932 E9.6547
G1 X106.148 Y74.792 E9.66475
G1 X106.829 Y74.448 E9.69013
G1 X107.229 Y74.254 E9.70492
G1 X107.715 Y74.025 E9.72278
G1 X108.01 Y73.891 E9.73356
G1 X108.931 Y73.491 E9.76696
G1 X109.236 Y73.365 E9.77793
G1 X109.603 Y73.219 E9.79107
G1 X109.965 Y73.082 E9.80394
G1 X111.167 Y72.654 E9.84638
G1 X111.483 Y72.547 E9.85748
G1 X112.053 Y72.364 E9.87739
G1 X112.412 Y72.256 E9.88986
G1 X112.759 Y72.158 E9.90185
G1 X113.016 Y72.089 E9.9107
G1 X113.47 Y71.973 E9.92629
G1 X113.997 Y71.846 E9.94432
G1 X114.338 Y71.77 E9.95594
G1 X115.58 Y71.516 E9.9981
G1 X115.982 Y71.442 E10.0117
G1 X116.306 Y71.389 E10.02262
G1 X116.447 Y71.363 E10.02738
G1 X116.731 Y71.315 E10.03696
G1 X116.822 Y71.301 E10.04003
G1 X117.119 Y71.26 E10.05
G1 X117.718 Y71.185 E10.07008
G1 X117.958 Y71.157 E10.07811
G1 X118.176 Y71.134 E10.0854
G1 X118.796 Y71.076 E10.10612
G1 X120.135 Y70.971 E10.15079
G1 X120.501 Y70.949 E10.16298
G1 X121.118 Y70.922 E10.18352
G1 X121.419 Y70.913 E10.19354
G1 X122.202 Y70.901 E10.21959
G1 X123.909 Y70.9 E10.27636
G1 X124.067 Y70.901 E10.28162
G1 X124.604 Y70.909 E10.29948
G1 X124.924 Y70.919 E10.31013
G1 X125.854 Y70.961 E10.34109
G1 X126.199 Y70.982 E10.35259
G1 X126.982 Y71.043 E10.37871
G1 X127.251 Y71.067 E10.38769
G1 X127.618 Y71.105 E10.39996
G1 X127.856 Y71.133 E10.40793
G1 X128.615 Y71.229 E10.43338
G1 X128.92 Y71.272 E10.44362
G1 X129.458 Y71.356 E10.46173
G1 X129.737 Y71.403 E10.47114
G1 X130.396 Y71.524 E10.49343
G1 X130.674 Y71.579 E10.50285
G1 X131.289 Y71.709 E10.52376
G1 X131.596 Y71.779 E10.53423
G1 X132.103 Y71.902 E10.55159
G1 X132.409 Y71.981 E10.5621
G1 X133.076 Y72.164 E10.5851
G1 X133.351 Y72.243 E10.59462
G1 X133.947 Y72.424 E10.61534
G1 X134.246 Y72.52 E10.62578
G1 X134.883 Y72.734 E10.64813
G1 X135.821 Y73.057 E10.68113
G1 X136.357 Y73.24 E10.69996
G1 X137.013 Y73.473 E10.72312
G1 X137.887 Y73.828 E10.75449
G1 X138.314 Y74.024 E10.77012
G1 X138.573 Y74.147 E10.77966
G1 X139.018 Y74.366 E10.79615
G1 X139.534 Y74.638 E10.81555
G1 X140.144 Y74.982 E10.83885
G1 X140.524 Y75.202 E10.85345
G1 X142.053 Y76.114 E10.91267
G1 X142.661 Y76.491 E10.93646
G1 X143.515 Y77.035 E10.97014
G1 X143.732 Y77.177 E10.97876
G1 X144.043 Y77.386 E10.99123
G1 X144.221 Y77.508 E10.9984
G1 X144.704 Y77.847 E11.01803
G1 X145.223 Y78.236 E11.0396
G1 X146.033 Y78.882 E11.07406
G1 X146.318 Y79.117 E11.08635
G1 X146.735 Y79.474 E11.1046
G1 X146.967 Y79.679 E11.1149
G1 X147.5 Y80.163 E11.13885
G1 X147.696 Y80.345 E11.14774
G1 X148.3 Y80.922 E11.17553
G1 X148.519 Y81.138 E11.18576
G1 X148.814 Y81.436 E11.1997
G1 X149.001 Y81.628 E11.20862
G1 X149.742 Y82.412 E11.2445
G1 X149.892 Y82.574 E11.25184
G1 X150.178 Y82.891 E11.26604
G1 X150.464 Y83.218 E11.28049
G1 X151.068 Y83.924 E11.31139
G1 X151.219 Y84.105 E11.31923
G1 X151.461 Y84.402 E11.33198
G1 X151.701 Y84.703 E11.34478
G1 X152.271 Y85.436 E11.37566
G1 X152.413 Y85.623 E11.38347
G1 X152.652 Y85.947 E11.39686
G1 X152.905 Y86.298 E11.41125
G1 X153.314 Y86.881 E11.43494
G1 X153.475 Y87.118 E11.44447
G1 X153.847 Y87.68 E11.46689
G1 X154.006 Y87.928 E11.47668
G1 X154.28 Y88.368 E11.49392
G1 X154.449 Y88.648 E11.5048
G1 X154.899 Y89.423 E11.53461
G1 X155.058 Y89.708 E11.54546
G1 X155.246 Y90.056 E11.55862
G1 X155.403 Y90.358 E11.56994
G1 X155.797 Y91.147 E11.59927
G1 X155.936 Y91.435 E11.60991
G1 X156.279 Y92.177 E11.6371
