;FLAVOR:Marlin
;TIME:13422
;Filament used: 8.75119m
;Layer height: 0.2
;MINX:68.786
;MINY:108.49
;MINZ:0.2
;MAXX:167.01
;MAXY:158.569
;MAXZ:80
;Generated with Cura_SteamEngine 4.7.1
M140 S60
M105
M190 S60
M104 S220
M105
M109 S220
M82 ;absolute extrusion mode
; Ender 3 Custom Start G-code
G92 E0 ; Reset Extruder
G28 ; Home all axes
G1 Z2.0 F3000 ; Move Z Axis up little to prevent scratching of Heat Bed
G1 X0.1 Y20 Z0.3 F5000.0 ; Move to start position
G1 X0.1 Y200.0 Z0.3 F1500.0 E15 ; Draw the first line
G1 X0.4 Y200.0 Z0.3 F5000.0 ; Move to side a little
G1 X0.4 Y20 Z0.3 F1500.0 E30 ; Draw the second line
G92 E0 ; Reset Extruder
G1 Z2.0 F3000 ; Move Z Axis up little to prevent scratching of Heat Bed
G1 X5 Y20 Z0.3 F5000.0 ; Move over to prevent blob squish
G92 E0
G92 E0
G1 F2700 E-5
;LAYER_COUNT:400
;LAYER:0
M107
G0 F6000 X75.09 Y110.205 Z0.2
;TYPE:SKIRT
G1 F2700 E0
G1 F1200 X75.902 Y109.736 E0.03119
G1 X76.751 Y109.337 E0.06239
G1 X77.631 Y109.012 E0.09359
G1 X78.535 Y108.764 E0.12477
G1 X79.458 Y108.593 E0.15599
G1 X80.391 Y108.502 E0.18717
G1 X81.329 Y108.49 E0.21837
G1 X82.264 Y108.558 E0.24955
G1 X83.19 Y108.706 E0.28074
G1 X84.101 Y108.932 E0.31196
G1 X84.988 Y109.235 E0.34313
G1 X85.847 Y109.612 E0.37433
G1 X86.611 Y110.026 E0.40324
G1 X87.295 Y110.432 E0.42969
G1 X87.464 Y110.534 E0.43626
G1 X93.911 Y114.519 E0.68834
G1 X96.138 Y115.852 E0.77467
G1 X98.328 Y117.08 E0.85818
G1 X100.553 Y118.247 E0.94174
G1 X102.827 Y119.36 E1.02595
G1 X105.117 Y120.399 E1.10959
G1 X107.357 Y121.343 E1.19044
G1 X109.784 Y122.284 E1.27701
G1 X112.163 Y123.129 E1.36098
G1 X114.541 Y123.899 E1.44412
G1 X116.954 Y124.606 E1.52775
G1 X118.563 Y125.037 E1.58315
G1 X152.173 Y133.734 E2.73784
G1 X152.331 Y133.776 E2.74328
G1 X153.019 Y133.965 E2.76701
G1 X153.89 Y134.244 E2.79743
G1 X154.507 Y134.47 E2.81929
G1 X157.002 Y135.346 E2.90724
G1 X159.339 Y136.095 E2.98886
G1 X160.219 Y136.419 E3.02005
G1 X161.069 Y136.817 E3.05127
G1 X161.881 Y137.286 E3.08245
G1 X162.65 Y137.822 E3.11363
G1 X163.371 Y138.422 E3.14483
G1 X164.105 Y139.153 E3.17928
G1 X164.126 Y139.176 E3.18032
G1 X164.729 Y139.895 E3.21153
G1 X165.267 Y140.663 E3.24272
G1 X165.739 Y141.473 E3.2739
G1 X166.14 Y142.321 E3.3051
G1 X166.467 Y143.2 E3.33629
G1 X166.718 Y144.104 E3.3675
G1 X166.891 Y145.026 E3.3987
G1 X166.998 Y146.251 E3.4396
G1 X167.005 Y146.476 E3.44708
G1 X167.01 Y146.818 E3.45846
G1 X167.008 Y147.113 E3.46827
G1 X166.997 Y147.75 E3.48946
G1 X166.941 Y148.686 E3.52065
G1 X166.806 Y149.614 E3.55184
G1 X166.591 Y150.527 E3.58304
G1 X166.3 Y151.419 E3.61424
G1 X165.934 Y152.282 E3.64542
G1 X165.496 Y153.111 E3.67661
G1 X164.988 Y153.9 E3.70782
G1 X164.415 Y154.643 E3.73902
G1 X163.781 Y155.334 E3.77021
G1 X163.091 Y155.969 E3.8014
G1 X162.349 Y156.542 E3.83258
G1 X161.561 Y157.05 E3.86377
G1 X160.732 Y157.49 E3.89498
G1 X159.869 Y157.857 E3.92617
G1 X158.978 Y158.149 E3.95736
G1 X158.065 Y158.364 E3.98856
G1 X157.137 Y158.501 E4.01976
G1 X156.292 Y158.556 E4.04792
G1 X155.954 Y158.565 E4.05917
G1 X155.631 Y158.569 E4.06991
G1 X142.367 Y158.533 E4.51108
G1 X141.478 Y158.518 E4.54065
G1 X140.542 Y158.461 E4.57184
G1 X139.935 Y158.381 E4.5922
G1 X139.45 Y158.302 E4.60854
G1 X139.21 Y158.258 E4.61666
G1 X101.674 Y151.094 E5.88765
G1 X100.977 Y150.951 E5.91131
G1 X100.067 Y150.723 E5.94251
G1 X99.18 Y150.419 E5.9737
G1 X98.322 Y150.04 E6.0049
G1 X97.499 Y149.59 E6.0361
G1 X96.936 Y149.225 E6.05841
G1 X95.994 Y148.573 E6.09652
G1 X73.885 Y132.728 E7.00121
G1 X73.317 Y132.31 E7.02467
G1 X72.586 Y131.722 E7.05587
G1 X71.908 Y131.074 E7.08706
G1 X71.287 Y130.371 E7.11826
G1 X70.729 Y129.618 E7.14943
G1 X70.236 Y128.819 E7.18066
G1 X69.814 Y127.982 E7.21184
G1 X69.452 Y127.078 E7.24423
G1 X69.401 Y126.932 E7.24937
G1 X69.13 Y126.034 E7.28057
G1 X68.936 Y125.116 E7.31177
G1 X68.821 Y124.185 E7.34297
G1 X68.786 Y123.248 E7.37416
G1 X68.831 Y122.311 E7.40536
G1 X68.955 Y121.382 E7.43653
G1 X69.248 Y120.15 E7.47865
G1 X69.512 Y119.268 E7.50928
G1 X69.57 Y119.079 E7.51585
G1 X70.348 Y116.642 E7.60094
G1 X70.56 Y116.006 E7.62323
G1 X70.895 Y115.13 E7.65443
G1 X71.302 Y114.286 E7.68559
G1 X71.781 Y113.479 E7.71681
G1 X72.326 Y112.716 E7.74799
G1 X72.934 Y112.002 E7.77918
G1 X73.601 Y111.342 E7.81039
G1 X74.321 Y110.742 E7.84156
G1 X75.09 Y110.205 E7.87276
G0 F6000 X75.419 Y110.47
G1 F1200 X76.223 Y110.021 E7.90339
G1 X77.062 Y109.642 E7.93401
G1 X77.931 Y109.338 E7.96463
G1 X78.823 Y109.11 E7.99525
G1 X79.731 Y108.961 E8.02586
G1 X80.649 Y108.891 E8.05648
G1 X81.57 Y108.901 E8.08711
G1 X82.486 Y108.99 E8.11772
G1 X83.391 Y109.159 E8.14834
G1 X84.278 Y109.406 E8.17897
G1 X85.14 Y109.729 E8.20958
G1 X85.971 Y110.125 E8.2402
G1 X86.406 Y110.37 E8.25681
G1 X87.09 Y110.776 E8.28326
G1 X87.254 Y110.875 E8.28963
G1 X93.701 Y114.86 E8.54172
G1 X95.932 Y116.196 E8.62821
G1 X98.125 Y117.426 E8.71184
G1 X100.37 Y118.603 E8.79615
G1 X102.651 Y119.719 E8.88061
G1 X104.946 Y120.76 E8.96442
G1 X107.235 Y121.725 E9.04704
G1 X109.642 Y122.658 E9.13291
G1 X112.011 Y123.5 E9.21653
G1 X114.411 Y124.276 E9.30042
G1 X116.917 Y125.01 E9.38727
G1 X118.369 Y125.4 E9.43728
G1 X152.072 Y134.121 E10.59516
G1 X152.913 Y134.351 E10.62416
G1 X153.752 Y134.619 E10.65346
G1 X154.385 Y134.851 E10.67588
G1 X156.884 Y135.728 E10.76397
G1 X159.217 Y136.476 E10.84545
G1 X160.081 Y136.795 E10.87609
G1 X160.914 Y137.187 E10.90671
G1 X161.709 Y137.65 E10.93731
G1 X162.462 Y138.181 E10.96795
G1 X163.165 Y138.775 E10.99856
G1 X163.81 Y139.423 E11.02897
G1 X163.831 Y139.446 E11.03001
G1 X164.422 Y140.152 E11.06063
G1 X164.949 Y140.907 E11.09126
G1 X165.408 Y141.704 E11.12185
G1 X165.797 Y142.539 E11.15248
G1 X166.112 Y143.404 E11.1831
G1 X166.351 Y144.293 E11.21372
G1 X166.511 Y145.2 E11.24435
G1 X166.598 Y146.263 E11.27983
G1 X166.605 Y146.488 E11.28731
G1 X166.61 Y146.818 E11.29829
G1 X166.608 Y147.106 E11.30787
G1 X166.597 Y147.743 E11.32906
G1 X166.542 Y148.662 E11.35968
G1 X166.406 Y149.573 E11.39032
G1 X166.192 Y150.468 E11.42092
G1 X165.901 Y151.342 E11.45156
G1 X165.536 Y152.187 E11.48218
G1 X165.099 Y152.997 E11.51279
G1 X164.593 Y153.766 E11.54341
G1 X164.022 Y154.488 E11.57402
G1 X163.39 Y155.158 E11.60466
G1 X162.703 Y155.771 E11.63528
G1 X161.965 Y156.321 E11.66589
G1 X161.183 Y156.806 E11.6965
G1 X160.361 Y157.221 E11.72712
G1 X159.506 Y157.563 E11.75775
G1 X158.625 Y157.83 E11.78837
G1 X157.724 Y158.019 E11.81899
G1 X156.81 Y158.129 E11.84961
G1 X156.281 Y158.156 E11.86723
G1 X155.943 Y158.165 E11.87847
G1 X155.632 Y158.169 E11.88882
G1 X142.368 Y158.133 E12.32998
G1 X141.486 Y158.118 E12.35932
G1 X140.567 Y158.062 E12.38994
G1 X139.998 Y157.986 E12.40904
G1 X139.521 Y157.908 E12.42511
G1 X139.285 Y157.865 E12.43309
G1 X101.755 Y150.702 E13.70388
G1 X101.058 Y150.559 E13.72754
G1 X100.165 Y150.335 E13.75816
G1 X99.294 Y150.034 E13.78881
G1 X98.454 Y149.659 E13.81941
G1 X97.649 Y149.212 E13.85004
G1 X97.163 Y148.896 E13.86932
G1 X96.227 Y148.248 E13.90718
G1 X74.23 Y132.484 E14.80728
G1 X73.554 Y131.987 E14.83518
G1 X72.837 Y131.41 E14.8658
G1 X72.173 Y130.773 E14.8964
G1 X71.566 Y130.08 E14.92704
G1 X71.022 Y129.337 E14.95767
G1 X70.545 Y128.55 E14.98828
G1 X70.137 Y127.725 E15.01889
G1 X69.83 Y126.946 E15.04674
G1 X69.779 Y126.8 E15.05188
G1 X69.513 Y125.918 E15.08252
G1 X69.325 Y125.017 E15.11313
G1 X69.216 Y124.103 E15.14375
G1 X69.187 Y123.183 E15.17436
G1 X69.237 Y122.263 E15.20501
G1 X69.367 Y121.352 E15.23562
G1 X69.631 Y120.264 E15.27285
G1 X69.895 Y119.382 E15.30347
G1 X69.951 Y119.201 E15.30978
G1 X70.685 Y116.9 E15.39011
G1 X70.94 Y116.133 E15.41699
G1 X71.269 Y115.273 E15.44762
G1 X71.671 Y114.445 E15.47823
G1 X72.143 Y113.655 E15.50884
G1 X72.683 Y112.909 E15.53947
G1 X73.285 Y112.212 E15.5701
G1 X73.945 Y111.57 E15.60072
G1 X74.658 Y110.988 E15.63134
G1 X75.419 Y110.47 E15.66195
G0 F6000 X75.747 Y110.739
G1 F1200 X76.542 Y110.309 E15.69202
G1 X77.371 Y109.951 E15.72205
G1 X78.228 Y109.668 E15.75207
G1 X79.108 Y109.461 E15.78213
G1 X80.002 Y109.334 E15.81217
G1 X80.903 Y109.285 E15.84218
G1 X81.806 Y109.317 E15.87223
G1 X82.702 Y109.429 E15.90227
G1 X83.585 Y109.619 E15.93231
G1 X84.447 Y109.887 E15.96233
G1 X85.283 Y110.23 E15.99238
G1 X86.202 Y110.714 E16.02693
G1 X86.886 Y111.12 E16.05339
G1 X87.043 Y111.215 E16.05949
G1 X93.491 Y115.201 E16.31162
G1 X95.736 Y116.545 E16.39865
G1 X97.908 Y117.763 E16.48147
G1 X100.23 Y118.98 E16.56867
G1 X102.46 Y120.071 E16.65124
G1 X104.791 Y121.129 E16.73638
G1 X107.084 Y122.095 E16.81914
G1 X109.5 Y123.032 E16.90532
G1 X111.891 Y123.882 E16.98972
G1 X114.29 Y124.658 E17.07359
G1 X116.776 Y125.386 E17.15974
G1 X118.304 Y125.796 E17.21236
G1 X152.119 Y134.547 E18.37411
G1 X152.807 Y134.736 E18.39784
G1 X153.614 Y134.995 E18.42603
G1 X154.24 Y135.225 E18.44821
G1 X156.745 Y136.104 E18.5365
G1 X159.095 Y136.857 E18.61858
G1 X159.942 Y137.17 E18.64861
G1 X160.758 Y137.557 E18.67865
G1 X161.536 Y138.015 E18.70868
G1 X162.271 Y138.54 E18.73872
G1 X162.957 Y139.128 E18.76877
G1 X163.515 Y139.692 E18.79516
G1 X163.536 Y139.715 E18.7962
G1 X164.114 Y140.409 E18.82624
G1 X164.63 Y141.15 E18.85627
G1 X165.077 Y141.935 E18.88631
G1 X165.454 Y142.756 E18.91636
G1 X165.756 Y143.607 E18.9464
G1 X165.982 Y144.481 E18.97642
G1 X166.13 Y145.372 E19.00646
G1 X166.198 Y146.276 E19.03661
G1 X166.205 Y146.501 E19.0441
G1 X166.21 Y146.818 E19.05465
G1 X166.208 Y147.099 E19.06399
G1 X166.197 Y147.736 E19.08518
G1 X166.142 Y148.638 E19.11524
G1 X166.007 Y149.53 E19.14524
G1 X165.793 Y150.408 E19.1753
G1 X165.503 Y151.263 E19.20533
G1 X165.138 Y152.089 E19.23537
G1 X164.702 Y152.88 E19.26541
G1 X164.197 Y153.629 E19.29545
G1 X163.628 Y154.33 E19.32548
G1 X162.999 Y154.978 E19.35552
G1 X162.316 Y155.569 E19.38556
G1 X161.583 Y156.096 E19.41558
G1 X160.806 Y156.556 E19.44562
G1 X159.991 Y156.946 E19.47567
G1 X159.145 Y157.263 E19.50572
G1 X158.275 Y157.503 E19.53573
G1 X157.386 Y157.665 E19.56579
G1 X156.271 Y157.756 E19.603
G1 X155.933 Y157.765 E19.61424
G1 X155.633 Y157.769 E19.62422
G1 X142.369 Y157.733 E20.06539
G1 X141.493 Y157.718 E20.09453
G1 X140.592 Y157.662 E20.12455
G1 X140.061 Y157.591 E20.14237
G1 X139.591 Y157.514 E20.15821
G1 X139.36 Y157.472 E20.16602
G1 X101.835 Y150.31 E21.43663
G1 X101.138 Y150.167 E21.4603
G1 X100.262 Y149.946 E21.49035
G1 X99.409 Y149.649 E21.52039
G1 X98.586 Y149.278 E21.55042
G1 X97.799 Y148.835 E21.58045
G1 X97.39 Y148.567 E21.59672
G1 X96.604 Y148.024 E21.62849
G1 X96.46 Y147.923 E21.63434
G1 X74.463 Y132.159 E22.53444
G1 X73.791 Y131.665 E22.56218
G1 X73.088 Y131.098 E22.59222
G1 X72.438 Y130.471 E22.62226
G1 X71.846 Y129.789 E22.65229
G1 X71.317 Y129.058 E22.68231
G1 X70.854 Y128.282 E22.71236
G1 X70.462 Y127.469 E22.74238
G1 X70.208 Y126.814 E22.76575
G1 X70.157 Y126.668 E22.77089
G1 X69.897 Y125.803 E22.80093
G1 X69.715 Y124.918 E22.83098
G1 X69.611 Y124.021 E22.86102
G1 X69.588 Y123.118 E22.89106
G1 X69.644 Y122.217 E22.92109
G1 X69.78 Y121.324 E22.95113
G1 X70.014 Y120.379 E22.98351
G1 X70.278 Y119.497 E23.01413
G1 X70.332 Y119.322 E23.02022
G1 X71.107 Y116.895 E23.10496
G1 X71.319 Y116.259 E23.12726
G1 X71.643 Y115.416 E23.1573
G1 X72.039 Y114.605 E23.18731
G1 X72.506 Y113.832 E23.21735
G1 X73.039 Y113.103 E23.24739
G1 X73.635 Y112.424 E23.27744
G1 X74.288 Y111.801 E23.30746
G1 X74.994 Y111.238 E23.33749
G1 X75.747 Y110.739 E23.36753
G1 F2700 E18.36753
;MESH:6fce5e71-bde2-4b23-987a-1d10ac0d2abe.stl
G0 F6000 X101.327 Y131.254
G0 X100.898 Y132.262
G0 X148.575 Y145.389
G0 X148.243 Y146.37
G0 X141.776 Y146.531
;TYPE:WALL-INNER
G1 F2700 E23.36753
G1 F1200 X103.574 Y139.24 E24.66107
G1 X80.916 Y123.002 E25.58822
G1 X81.481 Y121.232 E25.65002
G1 X81.558 Y120.989 E25.6585
G1 X81.774 Y121.123 E25.66362
G1 X100.666 Y132.802 E26.40234
G1 X148.605 Y145.208 E28.04932
G1 X148.813 Y145.261 E28.05646
G1 X148.743 Y145.464 E28.06098
G1 X148.457 Y146.295 E28.09021
G1 X149.97 Y146.553 E28.14126
G1 X148.457 Y146.549 E28.15715
G1 X141.776 Y146.531 E28.37936
G0 F6000 X141.737 Y146.931
G1 F1200 X103.413 Y139.617 E29.67703
G1 X80.446 Y123.158 E30.61681
G1 X81.255 Y120.623 E30.70532
G1 X81.332 Y120.38 E30.7138
G1 X81.548 Y120.514 E30.71891
G1 X100.825 Y132.43 E31.47268
G1 X149.123 Y144.929 E33.13199
G1 X149.331 Y144.982 E33.13913
G1 X149.262 Y145.185 E33.14364
G1 X149.064 Y145.759 E33.16383
G1 X148.988 Y145.98 E33.17161
G1 X149.218 Y146.019 E33.1764
G1 X152.408 Y146.564 E33.28404
G1 X154.767 Y146.966 E33.36363
G1 X152.374 Y146.96 E33.40357
G1 X141.737 Y146.931 E33.75736
G0 F6000 X141.698 Y147.331
;TYPE:WALL-OUTER
G1 F1200 X103.252 Y139.994 E35.05915
G1 X79.991 Y123.324 E36.01098
G1 X79.982 Y123.296 E36.01196
G1 X81.106 Y119.771 E36.13501
G1 X100.984 Y132.058 E36.91227
G1 X149.85 Y144.703 E38.59109
G1 X149.519 Y145.665 E38.62493
G1 X155.811 Y146.739 E38.83723
G1 X155.81 Y147.369 E38.85818
G1 X141.698 Y147.331 E39.32755
G0 F6000 X141.739 Y146.893
G0 X141.813 Y146.141
;TYPE:SKIN
G1 F1200 X103.732 Y138.874 E40.61698
G1 X81.374 Y122.85 E41.53188
G1 X81.778 Y121.584 E41.57608
G1 X100.512 Y133.165 E42.30862
G1 X148.306 Y145.534 E43.95063
G1 X148.091 Y146.158 E43.97258
G1 X141.813 Y146.141 E44.18139
G0 F6000 X141.812 Y146.421
G0 X148.243 Y146.37
G0 X148.465 Y145.93
G0 X148.049 Y145.787
G1 F1200 X147.844 Y145.581 E44.19105
G0 F6000 X147.693 Y145.996
G1 F1200 X147.08 Y145.383 E44.21989
G0 F6000 X147.126 Y145.994
G1 F1200 X146.317 Y145.185 E44.25794
G0 F6000 X145.553 Y144.988
G1 F1200 X146.559 Y145.993 E44.30523
G0 F6000 X145.991 Y145.991
G1 F1200 X144.79 Y144.79 E44.36173
G0 F6000 X144.027 Y144.593
G1 F1200 X145.424 Y145.989 E44.42741
G0 F6000 X144.857 Y145.988
G1 F1200 X143.264 Y144.395 E44.50234
G0 F6000 X142.501 Y144.198
G1 F1200 X144.29 Y145.987 E44.58649
G0 F6000 X143.722 Y145.985
G1 F1200 X141.737 Y144 E44.67986
G0 F6000 X140.974 Y143.802
G1 F1200 X143.155 Y145.983 E44.78245
G0 F6000 X142.588 Y145.982
G1 F1200 X140.211 Y143.605 E44.89425
G0 F6000 X139.447 Y143.407
G1 F1200 X142.02 Y145.98 E45.01528
G0 F6000 X141.366 Y145.892
G1 F1200 X138.684 Y143.21 E45.14143
G0 F6000 X137.921 Y143.012
G1 F1200 X140.667 Y145.758 E45.2706
G0 F6000 X139.968 Y145.625
G1 F1200 X137.158 Y142.815 E45.40277
G0 F6000 X136.395 Y142.617
G1 F1200 X139.269 Y145.492 E45.53798
G0 F6000 X138.57 Y145.358
G1 F1200 X135.631 Y142.419 E45.67622
G0 F6000 X134.868 Y142.222
G1 F1200 X137.871 Y145.225 E45.81747
G0 F6000 X137.172 Y145.091
G1 F1200 X134.104 Y142.024 E45.96176
G0 F6000 X133.341 Y141.827
G1 F1200 X136.473 Y144.958 E46.10905
G0 F6000 X135.774 Y144.825
G1 F1200 X132.578 Y141.629 E46.25938
G0 F6000 X131.815 Y141.431
G1 F1200 X135.075 Y144.691 E46.41272
G0 F6000 X134.376 Y144.558
G1 F1200 X131.052 Y141.234 E46.56907
G0 F6000 X130.288 Y141.036
G1 F1200 X133.677 Y144.425 E46.72848
G0 F6000 X132.977 Y144.291
G1 F1200 X129.525 Y140.839 E46.89085
G0 F6000 X128.762 Y140.642
G1 F1200 X132.279 Y144.158 E47.05626
G0 F6000 X131.579 Y144.024
G1 F1200 X127.999 Y140.444 E47.22465
G0 F6000 X127.236 Y140.246
G1 F1200 X130.88 Y143.891 E47.39608
G0 F6000 X130.181 Y143.758
G1 F1200 X126.472 Y140.048 E47.57056
G0 F6000 X125.709 Y139.851
G1 F1200 X129.482 Y143.624 E47.74803
G0 F6000 X128.783 Y143.491
G1 F1200 X124.946 Y139.654 E47.92851
G0 F6000 X124.182 Y139.456
G1 F1200 X128.084 Y143.358 E48.11205
G0 F6000 X127.385 Y143.224
G1 F1200 X123.419 Y139.259 E48.29858
G0 F6000 X122.656 Y139.061
G1 F1200 X126.686 Y143.091 E48.48813
G0 F6000 X125.987 Y142.957
G1 F1200 X121.893 Y138.863 E48.6807
G0 F6000 X121.13 Y138.666
G1 F1200 X125.288 Y142.824 E48.87628
G0 F6000 X124.589 Y142.691
G1 F1200 X120.366 Y138.468 E49.07492
G0 F6000 X119.603 Y138.271
G1 F1200 X123.89 Y142.557 E49.27654
G0 F6000 X123.19 Y142.424
G1 F1200 X118.839 Y138.073 E49.4812
G0 F6000 X118.076 Y137.875
G1 F1200 X122.492 Y142.291 E49.68892
G0 F6000 X121.792 Y142.157
G1 F1200 X117.313 Y137.678 E49.89959
G0 F6000 X116.55 Y137.48
G1 F1200 X121.093 Y142.023 E50.11328
G0 F6000 X120.394 Y141.89
G1 F1200 X115.787 Y137.283 E50.32998
G0 F6000 X115.023 Y137.085
G1 F1200 X119.695 Y141.757 E50.54974
G0 F6000 X118.996 Y141.624
G1 F1200 X114.26 Y136.888 E50.77251
G0 F6000 X113.497 Y136.69
G1 F1200 X118.297 Y141.49 E50.99828
