;FLAVOR:Marlin
;TIME:905
;Filament used: 0.543388m
;Layer height: 0.2
;MINX:63.5
;MINY:79.176
;MINZ:0.2
;MAXX:155.5
;MAXY:151.176
;MAXZ:1
;Generated with Cura_SteamEngine 4.7.1
M140 S60
M105
M190 S60
M104 S220
M105
M109 S220
M82 ;absolute extrusion mode
; Ender 3 Custom Start G-code
G92 E0 ; Reset Extruder
G28 ; Home all axes
G1 Z2.0 F3000 ; Move Z Axis up little to prevent scratching of Heat Bed
G1 X0.1 Y20 Z0.3 F5000.0 ; Move to start position
G1 X0.1 Y200.0 Z0.3 F1500.0 E15 ; Draw the first line
G1 X0.4 Y200.0 Z0.3 F5000.0 ; Move to side a little
G1 X0.4 Y20 Z0.3 F1500.0 E30 ; Draw the second line
G92 E0 ; Reset Extruder
G1 Z2.0 F3000 ; Move Z Axis up little to prevent scratching of Heat Bed
G1 X5 Y20 Z0.3 F5000.0 ; Move over to prevent blob squish
G92 E0
G92 E0
G1 F2700 E-5
;LAYER_COUNT:5
;LAYER:0
M107
G0 F6000 X67.386 Y81.803 Z0.2
;TYPE:SKIRT
G1 F2700 E0
G1 F1200 X68.126 Y81.227 E0.03119
G1 X68.912 Y80.715 E0.06239
G1 X69.739 Y80.273 E0.09358
G1 X70.601 Y79.903 E0.12478
G1 X71.491 Y79.607 E0.15597
G1 X72.403 Y79.389 E0.18716
G1 X73.33 Y79.248 E0.21835
G1 X74.201 Y79.189 E0.24738
G1 X74.522 Y79.18 E0.25806
G1 X74.83 Y79.176 E0.26831
G1 X78.95 Y79.177 E0.40534
G1 X79.651 Y79.187 E0.42866
G1 X80.587 Y79.24 E0.45984
G1 X81.813 Y79.433 E0.50112
G1 X82.718 Y79.668 E0.53222
G1 X83.27 Y79.837 E0.55142
G1 X85.741 Y80.555 E0.637
G1 X88.189 Y81.193 E0.72114
G1 X90.699 Y81.771 E0.80681
G1 X93.096 Y82.251 E0.88812
G1 X95.598 Y82.68 E0.97255
G1 X98.106 Y83.037 E1.05681
G1 X100.586 Y83.32 E1.13983
G1 X103.101 Y83.534 E1.22378
G1 X105.616 Y83.676 E1.30756
G1 X108.111 Y83.748 E1.39058
G1 X110.634 Y83.748 E1.4745
G1 X113.185 Y83.677 E1.55938
G1 X115.648 Y83.537 E1.64143
G1 X118.185 Y83.322 E1.72611
G1 X120.692 Y83.037 E1.81003
G1 X123.182 Y82.683 E1.89368
G1 X125.634 Y82.263 E1.97642
G1 X128.147 Y81.759 E2.06167
G1 X130.55 Y81.208 E2.14367
G1 X133.019 Y80.565 E2.22853
G1 X135.45 Y79.859 E2.31272
G1 X135.708 Y79.778 E2.32172
G1 X136.196 Y79.633 E2.33865
G1 X137.106 Y79.407 E2.36984
G1 X138.033 Y79.259 E2.40106
G1 X138.967 Y79.191 E2.43221
G1 X139.297 Y79.181 E2.44319
G1 X139.63 Y79.176 E2.45426
G1 X143.935 Y79.177 E2.59745
G1 X144.633 Y79.186 E2.62067
G1 X145.569 Y79.238 E2.65185
G1 X146.498 Y79.37 E2.68305
G1 X147.412 Y79.58 E2.71425
G1 X148.305 Y79.867 E2.74544
G1 X149.17 Y80.23 E2.77664
G1 X150.001 Y80.664 E2.80783
G1 X150.792 Y81.168 E2.83902
G1 X151.537 Y81.738 E2.87022
G1 X152.231 Y82.369 E2.90142
G1 X152.868 Y83.056 E2.93258
G1 X153.445 Y83.796 E2.96379
G1 X153.957 Y84.582 E2.99499
G1 X154.4 Y85.409 E3.02619
G1 X154.771 Y86.27 E3.05737
G1 X155.067 Y87.16 E3.08857
G1 X155.286 Y88.072 E3.11977
G1 X155.427 Y88.999 E3.15095
G1 X155.487 Y89.877 E3.18022
G1 X155.496 Y90.198 E3.1909
G1 X155.5 Y90.506 E3.20115
G1 X155.499 Y139.576 E4.83322
G1 X155.49 Y140.303 E4.85741
G1 X155.439 Y141.24 E4.88862
G1 X155.307 Y142.168 E4.91979
G1 X155.098 Y143.082 E4.95098
G1 X154.811 Y143.975 E4.98217
G1 X154.449 Y144.841 E5.01339
G1 X154.015 Y145.672 E5.04457
G1 X153.511 Y146.463 E5.07577
G1 X152.942 Y147.208 E5.10695
G1 X152.311 Y147.903 E5.13817
G1 X151.624 Y148.541 E5.16935
G1 X150.885 Y149.118 E5.20054
G1 X150.099 Y149.63 E5.23174
G1 X149.273 Y150.073 E5.26291
G1 X148.411 Y150.445 E5.29414
G1 X147.522 Y150.741 E5.3253
G1 X146.61 Y150.961 E5.35651
G1 X145.683 Y151.102 E5.38769
G1 X144.799 Y151.163 E5.41717
G1 X144.478 Y151.172 E5.42785
G1 X144.17 Y151.176 E5.43809
G1 X115.05 Y151.175 E6.40663
G1 X114.348 Y151.165 E6.42998
G1 X113.412 Y151.112 E6.46116
G1 X112.484 Y150.979 E6.49234
G1 X111.57 Y150.767 E6.52355
G1 X110.677 Y150.479 E6.55475
G1 X109.813 Y150.115 E6.58594
G1 X108.982 Y149.679 E6.61715
G1 X108.192 Y149.174 E6.64833
G1 X107.448 Y148.604 E6.67951
G1 X106.755 Y147.972 E6.7107
G1 X106.361 Y147.561 E6.72964
G1 X105.78 Y146.921 E6.75839
G1 X104.02 Y145.034 E6.84421
G1 X102.262 Y143.251 E6.92749
G1 X100.445 Y141.511 E7.01117
G1 X98.564 Y139.808 E7.09556
G1 X96.658 Y138.179 E7.17895
G1 X94.696 Y136.595 E7.26282
G1 X92.699 Y135.076 E7.34628
G1 X92.073 Y134.624 E7.37196
G1 X91.251 Y134.017 E7.40594
G1 X90.521 Y133.428 E7.43714
G1 X89.843 Y132.779 E7.46836
G1 X89.466 Y132.359 E7.48713
G1 X89.464 Y132.36 E7.4872
G1 X87.674 Y130.329 E7.57724
G1 X85.991 Y128.522 E7.65938
G1 X84.217 Y126.726 E7.74334
G1 X82.39 Y124.976 E7.82748
G1 X80.524 Y123.289 E7.91115
G1 X78.653 Y121.689 E7.99303
G1 X76.648 Y120.07 E8.07874
G1 X74.648 Y118.549 E8.16232
G1 X72.596 Y117.076 E8.24633
G1 X70.528 Y115.68 E8.32932
G1 X68.932 Y114.666 E8.39221
G1 X68.482 Y114.372 E8.41009
G1 X67.72 Y113.825 E8.44128
G1 X67.007 Y113.215 E8.47249
G1 X66.349 Y112.547 E8.50368
G1 X65.751 Y111.825 E8.53486
G1 X65.216 Y111.055 E8.56605
G1 X64.748 Y110.242 E8.59725
G1 X64.352 Y109.392 E8.62843
G1 X64.029 Y108.511 E8.65964
G1 X63.783 Y107.606 E8.69084
G1 X63.614 Y106.683 E8.72205
G1 X63.515 Y105.509 E8.76123
G1 X63.505 Y105.184 E8.77205
G1 X63.5 Y104.846 E8.78329
G1 X63.501 Y90.701 E9.25375
G1 X63.51 Y90.036 E9.27587
G1 X63.563 Y89.1 E9.30706
G1 X63.695 Y88.171 E9.33826
G1 X63.906 Y87.257 E9.36946
G1 X64.194 Y86.365 E9.40064
G1 X64.557 Y85.5 E9.43184
G1 X64.992 Y84.669 E9.46304
G1 X65.496 Y83.879 E9.49421
G1 X66.066 Y83.134 E9.5254
G1 X66.698 Y82.44 E9.55662
G1 X67.386 Y81.803 E9.58781
G0 F6000 X67.774 Y81.999
G1 F1200 X68.51 Y81.446 E9.61843
G1 X69.291 Y80.958 E9.64906
G1 X70.111 Y80.54 E9.67967
G1 X70.965 Y80.195 E9.71031
G1 X71.845 Y79.925 E9.74092
G1 X72.745 Y79.733 E9.77153
G1 X73.659 Y79.619 E9.80216
G1 X74.212 Y79.589 E9.82058
G1 X74.533 Y79.58 E9.83126
G1 X74.83 Y79.576 E9.84114
G1 X78.793 Y79.576 E9.97295
G1 X79.645 Y79.587 E10.00129
G1 X80.564 Y79.64 E10.03191
G1 X81.729 Y79.824 E10.07114
G1 X82.601 Y80.05 E10.1011
G1 X83.171 Y80.224 E10.12092
G1 X85.643 Y80.943 E10.20655
G1 X88.103 Y81.584 E10.2911
G1 X90.602 Y82.159 E10.37639
G1 X93.015 Y82.643 E10.45824
G1 X95.546 Y83.077 E10.54365
G1 X98.041 Y83.432 E10.62747
G1 X100.543 Y83.717 E10.71123
G1 X103.081 Y83.933 E10.79595
G1 X105.58 Y84.075 E10.8792
G1 X108.135 Y84.148 E10.96421
G1 X110.645 Y84.148 E11.0477
G1 X113.183 Y84.077 E11.13214
G1 X115.706 Y83.934 E11.21619
G1 X118.228 Y83.72 E11.30038
G1 X120.727 Y83.436 E11.38403
G1 X123.229 Y83.08 E11.46809
G1 X125.749 Y82.649 E11.55312
G1 X128.21 Y82.156 E11.6366
G1 X130.635 Y81.599 E11.71935
G1 X133.126 Y80.95 E11.80497
G1 X135.57 Y80.24 E11.88962
G1 X135.827 Y80.16 E11.89857
G1 X136.309 Y80.017 E11.91529
G1 X137.203 Y79.796 E11.94592
G1 X138.112 Y79.653 E11.97653
G1 X138.979 Y79.591 E12.00544
G1 X139.309 Y79.581 E12.01642
G1 X139.63 Y79.576 E12.0271
G1 X143.93 Y79.577 E12.17012
G1 X144.628 Y79.586 E12.19333
G1 X145.547 Y79.638 E12.22395
G1 X146.458 Y79.769 E12.25456
G1 X147.354 Y79.979 E12.28517
G1 X148.229 Y80.266 E12.3158
G1 X149.076 Y80.628 E12.34643
G1 X149.888 Y81.062 E12.37706
G1 X150.659 Y81.564 E12.40766
G1 X151.384 Y82.132 E12.43829
G1 X152.057 Y82.761 E12.46893
G1 X152.672 Y83.445 E12.49952
G1 X153.226 Y84.18 E12.53013
G1 X153.714 Y84.961 E12.56076
G1 X154.133 Y85.781 E12.59139
G1 X154.479 Y86.634 E12.62201
G1 X154.749 Y87.514 E12.65262
G1 X154.942 Y88.415 E12.68327
G1 X155.056 Y89.328 E12.71387
G1 X155.087 Y89.888 E12.73253
G1 X155.096 Y90.209 E12.74321
G1 X155.1 Y90.506 E12.75309
G1 X155.099 Y139.571 E14.38499
G1 X155.09 Y140.298 E14.40918
G1 X155.039 Y141.217 E14.43979
G1 X154.908 Y142.129 E14.47043
G1 X154.698 Y143.025 E14.50104
G1 X154.412 Y143.9 E14.53166
G1 X154.051 Y144.747 E14.56228
G1 X153.617 Y145.559 E14.59291
G1 X153.115 Y146.331 E14.62353
G1 X152.547 Y147.056 E14.65417
G1 X151.919 Y147.729 E14.68478
G1 X151.235 Y148.345 E14.7154
G1 X150.5 Y148.899 E14.74601
G1 X149.72 Y149.388 E14.77663
G1 X148.9 Y149.807 E14.80726
G1 X148.047 Y150.153 E14.83787
G1 X147.167 Y150.424 E14.8685
G1 X146.267 Y150.617 E14.89911
G1 X145.353 Y150.732 E14.92975
G1 X144.788 Y150.763 E14.94857
G1 X144.467 Y150.772 E14.95926
G1 X144.17 Y150.776 E14.96913
G1 X115.056 Y150.775 E15.93747
G1 X114.354 Y150.765 E15.96082
G1 X113.435 Y150.712 E15.99144
G1 X112.524 Y150.579 E16.02206
G1 X111.628 Y150.368 E16.05268
G1 X110.753 Y150.08 E16.08331
G1 X109.907 Y149.717 E16.11393
G1 X109.096 Y149.282 E16.14454
G1 X108.325 Y148.778 E16.17518
G1 X107.601 Y148.21 E16.20578
G1 X106.657 Y147.292 E16.24958
G1 X106.045 Y146.618 E16.27986
G1 X104.333 Y144.781 E16.36338
G1 X102.54 Y142.964 E16.44828
G1 X100.689 Y141.191 E16.53353
G1 X98.847 Y139.523 E16.61618
G1 X96.924 Y137.88 E16.70031
G1 X94.944 Y136.282 E16.78494
G1 X92.911 Y134.735 E16.86991
G1 X92.31 Y134.302 E16.89454
G1 X91.488 Y133.695 E16.92853
G1 X90.772 Y133.117 E16.95913
G1 X90.109 Y132.478 E16.98976
G1 X89.766 Y132.094 E17.00689
G1 X89.764 Y132.095 E17.00696
G1 X88 Y130.093 E17.09571
G1 X86.251 Y128.216 E17.18104
G1 X84.496 Y126.439 E17.26411
G1 X82.671 Y124.691 E17.34816
G1 X80.805 Y123.003 E17.43185
G1 X78.88 Y121.357 E17.51609
G1 X76.901 Y119.76 E17.60067
G1 X74.895 Y118.234 E17.6845
G1 X72.807 Y116.735 E17.76999
G1 X70.745 Y115.343 E17.85274
G1 X69.147 Y114.328 E17.9157
G1 X68.701 Y114.037 E17.93341
G1 X67.953 Y113.5 E17.96404
G1 X67.255 Y112.9 E17.99465
G1 X66.612 Y112.241 E18.02528
G1 X66.029 Y111.529 E18.05588
G1 X65.509 Y110.769 E18.08651
G1 X65.057 Y109.967 E18.11713
G1 X64.677 Y109.129 E18.14773
G1 X64.37 Y108.26 E18.17839
G1 X64.14 Y107.369 E18.20899
G1 X63.989 Y106.461 E18.23961
G1 X63.915 Y105.497 E18.27177
G1 X63.905 Y105.172 E18.28258
G1 X63.9 Y104.846 E18.29343
G1 X63.901 Y90.707 E18.76369
G1 X63.91 Y90.042 E18.78581
G1 X63.962 Y89.122 E18.81646
G1 X64.094 Y88.211 E18.84708
G1 X64.305 Y87.315 E18.87769
G1 X64.592 Y86.44 E18.90832
G1 X64.955 Y85.594 E18.93894
G1 X65.389 Y84.782 E18.96956
G1 X65.892 Y84.011 E19.00018
G1 X66.461 Y83.287 E19.03081
G1 X67.089 Y82.615 E19.0614
G1 X67.774 Y81.999 E19.09204
G0 F6000 X68.162 Y82.2
G1 F1200 X68.894 Y81.67 E19.1221
G1 X69.669 Y81.207 E19.15212
G1 X70.482 Y80.814 E19.18216
G1 X71.327 Y80.494 E19.21221
G1 X72.196 Y80.251 E19.24222
G1 X73.084 Y80.085 E19.27227
G1 X74.223 Y79.989 E19.31029
G1 X74.544 Y79.98 E19.32097
G1 X74.83 Y79.976 E19.33048
G1 X78.793 Y79.976 E19.46229
G1 X79.639 Y79.987 E19.49043
G1 X80.541 Y80.04 E19.52048
G1 X81.645 Y80.215 E19.55766
G1 X82.484 Y80.433 E19.58649
G1 X83.022 Y80.597 E19.6052
G1 X85.535 Y81.328 E19.69225
G1 X88.018 Y81.975 E19.77759
G1 X90.498 Y82.546 E19.86223
G1 X92.982 Y83.044 E19.94649
G1 X95.458 Y83.468 E20.03004
G1 X97.971 Y83.826 E20.11447
G1 X100.535 Y84.118 E20.2003
G1 X103.023 Y84.33 E20.28335
G1 X105.584 Y84.475 E20.36867
G1 X108.123 Y84.548 E20.45315
G1 X110.656 Y84.548 E20.5374
G1 X113.183 Y84.477 E20.62148
G1 X115.724 Y84.333 E20.70613
G1 X118.273 Y84.117 E20.79121
G1 X120.792 Y83.831 E20.87553
G1 X123.286 Y83.476 E20.95932
G1 X125.817 Y83.043 E21.04473
G1 X128.271 Y82.551 E21.12797
G1 X130.761 Y81.98 E21.21294
G1 X133.234 Y81.336 E21.29793
G1 X135.705 Y80.618 E21.38352
G1 X136.116 Y80.49 E21.39784
G1 X136.422 Y80.4 E21.40844
G1 X137.299 Y80.184 E21.43849
G1 X138.191 Y80.046 E21.46851
G1 X138.991 Y79.991 E21.49518
G1 X139.321 Y79.981 E21.50616
G1 X139.63 Y79.976 E21.51644
G1 X143.925 Y79.977 E21.65929
G1 X144.623 Y79.986 E21.68251
G1 X145.524 Y80.037 E21.71252
G1 X146.418 Y80.169 E21.74258
G1 X147.296 Y80.378 E21.7726
G1 X148.153 Y80.665 E21.80266
G1 X148.98 Y81.026 E21.83267
G1 X149.773 Y81.459 E21.86272
G1 X150.524 Y81.96 E21.89275
G1 X151.228 Y82.526 E21.92279
G1 X151.879 Y83.152 E21.95283
G1 X152.472 Y83.833 E21.98286
G1 X153.002 Y84.564 E22.0129
G1 X153.466 Y85.339 E22.04294
G1 X153.86 Y86.152 E22.07299
G1 X154.18 Y86.996 E22.10301
G1 X154.424 Y87.866 E22.13306
G1 X154.59 Y88.754 E22.16311
G1 X154.687 Y89.899 E22.20133
G1 X154.696 Y90.22 E22.21201
G1 X154.7 Y90.506 E22.22152
G1 X154.699 Y139.566 E23.85326
G1 X154.69 Y140.293 E23.87745
G1 X154.639 Y141.195 E23.90749
G1 X154.508 Y142.089 E23.93755
G1 X154.299 Y142.967 E23.96756
G1 X154.013 Y143.824 E23.99761
G1 X153.652 Y144.652 E24.02766
G1 X153.22 Y145.444 E24.05766
G1 X152.719 Y146.196 E24.08772
G1 X152.153 Y146.9 E24.11776
G1 X151.528 Y147.551 E24.14778
G1 X150.847 Y148.145 E24.17783
G1 X150.116 Y148.676 E24.20788
G1 X149.342 Y149.14 E24.2379
G1 X148.529 Y149.534 E24.26795
G1 X147.685 Y149.854 E24.29797
G1 X146.815 Y150.099 E24.32803
G1 X145.928 Y150.265 E24.35804
G1 X144.777 Y150.363 E24.39646
G1 X144.456 Y150.372 E24.40715
G1 X144.17 Y150.376 E24.41666
G1 X115.062 Y150.375 E25.38479
G1 X114.36 Y150.365 E25.40815
G1 X113.458 Y150.312 E25.4382
G1 X112.565 Y150.18 E25.46822
G1 X111.687 Y149.969 E25.49826
G1 X110.831 Y149.681 E25.5283
G1 X110.003 Y149.319 E25.55835
G1 X109.211 Y148.885 E25.58839
G1 X108.461 Y148.382 E25.61842
G1 X107.758 Y147.816 E25.64844
G1 X106.954 Y147.023 E25.686
G1 X106.391 Y146.402 E25.71388
G1 X104.61 Y144.493 E25.80072
G1 X102.819 Y142.677 E25.88555
G1 X100.988 Y140.923 E25.96988
G1 X99.092 Y139.207 E26.05494
G1 X97.151 Y137.548 E26.13986
G1 X95.193 Y135.967 E26.22357
G1 X93.183 Y134.438 E26.30756
G1 X92.548 Y133.98 E26.3336
G1 X91.726 Y133.373 E26.36759
G1 X91.024 Y132.805 E26.39762
G1 X90.375 Y132.177 E26.42766
G1 X90.065 Y131.83 E26.44314
G1 X90.064 Y131.831 E26.44319
G1 X88.276 Y129.802 E26.53313
G1 X86.541 Y127.94 E26.61778
G1 X84.792 Y126.17 E26.70055
G1 X82.933 Y124.388 E26.7862
G1 X81.069 Y122.703 E26.86977
G1 X79.129 Y121.044 E26.95467
G1 X77.144 Y119.442 E27.03951
G1 X75.131 Y117.911 E27.12363
G1 X73.074 Y116.434 E27.20785
G1 X70.961 Y115.007 E27.29266
G1 X69.361 Y113.991 E27.3557
G1 X68.92 Y113.703 E27.37321
G1 X68.187 Y113.175 E27.40326
G1 X67.504 Y112.584 E27.4333
G1 X66.876 Y111.936 E27.46331
G1 X66.307 Y111.234 E27.49337
G1 X65.803 Y110.485 E27.5234
G1 X65.367 Y109.694 E27.55344
G1 X65.003 Y108.867 E27.58349
G1 X64.714 Y108.012 E27.61351
G1 X64.501 Y107.134 E27.64356
G1 X64.366 Y106.241 E27.6736
G1 X64.315 Y105.485 E27.6988
G1 X64.305 Y105.16 E27.70961
G1 X64.3 Y104.846 E27.72006
G1 X64.301 Y90.712 E28.19016
G1 X64.31 Y90.047 E28.21228
G1 X64.362 Y89.145 E28.24233
G1 X64.494 Y88.252 E28.27235
G1 X64.704 Y87.374 E28.30238
G1 X64.991 Y86.517 E28.33244
G1 X65.353 Y85.69 E28.36246
G1 X65.786 Y84.898 E28.39248
G1 X66.288 Y84.147 E28.42253
G1 X66.855 Y83.443 E28.45259
G1 X67.481 Y82.793 E28.48261
G1 X68.162 Y82.2 E28.51264
G1 F2700 E23.51264
;MESH:5a59bb34-374e-4a65-8a0b-a9cd1ebcb1cb.stl
G0 F6000 X74.92 Y89.511
G0 X74.92 Y90.596
G0 X75.282 Y104.394
G0 X98.207 Y104.748
G0 X98.561 Y124.394
G0 X114.928 Y124.748
G0 X115.1 Y139.576
;TYPE:WALL-INNER
G1 F2700 E28.51264
G1 F1200 X115.1 Y124.576 E29.01154
G1 X98.379 Y124.576 E29.56769
G1 X98.379 Y104.576 E30.23289
G1 X75.1 Y104.576 E31.00715
G1 X75.1 Y90.776 E31.46614
G1 X78.9 Y90.776 E31.59253
G1 X78.9 Y100.776 E31.92513
G1 X84.9 Y100.776 E32.12469
G1 X84.9 Y95.676 E32.29432
G1 X101.5 Y95.676 E32.84644
G1 X101.5 Y100.476 E33.00609
G1 X106 Y100.476 E33.15576
G1 X106 Y118.976 E33.77107
G1 X110.319 Y118.976 E33.91472
G1 X111.164 Y113.165 E34.11003
G1 X116.681 Y107.836 E34.36515
G1 X124.3 Y109.65 E34.62564
G1 X124.3 Y130.876 E35.33162
G1 X122.7 Y130.876 E35.38484
G1 X122.7 Y135.876 E35.55114
G1 X139.9 Y135.876 E36.12321
G1 X139.9 Y90.776 E37.62324
G1 X143.9 Y90.776 E37.75628
G1 X143.9 Y139.576 E39.37938
G1 X115.1 Y139.576 E40.33727
G0 F6000 X114.7 Y139.976
;TYPE:WALL-OUTER
G1 F1200 X114.7 Y124.976 E40.83617
G1 X97.979 Y124.976 E41.39231
G1 X97.979 Y104.976 E42.05752
G1 X74.7 Y104.976 E42.83178
G1 X74.7 Y90.376 E43.31738
G1 X79.3 Y90.376 E43.47037
G1 X79.3 Y100.376 E43.80298
G1 X84.5 Y100.376 E43.97593
G1 X84.5 Y95.276 E44.14555
G1 X101.9 Y95.276 E44.72428
G1 X101.9 Y100.076 E44.88393
G1 X106.4 Y100.076 E45.0336
G1 X106.4 Y118.576 E45.64891
G1 X109.973 Y118.576 E45.76775
G1 X110.788 Y112.972 E45.9561
G1 X116.56 Y107.396 E46.22303
G1 X124.7 Y109.334 E46.50133
G1 X124.7 Y131.276 E47.23113
G1 X123.1 Y131.276 E47.28434
G1 X123.1 Y135.476 E47.42404
G1 X139.5 Y135.476 E47.9695
G1 X139.5 Y90.376 E49.46954
G1 X144.3 Y90.376 E49.62918
G1 X144.3 Y139.976 E51.27889
G1 X114.7 Y139.976 E52.26339
G0 F6000 X114.97 Y139.706
G0 X115.21 Y139.186
G0 X115.49 Y139.186
;TYPE:SKIN
G1 F1200 X115.49 Y124.186 E52.76229
G1 X98.769 Y124.186 E53.31843
G1 X98.769 Y104.186 E53.98363
G1 X75.49 Y104.186 E54.7579
