;FLAVOR:Marlin
;TIME:6547
;Filament used: 4.2442m
;Layer height: 0.2
;MINX:13.843
;MINY:36
;MINZ:0.2
;MAXX:231.825
;MAXY:203.519
;MAXZ:4
;Generated with Cura_SteamEngine 4.7.1
M140 S50
M105
M190 S50
M104 S200
M105
M109 S200
M82 ;absolute extrusion mode
; Ender 3 Custom Start G-code
G92 E0 ; Reset Extruder
G28 ; Home all axes
G1 Z2.0 F3000 ; Move Z Axis up little to prevent scratching of Heat Bed
G1 X0.1 Y20 Z0.3 F5000.0 ; Move to start position
G1 X0.1 Y200.0 Z0.3 F1500.0 E15 ; Draw the first line
G1 X0.4 Y200.0 Z0.3 F5000.0 ; Move to side a little
G1 X0.4 Y20 Z0.3 F1500.0 E30 ; Draw the second line
G92 E0 ; Reset Extruder
G1 Z2.0 F3000 ; Move Z Axis up little to prevent scratching of Heat Bed
G1 X5 Y20 Z0.3 F5000.0 ; Move over to prevent blob squish
G92 E0
G92 E0
G1 F2700 E-5
;LAYER_COUNT:20
;LAYER:0
M107
G0 F6000 X20.939 Y48.027 Z0.2
;TYPE:SKIRT
G1 F2700 E0
G1 F1200 X21.829 Y47.731 E0.0312
G1 X22.741 Y47.512 E0.06239
G1 X23.668 Y47.371 E0.09358
G1 X24.544 Y47.311 E0.12278
G1 X24.865 Y47.302 E0.13346
G1 X25.173 Y47.298 E0.14371
G1 X46.763 Y47.298 E0.86179
G1 X49.371 Y47.261 E0.94855
G1 X51.892 Y47.154 E1.03247
G1 X54.387 Y46.977 E1.11566
G1 X56.887 Y46.729 E1.19922
G1 X59.38 Y46.41 E1.28281
G1 X61.873 Y46.019 E1.36675
G1 X64.363 Y45.556 E1.45098
G1 X66.827 Y45.026 E1.53481
G1 X69.229 Y44.437 E1.61707
G1 X71.685 Y43.761 E1.70179
G1 X74.095 Y43.023 E1.78562
G1 X76.487 Y42.216 E1.86959
G1 X78.827 Y41.353 E1.95254
G1 X81.183 Y40.407 E2.03698
G1 X83.481 Y39.407 E2.12034
G1 X85.759 Y38.339 E2.20402
G1 X87.967 Y37.227 E2.28624
G1 X88.163 Y37.131 E2.2935
G1 X89.023 Y36.755 E2.32472
G1 X89.911 Y36.453 E2.35592
G1 X90.821 Y36.228 E2.38709
G1 X91.747 Y36.082 E2.41827
G1 X92.667 Y36.015 E2.44895
G1 X92.995 Y36.005 E2.45987
G1 X93.33 Y36 E2.47101
G1 X137.465 Y36.001 E3.93895
G1 X138.17 Y36.012 E3.9624
G1 X139.106 Y36.067 E3.99358
G1 X140.034 Y36.201 E4.02477
G1 X140.948 Y36.414 E4.05598
G1 X141.84 Y36.704 E4.08718
G1 X142.704 Y37.068 E4.11836
G1 X143.533 Y37.505 E4.14953
G1 X144.413 Y38.075 E4.18441
G1 X146.617 Y39.657 E4.27464
G1 X148.72 Y41.077 E4.35904
G1 X150.829 Y42.417 E4.44215
G1 X152.992 Y43.705 E4.52588
G1 X155.213 Y44.947 E4.61051
G1 X157.413 Y46.094 E4.69303
G1 X159.7 Y47.206 E4.77761
G1 X161.997 Y48.244 E4.86145
G1 X164.303 Y49.208 E4.94458
G1 X166.62 Y50.102 E5.02718
G1 X169.021 Y50.949 E5.11186
G1 X171.433 Y51.725 E5.19614
G1 X173.845 Y52.427 E5.27969
G1 X176.281 Y53.06 E5.3634
G1 X178.72 Y53.622 E5.44665
G1 X181.186 Y54.119 E5.53032
G1 X183.662 Y54.542 E5.61386
G1 X186.19 Y54.902 E5.69879
G1 X188.673 Y55.185 E5.78191
G1 X191.183 Y55.399 E5.8657
G1 X193.667 Y55.54 E5.94845
G1 X196.254 Y55.613 E6.03453
G1 X197.785 Y55.623 E6.08545
G1 X198.486 Y55.633 E6.10877
G1 X199.422 Y55.686 E6.13995
G1 X200.351 Y55.819 E6.17116
G1 X201.264 Y56.031 E6.20234
G1 X202.157 Y56.319 E6.23354
G1 X203.021 Y56.683 E6.26473
G1 X203.852 Y57.119 E6.29594
G1 X204.642 Y57.624 E6.32712
G1 X205.386 Y58.194 E6.3583
G1 X206.079 Y58.826 E6.38949
G1 X206.716 Y59.515 E6.4207
G1 X207.292 Y60.255 E6.45189
G1 X207.78 Y61.003 E6.4816
G1 X208.157 Y61.636 E6.5061
G1 X230.075 Y99.598 E7.96406
G1 X230.414 Y100.201 E7.98707
G1 X230.838 Y101.038 E8.01828
G1 X231.189 Y101.907 E8.04945
G1 X231.466 Y102.804 E8.08067
G1 X231.665 Y103.72 E8.11185
G1 X231.785 Y104.65 E8.14304
G1 X231.825 Y105.587 E8.17423
G1 X231.785 Y106.524 E8.20542
G1 X231.666 Y107.455 E8.23664
G1 X231.468 Y108.371 E8.26781
G1 X231.193 Y109.268 E8.29902
G1 X230.849 Y110.122 E8.32964
G1 X230.579 Y110.717 E8.35137
G1 X229.914 Y112.137 E8.40352
G1 X228.907 Y114.45 E8.48743
G1 X227.995 Y116.718 E8.56873
G1 X227.096 Y119.155 E8.65512
G1 X226.3 Y121.514 E8.73793
G1 X225.554 Y123.951 E8.8227
G1 X224.897 Y126.338 E8.90504
G1 X224.286 Y128.824 E8.99019
G1 X223.781 Y131.165 E9.06984
G1 X223.295 Y133.773 E9.15808
G1 X222.912 Y136.217 E9.24036
G1 X222.591 Y138.722 E9.32436
G1 X222.34 Y141.249 E9.40882
G1 X222.164 Y143.728 E9.49148
G1 X222.057 Y146.249 E9.5754
G1 X222.021 Y148.773 E9.65936
G1 X222.057 Y151.29 E9.74308
G1 X222.171 Y153.951 E9.83167
G1 X222.222 Y154.855 E9.86178
G1 X222.236 Y155.792 E9.89295
G1 X222.169 Y156.728 E9.92416
G1 X222.023 Y157.654 E9.95534
G1 X221.799 Y158.565 E9.98655
G1 X221.497 Y159.453 E10.01774
G1 X221.122 Y160.312 E10.04892
G1 X220.674 Y161.137 E10.08014
G1 X220.158 Y161.92 E10.11133
G1 X219.577 Y162.656 E10.14252
G1 X218.935 Y163.34 E10.17372
G1 X218.238 Y163.967 E10.2049
G1 X217.489 Y164.532 E10.2361
G1 X217.038 Y164.828 E10.25405
G1 X216.772 Y164.993 E10.26446
G1 X216.473 Y165.172 E10.27605
G1 X212.021 Y167.741 E10.44701
G1 X211.451 Y168.061 E10.46875
G1 X210.614 Y168.485 E10.49996
G1 X209.745 Y168.836 E10.53113
G1 X208.848 Y169.111 E10.56233
G1 X207.474 Y169.379 E10.60889
G1 X207.443 Y169.383 E10.60993
G1 X206.508 Y169.463 E10.64114
G1 X205.57 Y169.463 E10.67234
G1 X204.173 Y169.314 E10.71907
G1 X204.009 Y169.286 E10.7246
G1 X201.416 Y168.88 E10.8119
G1 X198.937 Y168.564 E10.89502
G1 X196.442 Y168.317 E10.97841
G1 X193.911 Y168.139 E11.0628
G1 X191.414 Y168.034 E11.14592
G1 X188.89 Y167.999 E11.22988
G1 X186.368 Y168.036 E11.31377
G1 X183.846 Y168.144 E11.39773
G1 X181.367 Y168.32 E11.48039
G1 X178.841 Y168.573 E11.56482
G1 X176.341 Y168.893 E11.64865
G1 X173.84 Y169.286 E11.73286
G1 X171.386 Y169.743 E11.81588
G1 X168.873 Y170.286 E11.90139
G1 X166.492 Y170.872 E11.98295
G1 X164.035 Y171.549 E12.06771
G1 X161.632 Y172.286 E12.15131
G1 X159.274 Y173.082 E12.23409
G1 X156.894 Y173.961 E12.31847
G1 X154.549 Y174.904 E12.40254
G1 X152.269 Y175.897 E12.48525
G1 X149.969 Y176.976 E12.56975
G1 X147.716 Y178.112 E12.65367
G1 X145.523 Y179.297 E12.73658
G1 X143.335 Y180.56 E12.8206
G1 X141.206 Y181.872 E12.90378
G1 X139.057 Y183.28 E12.98923
G1 X137.022 Y184.699 E13.07175
G1 X135.006 Y186.189 E13.15512
G1 X133.008 Y187.756 E13.23958
G1 X131.1 Y189.341 E13.32208
G1 X129.167 Y191.043 E13.40774
G1 X127.353 Y192.733 E13.4902
G1 X125.562 Y194.496 E13.57379
G1 X123.834 Y196.299 E13.65685
G1 X122.748 Y197.506 E13.71085
G1 X121.923 Y198.405 E13.75144
G1 X121.26 Y199.069 E13.78265
G1 X120.542 Y199.673 E13.81385
G1 X119.776 Y200.214 E13.84504
G1 X118.967 Y200.688 E13.87623
G1 X118.12 Y201.092 E13.90744
G1 X117.003 Y201.497 E13.94696
G1 X116.689 Y201.592 E13.95787
G1 X116.35 Y201.688 E13.96959
G1 X111.419 Y203.008 E14.13937
G1 X110.737 Y203.181 E14.16277
G1 X109.819 Y203.373 E14.19397
G1 X108.888 Y203.486 E14.22516
G1 X107.95 Y203.519 E14.25637
G1 X107.014 Y203.472 E14.28755
G1 X106.084 Y203.345 E14.31876
G1 X105.169 Y203.14 E14.34995
G1 X104.275 Y202.857 E14.38114
G1 X103.408 Y202.5 E14.41233
G1 X102.574 Y202.07 E14.44354
G1 X101.781 Y201.57 E14.47472
G1 X101.032 Y201.005 E14.50592
G1 X100.335 Y200.378 E14.5371
G1 X99.694 Y199.693 E14.5683
G1 X98.964 Y198.745 E14.6081
G1 X98.352 Y197.854 E14.64405
G1 X96.838 Y195.715 E14.73121
G1 X95.313 Y193.684 E14.81569
G1 X93.755 Y191.73 E14.89881
G1 X92.118 Y189.79 E14.98324
G1 X90.461 Y187.935 E15.06596
G1 X88.722 Y186.096 E15.15015
G1 X86.951 Y184.327 E15.2334
G1 X85.11 Y182.589 E15.31761
G1 X83.225 Y180.907 E15.40163
G1 X81.316 Y179.298 E15.48467
G1 X79.356 Y177.739 E15.56797
G1 X77.314 Y176.208 E15.65286
G1 X75.264 Y174.759 E15.73635
G1 X73.19 Y173.378 E15.81923
G1 X71.037 Y172.033 E15.90366
G1 X68.834 Y170.74 E15.98862
G1 X66.676 Y169.556 E16.07049
G1 X64.433 Y168.405 E16.15434
G1 X62.142 Y167.311 E16.23878
G1 X59.838 Y166.29 E16.3226
G1 X57.579 Y165.363 E16.40382
G1 X55.127 Y164.438 E16.49098
G1 X53.711 Y163.944 E16.54086
G1 X53.261 Y163.776 E16.55684
G1 X53.113 Y163.717 E16.56213
G1 X52.257 Y163.333 E16.59334
G1 X51.437 Y162.877 E16.62455
G1 X50.659 Y162.353 E16.65574
G1 X49.929 Y161.765 E16.68692
G1 X49.251 Y161.117 E16.71811
G1 X48.631 Y160.413 E16.74932
G1 X48.073 Y159.66 E16.78049
G1 X47.581 Y158.861 E16.8117
G1 X47.159 Y158.023 E16.8429
G1 X46.811 Y157.153 E16.87407
G1 X46.537 Y156.256 E16.90526
G1 X46.341 Y155.338 E16.93648
G1 X46.224 Y154.408 E16.96766
G1 X46.19 Y153.809 E16.98761
G1 X46.181 Y153.49 E16.99823
G1 X46.177 Y153.18 E17.00854
G1 X46.178 Y148.059 E17.17887
G1 X46.188 Y147.362 E17.20205
G1 X46.214 Y146.745 E17.22259
G1 X46.266 Y146.009 E17.24713
G1 X46.386 Y144.582 E17.29476
G1 X46.528 Y142.049 E17.37914
G1 X46.599 Y139.528 E17.46302
G1 X46.597 Y137.004 E17.54697
G1 X46.526 Y134.514 E17.62982
G1 X46.382 Y131.996 E17.71371
G1 X46.166 Y129.471 E17.798
G1 X45.886 Y127.008 E17.88044
G1 X45.523 Y124.47 E17.96572
G1 X45.102 Y122.016 E18.04853
G1 X44.61 Y119.569 E18.13155
G1 X44.04 Y117.096 E18.21596
G1 X43.395 Y114.624 E18.30093
G1 X42.699 Y112.232 E18.38379
G1 X41.935 Y109.86 E18.46667
G1 X41.082 Y107.446 E18.55182
G1 X40.174 Y105.093 E18.63571
G1 X39.208 Y102.789 E18.7188
G1 X38.178 Y100.51 E18.80199
G1 X37.07 Y98.234 E18.88618
G1 X35.92 Y96.033 E18.96878
G1 X34.674 Y93.802 E19.05377
G1 X33.386 Y91.643 E19.13738
G1 X32.039 Y89.524 E19.2209
G1 X30.638 Y87.45 E19.30414
G1 X29.163 Y85.396 E19.38825
G1 X27.628 Y83.383 E19.47245
G1 X26.05 Y81.426 E19.55606
G1 X24.426 Y79.527 E19.63917
G1 X22.737 Y77.661 E19.72288
G1 X20.984 Y75.833 E19.80712
G1 X19.173 Y74.047 E19.89172
G1 X18.227 Y73.154 E19.93498
G1 X17.357 Y72.344 E19.97452
G1 X16.699 Y71.676 E20.00571
G1 X16.1 Y70.955 E20.03688
G1 X15.564 Y70.185 E20.06809
G1 X15.096 Y69.372 E20.09929
G1 X14.699 Y68.522 E20.13049
G1 X14.375 Y67.642 E20.16168
G1 X14.128 Y66.737 E20.19288
G1 X13.959 Y65.815 E20.22406
G1 X13.858 Y64.631 E20.26358
G1 X13.848 Y64.306 E20.2744
G1 X13.843 Y63.968 E20.28564
G1 X13.844 Y58.852 E20.4558
G1 X13.853 Y58.163 E20.47872
G1 X13.905 Y57.227 E20.5099
G1 X14.037 Y56.298 E20.5411
G1 X14.247 Y55.384 E20.5723
G1 X14.535 Y54.492 E20.60347
G1 X14.897 Y53.627 E20.63466
G1 X15.332 Y52.796 E20.66586
G1 X15.836 Y52.005 E20.69705
G1 X16.406 Y51.26 E20.72825
G1 X17.037 Y50.566 E20.75945
G1 X17.725 Y49.928 E20.79066
G1 X18.464 Y49.352 E20.82182
G1 X19.25 Y48.84 E20.85302
G1 X20.077 Y48.397 E20.88422
G1 X20.939 Y48.027 E20.91542
G0 F6000 X21.303 Y48.319
G1 F1200 X22.183 Y48.048 E20.94605
G1 X23.083 Y47.856 E20.97666
G1 X23.997 Y47.742 E21.00729
G1 X24.555 Y47.711 E21.02588
G1 X24.876 Y47.702 E21.03656
G1 X25.173 Y47.698 E21.04644
G1 X46.769 Y47.698 E21.76473
G1 X49.394 Y47.661 E21.85204
G1 X51.902 Y47.554 E21.93553
G1 X54.422 Y47.376 E22.01956
G1 X56.937 Y47.127 E22.10362
G1 X59.426 Y46.808 E22.18708
G1 X61.978 Y46.407 E22.273
G1 X64.409 Y45.955 E22.35524
G1 X66.901 Y45.419 E22.44002
G1 X69.358 Y44.817 E22.52416
G1 X71.803 Y44.144 E22.6085
G1 X74.203 Y43.409 E22.69199
G1 X76.617 Y42.595 E22.77672
G1 X78.967 Y41.728 E22.86003
G1 X81.355 Y40.769 E22.94562
G1 X83.632 Y39.778 E23.02822
G1 X85.931 Y38.701 E23.11266
G1 X88.035 Y37.64 E23.19103
G1 X88.339 Y37.491 E23.20229
G1 X89.183 Y37.122 E23.23293
G1 X90.055 Y36.828 E23.26353
G1 X90.95 Y36.61 E23.29417
G1 X91.86 Y36.472 E23.32478
G1 X92.679 Y36.415 E23.35209
G1 X93.007 Y36.405 E23.36301
G1 X93.33 Y36.4 E23.37375
G1 X137.458 Y36.401 E24.84145
G1 X138.163 Y36.412 E24.8649
G1 X139.082 Y36.467 E24.89552
G1 X139.993 Y36.6 E24.92615
G1 X140.889 Y36.813 E24.95678
G1 X141.763 Y37.102 E24.98739
G1 X142.609 Y37.466 E25.01803
G1 X143.42 Y37.902 E25.04865
G1 X144.18 Y38.4 E25.07887
G1 X146.406 Y39.998 E25.17001
G1 X148.487 Y41.402 E25.25351
G1 X150.631 Y42.765 E25.33801
G1 X152.813 Y44.065 E25.42248
G1 X154.971 Y45.27 E25.50469
G1 X157.26 Y46.464 E25.59056
G1 X159.539 Y47.573 E25.67486
G1 X161.827 Y48.607 E25.75837
G1 X164.133 Y49.571 E25.8415
G1 X166.479 Y50.477 E25.92514
G1 X168.914 Y51.335 E26.01101
G1 X171.303 Y52.104 E26.09448
G1 X173.729 Y52.809 E26.17851
G1 X176.204 Y53.453 E26.26357
G1 X178.657 Y54.018 E26.34729
G1 X181.072 Y54.505 E26.42923
G1 X183.615 Y54.94 E26.51504
G1 X186.12 Y55.297 E26.5992
G1 X188.627 Y55.582 E26.68312
G1 X191.164 Y55.798 E26.76781
G1 X193.669 Y55.94 E26.85126
G1 X196.24 Y56.013 E26.9368
G1 X197.779 Y56.023 E26.98799
G1 X198.48 Y56.033 E27.01131
G1 X199.399 Y56.086 E27.04193
G1 X200.31 Y56.219 E27.07255
G1 X201.206 Y56.43 E27.10316
G1 X202.081 Y56.718 E27.1338
G1 X202.927 Y57.081 E27.16442
G1 X203.738 Y57.516 E27.19503
G1 X204.509 Y58.02 E27.22567
G1 X205.233 Y58.589 E27.25629
G1 X205.905 Y59.218 E27.28691
G1 X206.52 Y59.903 E27.31753
G1 X207.073 Y60.639 E27.34815
G1 X207.436 Y61.208 E27.37059
G1 X207.886 Y61.965 E27.39989
G1 X229.726 Y99.794 E28.85272
G1 X230.065 Y100.397 E28.87573
G1 X230.481 Y101.219 E28.90637
G1 X230.824 Y102.073 E28.93698
G1 X231.092 Y102.954 E28.9676
G1 X231.282 Y103.855 E28.99823
G1 X231.393 Y104.769 E29.02885
G1 X231.425 Y105.689 E29.05947
G1 X231.376 Y106.608 E29.09008
G1 X231.248 Y107.52 E29.12071
G1 X231.042 Y108.417 E29.15132
G1 X230.758 Y109.293 E29.18195
G1 X230.484 Y109.958 E29.20587
G1 X230.217 Y110.547 E29.22738
G1 X229.543 Y111.986 E29.28023
G1 X228.546 Y114.277 E29.36334
G1 X227.625 Y116.567 E29.44543
G1 X226.713 Y119.037 E29.533
G1 X225.914 Y121.407 E29.61619
G1 X225.178 Y123.81 E29.69978
G1 X224.499 Y126.278 E29.78491
G1 X223.899 Y128.724 E29.86868
G1 X223.383 Y131.112 E29.94994
G1 X222.906 Y133.669 E30.03645
G1 X222.514 Y136.171 E30.12068
G1 X222.194 Y138.673 E30.20458
G1 X221.941 Y141.214 E30.28951
G1 X221.764 Y143.719 E30.37303
G1 X221.657 Y146.226 E30.45649
G1 X221.621 Y148.773 E30.54122
G1 X221.657 Y151.313 E30.62571
G1 X221.768 Y153.917 E30.71239
G1 X221.823 Y154.877 E30.74438
G1 X221.835 Y155.798 E30.77501
G1 X221.768 Y156.716 E30.80562
G1 X221.621 Y157.625 E30.83625
G1 X221.395 Y158.518 E30.86689
G1 X221.094 Y159.387 E30.89748
G1 X220.717 Y160.228 E30.92813
G1 X220.27 Y161.032 E30.95873
G1 X219.754 Y161.795 E30.98936
G1 X219.174 Y162.51 E31.01998
G1 X218.534 Y163.172 E31.05061
G1 X217.839 Y163.775 E31.08121
G1 X216.828 Y164.488 E31.12236
G1 X216.562 Y164.653 E31.13277
G1 X216.273 Y164.825 E31.14396
G1 X211.825 Y167.392 E31.31477
G1 X211.255 Y167.712 E31.33651
G1 X210.433 Y168.127 E31.36713
G1 X209.579 Y168.47 E31.39774
G1 X208.698 Y168.737 E31.42836
G1 X207.422 Y168.982 E31.47158
G1 X207.391 Y168.986 E31.47262
G1 X206.474 Y169.064 E31.50323
G1 X205.554 Y169.062 E31.53383
G1 X204.241 Y168.92 E31.57775
G1 X204.073 Y168.891 E31.58342
G1 X201.492 Y168.488 E31.67031
G1 X198.956 Y168.164 E31.75534
G1 X196.477 Y167.918 E31.8382
G1 X193.956 Y167.741 E31.92225
G1 X191.401 Y167.634 E32.00731
G1 X188.891 Y167.599 E32.0908
G1 X186.343 Y167.636 E32.17555
G1 X183.836 Y167.743 E32.25901
G1 X181.334 Y167.922 E32.34244
G1 X178.787 Y168.176 E32.42758
G1 X176.264 Y168.5 E32.51218
G1 X173.804 Y168.886 E32.595
G1 X171.307 Y169.351 E32.67948
G1 X168.79 Y169.895 E32.76513
G1 X166.361 Y170.493 E32.84833
G1 X163.958 Y171.155 E32.93123
G1 X161.492 Y171.911 E33.01702
G1 X159.155 Y172.7 E33.09906
G1 X156.744 Y173.591 E33.18455
G1 X154.419 Y174.525 E33.26788
G1 X152.076 Y175.546 E33.35289
G1 X149.798 Y176.615 E33.43658
G1 X147.552 Y177.747 E33.52024
G1 X145.312 Y178.957 E33.60492
G1 X143.131 Y180.217 E33.68869
G1 X140.973 Y181.546 E33.77299
G1 X138.855 Y182.934 E33.85721
G1 X136.803 Y184.365 E33.94042
G1 X134.729 Y185.897 E34.02618
G1 X132.769 Y187.435 E34.10904
G1 X130.829 Y189.047 E34.19293
G1 X128.912 Y190.735 E34.27789
G1 X127.083 Y192.438 E34.36101
G1 X125.258 Y194.235 E34.4462
G1 X123.53 Y196.038 E34.52926
G1 X122.453 Y197.236 E34.58284
G1 X121.628 Y198.135 E34.62342
G1 X120.977 Y198.786 E34.65404
G1 X120.271 Y199.377 E34.68467
G1 X119.517 Y199.906 E34.7153
G1 X118.72 Y200.366 E34.74591
G1 X117.886 Y200.756 E34.77653
G1 X116.888 Y201.114 E34.81179
G1 X116.574 Y201.209 E34.82271
G1 X116.247 Y201.302 E34.83401
G1 X111.32 Y202.621 E35.00366
G1 X110.638 Y202.794 E35.02706
G1 X109.737 Y202.981 E35.05766
G1 X108.823 Y203.089 E35.08827
G1 X107.902 Y203.118 E35.11892
G1 X106.983 Y203.067 E35.14954
G1 X106.072 Y202.936 E35.18015
G1 X105.175 Y202.727 E35.21078
G1 X104.3 Y202.44 E35.24141
G1 X103.454 Y202.079 E35.272
G1 X102.641 Y201.646 E35.30264
G1 X101.87 Y201.144 E35.33324
G1 X101.145 Y200.576 E35.36387
G1 X100.471 Y199.948 E35.39451
G1 X99.855 Y199.264 E35.42513
G1 X99.294 Y198.519 E35.45615
G1 X98.665 Y197.603 E35.4931
G1 X97.156 Y195.472 E35.57995
G1 X95.643 Y193.457 E35.66376
G1 X94.058 Y191.468 E35.74835
G1 X92.439 Y189.55 E35.83183
G1 X90.749 Y187.658 E35.91621
