;FLAVOR:Marlin
;TIME:2346
;Filament used: 1.29581m
;Layer height: 0.2
;MINX:95.202
;MINY:116.107
;MINZ:0.2
;MAXX:141.116
;MAXY:188.779
;MAXZ:44
;Generated with Cura_SteamEngine 4.7.1
M140 S60
M105
M190 S60
M104 S220
M105
M109 S220
M82 ;absolute extrusion mode
; Ender 3 Custom Start G-code
G92 E0 ; Reset Extruder
G28 ; Home all axes
G1 Z2.0 F3000 ; Move Z Axis up little to prevent scratching of Heat Bed
G1 X0.1 Y20 Z0.3 F5000.0 ; Move to start position
G1 X0.1 Y200.0 Z0.3 F1500.0 E15 ; Draw the first line
G1 X0.4 Y200.0 Z0.3 F5000.0 ; Move to side a little
G1 X0.4 Y20 Z0.3 F1500.0 E30 ; Draw the second line
G92 E0 ; Reset Extruder
G1 Z2.0 F3000 ; Move Z Axis up little to prevent scratching of Heat Bed
G1 X5 Y20 Z0.3 F5000.0 ; Move over to prevent blob squish
G92 E0
G92 E0
G1 F2700 E-5
;LAYER_COUNT:220
;LAYER:0
M107
G0 F6000 X98.941 Y120.796 Z0.2
;TYPE:SKIRT
G1 F2700 E0
G1 F1200 X99.671 Y120.207 E0.0312
G1 X100.449 Y119.683 E0.0624
G1 X101.269 Y119.227 E0.0936
G1 X102.124 Y118.843 E0.12478
G1 X103.009 Y118.533 E0.15597
G1 X103.918 Y118.299 E0.18718
G1 X104.731 Y118.158 E0.21463
G1 X105.02 Y118.119 E0.22433
G1 X105.267 Y118.088 E0.23261
G1 X105.485 Y118.064 E0.2399
G1 X123.206 Y116.233 E0.83244
G1 X124.08 Y116.153 E0.86163
G1 X125.017 Y116.107 E0.89284
G1 X125.954 Y116.142 E0.92402
G1 X126.885 Y116.256 E0.95522
G1 X127.802 Y116.449 E0.98639
G1 X128.7 Y116.72 E1.01758
G1 X129.572 Y117.066 E1.04879
G1 X130.411 Y117.485 E1.07998
G1 X131.211 Y117.974 E1.11116
G1 X131.967 Y118.529 E1.14236
G1 X132.673 Y119.147 E1.17356
G1 X133.323 Y119.823 E1.20476
G1 X133.914 Y120.551 E1.23594
G1 X134.44 Y121.327 E1.26712
G1 X134.899 Y122.146 E1.29835
G1 X135.286 Y123 E1.32953
G1 X135.598 Y123.884 E1.36071
G1 X135.835 Y124.792 E1.39193
G1 X135.976 Y125.591 E1.41891
G1 X136.008 Y125.821 E1.42664
G1 X136.041 Y126.082 E1.43539
G1 X136.072 Y126.354 E1.44449
G1 X140.997 Y174.011 E3.03801
G1 X141.073 Y174.854 E3.06616
G1 X141.116 Y175.791 E3.09736
G1 X141.079 Y176.728 E3.12855
G1 X140.963 Y177.658 E3.15972
G1 X140.767 Y178.576 E3.19094
G1 X140.495 Y179.473 E3.22212
G1 X140.146 Y180.344 E3.25333
G1 X139.725 Y181.182 E3.28452
G1 X139.234 Y181.981 E3.31571
G1 X138.677 Y182.735 E3.34689
G1 X138.057 Y183.439 E3.37809
G1 X137.38 Y184.088 E3.40928
G1 X136.65 Y184.677 E3.44048
G1 X135.873 Y185.201 E3.47165
G1 X135.053 Y185.658 E3.50287
G1 X134.198 Y186.043 E3.53406
G1 X133.313 Y186.353 E3.56525
G1 X132.405 Y186.587 E3.59644
G1 X131.565 Y186.732 E3.62479
G1 X131.234 Y186.776 E3.63589
G1 X130.915 Y186.814 E3.64658
G1 X113.11 Y188.653 E4.24193
G1 X112.24 Y188.733 E4.27098
G1 X111.303 Y188.779 E4.30219
G1 X110.366 Y188.744 E4.33337
G1 X109.435 Y188.63 E4.36457
G1 X108.517 Y188.437 E4.39577
G1 X107.619 Y188.167 E4.42696
G1 X106.747 Y187.821 E4.45816
G1 X105.908 Y187.402 E4.48935
G1 X105.108 Y186.913 E4.52054
G1 X104.352 Y186.358 E4.55173
G1 X103.646 Y185.74 E4.58294
G1 X102.996 Y185.065 E4.6141
G1 X102.405 Y184.336 E4.64532
G1 X101.878 Y183.56 E4.67652
G1 X101.42 Y182.742 E4.7077
G1 X101.033 Y181.887 E4.73891
G1 X100.72 Y181.003 E4.7701
G1 X100.484 Y180.096 E4.80128
G1 X100.337 Y179.262 E4.82944
G1 X100.3 Y178.99 E4.83857
G1 X100.258 Y178.638 E4.85036
G1 X95.393 Y131.551 E6.42482
G1 X95.318 Y130.839 E6.44863
G1 X95.302 Y130.673 E6.45418
G1 X95.245 Y130.029 E6.47568
G1 X95.202 Y129.092 E6.50688
G1 X95.239 Y128.155 E6.53807
G1 X95.356 Y127.224 E6.56928
G1 X95.552 Y126.307 E6.60047
G1 X95.825 Y125.41 E6.63165
G1 X96.174 Y124.539 E6.66286
G1 X96.595 Y123.701 E6.69405
G1 X97.086 Y122.902 E6.72524
G1 X97.644 Y122.148 E6.75644
G1 X98.264 Y121.444 E6.78764
G1 X98.941 Y120.796 E6.81881
G0 F6000 X99.346 Y120.975
G1 F1200 X100.073 Y120.41 E6.84944
G1 X100.847 Y119.911 E6.88007
G1 X101.661 Y119.481 E6.91068
G1 X102.509 Y119.123 E6.9413
G1 X103.385 Y118.84 E6.97192
G1 X104.282 Y118.634 E7.00253
G1 X104.784 Y118.554 E7.01944
G1 X105.073 Y118.515 E7.02914
G1 X105.527 Y118.462 E7.04434
G1 X123.372 Y116.619 E7.64102
G1 X124.116 Y116.551 E7.66587
G1 X125.036 Y116.507 E7.69651
G1 X125.956 Y116.543 E7.72713
G1 X126.869 Y116.659 E7.75774
G1 X127.769 Y116.853 E7.78836
G1 X128.649 Y117.125 E7.819
G1 X129.501 Y117.473 E7.84961
G1 X130.321 Y117.892 E7.88023
G1 X131.1 Y118.382 E7.91084
G1 X131.835 Y118.937 E7.94148
G1 X132.518 Y119.554 E7.97209
G1 X133.146 Y120.228 E8.00273
G1 X133.712 Y120.954 E8.03335
G1 X134.213 Y121.726 E8.06396
G1 X134.646 Y122.538 E8.09456
G1 X135.006 Y123.386 E8.1252
G1 X135.292 Y124.261 E8.15582
G1 X135.5 Y125.158 E8.18645
G1 X135.58 Y125.646 E8.2029
G1 X135.612 Y125.876 E8.21062
G1 X135.644 Y126.127 E8.21904
G1 X135.674 Y126.395 E8.228
G1 X140.599 Y174.052 E9.82152
G1 X140.674 Y174.889 E9.84948
G1 X140.716 Y175.809 E9.88011
G1 X140.678 Y176.729 E9.91073
G1 X140.56 Y177.642 E9.94135
G1 X140.363 Y178.541 E9.97196
G1 X140.089 Y179.42 E10.00258
G1 X139.74 Y180.272 E10.03321
G1 X139.318 Y181.09 E10.06382
G1 X138.826 Y181.869 E10.09447
G1 X138.269 Y182.602 E10.12509
G1 X137.651 Y183.284 E10.1557
G1 X136.975 Y183.909 E10.18632
G1 X136.248 Y184.474 E10.21694
G1 X135.475 Y184.974 E10.24756
G1 X134.661 Y185.404 E10.27818
G1 X133.813 Y185.762 E10.3088
G1 X132.937 Y186.046 E10.33942
G1 X132.04 Y186.252 E10.37004
G1 X131.513 Y186.336 E10.38778
G1 X131.182 Y186.38 E10.39889
G1 X130.874 Y186.416 E10.4092
G1 X112.946 Y188.267 E11.00866
G1 X112.203 Y188.335 E11.03348
G1 X111.283 Y188.379 E11.06411
G1 X110.364 Y188.343 E11.0947
G1 X109.45 Y188.227 E11.12534
G1 X108.55 Y188.033 E11.15597
G1 X107.671 Y187.761 E11.18657
G1 X106.818 Y187.414 E11.2172
G1 X105.999 Y186.994 E11.24781
G1 X105.219 Y186.505 E11.27843
G1 X104.484 Y185.95 E11.30906
G1 X103.801 Y185.333 E11.33968
G1 X103.173 Y184.659 E11.37032
G1 X102.607 Y183.934 E11.40091
G1 X102.105 Y183.161 E11.43156
G1 X101.673 Y182.349 E11.46216
G1 X101.312 Y181.502 E11.49278
G1 X101.027 Y180.626 E11.52342
G1 X100.818 Y179.73 E11.55402
G1 X100.734 Y179.208 E11.57161
G1 X100.697 Y178.936 E11.58074
G1 X100.656 Y178.596 E11.59213
G1 X95.7 Y130.638 E13.19571
G1 X95.643 Y129.994 E13.21721
G1 X95.602 Y129.074 E13.24784
G1 X95.641 Y128.154 E13.27847
G1 X95.759 Y127.241 E13.30909
G1 X95.956 Y126.342 E13.3397
G1 X96.231 Y125.463 E13.37033
G1 X96.58 Y124.611 E13.40095
G1 X97.003 Y123.793 E13.43158
G1 X97.494 Y123.015 E13.46218
G1 X98.051 Y122.282 E13.4928
G1 X98.67 Y121.6 E13.52344
G1 X99.346 Y120.975 E13.55406
G0 F6000 X99.75 Y121.159
G1 F1200 X100.474 Y120.619 E13.5841
G1 X101.243 Y120.145 E13.61414
G1 X102.051 Y119.742 E13.64417
G1 X102.892 Y119.411 E13.67423
G1 X103.758 Y119.156 E13.70426
G1 X104.838 Y118.951 E13.74082
G1 X105.127 Y118.912 E13.75052
G1 X105.356 Y118.883 E13.7582
G1 X105.568 Y118.86 E13.76529
G1 X123.409 Y117.017 E14.36184
G1 X124.153 Y116.949 E14.38669
G1 X125.055 Y116.907 E14.41673
G1 X125.957 Y116.945 E14.44675
G1 X126.852 Y117.062 E14.47677
G1 X127.734 Y117.258 E14.50683
G1 X128.595 Y117.531 E14.53687
G1 X129.428 Y117.88 E14.56691
G1 X130.227 Y118.3 E14.59693
G1 X130.986 Y118.79 E14.62698
G1 X131.699 Y119.345 E14.65703
G1 X132.359 Y119.961 E14.68706
G1 X132.963 Y120.633 E14.71711
G1 X133.505 Y121.355 E14.74714
G1 X133.98 Y122.123 E14.77717
G1 X134.386 Y122.929 E14.80719
G1 X134.719 Y123.769 E14.83724
G1 X134.977 Y124.634 E14.86726
G1 X135.184 Y125.701 E14.90341
G1 X135.216 Y125.931 E14.91114
G1 X135.276 Y126.436 E14.92805
G1 X140.201 Y174.093 E16.52157
G1 X140.276 Y174.925 E16.54936
G1 X140.316 Y175.827 E16.57939
G1 X140.276 Y176.729 E16.60942
G1 X140.157 Y177.624 E16.63945
G1 X139.958 Y178.505 E16.66949
G1 X139.683 Y179.365 E16.69952
G1 X139.333 Y180.198 E16.72957
G1 X138.91 Y180.996 E16.75961
G1 X138.418 Y181.753 E16.78964
G1 X137.862 Y182.465 E16.81968
G1 X137.244 Y183.124 E16.84973
G1 X136.571 Y183.726 E16.87976
G1 X135.847 Y184.266 E16.90981
G1 X135.078 Y184.739 E16.93983
G1 X134.271 Y185.143 E16.96985
G1 X133.43 Y185.474 E16.99991
G1 X132.564 Y185.73 E17.02995
G1 X131.46 Y185.939 E17.06732
G1 X131.129 Y185.983 E17.07842
G1 X130.833 Y186.018 E17.08834
G1 X112.91 Y187.869 E17.68763
G1 X112.167 Y187.937 E17.71244
G1 X111.265 Y187.979 E17.74248
G1 X110.362 Y187.941 E17.77254
G1 X109.467 Y187.824 E17.80256
G1 X108.585 Y187.628 E17.83261
G1 X107.724 Y187.355 E17.86265
G1 X106.891 Y187.007 E17.89268
G1 X106.092 Y186.586 E17.92272
G1 X105.333 Y186.097 E17.95275
G1 X104.62 Y185.542 E17.9828
G1 X103.96 Y184.926 E18.01283
G1 X103.356 Y184.254 E18.04288
G1 X102.814 Y183.532 E18.07291
G1 X102.338 Y182.764 E18.10296
G1 X101.932 Y181.958 E18.13297
G1 X101.599 Y181.118 E18.16303
G1 X101.342 Y180.253 E18.19304
G1 X101.13 Y179.154 E18.23027
G1 X101.093 Y178.882 E18.2394
G1 X101.054 Y178.555 E18.25035
G1 X96.194 Y131.514 E19.82327
G1 X96.114 Y130.757 E19.84859
G1 X96.099 Y130.602 E19.85377
G1 X96.042 Y129.958 E19.87527
G1 X96.002 Y129.056 E19.9053
G1 X96.042 Y128.154 E19.93533
G1 X96.162 Y127.259 E19.96536
G1 X96.361 Y126.378 E19.9954
G1 X96.636 Y125.518 E20.02544
G1 X96.987 Y124.686 E20.05547
G1 X97.41 Y123.888 E20.08551
G1 X97.902 Y123.13 E20.11557
G1 X98.459 Y122.419 E20.14561
G1 X99.077 Y121.76 E20.17565
G1 X99.75 Y121.159 E20.20566
G1 F2700 E15.20566
;MESH:2d905ae8-5aeb-4865-b4da-ccab0b9ec599.stl
G0 F6000 X106.541 Y128.347
G0 X106.653 Y129.424
G0 X111.763 Y177.131
;TYPE:WALL-INNER
G1 F2700 E20.20566
G1 F1200 X106.85 Y129.585 E21.79547
G1 X124.358 Y127.775 E22.38089
G1 X124.555 Y127.755 E22.38748
G1 X124.575 Y127.952 E22.39174
G1 X129.448 Y175.105 E23.9684
G1 X129.468 Y175.302 E23.97499
G1 X129.271 Y175.322 E23.97925
G1 X111.763 Y177.131 E24.56467
G0 F6000 X111.406 Y177.57
;TYPE:WALL-OUTER
G1 F1200 X106.411 Y129.228 E26.18109
G1 X124.912 Y127.316 E26.79971
G1 X129.907 Y175.659 E28.41617
G1 X111.406 Y177.57 E29.03479
G0 F6000 X111.647 Y177.273
G0 X111.832 Y176.73
G0 X112.111 Y176.702
;TYPE:SKIN
G1 F1200 X107.279 Y129.933 E30.59861
G1 X124.207 Y128.184 E31.16463
G1 X129.039 Y174.954 E32.72849
G1 X112.111 Y176.702 E33.29451
G0 F6000 X112.569 Y176.491
G1 F1200 X112.212 Y176.135 E33.31128
G0 F6000 X112.147 Y175.503
G1 F1200 X113.081 Y176.438 E33.35524
G0 F6000 X113.595 Y176.386
G1 F1200 X112.082 Y174.873 E33.4264
G0 F6000 X112.017 Y174.242
G1 F1200 X114.107 Y176.333 E33.52473
G0 F6000 X114.62 Y176.28
G1 F1200 X111.951 Y173.611 E33.65028
G0 F6000 X111.886 Y172.98
G1 F1200 X115.133 Y176.227 E33.803
G0 F6000 X115.645 Y176.174
G1 F1200 X111.821 Y172.35 E33.98287
G0 F6000 X111.756 Y171.719
G1 F1200 X116.158 Y176.121 E34.18993
G0 F6000 X116.671 Y176.068
G1 F1200 X111.691 Y171.088 E34.42417
G0 F6000 X111.625 Y170.457
G1 F1200 X117.184 Y176.015 E34.68563
G0 F6000 X117.697 Y175.962
G1 F1200 X111.56 Y169.826 E34.97427
G0 F6000 X111.495 Y169.195
G1 F1200 X118.209 Y175.909 E35.29008
G0 F6000 X118.722 Y175.856
G1 F1200 X111.43 Y168.565 E35.63305
G0 F6000 X111.365 Y167.934
G1 F1200 X119.235 Y175.803 E36.0032
G0 F6000 X119.748 Y175.751
G1 F1200 X111.3 Y167.303 E36.40057
G0 F6000 X111.234 Y166.672
G1 F1200 X120.261 Y175.698 E36.82515
G0 F6000 X120.773 Y175.645
G1 F1200 X111.169 Y166.041 E37.27689
G0 F6000 X111.104 Y165.41
G1 F1200 X121.286 Y175.592 E37.75582
G0 F6000 X121.799 Y175.539
G1 F1200 X111.039 Y164.779 E38.26194
G0 F6000 X110.974 Y164.149
G1 F1200 X122.311 Y175.486 E38.7952
G0 F6000 X122.825 Y175.433
G1 F1200 X110.909 Y163.518 E39.35567
G0 F6000 X110.844 Y162.887
G1 F1200 X123.337 Y175.38 E39.9433
G0 F6000 X123.85 Y175.327
G1 F1200 X110.778 Y162.256 E40.55814
G0 F6000 X110.713 Y161.625
G1 F1200 X124.363 Y175.274 E41.20017
G0 F6000 X124.875 Y175.221
G1 F1200 X110.648 Y160.994 E41.86937
G0 F6000 X110.583 Y160.364
G1 F1200 X125.388 Y175.168 E42.56573
G0 F6000 X125.901 Y175.116
G1 F1200 X110.518 Y159.733 E43.2893
G0 F6000 X110.453 Y159.102
G1 F1200 X126.414 Y175.063 E44.04005
G0 F6000 X126.927 Y175.01
G1 F1200 X110.387 Y158.471 E44.81802
G0 F6000 X110.322 Y157.84
G1 F1200 X127.439 Y174.957 E45.62315
G0 F6000 X127.952 Y174.904
G1 F1200 X110.257 Y157.209 E46.45547
G0 F6000 X110.192 Y156.578
G1 F1200 X128.465 Y174.851 E47.31498
G0 F6000 X128.848 Y174.669
G1 F1200 X110.127 Y155.948 E48.19555
G0 F6000 X110.062 Y155.317
G1 F1200 X128.783 Y174.038 E49.07613
G0 F6000 X128.718 Y173.407
G1 F1200 X109.997 Y154.686 E49.95671
G0 F6000 X109.931 Y154.055
G1 F1200 X128.653 Y172.776 E50.83731
G0 F6000 X128.588 Y172.145
G1 F1200 X109.866 Y153.424 E51.71791
G0 F6000 X109.801 Y152.793
G1 F1200 X128.523 Y171.515 E52.59854
G0 F6000 X128.457 Y170.884
G1 F1200 X109.736 Y152.163 E53.47912
G0 F6000 X109.671 Y151.532
G1 F1200 X128.392 Y170.253 E54.3597
G0 F6000 X128.327 Y169.622
G1 F1200 X109.606 Y150.901 E55.24028
G0 F6000 X109.541 Y150.27
G1 F1200 X128.262 Y168.991 E56.12085
G0 F6000 X128.197 Y168.36
G1 F1200 X109.475 Y149.639 E57.00146
G0 F6000 X109.41 Y149.008
G1 F1200 X128.131 Y167.729 E57.88203
G0 F6000 X128.066 Y167.099
G1 F1200 X109.345 Y148.377 E58.76264
G0 F6000 X109.28 Y147.747
G1 F1200 X128.001 Y166.468 E59.64321
G0 F6000 X127.936 Y165.837
G1 F1200 X109.215 Y147.116 E60.52379
G0 F6000 X109.15 Y146.485
G1 F1200 X127.871 Y165.206 E61.40437
G0 F6000 X127.806 Y164.575
G1 F1200 X109.085 Y145.854 E62.28495
G0 F6000 X109.019 Y145.223
G1 F1200 X127.74 Y163.944 E63.16553
G0 F6000 X127.675 Y163.314
G1 F1200 X108.954 Y144.592 E64.04613
G0 F6000 X108.889 Y143.961
G1 F1200 X127.61 Y162.683 E64.92673
G0 F6000 X127.545 Y162.052
G1 F1200 X108.824 Y143.331 E65.80731
G0 F6000 X108.759 Y142.7
G1 F1200 X127.48 Y161.421 E66.68789
G0 F6000 X127.414 Y160.79
G1 F1200 X108.694 Y142.069 E67.56844
G0 F6000 X108.629 Y141.439
G1 F1200 X127.349 Y160.159 E68.44898
G0 F6000 X127.284 Y159.528
G1 F1200 X108.563 Y140.807 E69.32955
G0 F6000 X108.498 Y140.176
G1 F1200 X127.219 Y158.898 E70.21016
G0 F6000 X127.154 Y158.267
G1 F1200 X108.433 Y139.546 E71.09073
G0 F6000 X108.368 Y138.915
G1 F1200 X127.089 Y157.636 E71.97131
G0 F6000 X127.023 Y157.005
G1 F1200 X108.303 Y138.284 E72.85187
G0 F6000 X108.238 Y137.653
G1 F1200 X126.958 Y156.374 E73.73242
G0 F6000 X126.893 Y155.743
G1 F1200 X108.172 Y137.022 E74.613
G0 F6000 X108.107 Y136.391
G1 F1200 X126.828 Y155.113 E75.4936
G0 F6000 X126.763 Y154.482
G1 F1200 X108.042 Y135.76 E76.37421
G0 F6000 X107.977 Y135.13
G1 F1200 X126.697 Y153.85 E77.25474
G0 F6000 X126.632 Y153.22
G1 F1200 X107.912 Y134.499 E78.13529
G0 F6000 X107.847 Y133.868
G1 F1200 X126.567 Y152.589 E79.01585
G0 F6000 X126.502 Y151.958
G1 F1200 X107.782 Y133.238 E79.89638
G0 F6000 X107.716 Y132.606
G1 F1200 X126.437 Y151.327 E80.77696
G0 F6000 X126.372 Y150.697
G1 F1200 X107.651 Y131.975 E81.65756
G0 F6000 X107.586 Y131.345
G1 F1200 X126.307 Y150.066 E82.53814
G0 F6000 X126.241 Y149.434
G1 F1200 X107.521 Y130.714 E83.41867
G0 F6000 X107.456 Y130.083
G1 F1200 X126.176 Y148.804 E84.29922
G0 F6000 X126.111 Y148.173
G1 F1200 X107.961 Y130.022 E85.15297
G0 F6000 X108.473 Y129.969
G1 F1200 X126.046 Y147.542 E85.97955
G0 F6000 X125.981 Y146.912
G1 F1200 X108.986 Y129.916 E86.77896
G0 F6000 X109.499 Y129.863
G1 F1200 X125.916 Y146.281 E87.55119
G0 F6000 X125.85 Y145.649
G1 F1200 X110.011 Y129.81 E88.29621
G0 F6000 X110.524 Y129.757
G1 F1200 X125.785 Y145.019 E89.01406
G0 F6000 X125.72 Y144.388
G1 F1200 X111.037 Y129.705 E89.70471
G0 F6000 X111.55 Y129.652
G1 F1200 X125.655 Y143.757 E90.36816
G0 F6000 X125.59 Y143.126
G1 F1200 X112.062 Y129.599 E91.00446
G0 F6000 X112.575 Y129.546
G1 F1200 X125.525 Y142.496 E91.61358
G0 F6000 X125.459 Y141.864
G1 F1200 X113.088 Y129.493 E92.19548
G0 F6000 X113.6 Y129.44
G1 F1200 X125.394 Y141.233 E92.75021
G0 F6000 X125.329 Y140.603
G1 F1200 X114.113 Y129.387 E93.27777
G0 F6000 X114.626 Y129.334
G1 F1200 X125.264 Y139.972 E93.77815
G0 F6000 X125.199 Y139.341
G1 F1200 X115.139 Y129.281 E94.25134
G0 F6000 X115.652 Y129.228
G1 F1200 X125.134 Y138.711 E94.69737
G0 F6000 X125.068 Y138.079
G1 F1200 X116.164 Y129.175 E95.11619
G0 F6000 X116.677 Y129.122
G1 F1200 X125.003 Y137.448 E95.50782
G0 F6000 X124.938 Y136.818
G1 F1200 X117.19 Y129.069 E95.87228
G0 F6000 X117.702 Y129.016
G1 F1200 X124.873 Y136.187 E96.20959
G0 F6000 X124.808 Y135.556
G1 F1200 X118.215 Y128.963 E96.5197
G0 F6000 X118.728 Y128.911
G1 F1200 X124.743 Y134.925 E96.8026
G0 F6000 X124.677 Y134.294
G1 F1200 X119.241 Y128.858 E97.0583
G0 F6000 X119.754 Y128.805
