;FLAVOR:Marlin
;TIME:36283
;Filament used: 28.0925m
;Layer height: 0.2
;MINX:15.7
;MINY:15.7
;MINZ:0.2
;MAXX:220.164
;MAXY:219.3
;MAXZ:17
;Generated with Cura_SteamEngine 5.0.0
M82 ;absolute extrusion mode
START_PRINT EXTRUDER_TEMP=222 BED_TEMP=60
G92 E0
G92 E0
G1 F2700 E-5
;LAYER_COUNT:85
;LAYER:0
M107
;MESH:Ceiling Fan Shroud v3.stl
G0 F300 X190.088 Y49.94 Z1.2
;LAYER:5
;TYPE:WALL-OUTER
;MESH:Ceiling Fan Shroud v3.stl
G0 F300 X190.088 Y49.94 Z1.2
G1 F1500 X47.066 Y49.729 E2750.70174
G1 X46.527 Y49.8 E2750.71983
G1 X46.473 Y49.8 E2750.72162
G1 X45.66 Y49.693 E2750.7489
G1 X45.617 Y49.68 E2750.75039
G1 X44.87 Y49.371 E2750.77728
G1 X44.551 Y49.135 E2750.79048
G1 X44.174 Y48.843 E2750.80634
G1 X44.148 Y48.816 E2750.80758
G1 X43.648 Y48.165 E2750.83488
G1 X43.629 Y48.13 E2750.83621
G1 X43.311 Y47.358 E2750.86398
G1 X43.306 Y47.333 E2750.86483
G1 X43.2 Y46.527 E2750.89186
G1 X43.2 Y46.473 E2750.89366
G1 X43.308 Y45.654 E2750.92114
G1 X43.32 Y45.617 E2750.92243
G1 X43.634 Y44.858 E2750.94975
G1 X43.655 Y44.824 E2750.95108
G1 X44.156 Y44.175 E2750.97835
G1 X44.184 Y44.148 E2750.97964
G1 X44.835 Y43.648 E2751.00694
G1 X44.87 Y43.629 E2751.00827
G1 X45.642 Y43.311 E2751.03604
G1 X45.667 Y43.306 E2751.03689
G1 X46.486 Y43.199 E2751.06436
G1 X46.527 Y43.2 E2751.06572
G1 X47.346 Y43.308 E2751.0932
G1 X47.383 Y43.32 E2751.09449
G1 X48.142 Y43.634 E2751.12181
G1 X48.176 Y43.655 E2751.12314
G1 X48.831 Y44.161 E2751.15067
G1 X49.133 Y44.549 E2751.16702
G1 X49.352 Y44.834 E2751.17898
G1 X49.371 Y44.87 E2751.18033
G1 X49.689 Y45.642 E2751.2081
G1 X49.694 Y45.667 E2751.20895
G1 X49.8 Y46.473 E2751.23599
G1 X49.73 Y47.065 E2751.25581
G1 X49.694 Y47.333 E2751.26481
G1 X49.68 Y47.383 E2751.26654
G1 X49.371 Y48.13 E2751.29342
G1 X49.287 Y48.252 E2751.29835
G1 X48.852 Y48.816 E2751.32204
G1 X48.816 Y48.852 E2751.32373
G1 X48.159 Y49.356 E2751.35127
G1 X48.13 Y49.371 E2751.35236
G1 X47.383 Y49.68 E2751.37925
G0 F9000 X47.536 Y50.05
;TYPE:WALL-INNER
G1 F1500 X47.118 Y50.126 E2751.39338
G1 X46.579 Y50.197 E2751.41146
G1 X46.421 Y50.197 E2751.41671
G1 X45.593 Y50.087 E2751.4445
G1 X45.464 Y50.05 E2751.44896
G1 X44.717 Y49.741 E2751.47585
G1 X44.307 Y49.452 E2751.49253
G1 X43.908 Y49.143 E2751.50931
G1 X43.831 Y49.06 E2751.51308
G1 X43.338 Y48.42 E2751.53995
G1 X43.259 Y48.283 E2751.54521
G1 X42.936 Y47.5 E2751.57338
G1 X42.91 Y47.385 E2751.5773
G1 X42.804 Y46.579 E2751.60434
G1 X42.804 Y46.421 E2751.6096
G1 X42.916 Y45.576 E2751.63795
G1 X42.95 Y45.464 E2751.64184
G1 X43.259 Y44.717 E2751.66873
G1 X43.338 Y44.58 E2751.67399
G1 X43.854 Y43.912 E2751.70206
G1 X43.94 Y43.831 E2751.70599
G1 X44.58 Y43.338 E2751.73286
G1 X44.717 Y43.259 E2751.73812
G1 X45.5 Y42.936 E2751.76629
G1 X45.615 Y42.91 E2751.77021
G1 X46.46 Y42.8 E2751.79856
G1 X46.579 Y42.804 E2751.80252
G1 X47.424 Y42.916 E2751.83087
G1 X47.536 Y42.95 E2751.83476
G1 X48.283 Y43.259 E2751.86165
G1 X48.42 Y43.338 E2751.86691
G1 X49.089 Y43.855 E2751.89503
G1 X49.45 Y44.305 E2751.91422
G1 X49.682 Y44.608 E2751.92691
G1 X49.741 Y44.717 E2751.93103
G1 X50.061 Y45.493 E2751.95895
G1 X50.091 Y45.615 E2751.96313
G1 X50.197 Y46.421 E2751.99017
G1 X50.172 Y46.77 E2752.0018
G1 X50.09 Y47.385 E2752.02244
G1 X50.05 Y47.536 E2752.02763
G1 X49.741 Y48.283 E2752.05452
G1 X49.604 Y48.496 E2752.06295
G1 X49.169 Y49.06 E2752.08664
G1 X49.06 Y49.169 E2752.09176
G1 X48.496 Y49.603 E2752.11543
G1 X48.283 Y49.741 E2752.12387
G1 X47.536 Y50.05 E2752.15076
G1 F2700 E2747.15076
G0 F9000 X47.538 Y50.058
G0 X48.235 Y50.078
G0 X48.361 Y50.512
G0 X47.109 Y55.669
G0 X46.951 Y57.477
G0 X46.951 Y177.523
G0 X47.109 Y179.331
G0 X47.585 Y181.108
G0 X48.363 Y182.776
G0 X49.418 Y184.282
G0 X50.718 Y185.582
G0 X52.224 Y186.637
G0 X53.892 Y187.415
G0 X55.491 Y187.843
G0 X57.447 Y188.106
G1 F2700 E2752.15076
G0 F9000 X57.482 Y187.7
;TYPE:WALL-OUTER
G1 F1500 X55.735 Y187.547 E2752.20909
G1 X55.71 Y187.542 E2752.20994
G1 X54.012 Y187.086 E2752.26841
G1 X52.415 Y186.344 E2752.32698
G1 X52.165 Y186.172 E2752.33708
G1 X50.958 Y185.324 E2752.38614
G1 X50.932 Y185.302 E2752.38727
G1 X49.688 Y184.057 E2752.44581
G1 X48.674 Y182.614 E2752.50447
G1 X48.575 Y182.41 E2752.51201
G1 X47.914 Y180.987 E2752.5642
G1 X47.455 Y179.277 E2752.62308
G1 X47.3 Y177.509 E2752.68211
G1 X47.3 Y57.5 E2756.67363
G1 X47.3 Y57.482 E2756.67423
G1 X47.453 Y55.735 E2756.73256
G1 X47.458 Y55.71 E2756.7334
G1 X47.914 Y54.013 E2756.79185
G1 X48.656 Y52.416 E2756.85042
G1 X48.829 Y52.165 E2756.86056
G1 X49.688 Y50.943 E2756.91024
G1 X50.943 Y49.688 E2756.96927
G1 X52.386 Y48.674 E2757.02793
G1 X52.591 Y48.575 E2757.0355
G1 X54.012 Y47.914 E2757.08763
G1 X55.725 Y47.455 E2757.14661
G1 X57.493 Y47.3 E2757.20564
G1 X177.518 Y47.3 E2761.19769
G1 X179.265 Y47.453 E2761.25602
G1 X179.29 Y47.458 E2761.25686
G1 X180.988 Y47.914 E2761.31534
G1 X181.112 Y47.97 E2761.31987
G1 X182.584 Y48.656 E2761.37388
G1 X182.835 Y48.829 E2761.38402
G1 X184.057 Y49.688 E2761.4337
G1 X185.312 Y50.943 E2761.49273
G1 X186.326 Y52.386 E2761.55139
G1 X186.425 Y52.591 E2761.55896
G1 X187.085 Y54.01 E2761.61101
G1 X187.545 Y55.723 E2761.67001
G1 X187.7 Y57.491 E2761.72904
G1 X187.7 Y177.518 E2765.72115
G1 X187.547 Y179.265 E2765.77948
G1 X187.542 Y179.29 E2765.78033
G1 X187.086 Y180.987 E2765.83877
G1 X186.344 Y182.584 E2765.89734
G1 X186.171 Y182.835 E2765.90748
G1 X185.312 Y184.057 E2765.95716
G1 X184.057 Y185.312 E2766.01619
G1 X182.615 Y186.326 E2766.07482
G1 X182.41 Y186.425 E2766.0824
G1 X180.988 Y187.086 E2766.13455
G1 X179.277 Y187.545 E2766.19347
G1 X177.507 Y187.7 E2766.25257
G1 X57.482 Y187.7 E2770.24462
G0 F9000 X57.461 Y188.099
;TYPE:WALL-INNER
G1 F1500 X55.681 Y187.943 E2770.30405
G1 X55.606 Y187.928 E2770.30659
G1 X53.924 Y187.477 E2770.36451
G1 X53.719 Y187.392 E2770.37189
G1 X52.246 Y186.707 E2770.42592
G1 X51.935 Y186.499 E2770.43836
G1 X51.572 Y186.246 E2770.45308
G1 X50.728 Y185.651 E2770.48743
G1 X50.649 Y185.585 E2770.49085
G1 X49.415 Y184.351 E2770.54889
G1 X49.22 Y184.089 E2770.55976
G1 X48.346 Y182.844 E2770.61035
G1 X48.212 Y182.578 E2770.62026
G1 X47.558 Y181.173 E2770.6718
G1 X47.472 Y180.883 E2770.68186
G1 X47.062 Y179.353 E2770.73455
G1 X47.014 Y178.832 E2770.75195
G1 X46.9 Y177.515 E2770.79592
G1 X46.9 Y57.5 E2774.78763
G1 X46.902 Y57.447 E2774.7894
G1 X47.057 Y55.681 E2774.84836
G1 X47.072 Y55.606 E2774.8509
G1 X47.523 Y53.925 E2774.90879
G1 X47.609 Y53.72 E2774.91618
G1 X48.293 Y52.247 E2774.9702
G1 X48.501 Y51.935 E2774.98267
G1 X49.348 Y50.729 E2775.03169
G1 X49.415 Y50.649 E2775.03516
G1 X50.649 Y49.415 E2775.0932
G1 X50.911 Y49.22 E2775.10407
G1 X52.156 Y48.346 E2775.15466
G1 X52.422 Y48.212 E2775.16457
G1 X53.826 Y47.559 E2775.21607
G1 X54.115 Y47.472 E2775.2261
G1 X55.649 Y47.062 E2775.27892
G1 X56.17 Y47.014 E2775.29632
G1 X57.487 Y46.9 E2775.34029
G1 X177.526 Y46.9 E2779.3328
G1 X179.291 Y47.054 E2779.39173
G1 X179.394 Y47.072 E2779.3952
G1 X181.076 Y47.523 E2779.45312
G1 X181.281 Y47.608 E2779.4605
G1 X182.753 Y48.294 E2779.51452
G1 X183.065 Y48.501 E2779.52697
G1 X184.271 Y49.348 E2779.57599
G1 X184.351 Y49.415 E2779.57946
G1 X185.604 Y50.667 E2779.63837
G1 X185.78 Y50.911 E2779.64838
G1 X186.654 Y52.156 E2779.69897
G1 X186.788 Y52.422 E2779.70888
G1 X187.44 Y53.824 E2779.76031
G1 X187.528 Y54.119 E2779.77055
G1 X187.938 Y55.647 E2779.82316
G1 X187.986 Y56.168 E2779.84057
G1 X188.1 Y57.485 E2779.88453
G1 X188.099 Y177.539 E2783.87755
G1 X187.943 Y179.319 E2783.93698
G1 X187.928 Y179.394 E2783.93952
G1 X187.477 Y181.075 E2783.99741
G1 X187.391 Y181.28 E2784.0048
G1 X186.707 Y182.753 E2784.05882
G1 X186.499 Y183.065 E2784.07129
G1 X185.652 Y184.271 E2784.12031
G1 X185.585 Y184.351 E2784.12378
G1 X184.333 Y185.604 E2784.18269
G1 X184.088 Y185.78 E2784.19272
G1 X182.845 Y186.653 E2784.24324
G1 X182.578 Y186.788 E2784.2532
G1 X181.174 Y187.442 E2784.30471
G1 X180.884 Y187.528 E2784.31477
G1 X179.353 Y187.938 E2784.36749
G1 X178.832 Y187.986 E2784.38489
G1 X177.513 Y188.1 E2784.42892
G1 X57.461 Y188.099 E2788.42187
G1 F2700 E2783.42187
G0 F9000 X57.46 Y188.108
G0 X49.167 Y191.075
G1 F2700 E2788.42187
G0 F9000 X48.843 Y190.826
;TYPE:WALL-OUTER
G1 F1500 X48.816 Y190.852 E2788.42311
G1 X48.165 Y191.352 E2788.45042
G1 X48.13 Y191.371 E2788.45174
G1 X47.358 Y191.689 E2788.47951
G1 X47.333 Y191.694 E2788.48036
G1 X46.514 Y191.801 E2788.50783
G1 X46.473 Y191.8 E2788.50919
G1 X45.654 Y191.692 E2788.53667
G1 X45.617 Y191.68 E2788.53796
G1 X44.858 Y191.366 E2788.56528
G1 X44.824 Y191.345 E2788.56661
G1 X44.175 Y190.844 E2788.59388
G1 X44.148 Y190.816 E2788.59518
G1 X43.648 Y190.165 E2788.62248
G1 X43.629 Y190.13 E2788.6238
G1 X43.311 Y189.358 E2788.65157
G1 X43.306 Y189.333 E2788.65242
G1 X43.2 Y188.527 E2788.67946
G1 X43.2 Y188.473 E2788.68125
G1 X43.308 Y187.654 E2788.70873
G1 X43.32 Y187.617 E2788.71002
G1 X43.634 Y186.858 E2788.73734
G1 X43.655 Y186.824 E2788.73867
G1 X44.161 Y186.169 E2788.7662
G1 X44.55 Y185.866 E2788.7826
G1 X44.834 Y185.648 E2788.79451
G1 X44.87 Y185.629 E2788.79586
G1 X45.642 Y185.311 E2788.82363
G1 X45.667 Y185.306 E2788.82448
G1 X46.473 Y185.2 E2788.85152
G1 X47.065 Y185.27 E2788.87135
G1 X47.333 Y185.306 E2788.88034
G1 X47.383 Y185.32 E2788.88207
G1 X48.13 Y185.629 E2788.90895
G1 X48.252 Y185.713 E2788.91388
G1 X48.816 Y186.148 E2788.93757
G1 X48.852 Y186.184 E2788.93926
G1 X49.356 Y186.841 E2788.96681
G1 X49.371 Y186.87 E2788.96789
G1 X49.681 Y187.617 E2788.99479
G1 X49.728 Y187.933 E2789.00542
G1 X49.8 Y188.473 E2789.02354
G1 X49.8 Y188.527 E2789.02533
G1 X49.693 Y189.34 E2789.05261
G1 X49.68 Y189.383 E2789.0541
G1 X49.371 Y190.13 E2789.08099
G1 X49.135 Y190.449 E2789.09418
G1 X48.843 Y190.826 E2789.11005
G0 F9000 X49.143 Y191.092
;TYPE:WALL-INNER
G1 F1500 X49.06 Y191.169 E2789.11381
G1 X48.42 Y191.662 E2789.14068
G1 X48.283 Y191.741 E2789.14594
G1 X47.5 Y192.064 E2789.17411
G1 X47.385 Y192.09 E2789.17803
G1 X46.54 Y192.2 E2789.20638
G1 X46.421 Y192.196 E2789.21034
G1 X45.576 Y192.084 E2789.23869
G1 X45.464 Y192.05 E2789.24258
G1 X44.717 Y191.741 E2789.26947
G1 X44.58 Y191.662 E2789.27473
G1 X43.912 Y191.146 E2789.3028
G1 X43.831 Y191.06 E2789.30673
G1 X43.338 Y190.42 E2789.3336
G1 X43.259 Y190.283 E2789.33886
G1 X42.936 Y189.5 E2789.36703
G1 X42.91 Y189.385 E2789.37095
G1 X42.804 Y188.579 E2789.39799
G1 X42.804 Y188.421 E2789.40325
G1 X42.916 Y187.576 E2789.4316
G1 X42.95 Y187.464 E2789.43549
G1 X43.259 Y186.717 E2789.46238
G1 X43.338 Y186.58 E2789.46764
G1 X43.855 Y185.911 E2789.49576
G1 X44.306 Y185.549 E2789.51499
G1 X44.608 Y185.318 E2789.52764
G1 X44.717 Y185.259 E2789.53176
G1 X45.493 Y184.939 E2789.55968
G1 X45.615 Y184.91 E2789.56385
G1 X46.421 Y184.803 E2789.59089
G1 X46.769 Y184.829 E2789.6025
G1 X47.385 Y184.91 E2789.62316
G1 X47.536 Y184.95 E2789.62836
G1 X48.283 Y185.259 E2789.65525
G1 X48.496 Y185.396 E2789.66367
G1 X49.06 Y185.831 E2789.68736
G1 X49.169 Y185.94 E2789.69249
G1 X49.603 Y186.504 E2789.71616
G1 X49.741 Y186.717 E2789.7246
G1 X50.051 Y187.464 E2789.7515
G1 X50.125 Y187.881 E2789.76558
G1 X50.197 Y188.421 E2789.7837
G1 X50.196 Y188.579 E2789.78896
G1 X50.087 Y189.407 E2789.81674
G1 X50.05 Y189.536 E2789.8212
G1 X49.741 Y190.283 E2789.84809
G1 X49.452 Y190.693 E2789.86477
G1 X49.143 Y191.092 E2789.88156
G1 F2700 E2784.88156
G0 F9000 X49.149 Y191.097
G0 X85.275 Y218.892
G1 F2700 E2789.88156
G0 F9000 X85.206 Y219.3
;TYPE:WALL-OUTER
G1 F1500 X149.794 Y219.3 E2792.02976
G1 X154.108 Y217.831 E2792.18134
G1 X158.383 Y216.165 E2792.33394
G1 X162.596 Y214.312 E2792.48702
G1 X162.666 Y214.3 E2792.48938
G1 X178.535 Y214.299 E2793.01719
G1 X182.565 Y214.233 E2793.15124
G1 X189.3 Y214.202 E2793.37525
G1 X191.621 Y214.19 E2793.45245
G1 X207.481 Y214.112 E2793.97996
G1 X214.3 Y207.283 E2794.30094
G1 X214.301 Y162.642 E2795.78571
G1 X214.316 Y162.585 E2795.78767
G1 X216.166 Y158.382 E2795.9404
G1 X217.831 Y154.107 E2796.09299
G1 X219.3 Y149.796 E2796.24447
G1 X219.3 Y85.204 E2798.39281
G1 X217.831 Y80.892 E2798.54432
G1 X216.165 Y76.617 E2798.69693
G1 X214.312 Y72.404 E2798.85001
G1 X214.3 Y72.334 E2798.85237
G1 X214.299 Y56.465 E2799.38017
G1 X214.234 Y52.435 E2799.51423
G1 X214.112 Y27.519 E2800.34295
G1 X207.283 Y20.7 E2800.66393
G1 X162.642 Y20.699 E2802.14869
G1 X162.585 Y20.684 E2802.15066
G1 X158.382 Y18.834 E2802.30339
G1 X154.419 Y17.292 E2802.44483
G1 X154.107 Y17.169 E2802.45598
G1 X149.794 Y15.701 E2802.60751
G1 X85.206 Y15.7 E2804.75572
G1 X80.892 Y17.169 E2804.90729
G1 X76.617 Y18.835 E2805.0599
G1 X72.404 Y20.688 E2805.21298
G1 X72.334 Y20.7 E2805.21534
G1 X56.465 Y20.701 E2805.74314
G1 X52.435 Y20.766 E2805.8772
G1 X27.519 Y20.888 E2806.70592
G1 X20.7 Y27.717 E2807.0269
G1 X20.699 Y72.358 E2808.51166
G1 X20.684 Y72.415 E2808.51363
G1 X18.834 Y76.618 E2808.66636
G1 X17.169 Y80.893 E2808.81895
G1 X15.7 Y85.204 E2808.97043
G1 X15.7 Y87.821 E2809.05747
G1 X15.7 Y149.796 E2811.11877
G1 X17.169 Y154.108 E2811.27028
G1 X18.835 Y158.383 E2811.42288
G1 X20.688 Y162.596 E2811.57596
G1 X20.7 Y162.666 E2811.57833
G1 X20.701 Y178.535 E2812.10613
G1 X20.767 Y182.565 E2812.24019
G1 X20.798 Y189.3 E2812.4642
G1 X20.81 Y191.621 E2812.54139
G1 X20.888 Y207.481 E2813.06891
G1 X27.717 Y214.3 E2813.38989
G1 X72.358 Y214.301 E2814.87465
G1 X72.415 Y214.316 E2814.87661
G1 X76.618 Y216.166 E2815.02935
G1 X80.581 Y217.708 E2815.17078
G1 X80.893 Y217.831 E2815.18194
G1 X85.206 Y219.3 E2815.33348
G0 F9000 X85.272 Y218.9
;TYPE:WALL-INNER
G1 F1500 X149.728 Y218.9 E2817.4773
G1 X153.971 Y217.455 E2817.62638
G1 X158.23 Y215.795 E2817.77841
G1 X162.456 Y213.937 E2817.93196
G1 X162.666 Y213.9 E2817.93905
G1 X178.529 Y213.899 E2818.46665
G1 X182.563 Y213.833 E2818.60084
G1 X189.298 Y213.802 E2818.82485
G1 X191.619 Y213.79 E2818.90205
G1 X207.314 Y213.713 E2819.42407
G1 X213.9 Y207.117 E2819.7341
G1 X213.901 Y162.629 E2821.21377
G1 X213.95 Y162.424 E2821.22078
G1 X215.796 Y158.229 E2821.37322
G1 X217.455 Y153.97 E2821.52524
G1 X218.9 Y149.73 E2821.67423
G1 X218.9 Y85.27 E2823.81818
G1 X217.455 Y81.029 E2823.9672
G1 X215.795 Y76.77 E2824.11923
G1 X213.937 Y72.544 E2824.27277
G1 X213.9 Y72.334 E2824.27987
G1 X213.899 Y56.471 E2824.80747
G1 X213.834 Y52.437 E2824.94166
G1 X213.713 Y27.686 E2825.76489
G1 X207.117 Y21.1 E2826.07491
G1 X162.629 Y21.099 E2827.55459
G1 X162.424 Y21.05 E2827.5616
G1 X158.229 Y19.204 E2827.71404
G1 X154.274 Y17.665 E2827.85519
G1 X153.97 Y17.545 E2827.86606
G1 X149.728 Y16.101 E2828.0151
G1 X85.272 Y16.1 E2830.15892
G1 X81.029 Y17.545 E2830.308
G1 X76.77 Y19.205 E2830.46003
G1 X72.544 Y21.063 E2830.61358
G1 X72.334 Y21.1 E2830.62067
G1 X56.471 Y21.101 E2831.14827
G1 X52.437 Y21.166 E2831.28246
G1 X27.686 Y21.287 E2832.10569
G1 X21.1 Y27.883 E2832.41571
G1 X21.099 Y72.371 E2833.89539
G1 X21.05 Y72.576 E2833.9024
G1 X19.204 Y76.771 E2834.05484
G1 X17.545 Y81.03 E2834.20686
G1 X16.1 Y85.27 E2834.35585
G1 X16.1 Y87.821 E2834.4407
G1 X16.1 Y149.73 E2836.4998
G1 X17.545 Y153.971 E2836.64882
G1 X19.205 Y158.23 E2836.80085
G1 X21.063 Y162.456 E2836.95439
G1 X21.1 Y162.666 E2836.96149
G1 X21.101 Y178.529 E2837.48909
G1 X21.167 Y182.563 E2837.62328
G1 X21.198 Y189.298 E2837.84729
G1 X21.21 Y191.619 E2837.92449
G1 X21.287 Y207.314 E2838.44651
G1 X27.883 Y213.9 E2838.75653
G1 X72.371 Y213.901 E2840.23621
G1 X72.576 Y213.95 E2840.24322
G1 X76.771 Y215.796 E2840.39566
G1 X80.726 Y217.335 E2840.53681
G1 X81.03 Y217.455 E2840.54768
G1 X85.272 Y218.9 E2840.69673
G1 F2700 E2835.69673
G0 F9000 X85.276 Y218.891
G0 X185.325 Y190.413
G1 F2700 E2840.69673
G0 F9000 X185.648 Y190.166
;TYPE:WALL-OUTER
G1 F1500 X185.629 Y190.13 E2840.69808
G1 X185.311 Y189.358 E2840.72585
G1 X185.306 Y189.333 E2840.7267
G1 X185.2 Y188.527 E2840.75374
G1 X185.271 Y187.933 E2840.77364
G1 X185.306 Y187.667 E2840.78256
G1 X185.32 Y187.617 E2840.78429
G1 X185.629 Y186.87 E2840.81118
G1 X185.713 Y186.748 E2840.8161
G1 X186.148 Y186.184 E2840.83979
G1 X186.184 Y186.148 E2840.84149
G1 X186.841 Y185.644 E2840.86903
G1 X186.87 Y185.629 E2840.87011
G1 X187.617 Y185.32 E2840.897
G1 X187.934 Y185.271 E2840.90767
G1 X188.473 Y185.2 E2840.92575
G1 X188.527 Y185.2 E2840.92755
G1 X189.34 Y185.307 E2840.95482
G1 X189.383 Y185.32 E2840.95631
