;FLAVOR:Marlin
;TIME:4364
;Filament used: 3.51808m
;Layer height: 0.2
;MINX:75.4
;MINY:96.4
;MINZ:0.2
;MAXX:159.6
;MAXY:138.6
;MAXZ:36.4
;Generated with Cura_SteamEngine 5.0.0
M140 S60
M105
M190 S60
M104 S222
M105
M109 S222
M82 ;absolute extrusion mode
; Ender 3 Custom Start G-code
G92 E0 ; Reset Extruder
M140 S60 ; Start heating the heated bed
M190 S60 ; Wait until the heated bed reaches the desired temperature
G28 ; Auto Home
G29 A; Activate Bed Leveling
G29 L0; Loads the saved mesh in slot 0
G29  J3; 9 point autotilt

G92 E0 ; Reset extruder origin
G1 Z2.0 F3000 ; Move Z Axis up little to prevent scratching of Heat Bed
G1 X0.1 Y20 Z0.3 F5000.0 ; Move to start position
G1 X0.1 Y200.0 Z0.3 F1500.0 E15 ; Draw the first line
G1 X0.4 Y200.0 Z0.3 F5000.0 ; Move to side a little
G1 X0.4 Y20 Z0.3 F1500.0 E30 ; Draw the second line
G92 E0 ; Reset Extruder
G1 Z2.0 F3000 ; Move Z Axis up little to prevent scratching of Heat Bed
G1 X5 Y20 Z0.3 F5000.0 ; Move over to prevent blob squish

; End of Ender 3 Custom Start G-code
G92 E0
G92 E0
G1 F2700 E-5
;LAYER_COUNT:183
;LAYER:0
M107
G0 F2100 X80.796 Y99.946 Z0.2
G0 X75.403 Y111.977
;TYPE:SKIRT
G1 F2700 E0
G1 F1200 X75.419 Y111.119 E0.0314
G1 X75.466 Y110.285 E0.06196
G1 X75.505 Y109.871 E0.07717
G1 X75.654 Y108.826 E0.11579
G1 X75.808 Y108.083 E0.14355
G1 X75.88 Y107.784 E0.1548
G1 X76.267 Y106.517 E0.20327
G1 X76.471 Y105.968 E0.2247
G1 X76.836 Y105.099 E0.25918
G1 X77.145 Y104.494 E0.28404
G1 X77.415 Y104.002 E0.30457
G1 X77.903 Y103.196 E0.33904
G1 X78.277 Y102.667 E0.36275
G1 X78.63 Y102.198 E0.38422
G1 X79.228 Y101.47 E0.41869
G1 X79.689 Y100.986 E0.44315
G1 X80.099 Y100.58 E0.46426
G1 X80.796 Y99.946 E0.49873
G1 X81.296 Y99.552 E0.52202
G1 X81.726 Y99.233 E0.54161
G1 X82.505 Y98.705 E0.57604
G1 X83.041 Y98.394 E0.59871
G1 X83.562 Y98.111 E0.6204
G1 X84.408 Y97.697 E0.65486
G1 X84.983 Y97.464 E0.67756
G1 X85.49 Y97.275 E0.69735
G1 X86.386 Y96.984 E0.73182
G1 X87.007 Y96.83 E0.75523
G1 X87.577 Y96.706 E0.77657
G1 X88.506 Y96.545 E0.81107
G1 X89.102 Y96.483 E0.83299
G1 X89.659 Y96.441 E0.85343
G1 X90.246 Y96.413 E0.87493
G1 X90.941 Y96.4 E0.90036
G1 X144.031 Y96.403 E2.84272
G1 X144.898 Y96.42 E2.87444
G1 X145.707 Y96.466 E2.90409
G1 X146.116 Y96.504 E2.91912
G1 X147.238 Y96.666 E2.96059
G1 X147.883 Y96.802 E2.98471
G1 X148.186 Y96.874 E2.9961
G1 X149.491 Y97.27 E3.046
G1 X150.042 Y97.475 E3.06751
G1 X150.91 Y97.84 E3.10196
G1 X151.528 Y98.156 E3.12735
G1 X152.018 Y98.426 E3.14782
G1 X152.823 Y98.915 E3.18228
G1 X153.354 Y99.293 E3.20613
G1 X153.821 Y99.646 E3.22755
G1 X154.548 Y100.246 E3.26203
G1 X154.997 Y100.672 E3.28468
G1 X155.393 Y101.07 E3.30522
G1 X156.028 Y101.765 E3.33966
G1 X156.419 Y102.259 E3.36271
G1 X156.746 Y102.697 E3.38271
G1 X157.277 Y103.475 E3.41717
G1 X157.606 Y104.04 E3.44109
G1 X157.89 Y104.563 E3.46286
G1 X158.304 Y105.409 E3.49732
G1 X158.542 Y105.999 E3.5206
G1 X158.729 Y106.503 E3.54027
G1 X159.019 Y107.399 E3.57472
G1 X159.173 Y108.028 E3.59841
G1 X159.303 Y108.632 E3.62102
G1 X159.462 Y109.561 E3.6555
G1 X159.523 Y110.169 E3.67786
G1 X159.56 Y110.682 E3.69668
G1 X159.586 Y111.214 E3.71616
G1 X159.6 Y111.94 E3.74273
G1 X159.597 Y123.023 E4.14821
G1 X159.581 Y123.881 E4.17961
G1 X159.536 Y124.691 E4.20929
G1 X159.498 Y125.104 E4.22446
G1 X159.29 Y126.451 E4.27433
G1 X159.181 Y126.951 E4.29305
G1 X158.942 Y127.862 E4.32751
G1 X158.76 Y128.402 E4.34836
G1 X158.551 Y128.973 E4.3706
G1 X158.19 Y129.844 E4.4051
G1 X157.872 Y130.472 E4.43085
G1 X157.601 Y130.969 E4.45156
G1 X157.116 Y131.776 E4.48601
G1 X156.718 Y132.339 E4.51124
G1 X156.362 Y132.811 E4.53287
G1 X155.763 Y133.538 E4.56733
G1 X155.31 Y134.014 E4.59137
G1 X154.9 Y134.42 E4.61248
G1 X154.203 Y135.054 E4.64695
G1 X153.713 Y135.44 E4.66977
G1 X153.284 Y135.759 E4.68933
G1 X152.505 Y136.289 E4.72381
G1 X151.959 Y136.606 E4.7469
G1 X151.438 Y136.889 E4.7686
G1 X150.592 Y137.303 E4.80306
G1 X150.017 Y137.536 E4.82575
G1 X149.51 Y137.725 E4.84555
G1 X148.614 Y138.016 E4.88002
G1 X147.993 Y138.17 E4.90342
G1 X147.423 Y138.294 E4.92477
G1 X146.494 Y138.455 E4.95926
G1 X145.898 Y138.517 E4.98118
G1 X145.341 Y138.559 E5.00162
G1 X144.754 Y138.587 E5.02312
G1 X144.059 Y138.6 E5.04855
G1 X90.97 Y138.597 E6.99088
G1 X90.102 Y138.58 E7.02264
G1 X89.29 Y138.534 E7.05239
G1 X88.882 Y138.496 E7.06739
G1 X87.762 Y138.334 E7.10879
G1 X87.117 Y138.198 E7.13291
G1 X86.814 Y138.126 E7.1443
G1 X85.509 Y137.73 E7.19419
G1 X84.958 Y137.525 E7.2157
G1 X84.09 Y137.16 E7.25015
G1 X83.472 Y136.844 E7.27555
G1 X82.982 Y136.574 E7.29602
G1 X82.177 Y136.085 E7.33048
G1 X81.646 Y135.707 E7.35432
G1 X81.179 Y135.354 E7.37574
G1 X80.452 Y134.754 E7.41023
G1 X80.003 Y134.328 E7.43287
G1 X79.605 Y133.928 E7.45352
G1 X78.97 Y133.233 E7.48796
G1 X78.57 Y132.726 E7.51159
G1 X78.244 Y132.288 E7.53156
G1 X77.714 Y131.509 E7.56603
G1 X77.394 Y130.959 E7.58931
G1 X77.111 Y130.438 E7.61101
G1 X76.697 Y129.592 E7.64547
G1 X76.464 Y129.017 E7.66816
G1 X76.275 Y128.51 E7.68796
G1 X75.984 Y127.614 E7.72243
G1 X75.83 Y126.993 E7.74584
G1 X75.706 Y126.423 E7.76718
G1 X75.545 Y125.494 E7.80167
G1 X75.482 Y124.877 E7.82436
G1 X75.44 Y124.306 E7.84531
G1 X75.412 Y123.716 E7.86692
G1 X75.4 Y122.995 E7.8933
G1 X75.403 Y111.977 E8.29641
G0 F2100 X75.843 Y111.985
G1 F1200 X75.859 Y111.127 E8.32781
G1 X75.904 Y110.326 E8.35716
G1 X75.943 Y109.912 E8.37237
G1 X76.086 Y108.909 E8.40944
G1 X76.236 Y108.186 E8.43645
G1 X76.308 Y107.887 E8.44771
G1 X76.68 Y106.67 E8.49426
G1 X76.884 Y106.121 E8.51569
G1 X77.242 Y105.27 E8.54947
G1 X77.531 Y104.705 E8.57269
G1 X77.801 Y104.213 E8.59322
G1 X78.28 Y103.424 E8.62699
G1 X78.629 Y102.931 E8.64909
G1 X78.982 Y102.462 E8.67057
G1 X79.569 Y101.75 E8.70433
G1 X79.998 Y101.298 E8.72713
G1 X80.408 Y100.892 E8.74824
G1 X81.092 Y100.272 E8.78201
G1 X81.558 Y99.906 E8.80369
G1 X81.988 Y99.587 E8.82328
G1 X82.752 Y99.069 E8.85705
G1 X83.251 Y98.781 E8.87813
G1 X83.772 Y98.498 E8.89982
G1 X84.601 Y98.093 E8.93358
G1 X85.136 Y97.876 E8.9547
G1 X85.643 Y97.687 E8.9745
G1 X86.522 Y97.403 E9.00829
G1 X87.101 Y97.26 E9.03011
G1 X87.671 Y97.136 E9.05145
G1 X88.581 Y96.979 E9.08524
G1 X89.135 Y96.922 E9.10561
G1 X89.692 Y96.88 E9.12605
G1 X90.256 Y96.853 E9.14671
G1 X90.941 Y96.84 E9.17177
G1 X144.022 Y96.843 E11.1138
G1 X144.889 Y96.86 E11.14553
G1 X145.666 Y96.904 E11.174
G1 X146.075 Y96.942 E11.18903
G1 X147.153 Y97.098 E11.22888
G1 X147.781 Y97.23 E11.25236
G1 X148.084 Y97.302 E11.26375
G1 X149.337 Y97.682 E11.31166
G1 X149.888 Y97.887 E11.33317
G1 X150.739 Y98.246 E11.36696
G1 X151.316 Y98.542 E11.39069
G1 X151.806 Y98.812 E11.41115
G1 X152.594 Y99.292 E11.44491
G1 X153.089 Y99.644 E11.46713
G1 X153.556 Y99.997 E11.48855
G1 X154.268 Y100.585 E11.52234
G1 X154.685 Y100.982 E11.5434
G1 X155.081 Y101.38 E11.56394
G1 X155.703 Y102.062 E11.59771
G1 X156.066 Y102.522 E11.61915
G1 X156.393 Y102.96 E11.63915
G1 X156.913 Y103.723 E11.67293
G1 X157.219 Y104.25 E11.69523
G1 X157.503 Y104.773 E11.717
G1 X157.908 Y105.603 E11.75079
G1 X158.129 Y106.152 E11.77244
G1 X158.316 Y106.656 E11.79211
G1 X158.6 Y107.535 E11.8259
G1 X158.743 Y108.121 E11.84797
G1 X158.873 Y108.725 E11.87058
G1 X159.028 Y109.635 E11.90435
G1 X159.084 Y110.201 E11.92516
G1 X159.121 Y110.714 E11.94398
G1 X159.146 Y111.225 E11.96269
G1 X159.16 Y111.94 E11.98886
G1 X159.157 Y123.015 E12.39405
G1 X159.141 Y123.873 E12.42545
G1 X159.098 Y124.651 E12.45395
G1 X159.06 Y125.064 E12.46913
G1 X158.86 Y126.358 E12.51703
G1 X158.751 Y126.858 E12.53576
G1 X158.516 Y127.75 E12.5695
G1 X158.346 Y128.251 E12.58886
G1 X158.137 Y128.822 E12.61111
G1 X157.783 Y129.675 E12.64489
G1 X157.486 Y130.261 E12.66893
G1 X157.215 Y130.758 E12.68964
G1 X156.738 Y131.549 E12.72344
G1 X156.367 Y132.074 E12.74696
G1 X156.011 Y132.546 E12.76859
G1 X155.423 Y133.258 E12.80237
G1 X155.001 Y133.702 E12.82478
G1 X154.591 Y134.108 E12.84589
G1 X153.907 Y134.728 E12.87967
G1 X153.451 Y135.087 E12.9009
G1 X153.022 Y135.406 E12.92046
G1 X152.258 Y135.925 E12.95425
G1 X151.749 Y136.219 E12.97576
G1 X151.228 Y136.502 E12.99745
G1 X150.399 Y136.907 E13.0312
G1 X149.864 Y137.124 E13.05233
G1 X149.357 Y137.313 E13.07212
G1 X148.478 Y137.597 E13.10592
G1 X147.899 Y137.74 E13.12774
G1 X147.329 Y137.864 E13.14908
G1 X146.419 Y138.021 E13.18286
G1 X145.865 Y138.078 E13.20324
G1 X145.308 Y138.12 E13.22368
G1 X144.744 Y138.147 E13.24433
G1 X144.059 Y138.16 E13.2694
G1 X90.978 Y138.157 E15.21143
G1 X90.11 Y138.14 E15.24319
G1 X89.33 Y138.096 E15.27178
G1 X88.922 Y138.058 E15.28677
G1 X87.847 Y137.902 E15.32651
G1 X87.219 Y137.77 E15.34999
G1 X86.916 Y137.698 E15.36138
G1 X85.663 Y137.318 E15.40929
G1 X85.112 Y137.113 E15.4308
G1 X84.261 Y136.754 E15.46459
G1 X83.684 Y136.458 E15.48831
G1 X83.194 Y136.188 E15.50878
G1 X82.406 Y135.708 E15.54254
G1 X81.911 Y135.356 E15.56476
G1 X81.444 Y135.003 E15.58618
G1 X80.732 Y134.415 E15.61996
G1 X80.315 Y134.018 E15.64103
G1 X79.917 Y133.618 E15.66167
G1 X79.295 Y132.936 E15.69544
G1 X78.923 Y132.464 E15.71743
G1 X78.597 Y132.026 E15.73741
G1 X78.078 Y131.262 E15.7712
G1 X77.781 Y130.749 E15.79288
G1 X77.498 Y130.228 E15.81458
G1 X77.093 Y129.399 E15.84833
G1 X76.876 Y128.864 E15.86946
G1 X76.687 Y128.357 E15.88925
G1 X76.403 Y127.478 E15.92305
G1 X76.26 Y126.899 E15.94487
G1 X76.136 Y126.329 E15.96621
G1 X75.979 Y125.419 E15.99999
G1 X75.921 Y124.845 E16.0211
G1 X75.879 Y124.274 E16.04205
G1 X75.852 Y123.707 E16.06282
G1 X75.84 Y122.995 E16.08887
G1 X75.843 Y111.985 E16.49168
G0 F2100 X76.283 Y111.993
G1 F1200 X76.299 Y111.135 E16.52308
G1 X76.342 Y110.367 E16.55122
G1 X76.381 Y109.953 E16.56644
G1 X76.518 Y108.992 E16.60195
G1 X76.664 Y108.289 E16.62822
G1 X76.736 Y107.99 E16.63947
G1 X77.092 Y106.823 E16.68411
G1 X77.296 Y106.274 E16.70554
G1 X77.648 Y105.442 E16.73859
G1 X77.916 Y104.917 E16.76015
G1 X78.186 Y104.425 E16.78069
G1 X78.656 Y103.653 E16.81375
G1 X78.98 Y103.196 E16.83425
G1 X79.333 Y102.727 E16.85573
G1 X79.908 Y102.03 E16.88878
G1 X80.308 Y101.611 E16.90998
G1 X80.718 Y101.205 E16.93109
G1 X81.388 Y100.598 E16.96416
G1 X81.82 Y100.259 E16.98426
G1 X82.25 Y99.94 E17.00384
G1 X82.999 Y99.434 E17.03691
G1 X83.461 Y99.167 E17.05644
G1 X83.982 Y98.884 E17.07813
G1 X84.795 Y98.488 E17.11121
G1 X85.29 Y98.289 E17.13073
G1 X85.797 Y98.1 E17.15053
G1 X86.657 Y97.822 E17.1836
G1 X87.195 Y97.69 E17.20386
G1 X87.765 Y97.566 E17.22521
G1 X88.655 Y97.413 E17.25824
G1 X89.169 Y97.361 E17.27715
G1 X89.726 Y97.319 E17.29758
G1 X90.265 Y97.293 E17.31732
G1 X90.941 Y97.28 E17.34206
G1 X144.013 Y97.283 E19.28376
G1 X144.88 Y97.3 E19.31549
G1 X145.625 Y97.342 E19.34279
G1 X146.034 Y97.38 E19.35782
G1 X147.068 Y97.529 E19.39604
G1 X147.68 Y97.658 E19.41892
G1 X147.983 Y97.73 E19.43031
G1 X149.184 Y98.094 E19.47623
G1 X149.735 Y98.299 E19.49774
G1 X150.567 Y98.652 E19.5308
G1 X151.103 Y98.927 E19.55284
G1 X151.593 Y99.197 E19.57331
G1 X152.365 Y99.668 E19.6064
G1 X152.824 Y99.995 E19.62702
G1 X153.291 Y100.348 E19.64843
G1 X153.987 Y100.925 E19.68151
G1 X154.373 Y101.293 E19.70102
G1 X154.769 Y101.691 E19.72156
G1 X155.377 Y102.359 E19.75461
G1 X155.713 Y102.785 E19.77446
G1 X156.04 Y103.223 E19.79446
G1 X156.549 Y103.971 E19.82756
G1 X156.832 Y104.46 E19.84823
G1 X157.116 Y104.983 E19.87001
G1 X157.512 Y105.796 E19.90309
G1 X157.717 Y106.305 E19.92317
G1 X157.904 Y106.809 E19.94283
G1 X158.18 Y107.669 E19.97588
G1 X158.313 Y108.214 E19.9964
G1 X158.443 Y108.818 E20.01901
G1 X158.594 Y109.709 E20.05207
G1 X158.646 Y110.233 E20.07134
G1 X158.683 Y110.746 E20.09015
G1 X158.706 Y111.236 E20.1081
G1 X158.72 Y111.94 E20.13386
G1 X158.717 Y123.007 E20.53876
G1 X158.701 Y123.865 E20.57016
G1 X158.66 Y124.61 E20.59746
G1 X158.622 Y125.023 E20.61263
G1 X158.43 Y126.264 E20.65857
G1 X158.321 Y126.764 E20.6773
G1 X158.09 Y127.638 E20.71037
G1 X157.933 Y128.1 E20.72822
G1 X157.724 Y128.671 E20.75047
G1 X157.376 Y129.505 E20.78353
G1 X157.1 Y130.051 E20.80591
G1 X156.829 Y130.548 E20.82663
G1 X156.361 Y131.321 E20.85969
G1 X156.015 Y131.809 E20.88157
G1 X155.659 Y132.281 E20.9032
G1 X155.084 Y132.978 E20.93626
G1 X154.691 Y133.389 E20.95706
G1 X154.281 Y133.795 E20.97818
G1 X153.611 Y134.402 E21.01125
G1 X153.188 Y134.734 E21.03093
G1 X152.759 Y135.053 E21.05048
G1 X152.011 Y135.56 E21.08354
G1 X151.539 Y135.833 E21.10349
G1 X151.018 Y136.116 E21.12519
G1 X150.205 Y136.512 E21.15827
G1 X149.71 Y136.711 E21.17779
G1 X149.203 Y136.9 E21.19759
G1 X148.343 Y137.178 E21.23065
G1 X147.805 Y137.31 E21.25092
G1 X147.235 Y137.434 E21.27226
G1 X146.345 Y137.587 E21.3053
G1 X145.831 Y137.639 E21.3242
G1 X145.274 Y137.681 E21.34464
G1 X144.735 Y137.707 E21.36438
G1 X144.059 Y137.72 E21.38912
G1 X90.987 Y137.717 E23.33082
G1 X90.119 Y137.7 E23.36258
G1 X89.371 Y137.658 E23.38999
G1 X88.963 Y137.62 E23.40498
G1 X87.932 Y137.471 E23.4431
G1 X87.32 Y137.342 E23.46598
G1 X87.017 Y137.27 E23.47737
G1 X85.816 Y136.906 E23.52329
G1 X85.265 Y136.701 E23.54479
G1 X84.433 Y136.348 E23.57786
G1 X83.897 Y136.073 E23.5999
G1 X83.407 Y135.803 E23.62037
G1 X82.635 Y135.332 E23.65346
G1 X82.176 Y135.005 E23.67408
G1 X81.709 Y134.652 E23.69549
G1 X81.013 Y134.075 E23.72857
G1 X80.627 Y133.707 E23.74808
G1 X80.229 Y133.307 E23.76873
G1 X79.621 Y132.639 E23.80177
G1 X79.276 Y132.201 E23.82217
G1 X78.95 Y131.763 E23.84215
G1 X78.442 Y131.015 E23.87523
G1 X78.167 Y130.539 E23.89534
G1 X77.884 Y130.018 E23.91703
G1 X77.488 Y129.205 E23.95012
G1 X77.289 Y128.71 E23.96964
G1 X77.1 Y128.203 E23.98943
G1 X76.822 Y127.343 E24.0225
G1 X76.69 Y126.805 E24.04277
G1 X76.566 Y126.235 E24.06411
G1 X76.413 Y125.345 E24.09715
G1 X76.36 Y124.813 E24.11671
G1 X76.318 Y124.242 E24.13766
G1 X76.292 Y123.698 E24.15758
G1 X76.28 Y122.995 E24.18331
G1 X76.283 Y111.993 E24.58583
G1 F2700 E19.58583
;MESH:Door Catch v5.stl 1
G0 F2100 X90.144 Y117.61
G0 X90.88 Y119.065
G0 X91.201 Y119.508
G0 X91.598 Y119.887
G0 X92.054 Y120.187
G0 X92.46 Y120.361
G0 X93.692 Y120.602
G1 F2700 E24.58583
G0 F2100 X93.64 Y120.216
;TYPE:WALL-OUTER
G1 F1200 X93.153 Y120.197 E24.60366
G1 X92.681 Y120.095 E24.62132
G1 X92.227 Y119.904 E24.63935
G1 X91.821 Y119.642 E24.65702
G1 X91.466 Y119.305 E24.67493
G1 X91.177 Y118.913 E24.69275
G1 X90.96 Y118.472 E24.71073
G1 X90.827 Y118.006 E24.72846
G1 X90.782 Y117.551 E24.74519
G1 X90.818 Y117.063 E24.76309
G1 X90.946 Y116.567 E24.78183
G1 X91.157 Y116.12 E24.79992
G1 X91.44 Y115.724 E24.81773
G1 X91.789 Y115.384 E24.83555
G1 X92.193 Y115.115 E24.85331
G1 X92.643 Y114.917 E24.8713
G1 X93.114 Y114.808 E24.88898
G1 X93.6 Y114.783 E24.90679
G1 X94.085 Y114.844 E24.92467
G1 X94.552 Y114.992 E24.9426
G1 X94.98 Y115.219 E24.96032
G1 X95.367 Y115.521 E24.97828
G1 X95.708 Y115.916 E24.99737
G1 X95.953 Y116.331 E25.015
G1 X96.117 Y116.759 E25.03177
G1 X96.207 Y117.239 E25.04964
G1 X96.21 Y117.5 E25.05919
G1 X96.207 Y117.761 E25.06874
G1 X96.124 Y118.221 E25.08584
G1 X95.957 Y118.665 E25.1032
G1 X95.713 Y119.08 E25.12081
G1 X95.397 Y119.451 E25.13864
G1 X95.012 Y119.76 E25.1567
G1 X94.589 Y119.992 E25.17435
G1 X94.123 Y120.147 E25.19232
G1 X93.64 Y120.216 E25.21017
G0 F2100 X93.699 Y120.652
;TYPE:WALL-INNER
G1 F1200 X93.133 Y120.637 E25.23088
G1 X92.585 Y120.525 E25.25135
G1 X92.053 Y120.308 E25.27237
G1 X91.579 Y120.01 E25.29285
G1 X91.161 Y119.622 E25.31372
G1 X90.821 Y119.171 E25.33438
G1 X90.564 Y118.664 E25.35518
G1 X90.403 Y118.124 E25.37579
G1 X90.344 Y117.591 E25.39541
G1 X90.38 Y117.028 E25.41605
G1 X90.52 Y116.455 E25.43763
G1 X90.761 Y115.929 E25.4588
G1 X91.084 Y115.466 E25.47946
G1 X91.484 Y115.067 E25.50013
G1 X91.952 Y114.747 E25.52087
G1 X92.469 Y114.513 E25.54163
G1 X93.018 Y114.378 E25.56232
G1 X93.58 Y114.343 E25.58292
G1 X94.144 Y114.408 E25.60369
G1 X94.688 Y114.574 E25.6245
G1 X95.189 Y114.832 E25.64511
G1 X95.64 Y115.176 E25.66587
G1 X96.044 Y115.631 E25.68813
G1 X96.334 Y116.111 E25.70865
G1 X96.529 Y116.604 E25.72804
G1 X96.64 Y117.161 E25.74882
G1 X96.65 Y117.5 E25.76123
G1 X96.648 Y117.779 E25.77144
G1 X96.561 Y118.28 E25.79004
G1 X96.369 Y118.82 E25.81101
G1 X96.091 Y119.306 E25.83149
G1 X95.729 Y119.739 E25.85214
G1 X95.285 Y120.105 E25.8732
G1 X94.798 Y120.379 E25.89364
