;FLAVOR:Marlin
;TIME:9390
;Filament used: 17.6917m
;Layer height: 0.2
;MINX:28.921
;MINY:28.921
;MINZ:0.2
;MAXX:206.079
;MAXY:206.079
;MAXZ:15
;Generated with Cura_SteamEngine 5.0.0
M82 ;absolute extrusion mode
START_PRINT EXTRUDER_TEMP=222 BED_TEMP=60
G92 E0
G92 E0
G1 F2700 E-5
;LAYER_COUNT:75
;LAYER:0
M107
G0 F2100 X34.354 Y34.119 Z0.2
G0 X28.922 Y47.546
;TYPE:SKIRT
G1 F2700 E0
G1 F1200 X28.932 Y46.858 E0.02517
G1 X28.959 Y46.227 E0.04828
G1 X29.033 Y45.26 E0.08376
G1 X29.087 Y44.719 E0.10365
G1 X29.22 Y43.786 E0.13813
G1 X29.365 Y43.122 E0.163
G1 X29.628 Y42.096 E0.20175
G1 X29.765 Y41.612 E0.22015
G1 X30.059 Y40.717 E0.25462
G1 X30.31 Y40.109 E0.27869
G1 X30.736 Y39.168 E0.31648
G1 X30.955 Y38.715 E0.33489
G1 X31.4 Y37.885 E0.36934
G1 X31.761 Y37.317 E0.39396
G1 X32.364 Y36.435 E0.43305
G1 X32.657 Y36.029 E0.45137
G1 X33.24 Y35.289 E0.48584
G1 X33.684 Y34.803 E0.50992
G1 X34.354 Y34.119 E0.54495
G1 X34.766 Y33.719 E0.56596
G1 X35.469 Y33.092 E0.60043
G1 X35.972 Y32.704 E0.62367
G1 X36.874 Y32.056 E0.6643
G1 X37.262 Y31.793 E0.68145
G1 X38.064 Y31.298 E0.71593
G1 X38.637 Y30.998 E0.73959
G1 X39.583 Y30.543 E0.778
G1 X40.045 Y30.335 E0.79654
G1 X40.92 Y29.986 E0.831
G1 X41.568 Y29.78 E0.85588
G1 X42.527 Y29.512 E0.89231
G1 X43.027 Y29.385 E0.91118
G1 X43.95 Y29.192 E0.94568
G1 X44.617 Y29.102 E0.97031
G1 X45.717 Y28.994 E1.01075
G1 X46.216 Y28.959 E1.02905
G1 X46.824 Y28.933 E1.05131
G1 X47.717 Y28.921 E1.08399
G1 X187.293 Y28.921 E6.19053
G1 X188.142 Y28.932 E6.2216
G1 X188.773 Y28.959 E6.24471
G1 X189.74 Y29.033 E6.28019
G1 X190.281 Y29.087 E6.30008
G1 X191.214 Y29.22 E6.33456
G1 X191.878 Y29.365 E6.35942
G1 X192.898 Y29.626 E6.39795
G1 X193.383 Y29.763 E6.41638
G1 X194.278 Y30.057 E6.45085
G1 X194.898 Y30.312 E6.47538
G1 X195.832 Y30.736 E6.5129
G1 X196.285 Y30.955 E6.53131
G1 X197.115 Y31.4 E6.56577
G1 X197.683 Y31.761 E6.59039
G1 X198.565 Y32.364 E6.62948
G1 X198.971 Y32.657 E6.6478
G1 X199.711 Y33.24 E6.68227
G1 X200.197 Y33.684 E6.70635
G1 X200.881 Y34.354 E6.74138
G1 X201.281 Y34.766 E6.76239
G1 X201.908 Y35.469 E6.79685
G1 X202.293 Y35.968 E6.81991
G1 X202.941 Y36.869 E6.86052
G1 X203.208 Y37.263 E6.87793
G1 X203.703 Y38.065 E6.91241
G1 X204.002 Y38.637 E6.93602
G1 X204.457 Y39.583 E6.97443
G1 X204.665 Y40.045 E6.99297
G1 X205.014 Y40.92 E7.02743
G1 X205.22 Y41.568 E7.05231
G1 X205.488 Y42.527 E7.08874
G1 X205.615 Y43.027 E7.10761
G1 X205.808 Y43.95 E7.14211
G1 X205.898 Y44.617 E7.16674
G1 X206.006 Y45.714 E7.20707
G1 X206.041 Y46.211 E7.22529
G1 X206.067 Y46.823 E7.2477
G1 X206.079 Y47.717 E7.28042
G1 X206.078 Y187.454 E12.39285
G1 X206.068 Y188.142 E12.41803
G1 X206.041 Y188.773 E12.44114
G1 X205.967 Y189.74 E12.47662
G1 X205.913 Y190.281 E12.49651
G1 X205.78 Y191.214 E12.53099
G1 X205.635 Y191.878 E12.55585
G1 X205.372 Y192.904 E12.59461
G1 X205.235 Y193.388 E12.61301
G1 X204.941 Y194.283 E12.64747
G1 X204.69 Y194.891 E12.67154
G1 X204.264 Y195.832 E12.70933
G1 X204.045 Y196.285 E12.72774
G1 X203.6 Y197.115 E12.7622
G1 X203.239 Y197.683 E12.78682
G1 X202.636 Y198.565 E12.82591
G1 X202.343 Y198.971 E12.84423
G1 X201.76 Y199.711 E12.87869
G1 X201.31 Y200.203 E12.90309
G1 X200.666 Y200.86 E12.93675
G1 X200.246 Y201.269 E12.95819
G1 X199.544 Y201.897 E12.99266
G1 X199.032 Y202.293 E13.01634
G1 X198.131 Y202.941 E13.05694
G1 X197.737 Y203.208 E13.07435
G1 X196.935 Y203.703 E13.10883
G1 X196.363 Y204.002 E13.13245
G1 X195.409 Y204.46 E13.17117
G1 X194.946 Y204.668 E13.18974
G1 X194.071 Y205.017 E13.2242
G1 X193.436 Y205.219 E13.24858
G1 X192.473 Y205.488 E13.28516
G1 X191.973 Y205.615 E13.30404
G1 X191.05 Y205.808 E13.33853
G1 X190.383 Y205.898 E13.36316
G1 X189.283 Y206.006 E13.4036
G1 X188.784 Y206.041 E13.4219
G1 X188.176 Y206.067 E13.44416
G1 X187.283 Y206.079 E13.47684
G1 X47.546 Y206.078 E18.58928
G1 X46.858 Y206.068 E18.61445
G1 X46.227 Y206.041 E18.63756
G1 X45.26 Y205.967 E18.67304
G1 X44.719 Y205.913 E18.69293
G1 X43.786 Y205.78 E18.72741
G1 X43.122 Y205.635 E18.75228
G1 X42.102 Y205.374 E18.7908
G1 X41.617 Y205.237 E18.80924
G1 X40.722 Y204.943 E18.8437
G1 X40.097 Y204.685 E18.86844
G1 X39.162 Y204.262 E18.90599
G1 X38.717 Y204.047 E18.92407
G1 X37.887 Y203.601 E18.95854
G1 X37.317 Y203.239 E18.98324
G1 X36.435 Y202.636 E19.02233
G1 X36.029 Y202.343 E19.04065
G1 X35.289 Y201.76 E19.07512
G1 X34.793 Y201.306 E19.09972
G1 X34.123 Y200.649 E19.13405
G1 X33.726 Y200.241 E19.15488
G1 X33.098 Y199.538 E19.18937
G1 X32.699 Y199.022 E19.21323
G1 X32.05 Y198.117 E19.25397
G1 X31.79 Y197.733 E19.27094
G1 X31.295 Y196.931 E19.30542
G1 X30.998 Y196.363 E19.32887
G1 X30.543 Y195.417 E19.36728
G1 X30.335 Y194.955 E19.38582
G1 X29.986 Y194.08 E19.42028
G1 X29.78 Y193.432 E19.44516
G1 X29.512 Y192.473 E19.48159
G1 X29.385 Y191.973 E19.50046
G1 X29.192 Y191.05 E19.53496
G1 X29.102 Y190.383 E19.55959
G1 X28.994 Y189.286 E19.59991
G1 X28.959 Y188.789 E19.61814
G1 X28.933 Y188.177 E19.64055
G1 X28.921 Y187.283 E19.67326
G1 X28.922 Y47.546 E24.7857
G0 F2100 X29.362 Y47.552
G1 F1200 X29.372 Y46.864 E24.81088
G1 X29.398 Y46.258 E24.83307
G1 X29.471 Y45.303 E24.86811
G1 X29.525 Y44.762 E24.888
G1 X29.656 Y43.848 E24.92178
G1 X29.792 Y43.229 E24.94497
G1 X30.051 Y42.216 E24.98322
G1 X30.188 Y41.732 E25.00163
G1 X30.478 Y40.855 E25.03542
G1 X30.711 Y40.289 E25.05782
G1 X31.132 Y39.359 E25.09517
G1 X31.351 Y38.906 E25.11357
G1 X31.788 Y38.093 E25.14734
G1 X32.125 Y37.564 E25.17029
G1 X32.721 Y36.693 E25.2089
G1 X33.014 Y36.287 E25.22722
G1 X33.586 Y35.562 E25.26101
G1 X34 Y35.109 E25.28346
G1 X34.66 Y34.435 E25.31797
G1 X35.072 Y34.035 E25.33898
G1 X35.762 Y33.421 E25.37277
G1 X36.231 Y33.06 E25.39443
G1 X37.121 Y32.42 E25.43453
G1 X37.509 Y32.157 E25.45168
G1 X38.295 Y31.673 E25.48546
G1 X38.829 Y31.394 E25.5075
G1 X39.764 Y30.945 E25.54545
G1 X40.226 Y30.737 E25.56398
G1 X41.083 Y30.394 E25.59776
G1 X41.688 Y30.203 E25.62097
G1 X42.636 Y29.938 E25.65698
G1 X43.136 Y29.811 E25.67585
G1 X44.04 Y29.623 E25.70964
G1 X44.662 Y29.54 E25.73259
G1 X45.748 Y29.433 E25.77252
G1 X46.247 Y29.398 E25.79082
G1 X46.831 Y29.373 E25.81221
G1 X47.717 Y29.361 E25.84462
G1 X187.293 Y29.361 E30.95117
G1 X188.136 Y29.372 E30.98202
G1 X188.742 Y29.398 E31.00421
G1 X189.697 Y29.471 E31.03925
G1 X190.238 Y29.525 E31.05914
G1 X191.152 Y29.656 E31.09292
G1 X191.771 Y29.792 E31.11611
G1 X192.779 Y30.049 E31.15417
G1 X193.264 Y30.186 E31.17261
G1 X194.141 Y30.476 E31.2064
G1 X194.718 Y30.714 E31.22924
G1 X195.641 Y31.132 E31.26631
G1 X196.094 Y31.351 E31.28472
G1 X196.907 Y31.788 E31.31849
G1 X197.436 Y32.125 E31.34143
G1 X198.307 Y32.721 E31.38005
G1 X198.713 Y33.014 E31.39836
G1 X199.438 Y33.586 E31.43215
G1 X199.891 Y34 E31.4546
G1 X200.565 Y34.66 E31.48912
G1 X200.965 Y35.072 E31.51013
G1 X201.579 Y35.762 E31.54392
G1 X201.938 Y36.227 E31.56541
G1 X202.577 Y37.116 E31.60547
G1 X202.844 Y37.51 E31.62288
G1 X203.328 Y38.296 E31.65665
G1 X203.606 Y38.829 E31.67864
G1 X204.055 Y39.764 E31.71659
G1 X204.263 Y40.226 E31.73513
G1 X204.606 Y41.083 E31.7689
G1 X204.797 Y41.688 E31.79211
G1 X205.062 Y42.636 E31.82813
G1 X205.189 Y43.136 E31.847
G1 X205.377 Y44.04 E31.88078
G1 X205.46 Y44.662 E31.90374
G1 X205.567 Y45.745 E31.94356
G1 X205.602 Y46.242 E31.96178
G1 X205.627 Y46.83 E31.98332
G1 X205.639 Y47.717 E32.01577
G1 X205.638 Y187.448 E37.12799
G1 X205.628 Y188.136 E37.15316
G1 X205.602 Y188.742 E37.17536
G1 X205.529 Y189.697 E37.2104
G1 X205.475 Y190.238 E37.23029
G1 X205.344 Y191.152 E37.26407
G1 X205.208 Y191.771 E37.28726
G1 X204.949 Y192.784 E37.32551
G1 X204.812 Y193.268 E37.34391
G1 X204.522 Y194.145 E37.37771
G1 X204.289 Y194.711 E37.4001
G1 X203.868 Y195.641 E37.43745
G1 X203.649 Y196.094 E37.45586
G1 X203.212 Y196.907 E37.48963
G1 X202.875 Y197.436 E37.51258
G1 X202.279 Y198.307 E37.55119
G1 X201.986 Y198.713 E37.56951
G1 X201.414 Y199.438 E37.60329
G1 X200.994 Y199.897 E37.62606
G1 X200.359 Y200.545 E37.65925
G1 X199.939 Y200.954 E37.6807
G1 X199.25 Y201.569 E37.71449
G1 X198.773 Y201.938 E37.73655
G1 X197.884 Y202.577 E37.77661
G1 X197.49 Y202.844 E37.79402
G1 X196.704 Y203.328 E37.82779
G1 X196.171 Y203.606 E37.84979
G1 X195.228 Y204.059 E37.88806
G1 X194.765 Y204.267 E37.90663
G1 X193.908 Y204.608 E37.94038
G1 X193.315 Y204.796 E37.96314
G1 X192.364 Y205.062 E37.99926
G1 X191.864 Y205.189 E38.01814
G1 X190.96 Y205.377 E38.05192
G1 X190.338 Y205.46 E38.07488
G1 X189.252 Y205.567 E38.1148
G1 X188.753 Y205.602 E38.1331
G1 X188.169 Y205.627 E38.15449
G1 X187.283 Y205.639 E38.18691
G1 X47.552 Y205.638 E43.29913
G1 X46.864 Y205.628 E43.3243
G1 X46.258 Y205.602 E43.34649
G1 X45.303 Y205.529 E43.38154
G1 X44.762 Y205.475 E43.40143
G1 X43.848 Y205.344 E43.43521
G1 X43.229 Y205.208 E43.45839
G1 X42.221 Y204.951 E43.49645
G1 X41.736 Y204.814 E43.51489
G1 X40.859 Y204.524 E43.54869
G1 X40.277 Y204.284 E43.57172
G1 X39.354 Y203.865 E43.60881
G1 X38.909 Y203.65 E43.62689
G1 X38.095 Y203.213 E43.66069
G1 X37.564 Y202.875 E43.68372
G1 X36.693 Y202.279 E43.72233
G1 X36.287 Y201.986 E43.74065
G1 X35.562 Y201.414 E43.77443
G1 X35.099 Y200.99 E43.7974
G1 X34.438 Y200.342 E43.83127
G1 X34.041 Y199.934 E43.8521
G1 X33.426 Y199.245 E43.88589
G1 X33.055 Y198.763 E43.90814
G1 X32.414 Y197.871 E43.94833
G1 X32.154 Y197.487 E43.96529
G1 X31.67 Y196.7 E43.9991
G1 X31.394 Y196.171 E44.02093
G1 X30.945 Y195.236 E44.05887
G1 X30.737 Y194.774 E44.07741
G1 X30.394 Y193.917 E44.11118
G1 X30.203 Y193.312 E44.13439
G1 X29.938 Y192.364 E44.17041
G1 X29.811 Y191.864 E44.18928
G1 X29.623 Y190.96 E44.22306
G1 X29.54 Y190.338 E44.24602
G1 X29.433 Y189.255 E44.28584
G1 X29.398 Y188.758 E44.30407
G1 X29.373 Y188.17 E44.3256
G1 X29.361 Y187.283 E44.35805
G1 X29.362 Y47.552 E49.47027
G0 F2100 X29.802 Y47.558
G1 F1200 X29.812 Y46.87 E49.49545
G1 X29.837 Y46.29 E49.51669
G1 X29.909 Y45.347 E49.55129
G1 X29.963 Y44.806 E49.57118
G1 X30.092 Y43.911 E49.60426
G1 X30.219 Y43.336 E49.62581
G1 X30.474 Y42.336 E49.66356
G1 X30.611 Y41.852 E49.68197
G1 X30.896 Y40.993 E49.71508
G1 X31.113 Y40.468 E49.73586
G1 X31.528 Y39.551 E49.77269
G1 X31.747 Y39.098 E49.7911
G1 X32.176 Y38.302 E49.82418
G1 X32.489 Y37.81 E49.84551
G1 X33.078 Y36.95 E49.88365
G1 X33.371 Y36.544 E49.90197
G1 X33.932 Y35.835 E49.93504
G1 X34.316 Y35.416 E49.95584
G1 X34.967 Y34.75 E49.98991
G1 X35.379 Y34.35 E50.01092
G1 X36.055 Y33.75 E50.04399
G1 X36.489 Y33.416 E50.06403
G1 X37.368 Y32.784 E50.10363
G1 X37.756 Y32.521 E50.12078
G1 X38.526 Y32.048 E50.15385
G1 X39.022 Y31.79 E50.1743
G1 X39.944 Y31.346 E50.21174
G1 X40.406 Y31.138 E50.23028
G1 X41.246 Y30.804 E50.26335
G1 X41.808 Y30.626 E50.28492
G1 X42.744 Y30.365 E50.32047
G1 X43.244 Y30.238 E50.33934
G1 X44.129 Y30.054 E50.37241
G1 X44.707 Y29.977 E50.39375
G1 X45.779 Y29.872 E50.43316
G1 X46.278 Y29.837 E50.45146
G1 X46.838 Y29.813 E50.47196
G1 X47.717 Y29.801 E50.50413
G1 X187.293 Y29.801 E55.61067
G1 X188.13 Y29.812 E55.6413
G1 X188.71 Y29.837 E55.66254
G1 X189.653 Y29.909 E55.69714
G1 X190.194 Y29.963 E55.71703
G1 X191.089 Y30.092 E55.75012
G1 X191.664 Y30.219 E55.77166
G1 X192.659 Y30.473 E55.80923
G1 X193.144 Y30.61 E55.82767
G1 X194.002 Y30.894 E55.86073
G1 X194.539 Y31.116 E55.88199
G1 X195.449 Y31.528 E55.91854
G1 X195.902 Y31.747 E55.93695
G1 X196.698 Y32.176 E55.97003
G1 X197.19 Y32.489 E55.99137
G1 X198.05 Y33.078 E56.0295
G1 X198.456 Y33.371 E56.04782
G1 X199.165 Y33.932 E56.0809
G1 X199.584 Y34.316 E56.10169
G1 X200.25 Y34.967 E56.13576
G1 X200.65 Y35.379 E56.15677
G1 X201.25 Y36.055 E56.18984
G1 X201.582 Y36.486 E56.20975
G1 X202.212 Y37.363 E56.24925
G1 X202.479 Y37.757 E56.26667
G1 X202.953 Y38.527 E56.29975
G1 X203.21 Y39.022 E56.32015
G1 X203.654 Y39.944 E56.35759
G1 X203.862 Y40.406 E56.37613
G1 X204.196 Y41.246 E56.4092
G1 X204.374 Y41.808 E56.43077
G1 X204.635 Y42.744 E56.46632
G1 X204.762 Y43.244 E56.4852
G1 X204.946 Y44.129 E56.51827
G1 X205.023 Y44.707 E56.5396
G1 X205.128 Y45.776 E56.5789
G1 X205.163 Y46.273 E56.59713
G1 X205.187 Y46.836 E56.61775
G1 X205.199 Y47.717 E56.64998
G1 X205.198 Y187.442 E61.76198
G1 X205.188 Y188.13 E61.78715
G1 X205.163 Y188.71 E61.80839
G1 X205.091 Y189.653 E61.84299
G1 X205.037 Y190.194 E61.86289
G1 X204.908 Y191.089 E61.89597
G1 X204.781 Y191.664 E61.91751
G1 X204.526 Y192.664 E61.95527
G1 X204.389 Y193.148 E61.97367
G1 X204.104 Y194.007 E62.00679
G1 X203.887 Y194.532 E62.02757
G1 X203.472 Y195.449 E62.06439
G1 X203.253 Y195.902 E62.0828
G1 X202.824 Y196.698 E62.11589
G1 X202.511 Y197.19 E62.13722
G1 X201.922 Y198.05 E62.17536
G1 X201.629 Y198.456 E62.19367
G1 X201.068 Y199.165 E62.22675
G1 X200.678 Y199.591 E62.24788
G1 X200.052 Y200.23 E62.28061
G1 X199.632 Y200.639 E62.30206
G1 X198.957 Y201.24 E62.33513
G1 X198.514 Y201.582 E62.3556
G1 X197.637 Y202.212 E62.39511
G1 X197.243 Y202.479 E62.41252
G1 X196.473 Y202.953 E62.4456
G1 X195.978 Y203.21 E62.46601
G1 X195.048 Y203.657 E62.50376
G1 X194.585 Y203.865 E62.52233
G1 X193.745 Y204.199 E62.5554
G1 X193.195 Y204.373 E62.57651
G1 X192.256 Y204.635 E62.61217
G1 X191.756 Y204.762 E62.63105
G1 X190.871 Y204.946 E62.66412
G1 X190.293 Y205.023 E62.68545
G1 X189.221 Y205.128 E62.72486
G1 X188.722 Y205.163 E62.74316
G1 X188.162 Y205.187 E62.76367
G1 X187.283 Y205.199 E62.79583
G1 X47.558 Y205.198 E67.90783
G1 X46.87 Y205.188 E67.933
G1 X46.29 Y205.163 E67.95424
G1 X45.347 Y205.091 E67.98885
G1 X44.806 Y205.037 E68.00874
G1 X43.911 Y204.908 E68.04182
G1 X43.336 Y204.781 E68.06336
G1 X42.341 Y204.527 E68.10093
G1 X41.856 Y204.39 E68.11937
G1 X40.998 Y204.106 E68.15244
G1 X40.456 Y203.882 E68.1739
G1 X39.545 Y203.469 E68.21049
G1 X39.1 Y203.254 E68.22857
G1 X38.304 Y202.825 E68.26165
G1 X37.81 Y202.511 E68.28307
G1 X36.95 Y201.922 E68.32121
G1 X36.544 Y201.629 E68.33952
G1 X35.835 Y201.068 E68.3726
G1 X35.406 Y200.674 E68.39391
G1 X34.753 Y200.035 E68.42734
G1 X34.356 Y199.627 E68.44817
G1 X33.755 Y198.952 E68.48123
G1 X33.411 Y198.505 E68.50187
G1 X32.778 Y197.624 E68.54156
G1 X32.518 Y197.24 E68.55852
G1 X32.045 Y196.47 E68.59159
G1 X31.79 Y195.978 E68.61186
G1 X31.346 Y195.056 E68.6493
G1 X31.138 Y194.594 E68.66784
G1 X30.804 Y193.754 E68.70091
G1 X30.626 Y193.192 E68.72248
G1 X30.365 Y192.256 E68.75803
G1 X30.238 Y191.756 E68.7769
G1 X30.054 Y190.871 E68.80998
G1 X29.977 Y190.293 E68.83131
G1 X29.872 Y189.224 E68.87061
G1 X29.837 Y188.727 E68.88884
G1 X29.813 Y188.164 E68.90945
G1 X29.801 Y187.283 E68.94169
G1 X29.802 Y47.558 E74.05369
G1 F2700 E69.05369
;MESH:fan duct exterior grill v2.stl
G0 F2100 X39.356 Y47.558
G0 X40.451 Y47.558
G0 X41.572 Y188.021
G0 X41.673 Y189.059
G0 X41.983 Y190.08
G0 X42.486 Y191.02
G0 X43.16 Y191.84
G0 X43.983 Y192.517
G0 X44.923 Y193.018
G0 X45.944 Y193.328
G0 X46.529 Y193.384
G0 X52.323 Y193.589
G1 F2700 E74.05369
G0 F2100 X52.323 Y193.199
;TYPE:WALL-OUTER
G1 F1200 X46.978 Y193.199 E74.24924
G1 X46.008 Y193.105 E74.2849
G1 X45.965 Y193.096 E74.2865
G1 X45.029 Y192.811 E74.3223
G1 X44.99 Y192.795 E74.32384
G1 X44.132 Y192.337 E74.35943
G1 X44.096 Y192.313 E74.36101
G1 X43.339 Y191.692 E74.39683
G1 X43.039 Y191.333 E74.41395
G1 X42.679 Y190.894 E74.43472
G1 X42.527 Y190.613 E74.44641
G1 X42.2 Y190 E74.47183
G1 X42.14 Y189.809 E74.47915
G1 X41.903 Y189.03 E74.50894
G1 X41.893 Y188.958 E74.5116
G1 X41.801 Y188.021 E74.54605
G1 X41.801 Y47 E79.70546
G1 X41.801 Y46.978 E79.70627
G1 X41.895 Y46.007 E79.74196
G1 X41.904 Y45.964 E79.74356
G1 X42.189 Y45.029 E79.77933
G1 X42.205 Y44.99 E79.78087
G1 X42.663 Y44.132 E79.81645
G1 X42.687 Y44.096 E79.81804
G1 X43.308 Y43.339 E79.85386
G1 X43.667 Y43.039 E79.87097
G1 X44.106 Y42.679 E79.89175
G1 X44.997 Y42.201 E79.92874
G1 X45.962 Y41.905 E79.96567
G1 X46.042 Y41.893 E79.96863
G1 X46.981 Y41.801 E80.00315
G1 X52.323 Y41.801 E80.19859
G1 X52.469 Y41.855 E80.20428
G1 F1227.9 X52.534 Y42.021 E80.21066
G1 F1257.1 X52.534 Y45.994 E80.34941
G1 X52.534 Y49.967 E80.48816
G1 X52.534 Y53.94 E80.62691
G1 X52.534 Y57.913 E80.76566
G1 X52.534 Y61.886 E80.90441
G1 X52.534 Y65.859 E81.04316
G1 X52.534 Y69.832 E81.18191
G1 X52.534 Y73.805 E81.32066
G1 X52.534 Y77.778 E81.45941
G1 X52.534 Y81.751 E81.59816
G1 X52.534 Y85.724 E81.73691
G1 X52.534 Y89.697 E81.87565
G1 X52.534 Y93.67 E82.0144
