;FLAVOR:Marlin
;TIME:8458
;Filament used: 9.24876m
;Layer height: 0.2
;MINX:29.416
;MINY:29.407
;MINZ:0.2
;MAXX:205.583
;MAXY:206.455
;MAXZ:7
;Generated with Cura_SteamEngine 5.0.0
M82 ;absolute extrusion mode
START_PRINT EXTRUDER_TEMP=222 BED_TEMP=60
G92 E0
G92 E0
G1 F2700 E-5
;LAYER_COUNT:35
;LAYER:0
M107
G0 F2100 X113.482 Y200.935 Z0.2
;TYPE:SKIRT
G1 F2700 E0
G1 F1200 X116.07 Y200.969 E0.09469
G1 X121.522 Y200.966 E0.29416
G1 X121.522 Y201.607 E0.31761
G1 X116.172 Y201.611 E0.51335
G1 X113.482 Y201.576 E0.61177
G1 X113.482 Y200.935 E0.63523
G0 F2100 X113.042 Y200.49
G1 F1200 X116.076 Y200.529 E0.74624
G1 X121.307 Y200.529 E0.93762
G1 X121.962 Y200.52 E0.96159
G1 X121.962 Y202.042 E1.01727
G1 X121.342 Y202.049 E1.03995
G1 X116.167 Y202.051 E1.22929
G1 X113.042 Y202.011 E1.34363
G1 X113.042 Y200.49 E1.39928
G0 F2100 X112.602 Y200.044
G1 F1200 X116.081 Y200.089 E1.52657
G1 X121.301 Y200.089 E1.71755
G1 X122.402 Y200.075 E1.75783
G1 X122.402 Y202.476 E1.84568
G1 X121.347 Y202.489 E1.88428
G1 X116.161 Y202.491 E2.07401
G1 X112.602 Y202.445 E2.20424
G1 X112.602 Y200.044 E2.29208
G0 F2100 X112.162 Y199.598
G1 F1200 X116.087 Y199.649 E2.43569
G1 X121.295 Y199.649 E2.62623
G1 X122.842 Y199.629 E2.68284
G1 X122.842 Y202.911 E2.80291
G1 X121.353 Y202.929 E2.85739
G1 X116.156 Y202.931 E3.04753
G1 X112.162 Y202.88 E3.19367
G1 X112.162 Y199.598 E3.31374
G0 F2100 X111.722 Y199.152
G1 F1200 X116.093 Y199.209 E3.47368
G1 X121.29 Y199.209 E3.66381
G1 X123.282 Y199.183 E3.7367
G1 X123.282 Y203.346 E3.88901
G1 X121.358 Y203.369 E3.9594
G1 X116.15 Y203.371 E4.14994
G1 X111.722 Y203.314 E4.31196
G1 X111.722 Y199.152 E4.46423
G0 F2100 X111.282 Y198.707
G1 F1200 X116.098 Y198.769 E4.64045
G1 X121.284 Y198.769 E4.83018
G1 X123.722 Y198.737 E4.91939
G1 X123.722 Y203.781 E5.10393
G1 X121.363 Y203.809 E5.19024
G1 X116.144 Y203.811 E5.38118
G1 X111.282 Y203.748 E5.55908
G1 X111.282 Y198.707 E5.74351
G0 F2100 X110.842 Y198.261
G1 F1200 X116.104 Y198.329 E5.93604
G1 X121.278 Y198.329 E6.12534
G1 X124.162 Y198.291 E6.23086
G1 X124.162 Y204.216 E6.44764
G1 X121.369 Y204.249 E6.54983
G1 X116.139 Y204.251 E6.74117
G1 X110.842 Y204.183 E6.93499
G1 X110.842 Y198.261 E7.15165
G0 F2100 X110.402 Y197.809
G1 F1200 X110.711 Y197.819 E7.16296
G1 X116.11 Y197.889 E7.36051
G1 X121.272 Y197.889 E7.54936
G1 X124.602 Y197.845 E7.67121
G1 X124.602 Y204.65 E7.92018
G1 X121.374 Y204.689 E8.03828
G1 X116.134 Y204.691 E8.23
G1 X110.402 Y204.617 E8.43973
G1 X110.402 Y197.809 E8.6888
G0 F2100 X109.962 Y197.356
G1 F1200 X110.716 Y197.379 E8.7164
G1 X116.115 Y197.449 E8.91395
G1 X121.267 Y197.449 E9.10244
G1 X125.042 Y197.4 E9.24056
G1 X125.042 Y205.084 E9.52169
G1 X121.379 Y205.129 E9.65572
G1 X116.128 Y205.131 E9.84783
G1 X109.962 Y205.052 E10.07344
G1 X109.962 Y197.356 E10.35501
G0 F2100 X109.522 Y196.904
G1 F1200 X110.722 Y196.939 E10.39893
G1 X116.121 Y197.009 E10.59647
G1 X121.261 Y197.009 E10.78453
G1 X125.482 Y196.953 E10.93897
G1 X125.482 Y205.517 E11.25229
G1 X121.384 Y205.569 E11.40224
G1 X116.123 Y205.571 E11.59472
G1 X109.522 Y205.482 E11.83624
G1 X109.522 Y196.904 E12.15008
G1 F2700 E7.15008
G0 F2100 X113.811 Y200.494
G0 X113.802 Y201.259
;TYPE:SUPPORT
G1 F2700 E12.15008
G1 F1200 X116.097 Y201.289 E12.23405
G1 X121.202 Y201.289 E12.42082
G1 F2700 E7.42082
;MESH:Body8.stl
G0 F2100 X121.202 Y200.524
G0 X113.049 Y200.497
G0 X109.167 Y201.289
G0 X108.072 Y201.289
G0 X107.823 Y204.956
G1 F2700 E12.42082
G0 F2100 X108.282 Y205.435
;TYPE:WALL-OUTER
G1 F1200 X108.282 Y196.873 E12.73407
G1 X99.427 Y196.51 E13.05832
G1 X90.304 Y195.906 E13.39282
G1 X81.173 Y195.072 E13.72828
G1 X72.175 Y194.021 E14.05972
G1 X67.87 Y193.439 E14.21866
G1 X64.372 Y192.931 E14.34798
G1 X61.01 Y192.399 E14.47251
G1 X56.513 Y191.651 E14.6393
G1 X55.338 Y191.394 E14.68331
G1 X53.93 Y190.973 E14.73707
G1 X52.333 Y190.327 E14.8001
G1 X51.474 Y189.892 E14.83533
G1 X50.597 Y189.382 E14.87244
G1 X49.246 Y188.444 E14.93262
G1 X47.989 Y187.377 E14.99294
G1 X46.856 Y186.209 E15.05247
G1 X45.816 Y184.906 E15.11347
G1 X45.197 Y183.988 E15.15398
G1 X44.671 Y183.089 E15.19208
G1 X44.235 Y182.229 E15.22736
G1 X43.89 Y181.442 E15.2588
G1 X43.603 Y180.694 E15.28811
G1 X43.39 Y180.052 E15.31286
G1 X43.218 Y179.455 E15.33559
G1 X43.098 Y178.971 E15.35383
G1 X43.013 Y178.566 E15.36897
G1 X42.897 Y177.943 E15.39216
G1 X42.581 Y176.049 E15.46241
G1 X42.096 Y172.905 E15.5788
G1 X41.535 Y169.047 E15.72143
G1 X40.994 Y165.066 E15.86842
G1 X40.494 Y161.043 E16.01674
G1 X39.658 Y153.25 E16.30349
G1 X38.976 Y145.266 E16.59666
G1 X38.589 Y139.451 E16.80988
G1 X38.295 Y133.528 E17.02684
G1 X38.098 Y127.707 E17.23993
G1 X37.996 Y121.83 E17.45498
G1 X38.007 Y114.272 E17.7315
G1 X38.175 Y106.794 E18.00516
G1 X38.499 Y99.311 E18.27919
G1 X38.979 Y91.825 E18.55364
G1 X39.616 Y84.351 E18.82807
G1 X40.404 Y76.895 E19.10238
G1 X40.845 Y73.267 E19.23609
G1 X41.298 Y69.804 E19.36387
G1 X41.739 Y66.662 E19.47995
G1 X42.135 Y63.989 E19.57881
G1 X42.612 Y60.932 E19.69201
G1 X42.982 Y58.686 E19.77529
G1 X43.342 Y56.611 E19.85234
G1 X43.491 Y55.847 E19.88082
G1 X43.801 Y54.611 E19.92744
G1 X44.331 Y53.121 E19.9853
G1 X45.007 Y51.669 E20.0439
G1 X45.253 Y51.249 E20.0617
G1 X45.837 Y50.264 E20.1036
G1 X46.78 Y48.968 E20.16224
G1 X47.66 Y47.948 E20.21152
G1 X48.763 Y46.872 E20.2679
G1 X50.13 Y45.787 E20.33175
G1 X50.936 Y45.247 E20.36725
G1 X51.83 Y44.72 E20.40522
G1 X52.694 Y44.276 E20.44076
G1 X53.527 Y43.903 E20.47415
G1 X55.051 Y43.363 E20.5333
G1 X56.419 Y43.021 E20.58489
G1 X57.418 Y42.834 E20.62208
G1 X60.167 Y42.39 E20.72396
G1 X63.516 Y41.883 E20.84788
G1 X67.413 Y41.33 E20.99188
G1 X71.7 Y40.769 E21.15006
G1 X80.054 Y39.826 E21.45765
G1 X88.522 Y39.067 E21.7687
G1 X94.412 Y38.658 E21.98471
G1 X100.337 Y38.343 E22.20179
G1 X106.203 Y38.128 E22.41655
G1 X112.067 Y38.009 E22.63113
G1 X118.182 Y37.986 E22.85486
G1 X124.297 Y38.069 E23.07861
G1 X130.409 Y38.256 E23.30232
G1 X136.518 Y38.545 E23.52608
G1 X142.626 Y38.94 E23.75001
G1 X148.732 Y39.438 E23.97415
G1 X154.834 Y40.04 E24.19848
G1 X160.925 Y40.744 E24.42281
G1 X169.635 Y41.929 E24.74441
G1 X173.849 Y42.579 E24.90041
G1 X175.837 Y42.902 E24.9741
G1 X178.243 Y43.313 E25.0634
G1 X178.921 Y43.442 E25.08865
G1 X179.84 Y43.656 E25.12317
G1 X180.912 Y43.973 E25.16407
G1 X182.192 Y44.463 E25.21422
G1 X183.599 Y45.149 E25.27149
G1 X185.068 Y46.058 E25.33469
G1 X186.472 Y47.142 E25.39958
G1 X187.636 Y48.24 E25.45813
G1 X188.693 Y49.445 E25.51677
G1 X189.632 Y50.741 E25.57532
G1 X190.532 Y52.283 E25.64065
G1 X191.006 Y53.288 E25.6813
G1 X191.41 Y54.331 E25.72222
G1 X191.763 Y55.477 E25.76609
G1 X191.958 Y56.321 E25.79779
G1 X192.097 Y57.066 E25.82551
G1 X192.322 Y58.362 E25.87364
G1 X192.844 Y61.675 E25.99634
G1 X193.429 Y65.644 E26.14312
G1 X194.437 Y73.363 E26.42793
G1 X195.292 Y81.192 E26.71606
G1 X195.977 Y89.031 E27.00396
G1 X196.381 Y94.975 E27.22193
G1 X196.684 Y100.849 E27.43712
G1 X196.891 Y106.717 E27.65194
G1 X197.003 Y112.561 E27.86579
G1 X196.992 Y121.015 E28.17509
G1 X196.781 Y129.538 E28.48701
G1 X196.363 Y138.147 E28.80235
G1 X195.746 Y146.674 E29.11513
G1 X194.942 Y155.035 E29.42244
G1 X193.953 Y163.329 E29.72804
G1 X192.855 Y171.098 E30.0151
G1 X191.952 Y176.728 E30.22371
G1 X191.694 Y178.248 E30.28012
G1 X191.522 Y179.141 E30.31339
G1 X191.304 Y180.064 E30.34809
G1 X190.779 Y181.633 E30.40862
G1 X190.156 Y183.027 E30.46448
G1 X189.316 Y184.511 E30.52687
G1 X188.397 Y185.82 E30.58539
G1 X187.319 Y187.077 E30.64597
G1 X186.114 Y188.23 E30.70699
G1 X184.815 Y189.252 E30.76746
G1 X183.426 Y190.14 E30.82777
G1 X181.96 Y190.889 E30.88801
G1 X181.163 Y191.228 E30.91969
G1 X180.444 Y191.494 E30.94774
G1 X179.062 Y191.88 E31.00024
G1 X178.178 Y192.06 E31.03324
G1 X177.238 Y192.226 E31.06817
G1 X174.404 Y192.678 E31.17316
G1 X171.376 Y193.137 E31.28521
G1 X160.701 Y194.548 E31.67916
G1 X152.906 Y195.379 E31.96597
G1 X145.217 Y196.033 E32.2483
G1 X135.862 Y196.606 E32.5912
G1 X130.85 Y196.782 E32.77468
G1 X126.722 Y196.929 E32.92581
G1 X126.722 Y205.49 E33.23902
G1 X136.137 Y205.161 E33.58369
G1 X145.658 Y204.582 E33.93267
G1 X153.718 Y203.9 E34.22861
G1 X161.586 Y203.063 E34.51809
G1 X169.515 Y202.049 E34.81055
G1 X173.502 Y201.473 E34.95793
G1 X177.297 Y200.887 E35.09842
G1 X179.515 Y200.514 E35.18071
G1 X180.632 Y200.298 E35.22233
G1 X181.547 Y200.081 E35.25674
G1 X182.607 Y199.779 E35.29706
G1 X183.802 Y199.377 E35.34319
G1 X185.127 Y198.848 E35.39539
G1 X185.809 Y198.542 E35.42273
G1 X185.96 Y198.552 E35.42827
G1 X187.543 Y199.237 E35.49138
G1 X189.144 Y199.781 E35.55324
G1 X190.74 Y200.137 E35.61307
G1 X192.327 Y200.263 E35.67131
G1 X193.857 Y200.11 E35.72757
G1 X194.578 Y199.925 E35.7548
G1 X195.328 Y199.646 E35.78408
G1 X196.021 Y199.299 E35.81243
G1 X196.674 Y198.884 E35.84074
G1 X197.86 Y197.876 E35.89769
G1 X198.913 Y196.63 E35.95737
G1 X199.336 Y195.956 E35.98648
G1 X199.69 Y195.225 E36.0162
G1 X199.96 Y194.468 E36.0456
G1 X200.143 Y193.675 E36.07538
G1 X200.242 Y192.885 E36.10451
G1 X200.26 Y192.063 E36.13459
G1 X200.104 Y190.593 E36.18867
G1 X200.043 Y190.253 E36.20131
G1 X199.688 Y188.83 E36.25497
G1 X199.116 Y187.242 E36.31672
G1 X199.074 Y187.144 E36.32062
G1 X198.421 Y185.687 E36.37904
G1 X198.426 Y185.531 E36.38475
G1 X198.75 Y184.746 E36.41582
G1 X199.339 Y183.065 E36.48099
G1 X199.836 Y181.204 E36.55146
G1 X199.975 Y180.551 E36.57588
G1 X200.106 Y179.839 E36.60237
G1 X200.134 Y179.69 E36.60792
G1 X200.325 Y178.58 E36.64913
G1 X200.721 Y176.175 E36.7383
G1 X201.449 Y171.504 E36.91126
G1 X202.431 Y164.513 E37.16954
G1 X203.449 Y156 E37.48322
G1 X204.267 Y147.492 E37.79593
G1 X204.906 Y138.716 E38.11786
G1 X205.334 Y129.94 E38.43932
G1 X205.552 Y121.208 E38.75889
G1 X205.562 Y112.374 E39.08209
G1 X205.45 Y106.489 E39.29744
G1 X205.241 Y100.547 E39.51497
G1 X204.927 Y94.467 E39.73771
G1 X204.517 Y88.451 E39.95832
G1 X203.836 Y80.608 E40.24635
G1 X202.981 Y72.722 E40.53656
G1 X201.95 Y64.788 E40.82927
G1 X200.766 Y56.955 E41.11911
G1 X200.59 Y55.897 E41.15835
G1 X200.441 Y55.071 E41.18905
G1 X200.144 Y53.709 E41.24006
G1 X199.438 Y51.369 E41.32948
G1 X198.543 Y49.196 E41.41546
G1 X198.552 Y49.043 E41.42107
G1 X199.237 Y47.461 E41.48414
G1 X199.781 Y45.86 E41.546
G1 X200.137 Y44.265 E41.60579
G1 X200.263 Y42.675 E41.66415
G1 X200.11 Y41.147 E41.72033
G1 X199.925 Y40.426 E41.74756
G1 X199.646 Y39.676 E41.77684
G1 X199.299 Y38.983 E41.8052
G1 X198.883 Y38.33 E41.83352
G1 X197.876 Y37.144 E41.89045
G1 X196.632 Y36.093 E41.95003
G1 X195.956 Y35.669 E41.97922
G1 X195.225 Y35.314 E42.00895
G1 X194.468 Y35.045 E42.03835
G1 X193.675 Y34.861 E42.06813
G1 X192.885 Y34.763 E42.09725
G1 X192.065 Y34.744 E42.12726
G1 X190.596 Y34.902 E42.18132
G1 X190.26 Y34.961 E42.1938
G1 X188.83 Y35.316 E42.24771
G1 X187.243 Y35.888 E42.30942
G1 X185.678 Y36.586 E42.37212
G1 X185.533 Y36.579 E42.37743
G1 X184.565 Y36.189 E42.41561
G1 X183.629 Y35.855 E42.45197
G1 X182.756 Y35.584 E42.48541
G1 X181.852 Y35.337 E42.5197
G1 X181.179 Y35.174 E42.54503
G1 X180.538 Y35.037 E42.56902
G1 X179.765 Y34.889 E42.59781
G1 X177.692 Y34.533 E42.67476
G1 X174.518 Y34.017 E42.79241
G1 X172.362 Y33.682 E42.87224
G1 X167.562 Y32.986 E43.04969
G1 X161.958 Y32.248 E43.25649
G1 X155.642 Y31.518 E43.4891
G1 X149.503 Y30.913 E43.71479
G1 X143.322 Y30.409 E43.94168
G1 X143.146 Y30.396 E43.94814
G1 X136.96 Y29.998 E44.17493
G1 X130.744 Y29.702 E44.40261
G1 X124.43 Y29.51 E44.63372
G1 X118.172 Y29.426 E44.8627
G1 X111.967 Y29.448 E45.08971
G1 X105.833 Y29.576 E45.31418
G1 X99.958 Y29.791 E45.52927
G1 X93.89 Y30.114 E45.75159
G1 X87.928 Y30.528 E45.97024
G1 X79.899 Y31.24 E46.26514
G1 X71.934 Y32.119 E46.55832
G1 X63.908 Y33.177 E46.8545
G1 X59.997 Y33.759 E46.99917
G1 X58.04 Y34.064 E47.07163
G1 X56.469 Y34.318 E47.12985
G1 X55.534 Y34.483 E47.16459
G1 X54.736 Y34.639 E47.19434
G1 X53.245 Y34.979 E47.25029
G1 X51.878 Y35.383 E47.30244
G1 X50.484 Y35.898 E47.35681
G1 X49.838 Y36.169 E47.38244
G1 X49.194 Y36.459 E47.40828
G1 X49.04 Y36.45 E47.41393
G1 X47.459 Y35.766 E47.47695
G1 X45.858 Y35.223 E47.5388
G1 X44.263 Y34.867 E47.59859
G1 X42.675 Y34.742 E47.65687
G1 X41.146 Y34.894 E47.71309
G1 X40.425 Y35.08 E47.74033
G1 X39.675 Y35.359 E47.7696
G1 X38.983 Y35.705 E47.79791
G1 X38.33 Y36.121 E47.82624
G1 X37.144 Y37.128 E47.88316
G1 X36.091 Y38.374 E47.94285
G1 X35.669 Y39.048 E47.97194
G1 X35.314 Y39.779 E48.00167
G1 X35.045 Y40.537 E48.0311
G1 X34.86 Y41.329 E48.06085
G1 X34.763 Y42.119 E48.08997
G1 X34.744 Y42.941 E48.12006
G1 X34.902 Y44.409 E48.17407
G1 X34.961 Y44.745 E48.18655
G1 X35.316 Y46.174 E48.24043
G1 X35.888 Y47.762 E48.30218
G1 X36.393 Y48.894 E48.34753
G1 X36.581 Y49.312 E48.3643
G1 X36.579 Y49.47 E48.37008
G1 X36.03 Y50.862 E48.42482
G1 X35.612 Y52.15 E48.47437
G1 X35.114 Y54.127 E48.54896
G1 X34.807 Y55.712 E48.60802
G1 X34.368 Y58.315 E48.7046
G1 X33.914 Y61.12 E48.80856
G1 X33.341 Y64.926 E48.94938
G1 X32.991 Y67.39 E49.04043
G1 X32.598 Y70.304 E49.14801
G1 X32.226 Y73.24 E49.25628
G1 X31.827 Y76.6 E49.38008
G1 X31.462 Y79.949 E49.50333
G1 X31.085 Y83.702 E49.64133
G1 X30.752 Y87.415 E49.77772
G1 X30.425 Y91.506 E49.92787
G1 X30.149 Y95.527 E50.07533
G1 X29.898 Y99.898 E50.23551
G1 X29.706 Y104.168 E50.39189
G1 X29.469 Y112.873 E50.71049
G1 X29.436 Y121.61 E51.03015
G1 X29.541 Y127.922 E51.26111
G1 X29.744 Y133.934 E51.48119
G1 X30.041 Y139.894 E51.69952
G1 X30.44 Y145.91 E51.9201
G1 X31.078 Y153.421 E52.19589
G1 X31.891 Y161.138 E52.47979
G1 X32.861 Y168.821 E52.76311
G1 X33.159 Y170.976 E52.8427
G1 X33.816 Y175.427 E53.00731
G1 X34.134 Y177.455 E53.08242
G1 X34.341 Y178.705 E53.12877
G1 X34.623 Y180.256 E53.18645
G1 X34.759 Y180.88 E53.20981
G1 X35.01 Y181.877 E53.24743
G1 X35.362 Y183.041 E53.29192
G1 X35.824 Y184.321 E53.34171
G1 X36.454 Y185.792 E53.40025
G1 X36.452 Y185.963 E53.40651
G1 X35.767 Y187.543 E53.46951
G1 X35.223 Y189.144 E53.53138
G1 X34.868 Y190.74 E53.5912
G1 X34.742 Y192.33 E53.64955
G1 X34.894 Y193.858 E53.70573
G1 X35.08 Y194.578 E53.73294
G1 X35.358 Y195.329 E53.76223
G1 X35.703 Y196.019 E53.79046
G1 X36.119 Y196.672 E53.81879
G1 X37.127 Y197.858 E53.87573
G1 X37.77 Y198.403 E53.90657
G1 X38.372 Y198.911 E53.93539
G1 X39.048 Y199.336 E53.9646
G1 X39.779 Y199.69 E53.99432
G1 X40.537 Y199.96 E54.02376
G1 X41.329 Y200.144 E54.05351
G1 X41.993 Y200.225 E54.07798
G1 X42.245 Y200.245 E54.08723
G1 X42.939 Y200.26 E54.11262
G1 X44.408 Y200.104 E54.16667
G1 X44.747 Y200.043 E54.17927
G1 X46.187 Y199.684 E54.23357
G1 X47.658 Y199.153 E54.29079
G1 X47.879 Y199.063 E54.29952
G1 X49.255 Y198.445 E54.3547
G1 X49.388 Y198.398 E54.35987
G1 X49.453 Y198.412 E54.3623
G1 X51.343 Y199.138 E54.43637
G1 X52.977 Y199.626 E54.49876
G1 X53.965 Y199.865 E54.53595
G1 X54.945 Y200.066 E54.57255
G1 X59.419 Y200.813 E54.73851
G1 X62.842 Y201.351 E54.86528
G1 X67.074 Y201.968 E55.02175
G1 X71.626 Y202.578 E55.18978
G1 X80.426 Y203.599 E55.51389
G1 X80.477 Y203.602 E55.51576
G1 X89.446 Y204.424 E55.84528
G1 X99.041 Y205.062 E56.1971
G1 X108.282 Y205.435 E56.53547
G0 F2100 X107.842 Y204.977
;TYPE:WALL-INNER
G1 F1200 X107.842 Y197.295 E56.81652
G1 X99.398 Y196.949 E57.12571
G1 X90.264 Y196.344 E57.46062
G1 X81.133 Y195.51 E57.79608
G1 X72.117 Y194.457 E58.12819
G1 X67.807 Y193.875 E58.2873
G1 X64.303 Y193.365 E58.41685
G1 X60.715 Y192.796 E58.54976
G1 X56.419 Y192.081 E58.7091
G1 X55.245 Y191.825 E58.75306
G1 X53.824 Y191.402 E58.8073
G1 X53.765 Y191.381 E58.80959
G1 X52.185 Y190.742 E58.87195
G1 X52.135 Y190.719 E58.87396
G1 X51.253 Y190.272 E58.91014
G1 X50.376 Y189.762 E58.94726
G1 X50.018 Y189.517 E58.96313
G1 X49.012 Y188.819 E59.00793
G1 X48.962 Y188.78 E59.01025
G1 X47.72 Y187.727 E59.06982
G1 X47.448 Y187.451 E59.084
G1 X46.54 Y186.515 E59.13171
G1 X46.312 Y186.232 E59.145
G1 X45.463 Y185.169 E59.19478
G1 X44.839 Y184.246 E59.23554
G1 X44.288 Y183.305 E59.27543
G1 X43.832 Y182.406 E59.31231
G1 X43.479 Y181.6 E59.34451
G1 X43.185 Y180.832 E59.37459
G1 X42.967 Y180.174 E59.39995
G1 X42.791 Y179.561 E59.42329
G1 X42.667 Y179.061 E59.44213
G1 X42.581 Y178.646 E59.45764
G1 X42.463 Y178.015 E59.48113
G1 X42.146 Y176.116 E59.55156
G1 X41.66 Y172.969 E59.66807
