;FLAVOR:Marlin
;TIME:12870
;Filament used: 24.4619m
;Layer height: 0.2
;MINX:30.16
;MINY:30.421
;MINZ:0.2
;MAXX:204.318
;MAXY:204.579
;MAXZ:77.6
;Generated with Cura_SteamEngine 5.0.0
M82 ;absolute extrusion mode
START_PRINT EXTRUDER_TEMP=222 BED_TEMP=60
G92 E0
G92 E0
G1 F2700 E-5
;LAYER_COUNT:388
;LAYER:0
M107
G0 F2100 X35.177 Y35.167 Z0.2
G0 X30.162 Y47.514
;TYPE:SKIRT
G1 F2700 E0
G1 F1200 X30.175 Y46.767 E0.02733
G1 X30.228 Y45.856 E0.06072
G1 X30.323 Y44.964 E0.09354
G1 X30.411 Y44.299 E0.11808
G1 X30.574 Y43.371 E0.15255
G1 X30.886 Y42.239 E0.19551
G1 X31.196 Y41.332 E0.23058
G1 X31.41 Y40.755 E0.2531
G1 X31.775 Y39.886 E0.28758
G1 X32.343 Y38.832 E0.33139
G1 X32.806 Y38.082 E0.36363
G1 X33.169 Y37.524 E0.38799
G1 X33.715 Y36.757 E0.42243
G1 X34.532 Y35.821 E0.46789
G1 X35.177 Y35.167 E0.50149
G1 X35.624 Y34.735 E0.52424
G1 X36.329 Y34.11 E0.55871
G1 X37.299 Y33.403 E0.60262
G1 X38.127 Y32.875 E0.63855
G1 X38.688 Y32.539 E0.66248
G1 X39.516 Y32.09 E0.69694
G1 X40.577 Y31.638 E0.73913
G1 X41.434 Y31.33 E0.77245
G1 X42.049 Y31.127 E0.79614
G1 X42.955 Y30.87 E0.8306
G1 X44.095 Y30.661 E0.873
G1 X45.07 Y30.541 E0.90894
G1 X45.754 Y30.477 E0.93407
G1 X46.639 Y30.43 E0.9665
G1 X47.383 Y30.421 E0.99372
G1 X187.032 Y30.421 E6.10294
G1 X187.972 Y30.436 E6.13734
G1 X188.883 Y30.489 E6.17072
G1 X189.715 Y30.576 E6.20133
G1 X190.362 Y30.658 E6.22519
G1 X191.29 Y30.816 E6.25963
G1 X192.51 Y31.151 E6.30592
G1 X193.348 Y31.437 E6.33831
G1 X193.935 Y31.652 E6.36118
G1 X194.805 Y32.013 E6.39564
G1 X195.88 Y32.588 E6.44025
G1 X196.697 Y33.092 E6.47537
G1 X197.23 Y33.44 E6.49866
G1 X197.997 Y33.988 E6.53314
G1 X198.909 Y34.784 E6.57743
G1 X199.575 Y35.44 E6.61163
G1 X200.004 Y35.884 E6.63422
G1 X200.629 Y36.589 E6.66869
G1 X201.331 Y37.552 E6.71229
G1 X201.835 Y38.34 E6.74652
G1 X202.176 Y38.905 E6.77066
G1 X202.628 Y39.732 E6.80514
G1 X203.107 Y40.855 E6.84981
G1 X203.423 Y41.74 E6.88419
G1 X203.613 Y42.316 E6.90638
G1 X203.87 Y43.222 E6.94083
G1 X204.078 Y44.353 E6.98291
G1 X204.197 Y45.322 E7.01863
G1 X204.262 Y46.02 E7.04427
G1 X204.309 Y46.9 E7.07651
G1 X204.318 Y47.644 E7.10374
G1 X204.316 Y187.486 E12.22002
G1 X204.303 Y188.233 E12.24735
G1 X204.25 Y189.144 E12.28074
G1 X204.157 Y190.022 E12.31304
G1 X204.07 Y190.686 E12.33754
G1 X203.908 Y191.614 E12.37201
G1 X203.586 Y192.778 E12.41619
G1 X203.288 Y193.648 E12.44984
G1 X203.056 Y194.271 E12.47416
G1 X202.69 Y195.139 E12.50862
G1 X202.125 Y196.186 E12.55215
G1 X201.657 Y196.943 E12.58471
G1 X201.327 Y197.451 E12.60688
G1 X200.781 Y198.218 E12.64132
G1 X200.011 Y199.107 E12.68435
G1 X199.3 Y199.835 E12.72158
G1 X198.847 Y200.272 E12.74461
G1 X198.141 Y200.896 E12.77908
G1 X197.18 Y201.596 E12.82258
G1 X196.351 Y202.124 E12.85854
G1 X195.763 Y202.475 E12.88359
G1 X194.935 Y202.923 E12.91804
G1 X193.869 Y203.375 E12.9604
G1 X193.009 Y203.681 E12.99379
G1 X192.385 Y203.885 E13.01781
G1 X191.478 Y204.14 E13.05228
G1 X190.345 Y204.345 E13.09441
G1 X189.421 Y204.457 E13.12846
G1 X188.73 Y204.522 E13.15385
G1 X187.839 Y204.57 E13.1865
G1 X187.095 Y204.579 E13.21372
G1 X47.253 Y204.577 E18.33
G1 X46.506 Y204.564 E18.35734
G1 X45.595 Y204.511 E18.39072
G1 X44.703 Y204.416 E18.42354
G1 X44.038 Y204.328 E18.44808
G1 X43.11 Y204.165 E18.48255
G1 X41.978 Y203.853 E18.52551
G1 X41.032 Y203.529 E18.5621
G1 X40.451 Y203.311 E18.5848
G1 X39.583 Y202.942 E18.61931
G1 X38.584 Y202.403 E18.66084
G1 X37.796 Y201.917 E18.69471
G1 X37.232 Y201.548 E18.71937
G1 X36.466 Y200.999 E18.75385
G1 X35.555 Y200.202 E18.79813
G1 X34.906 Y199.562 E18.83148
G1 X34.474 Y199.115 E18.85423
G1 X33.849 Y198.41 E18.8887
G1 X33.145 Y197.444 E18.93243
G1 X32.606 Y196.599 E18.9691
G1 X32.268 Y196.033 E18.99322
G1 X31.82 Y195.204 E19.02769
G1 X31.366 Y194.135 E19.07018
G1 X31.068 Y193.299 E19.10265
G1 X30.865 Y192.683 E19.12638
G1 X30.608 Y191.777 E19.16084
G1 X30.4 Y190.645 E19.20295
G1 X30.28 Y189.67 E19.23889
G1 X30.216 Y188.987 E19.26399
G1 X30.169 Y188.1 E19.29648
G1 X30.16 Y187.356 E19.3237
G1 X30.162 Y47.514 E24.43998
G0 F2100 X30.602 Y47.522
G1 F1200 X30.615 Y46.775 E24.46732
G1 X30.666 Y45.899 E24.49942
G1 X30.759 Y45.022 E24.53169
G1 X30.847 Y44.357 E24.55623
G1 X31.008 Y43.447 E24.59004
G1 X31.304 Y42.379 E24.63059
G1 X31.608 Y41.485 E24.66514
G1 X31.822 Y40.908 E24.68765
G1 X32.181 Y40.057 E24.72144
G1 X32.718 Y39.061 E24.76284
G1 X33.174 Y38.322 E24.79461
G1 X33.537 Y37.764 E24.81897
G1 X34.074 Y37.013 E24.85274
G1 X34.847 Y36.129 E24.89571
G1 X35.483 Y35.484 E24.92885
G1 X35.93 Y35.052 E24.95159
G1 X36.621 Y34.439 E24.98539
G1 X37.539 Y33.773 E25.02688
G1 X38.353 Y33.253 E25.06222
G1 X38.914 Y32.917 E25.08614
G1 X39.726 Y32.477 E25.11993
G1 X40.728 Y32.051 E25.15977
G1 X41.572 Y31.748 E25.19258
G1 X42.187 Y31.545 E25.21627
G1 X43.075 Y31.294 E25.25003
G1 X44.152 Y31.097 E25.29009
G1 X45.111 Y30.979 E25.32544
G1 X45.795 Y30.915 E25.35057
G1 X46.645 Y30.87 E25.38172
G1 X47.383 Y30.861 E25.40872
G1 X187.032 Y30.861 E30.51794
G1 X187.964 Y30.876 E30.55204
G1 X188.84 Y30.927 E30.58414
G1 X189.659 Y31.013 E30.61427
G1 X190.306 Y31.095 E30.63813
G1 X191.216 Y31.25 E30.67191
G1 X192.369 Y31.568 E30.71567
G1 X193.196 Y31.85 E30.74763
G1 X193.783 Y32.065 E30.7705
G1 X194.636 Y32.42 E30.80431
G1 X195.651 Y32.964 E30.84644
G1 X196.457 Y33.46 E30.88106
G1 X196.99 Y33.808 E30.90435
G1 X197.74 Y34.346 E30.93812
G1 X198.601 Y35.099 E30.97997
G1 X199.258 Y35.746 E31.01371
G1 X199.687 Y36.19 E31.03629
G1 X200.299 Y36.881 E31.07006
G1 X200.962 Y37.792 E31.11129
G1 X201.459 Y38.568 E31.145
G1 X201.8 Y39.133 E31.16915
G1 X202.242 Y39.943 E31.20291
G1 X202.694 Y41.005 E31.24513
G1 X203.005 Y41.878 E31.27904
G1 X203.195 Y42.454 E31.30123
G1 X203.446 Y43.342 E31.33499
G1 X203.642 Y44.41 E31.37472
G1 X203.759 Y45.363 E31.40985
G1 X203.824 Y46.061 E31.43549
G1 X203.869 Y46.906 E31.46645
G1 X203.878 Y47.644 E31.49345
G1 X203.876 Y187.478 E36.60944
G1 X203.863 Y188.225 E36.63678
G1 X203.812 Y189.101 E36.66888
G1 X203.721 Y189.965 E36.70067
G1 X203.634 Y190.629 E36.72517
G1 X203.474 Y191.538 E36.75893
G1 X203.169 Y192.638 E36.8007
G1 X202.876 Y193.494 E36.8338
G1 X202.644 Y194.117 E36.85812
G1 X202.284 Y194.968 E36.89193
G1 X201.75 Y195.956 E36.93302
G1 X201.288 Y196.703 E36.96515
G1 X200.958 Y197.211 E36.98731
G1 X200.422 Y197.963 E37.0211
G1 X199.694 Y198.802 E37.06174
G1 X198.994 Y199.518 E37.09838
G1 X198.541 Y199.955 E37.1214
G1 X197.849 Y200.567 E37.1552
G1 X196.94 Y201.227 E37.1963
G1 X196.126 Y201.746 E37.23162
G1 X195.538 Y202.097 E37.25667
G1 X194.725 Y202.536 E37.29048
G1 X193.719 Y202.962 E37.33045
G1 X192.872 Y203.263 E37.36333
G1 X192.248 Y203.467 E37.38735
G1 X191.359 Y203.716 E37.42113
G1 X190.289 Y203.909 E37.46091
G1 X189.379 Y204.019 E37.49444
G1 X188.688 Y204.084 E37.51984
G1 X187.833 Y204.13 E37.55116
G1 X187.095 Y204.139 E37.57817
G1 X47.261 Y204.137 E42.69415
G1 X46.514 Y204.124 E42.72149
G1 X45.638 Y204.073 E42.75359
G1 X44.761 Y203.98 E42.78586
G1 X44.096 Y203.892 E42.8104
G1 X43.186 Y203.731 E42.84421
G1 X42.118 Y203.435 E42.88476
G1 X41.186 Y203.117 E42.92079
G1 X40.605 Y202.899 E42.94349
G1 X39.756 Y202.537 E42.97726
G1 X38.812 Y202.027 E43.01651
G1 X38.037 Y201.548 E43.04984
G1 X37.473 Y201.179 E43.0745
G1 X36.723 Y200.641 E43.10827
G1 X35.862 Y199.887 E43.15014
G1 X35.223 Y199.256 E43.183
G1 X34.791 Y198.809 E43.20574
G1 X34.178 Y198.118 E43.23954
G1 X33.514 Y197.205 E43.28084
G1 X32.984 Y196.373 E43.31693
G1 X32.646 Y195.807 E43.34105
G1 X32.207 Y194.995 E43.37482
G1 X31.78 Y193.985 E43.41494
G1 X31.486 Y193.161 E43.44695
G1 X31.283 Y192.545 E43.47068
G1 X31.032 Y191.657 E43.50444
G1 X30.837 Y190.588 E43.5442
G1 X30.718 Y189.629 E43.57955
G1 X30.654 Y188.946 E43.60465
G1 X30.609 Y188.094 E43.63587
G1 X30.6 Y187.356 E43.66287
G1 X30.602 Y47.522 E48.77886
G0 F2100 X31.042 Y47.529
G1 F1200 X31.055 Y46.782 E48.80619
G1 X31.104 Y45.943 E48.83694
G1 X31.195 Y45.079 E48.86872
G1 X31.283 Y44.414 E48.89326
G1 X31.441 Y43.524 E48.92634
G1 X31.721 Y42.518 E48.96454
G1 X32.021 Y41.638 E48.99856
G1 X32.235 Y41.061 E49.02107
G1 X32.586 Y40.228 E49.05414
G1 X33.094 Y39.29 E49.09317
G1 X33.543 Y38.562 E49.12446
G1 X33.906 Y38.004 E49.14882
G1 X34.432 Y37.269 E49.18189
G1 X35.161 Y36.436 E49.22238
G1 X35.789 Y35.8 E49.25508
G1 X36.236 Y35.368 E49.27783
G1 X36.913 Y34.769 E49.3109
G1 X37.778 Y34.142 E49.34999
G1 X38.579 Y33.63 E49.38477
G1 X39.14 Y33.294 E49.40869
G1 X39.935 Y32.865 E49.44174
G1 X40.879 Y32.464 E49.47927
G1 X41.71 Y32.166 E49.51157
G1 X42.325 Y31.963 E49.53526
G1 X43.195 Y31.718 E49.56833
G1 X44.208 Y31.534 E49.606
G1 X45.152 Y31.417 E49.6408
G1 X45.836 Y31.353 E49.66593
G1 X46.651 Y31.31 E49.69579
G1 X47.383 Y31.301 E49.72257
G1 X187.032 Y31.301 E54.83179
G1 X187.957 Y31.316 E54.86564
G1 X188.796 Y31.365 E54.89639
G1 X189.604 Y31.449 E54.92611
G1 X190.251 Y31.531 E54.94997
G1 X191.142 Y31.684 E54.98305
G1 X192.229 Y31.985 E55.02431
G1 X193.045 Y32.263 E55.05585
G1 X193.632 Y32.478 E55.07872
G1 X194.466 Y32.827 E55.1118
G1 X195.423 Y33.34 E55.15152
G1 X196.216 Y33.828 E55.18559
G1 X196.749 Y34.176 E55.20888
G1 X197.484 Y34.704 E55.24199
G1 X198.294 Y35.414 E55.2814
G1 X198.942 Y36.052 E55.31467
G1 X199.371 Y36.496 E55.33726
G1 X199.969 Y37.173 E55.3703
G1 X200.593 Y38.032 E55.40915
G1 X201.082 Y38.795 E55.4423
G1 X201.423 Y39.36 E55.46645
G1 X201.855 Y40.154 E55.49952
G1 X202.28 Y41.155 E55.53931
G1 X202.588 Y42.015 E55.57273
G1 X202.778 Y42.591 E55.59492
G1 X203.023 Y43.462 E55.62802
G1 X203.206 Y44.467 E55.66539
G1 X203.321 Y45.403 E55.6999
G1 X203.386 Y46.101 E55.72554
G1 X203.429 Y46.912 E55.75526
G1 X203.438 Y47.644 E55.78204
G1 X203.436 Y187.471 E60.89777
G1 X203.423 Y188.218 E60.92511
G1 X203.374 Y189.057 E60.95585
G1 X203.284 Y189.908 E60.98716
G1 X203.197 Y190.572 E61.01166
G1 X203.04 Y191.462 E61.04473
G1 X202.752 Y192.498 E61.08407
G1 X202.463 Y193.341 E61.11667
G1 X202.231 Y193.964 E61.14099
G1 X201.879 Y194.796 E61.17405
G1 X201.374 Y195.727 E61.2128
G1 X200.919 Y196.463 E61.24445
G1 X200.589 Y196.971 E61.26662
G1 X200.064 Y197.707 E61.29969
G1 X199.378 Y198.496 E61.33794
G1 X198.689 Y199.201 E61.37401
G1 X198.236 Y199.638 E61.39704
G1 X197.558 Y200.237 E61.43014
G1 X196.701 Y200.858 E61.46886
G1 X195.9 Y201.368 E61.5036
G1 X195.312 Y201.719 E61.52865
G1 X194.516 Y202.148 E61.56174
G1 X193.568 Y202.548 E61.59938
G1 X192.736 Y202.845 E61.6317
G1 X192.112 Y203.049 E61.65572
G1 X191.241 Y203.292 E61.68881
G1 X190.233 Y203.472 E61.72627
G1 X189.338 Y203.581 E61.75925
G1 X188.647 Y203.646 E61.78465
G1 X187.827 Y203.69 E61.81469
G1 X187.095 Y203.699 E61.84147
G1 X47.268 Y203.697 E66.95721
G1 X46.521 Y203.684 E66.98454
G1 X45.682 Y203.635 E67.01529
G1 X44.818 Y203.544 E67.04707
G1 X44.153 Y203.456 E67.07161
G1 X43.263 Y203.298 E67.10469
G1 X42.257 Y203.018 E67.14289
G1 X41.341 Y202.705 E67.17831
G1 X40.76 Y202.487 E67.20101
G1 X39.928 Y202.132 E67.2341
G1 X39.041 Y201.651 E67.27102
G1 X38.278 Y201.18 E67.30383
G1 X37.714 Y200.811 E67.32848
G1 X36.98 Y200.283 E67.36156
G1 X36.17 Y199.572 E67.401
G1 X35.539 Y198.95 E67.43341
G1 X35.107 Y198.503 E67.45616
G1 X34.508 Y197.826 E67.48923
G1 X33.884 Y196.965 E67.52813
G1 X33.361 Y196.148 E67.56362
G1 X33.023 Y195.582 E67.58774
G1 X32.595 Y194.786 E67.62081
G1 X32.193 Y193.835 E67.65858
G1 X31.903 Y193.024 E67.69009
G1 X31.7 Y192.408 E67.71382
G1 X31.456 Y191.537 E67.74692
G1 X31.273 Y190.531 E67.78433
G1 X31.157 Y189.587 E67.81912
G1 X31.093 Y188.904 E67.84422
G1 X31.049 Y188.088 E67.87412
G1 X31.04 Y187.356 E67.9009
G1 X31.042 Y47.529 E73.01663
G1 F2700 E68.01663
;MESH:fan duct exterior section v3.stl
G0 F2100 X42.85 Y47.529
G0 X42.811 Y188.036
G0 X42.944 Y189.025
G0 X43.337 Y189.973
G0 X43.963 Y190.786
G0 X44.78 Y191.41
G0 X45.729 Y191.801
G0 X46.523 Y191.903
G0 X187.821 Y192.085
G1 F2700 E73.01663
G0 F2100 X187.77 Y191.698
;TYPE:WALL-OUTER
G1 F1200 X46.74 Y191.699 E78.17638
G1 X46.711 Y191.698 E78.17744
G1 X45.805 Y191.581 E78.21086
G1 X45.758 Y191.567 E78.21265
G1 X44.919 Y191.222 E78.24584
G1 X44.869 Y191.193 E78.24796
G1 X44.148 Y190.641 E78.28118
G1 X43.871 Y190.294 E78.29743
G1 X43.552 Y189.881 E78.31652
G1 X43.439 Y189.627 E78.32669
G1 X43.173 Y188.983 E78.35218
G1 X43.155 Y188.885 E78.35583
G1 X43.041 Y188.034 E78.38724
G1 X43.04 Y47.001 E83.54709
G1 X43.041 Y46.972 E83.54816
G1 X43.159 Y46.067 E83.58155
G1 X43.173 Y46.019 E83.58338
G1 X43.517 Y45.18 E83.61655
G1 X43.546 Y45.13 E83.61867
G1 X44.098 Y44.409 E83.65189
G1 X44.446 Y44.131 E83.66818
G1 X44.873 Y43.802 E83.68791
G1 X45.109 Y43.701 E83.6973
G1 X45.756 Y43.433 E83.72292
G1 X45.853 Y43.415 E83.72653
G1 X46.708 Y43.302 E83.75808
G1 X187.738 Y43.3 E88.91783
G1 X187.767 Y43.302 E88.91889
G1 X188.665 Y43.418 E88.95202
G1 X188.72 Y43.433 E88.9541
G1 X189.559 Y43.778 E88.98729
G1 X189.609 Y43.807 E88.98941
G1 X190.33 Y44.359 E89.02263
G1 X190.608 Y44.707 E89.03892
G1 X190.937 Y45.134 E89.05865
G1 X191.038 Y45.37 E89.06804
G1 X191.307 Y46.017 E89.09367
G1 X191.324 Y46.114 E89.09728
G1 X191.437 Y46.966 E89.12872
G1 X191.438 Y188.024 E94.28949
G1 X191.321 Y188.926 E94.32277
G1 X191.306 Y188.981 E94.32485
G1 X190.961 Y189.82 E94.35804
G1 X190.932 Y189.87 E94.36016
G1 X190.38 Y190.591 E94.39338
G1 X190.032 Y190.869 E94.40967
G1 X189.605 Y191.199 E94.42942
G1 X189.37 Y191.299 E94.43876
G1 X188.722 Y191.568 E94.46443
G1 X188.625 Y191.585 E94.46803
G1 X187.77 Y191.698 E94.49959
G0 F2100 X187.682 Y192.199
;TYPE:WALL-INNER
G1 F942.9 X46.796 Y192.199 E101.05983
G1 F947.9 X46.648 Y192.191 E101.06669
G1 X45.774 Y192.082 E101.10749
G1 F953.1 X45.57 Y192.024 E101.11726
G1 F956.5 X45.238 Y191.893 E101.13364
G1 F941.2 X44.905 Y191.761 E101.15035
G1 F951.4 X44.623 Y191.621 E101.16488
G1 F970.6 X44.57 Y191.584 E101.1678
G1 F958.3 X44.349 Y191.423 E101.18033
G1 F937.8 X44.128 Y191.262 E101.19313
G1 F947.9 X43.849 Y191.032 E101.20988
G1 F958.3 X43.66 Y190.817 E101.22299
G1 F937.8 X43.471 Y190.602 E101.23639
G1 X43.317 Y190.392 E101.24858
G1 F960 X43.162 Y190.181 E101.26056
G1 F949.6 X42.973 Y189.819 E101.27944
G1 F939.5 X42.84 Y189.482 E101.29637
G1 F956.5 X42.707 Y189.145 E101.31299
G1 F951.4 X42.658 Y188.951 E101.32223
G1 F946.2 X42.547 Y188.09 E101.36251
G1 F947.9 X42.54 Y187.945 E101.36923
G1 F942.9 X42.54 Y47.057 E107.92957
G1 F946.2 X42.542 Y47.001 E107.93217
G1 F951.4 X42.548 Y46.908 E107.93647
G1 F947.9 X42.658 Y46.035 E107.97722
G1 F953.1 X42.715 Y45.831 E107.98698
G1 F956.5 X42.846 Y45.5 E108.00332
G1 F939.5 X42.977 Y45.169 E108.01995
G1 F951.4 X43.118 Y44.884 E108.03463
G1 F970.6 X43.155 Y44.831 E108.03755
G1 F958.3 X43.316 Y44.61 E108.05008
G1 F937.8 X43.477 Y44.389 E108.06288
G1 F947.9 X43.707 Y44.11 E108.07962
G1 F958.3 X43.922 Y43.921 E108.09274
G1 F937.8 X44.138 Y43.731 E108.10621
G1 X44.346 Y43.578 E108.11829
G1 F958.3 X44.555 Y43.425 E108.13016
G1 F949.6 X44.916 Y43.236 E108.149
G1 F939.5 X45.255 Y43.102 E108.16603
G1 F956.5 X45.594 Y42.967 E108.18278
G1 F953.1 X45.787 Y42.918 E108.19195
G1 F946.2 X46.652 Y42.808 E108.23241
G1 F947.9 X46.796 Y42.801 E108.23909
G1 F944.5 X54.623 Y42.801 E108.6029
G1 X62.45 Y42.801 E108.9667
G1 X70.277 Y42.801 E109.33051
G1 X78.104 Y42.801 E109.69432
G1 X85.931 Y42.801 E110.05812
G1 X93.758 Y42.801 E110.42193
G1 X101.585 Y42.801 E110.78574
G1 X109.412 Y42.801 E111.14955
G1 X117.239 Y42.801 E111.51335
G1 X125.066 Y42.801 E111.87716
G1 X132.893 Y42.801 E112.24097
G1 X140.72 Y42.801 E112.60477
G1 X148.547 Y42.801 E112.96858
G1 X156.374 Y42.801 E113.33239
G1 X164.201 Y42.801 E113.6962
G1 X172.028 Y42.801 E114.06
G1 X179.855 Y42.801 E114.42381
G1 X187.682 Y42.801 E114.78762
G1 F949.6 X187.83 Y42.809 E114.79447
G1 X188.729 Y42.923 E114.83636
G1 F954.8 X188.908 Y42.976 E114.84495
G1 F956.5 X189.241 Y43.108 E114.86139
G1 F939.5 X189.574 Y43.24 E114.87813
G1 F953.1 X189.856 Y43.378 E114.89259
G1 F972.4 X189.908 Y43.416 E114.8955
G1 F958.3 X190.129 Y43.577 E114.90803
G1 F937.8 X190.35 Y43.738 E114.92083
G1 F947.9 X190.63 Y43.967 E114.93758
G1 F956.5 X190.819 Y44.183 E114.95075
G1 F936.2 X191.008 Y44.399 E114.96421
G1 F937.8 X191.161 Y44.607 E114.9763
G1 F958.3 X191.314 Y44.816 E114.98817
G1 F949.6 X191.504 Y45.177 E115.00703
