;FLAVOR:Marlin
;TIME:4387
;Filament used: 4.88212m
;Layer height: 0.2
;MINX:33.853
;MINY:33.853
;MINZ:0.2
;MAXX:200.281
;MAXY:201.142
;MAXZ:7
;Generated with Cura_SteamEngine 5.0.0
M82 ;absolute extrusion mode
START_PRINT EXTRUDER_TEMP=222 BED_TEMP=60
G92 E0
G92 E0
G1 F2700 E-5
;LAYER_COUNT:35
;LAYER:0
M107
G0 F2100 X109.96 Y197.354 Z0.2
;TYPE:SKIRT
G1 F2700 E0
G1 F1200 X110.714 Y197.377 E0.0276
G1 X116.113 Y197.447 E0.22514
G1 X121.285 Y197.447 E0.41437
G1 X125.04 Y197.399 E0.55176
G1 X125.04 Y198.08 E0.57667
G1 X121.299 Y198.127 E0.71355
G1 X116.144 Y198.128 E0.90216
G1 X109.96 Y198.044 E1.12843
G1 X109.96 Y197.354 E1.15367
G0 F2100 X109.52 Y196.902
G1 F1200 X110.72 Y196.937 E1.19759
G1 X116.119 Y197.007 E1.39514
G1 X121.28 Y197.007 E1.58396
G1 X125.48 Y196.952 E1.73763
G1 X125.48 Y198.514 E1.79478
G1 X121.303 Y198.567 E1.94761
G1 X116.138 Y198.568 E2.13658
G1 X109.948 Y198.484 E2.36307
G1 X109.52 Y198.469 E2.37874
G1 X109.52 Y196.902 E2.43607
G1 F2700 E-2.56393
;MESH:fan interior roof attachment.stl
G0 F2100 X108.076 Y197.065
G0 X107.821 Y197.952
G1 F2700 E2.43607
G0 F2100 X108.28 Y198.43
;TYPE:WALL-OUTER
G1 F1200 X108.28 Y196.871 E2.49311
G1 X99.358 Y196.504 E2.8198
G1 X90.301 Y195.904 E3.15189
G1 X81.172 Y195.07 E3.48728
G1 X72.174 Y194.019 E3.81872
G1 X67.868 Y193.437 E3.97769
G1 X64.37 Y192.929 E4.10701
G1 X61.007 Y192.397 E4.23158
G1 X56.508 Y191.65 E4.39843
G1 X55.942 Y191.536 E4.41956
G1 X55.315 Y191.388 E4.44313
G1 X53.928 Y190.973 E4.4961
G1 X53.147 Y190.679 E4.52663
G1 X52.315 Y190.318 E4.55981
G1 X51.472 Y189.89 E4.5944
G1 X50.591 Y189.377 E4.6317
G1 X49.261 Y188.455 E4.69091
G1 X47.997 Y187.385 E4.7515
G1 X46.854 Y186.207 E4.81155
G1 X45.901 Y185.014 E4.86741
G1 X45.616 Y184.61 E4.8855
G1 X45.195 Y183.986 E4.91304
G1 X44.669 Y183.087 E4.95115
G1 X44.233 Y182.226 E4.98646
G1 X43.887 Y181.44 E5.01788
G1 X43.599 Y180.69 E5.04727
G1 X43.388 Y180.049 E5.07196
G1 X43.215 Y179.453 E5.09466
G1 X43.096 Y178.969 E5.1129
G1 X43.011 Y178.563 E5.12807
G1 X42.895 Y177.941 E5.15122
G1 X42.579 Y176.046 E5.22151
G1 X42.094 Y172.903 E5.33786
G1 X41.532 Y169.044 E5.48054
G1 X40.992 Y165.064 E5.62749
G1 X40.492 Y161.041 E5.7758
G1 X39.655 Y153.247 E6.0626
G1 X38.979 Y145.342 E6.35286
G1 X38.587 Y139.45 E6.56891
G1 X38.293 Y133.577 E6.78405
G1 X38.096 Y127.705 E6.999
G1 X37.994 Y121.754 E7.21676
G1 X38.005 Y114.269 E7.4906
G1 X38.173 Y106.792 E7.76423
G1 X38.497 Y99.309 E8.03826
G1 X38.977 Y91.823 E8.31271
G1 X39.614 Y84.349 E8.58714
G1 X40.402 Y76.893 E8.86145
G1 X40.843 Y73.265 E8.99516
G1 X41.295 Y69.801 E9.12297
G1 X41.746 Y66.598 E9.24131
G1 X42.133 Y63.988 E9.33784
G1 X42.61 Y60.93 E9.45108
G1 X42.981 Y58.682 E9.53443
G1 X43.339 Y56.609 E9.6114
G1 X43.489 Y55.845 E9.63989
G1 X43.798 Y54.609 E9.6865
G1 X44.334 Y53.106 E9.74488
G1 X45.015 Y51.648 E9.80375
G1 X45.813 Y50.297 E9.86116
G1 X46.068 Y49.943 E9.87712
G1 X46.783 Y48.96 E9.92159
G1 X47.658 Y47.946 E9.97059
G1 X48.761 Y46.87 E10.02697
G1 X50.128 Y45.784 E10.09085
G1 X50.934 Y45.245 E10.12632
G1 X51.827 Y44.718 E10.16426
G1 X52.691 Y44.274 E10.1998
G1 X53.524 Y43.901 E10.23319
G1 X55.06 Y43.357 E10.29281
G1 X56.417 Y43.019 E10.34397
G1 X57.416 Y42.832 E10.38115
G1 X60.165 Y42.388 E10.48303
G1 X63.512 Y41.881 E10.60688
G1 X67.412 Y41.327 E10.751
G1 X71.697 Y40.767 E10.90911
G1 X80.052 Y39.824 E11.21672
G1 X88.52 Y39.065 E11.52778
G1 X94.41 Y38.656 E11.74379
G1 X100.276 Y38.343 E11.95871
G1 X106.146 Y38.127 E12.17361
G1 X112.094 Y38.006 E12.39127
G1 X118.222 Y37.985 E12.61548
G1 X124.339 Y38.068 E12.83929
G1 X130.452 Y38.256 E13.06305
G1 X136.563 Y38.546 E13.28688
G1 X142.67 Y38.942 E13.51078
G1 X148.772 Y39.44 E13.73477
G1 X154.87 Y40.042 E13.95896
G1 X160.959 Y40.746 E14.18322
G1 X169.633 Y41.927 E14.50349
G1 X173.847 Y42.577 E14.65949
G1 X175.835 Y42.9 E14.73318
G1 X178.14 Y43.292 E14.81872
G1 X178.919 Y43.439 E14.84772
G1 X179.838 Y43.653 E14.88224
G1 X180.91 Y43.971 E14.92315
G1 X182.19 Y44.461 E14.9733
G1 X183.597 Y45.147 E15.03057
G1 X185.066 Y46.056 E15.09377
G1 X186.47 Y47.14 E15.15867
G1 X187.634 Y48.237 E15.21718
G1 X188.691 Y49.443 E15.27586
G1 X189.642 Y50.758 E15.33523
G1 X190.539 Y52.298 E15.40043
G1 X191.004 Y53.286 E15.44038
G1 X191.408 Y54.328 E15.48127
G1 X191.761 Y55.475 E15.52518
G1 X191.956 Y56.319 E15.55687
G1 X192.085 Y57.012 E15.58266
G1 X192.32 Y58.36 E15.63272
G1 X192.846 Y61.702 E15.7565
G1 X193.427 Y65.642 E15.90221
G1 X194.435 Y73.36 E16.18698
G1 X195.291 Y81.193 E16.47526
G1 X195.975 Y89.03 E16.76308
G1 X196.381 Y95.003 E16.98211
G1 X196.68 Y100.79 E17.19412
G1 X196.888 Y106.659 E17.40898
G1 X197.001 Y112.607 E17.62663
G1 X196.99 Y121.013 E17.93417
G1 X196.779 Y129.536 E18.24609
G1 X196.366 Y138.069 E18.55865
G1 X195.75 Y146.601 E18.87161
G1 X194.946 Y154.974 E19.17936
G1 X193.953 Y163.323 E19.48697
G1 X192.853 Y171.096 E19.77419
G1 X191.955 Y176.696 E19.98169
G1 X191.692 Y178.246 E20.0392
G1 X191.522 Y179.131 E20.07218
G1 X191.308 Y180.043 E20.10645
G1 X190.782 Y181.617 E20.16716
G1 X190.16 Y183.011 E20.22301
G1 X189.325 Y184.491 E20.28518
G1 X188.386 Y185.83 E20.34502
G1 X187.317 Y187.075 E20.40505
G1 X186.112 Y188.228 E20.46607
G1 X184.83 Y189.237 E20.52576
G1 X183.44 Y190.129 E20.58619
G1 X181.958 Y190.887 E20.64709
G1 X181.169 Y191.223 E20.67846
G1 X180.442 Y191.492 E20.70682
G1 X179.09 Y191.871 E20.75819
G1 X178.143 Y192.064 E20.79355
G1 X177.206 Y192.229 E20.82836
G1 X174.462 Y192.666 E20.93002
G1 X171.047 Y193.182 E21.05638
G1 X160.699 Y194.546 E21.43825
G1 X152.963 Y195.372 E21.72289
G1 X145.215 Y196.031 E22.00738
G1 X135.86 Y196.604 E22.35028
G1 X126.72 Y196.927 E22.68489
G1 X126.72 Y198.486 E22.74193
G1 X135.842 Y198.166 E23.07587
G1 X145.146 Y197.599 E23.4169
G1 X152.917 Y196.944 E23.70222
G1 X160.447 Y196.143 E23.97927
G1 X168.268 Y195.146 E24.26772
G1 X172.129 Y194.593 E24.41042
G1 X176.164 Y193.976 E24.55977
G1 X177.654 Y193.738 E24.61497
G1 X177.861 Y193.804 E24.62292
G1 X180.66 Y195.567 E24.74394
G1 X183.334 Y197.168 E24.85797
G1 X184.624 Y197.878 E24.91184
G1 X185.926 Y198.533 E24.96517
G1 X187.165 Y199.082 E25.01475
G1 X188.404 Y199.549 E25.06319
G1 X189.649 Y199.914 E25.11066
G1 X190.918 Y200.162 E25.15796
G1 X192.195 Y200.259 E25.20482
G1 X193.458 Y200.175 E25.25113
G1 X194.679 Y199.889 E25.29701
G1 X195.855 Y199.386 E25.34381
G1 X196.912 Y198.705 E25.38981
G1 X197.867 Y197.866 E25.43632
G1 X198.72 Y196.891 E25.48371
G1 X199.419 Y195.794 E25.5313
G1 X199.83 Y194.801 E25.57062
G1 X199.964 Y194.377 E25.58689
G1 X200.196 Y193.308 E25.62691
G1 X200.256 Y191.998 E25.67489
G1 X200.127 Y190.677 E25.72345
G1 X199.848 Y189.386 E25.77177
G1 X199.439 Y188.08 E25.82184
G1 X198.925 Y186.792 E25.87258
G1 X198.322 Y185.488 E25.92514
G1 X196.911 Y182.883 E26.03353
G1 X195.278 Y180.195 E26.1486
G1 X193.483 Y177.355 E26.27152
G1 X193.452 Y177.202 E26.27723
G1 X194.529 Y170.429 E26.52814
G1 X195.484 Y163.638 E26.77904
G1 X196.486 Y155.256 E27.08789
G1 X197.296 Y146.844 E27.39708
G1 X197.919 Y138.283 E27.71112
G1 X198.338 Y129.722 E28.02471
G1 X198.553 Y121.157 E28.33817
G1 X198.563 Y112.504 E28.65475
G1 X198.453 Y106.704 E28.86699
G1 X198.245 Y100.811 E29.08272
G1 X197.94 Y94.913 E29.2988
G1 X197.539 Y89.012 E29.51519
G1 X196.842 Y81.043 E29.80786
G1 X195.991 Y73.244 E30.09489
G1 X194.96 Y65.354 E30.38601
G1 X194.382 Y61.433 E30.53101
G1 X194.093 Y59.558 E30.60042
G1 X193.732 Y57.323 E30.68325
G1 X193.785 Y57.141 E30.69018
G1 X194.063 Y56.723 E30.70855
G1 X194.096 Y56.674 E30.71071
G1 X195.567 Y54.34 E30.81165
G1 X197.17 Y51.662 E30.92584
G1 X197.878 Y50.376 E30.97955
G1 X198.533 Y49.074 E31.03287
G1 X199.082 Y47.835 E31.08245
G1 X199.549 Y46.596 E31.13089
G1 X199.879 Y45.465 E31.174
G1 X199.997 Y44.923 E31.19429
G1 X200.162 Y44.082 E31.22565
G1 X200.259 Y42.803 E31.27258
G1 X200.175 Y41.538 E31.31896
G1 X199.889 Y40.321 E31.3647
G1 X199.386 Y39.145 E31.41149
G1 X198.705 Y38.088 E31.4575
G1 X197.866 Y37.133 E31.504
G1 X196.893 Y36.282 E31.5513
G1 X195.794 Y35.581 E31.59899
G1 X194.594 Y35.083 E31.64652
G1 X193.308 Y34.804 E31.69467
G1 X192 Y34.744 E31.74257
G1 X190.679 Y34.873 E31.79113
G1 X189.386 Y35.153 E31.83953
G1 X188.842 Y35.322 E31.86038
G1 X188.08 Y35.561 E31.88959
G1 X186.792 Y36.075 E31.94033
G1 X185.488 Y36.678 E31.99289
G1 X182.883 Y38.089 E32.10128
G1 X180.196 Y39.721 E32.2163
G1 X177.411 Y41.481 E32.33684
G1 X177.258 Y41.556 E32.34307
G1 X177.221 Y41.554 E32.34442
G1 X173.351 Y40.921 E32.48789
G1 X169.247 Y40.294 E32.63979
G1 X161.062 Y39.189 E32.94196
G1 X154.952 Y38.482 E33.16699
G1 X148.845 Y37.881 E33.3915
G1 X142.693 Y37.379 E33.61733
G1 X136.549 Y36.983 E33.84258
G1 X130.418 Y36.692 E34.06714
G1 X124.256 Y36.506 E34.29269
G1 X118.117 Y36.424 E34.51731
G1 X112.078 Y36.446 E34.73826
G1 X106.191 Y36.564 E34.95368
G1 X100.209 Y36.785 E35.17269
G1 X94.398 Y37.092 E35.38559
G1 X88.502 Y37.502 E35.60182
G1 X80.566 Y38.204 E35.89331
G1 X72.648 Y39.079 E36.18476
G1 X64.746 Y40.127 E36.47639
G1 X60.858 Y40.705 E36.6202
G1 X58.23 Y41.122 E36.71755
G1 X57.326 Y41.278 E36.75112
G1 X57.138 Y41.22 E36.75832
G1 X56.806 Y40.986 E36.77318
G1 X55.403 Y40.103 E36.83383
G1 X54.34 Y39.433 E36.8798
G1 X51.662 Y37.83 E36.99399
G1 X50.376 Y37.122 E37.0477
G1 X49.074 Y36.467 E37.10102
G1 X47.835 Y35.918 E37.1506
G1 X46.596 Y35.451 E37.19904
G1 X45.351 Y35.087 E37.2465
G1 X44.082 Y34.838 E37.29381
G1 X42.805 Y34.741 E37.34067
G1 X41.542 Y34.825 E37.38698
G1 X40.321 Y35.111 E37.43286
G1 X39.145 Y35.614 E37.47966
G1 X38.089 Y36.295 E37.52563
G1 X37.133 Y37.134 E37.57216
G1 X36.28 Y38.109 E37.61956
G1 X35.581 Y39.206 E37.66715
G1 X35.17 Y40.199 E37.70647
G1 X35.036 Y40.623 E37.72274
G1 X34.804 Y41.692 E37.76276
G1 X34.744 Y43.002 E37.81074
G1 X34.873 Y44.321 E37.85922
G1 X35.153 Y45.614 E37.90763
G1 X35.322 Y46.158 E37.92847
G1 X35.561 Y46.92 E37.95768
G1 X36.075 Y48.208 E38.00842
G1 X36.678 Y49.512 E38.06098
G1 X38.089 Y52.117 E38.16937
G1 X39.721 Y54.804 E38.28439
G1 X41.484 Y57.595 E38.40517
G1 X41.551 Y57.781 E38.4124
G1 X41.029 Y60.966 E38.53049
G1 X40.591 Y63.758 E38.63388
G1 X40.19 Y66.444 E38.73324
G1 X39.795 Y69.237 E38.83644
G1 X39.41 Y72.128 E38.94315
G1 X39.032 Y75.155 E39.05476
G1 X38.652 Y78.419 E39.17498
G1 X38.302 Y81.708 E39.29599
G1 X37.96 Y85.228 E39.42538
G1 X37.65 Y88.768 E39.55539
G1 X37.36 Y92.531 E39.69347
G1 X37.108 Y96.311 E39.83207
G1 X36.885 Y100.311 E39.97865
G1 X36.707 Y104.321 E40.1255
G1 X36.566 Y108.549 E40.28027
G1 X36.471 Y112.883 E40.43888
G1 X36.432 Y117.216 E40.59741
G1 X36.442 Y121.765 E40.76384
G1 X36.536 Y127.36 E40.96857
G1 X36.548 Y127.742 E40.98255
G1 X36.55 Y127.758 E40.98314
G1 X36.724 Y133.186 E41.18183
G1 X37.014 Y139.159 E41.40062
G1 X37.414 Y145.267 E41.62457
G1 X38.054 Y152.86 E41.90335
G1 X38.877 Y160.652 E42.19002
G1 X39.905 Y168.681 E42.48616
G1 X40.452 Y172.469 E42.62619
G1 X41.046 Y176.302 E42.7681
G1 X41.273 Y177.679 E42.81916
G1 X41.261 Y177.794 E42.82339
G1 X41.109 Y178.006 E42.83293
G1 X39.433 Y180.661 E42.9478
G1 X37.83 Y183.338 E43.06196
G1 X37.122 Y184.624 E43.11567
G1 X36.467 Y185.926 E43.16899
G1 X35.918 Y187.165 E43.21857
G1 X35.451 Y188.404 E43.26702
G1 X35.086 Y189.649 E43.31448
G1 X34.838 Y190.918 E43.36179
G1 X34.741 Y192.197 E43.40872
G1 X34.825 Y193.458 E43.45496
G1 X35.111 Y194.679 E43.50084
G1 X35.612 Y195.851 E43.54747
G1 X36.293 Y196.91 E43.59353
G1 X37.132 Y197.865 E43.64004
G1 X38.107 Y198.718 E43.68744
G1 X39.202 Y199.417 E43.73497
G1 X40.406 Y199.917 E43.78266
G1 X41.692 Y200.196 E43.83081
G1 X43 Y200.256 E43.87871
G1 X44.321 Y200.127 E43.92727
G1 X45.614 Y199.848 E43.97567
G1 X46.92 Y199.439 E44.02574
G1 X48.208 Y198.925 E44.07647
G1 X49.512 Y198.322 E44.12904
G1 X52.117 Y196.911 E44.23743
G1 X54.796 Y195.284 E44.3521
G1 X57.587 Y193.52 E44.4729
G1 X57.741 Y193.442 E44.47921
G1 X57.779 Y193.444 E44.48061
G1 X61.232 Y194.013 E44.60864
G1 X64.132 Y194.465 E44.71602
G1 X64.584 Y194.534 E44.73275
G1 X68.453 Y195.091 E44.87576
G1 X72.825 Y195.674 E45.03713
G1 X81.331 Y196.652 E45.35038
G1 X89.959 Y197.441 E45.66737
G1 X99.274 Y198.062 E46.00892
G1 X108.28 Y198.43 E46.33869
G0 F2100 X107.78 Y197.91
;TYPE:WALL-INNER
G1 F942.9 X107.78 Y197.351 E46.36472
G1 X99.324 Y197.003 E46.7588
G1 F944.5 X94.79 Y196.702 E46.97001
G1 X90.256 Y196.401 E47.18122
G1 F942.9 X90.037 Y196.383 E47.19145
G1 F941.2 X81.428 Y195.596 E47.59471
G1 F942.9 X81.11 Y195.565 E47.60959
G1 F944.5 X79.75 Y195.407 E47.67323
G1 F942.9 X78.389 Y195.249 E47.73703
G1 F941.2 X77.028 Y195.09 E47.80095
G1 X75.667 Y194.932 E47.86486
G1 F939.5 X74.306 Y194.774 E47.92889
G1 F937.8 X72.946 Y194.615 E47.99299
G1 F942.9 X72.12 Y194.514 E48.03174
G1 F947.9 X72.108 Y194.514 E48.03229
G1 F946.2 X70.351 Y194.277 E48.11455
G1 F942.9 X68.594 Y194.04 E48.19711
G1 F944.5 X67.797 Y193.93 E48.2345
G1 F946.2 X64.743 Y193.488 E48.37768
G1 X64.301 Y193.422 E48.39842
G1 F947.9 X64.293 Y193.423 E48.39879
G1 F946.2 X62.844 Y193.194 E48.46685
G1 F942.9 X61.395 Y192.965 E48.53516
G1 F941.2 X60.925 Y192.89 E48.55736
G1 X57.952 Y192.397 E48.69794
G1 F932.9 X57.78 Y192.371 E48.70613
G1 F961.7 X57.523 Y192.308 E48.71821
G1 F1045.5 X57.266 Y192.244 E48.72933
G1 F1145.3 X57.009 Y192.18 E48.73948
G1 F1200 X56.421 Y192.082 E48.76129
G1 X55.842 Y191.964 E48.78291
G1 F1125.8 X55.529 Y191.921 E48.79523
G1 F1001.9 X55.215 Y191.877 E48.80912
G1 F944.5 X54.919 Y191.792 E48.82344
G1 X54.495 Y191.663 E48.84404
G1 F1000 X54.191 Y191.542 E48.8584
G1 F1125.8 X53.886 Y191.42 E48.87121
G1 F1053.9 X53.449 Y191.328 E48.88982
G1 F949.6 X52.95 Y191.134 E48.91457
G1 F958.3 X52.604 Y190.985 E48.93183
G1 F1007.6 X52.378 Y190.856 E48.94317
G1 F1128.2 X52.151 Y190.727 E48.95333
G1 F1200 X51.284 Y190.289 E48.98886
G1 X50.361 Y189.753 E49.02791
G1 X49.01 Y188.817 E49.08805
G1 X48.634 Y188.502 E49.10599
G1 X47.701 Y187.711 E49.15074
G1 X46.538 Y186.513 E49.21183
G1 X46.462 Y186.422 E49.21617
G1 X45.481 Y185.192 E49.27373
G1 X45.251 Y184.856 E49.28863
G1 X44.815 Y184.208 E49.3172
G1 X44.277 Y183.286 E49.35626
G1 X43.83 Y182.404 E49.39243
G1 X43.476 Y181.598 E49.42464
G1 X43.181 Y180.828 E49.45481
G1 X42.966 Y180.172 E49.48006
G1 X42.787 Y179.558 E49.50346
G1 X42.665 Y179.059 E49.52226
G1 X42.579 Y178.643 E49.5378
G1 F1191.9 X42.461 Y178.025 E49.56097
G1 F1045.5 X42.342 Y177.675 E49.5765
G1 F939.5 X42.317 Y177.507 E49.58444
G1 F946.2 X42.086 Y176.123 E49.64954
G1 F947.9 X41.6 Y172.975 E49.79706
G1 F942.9 X41.502 Y172.311 E49.82832
G1 F941.2 X41.038 Y169.118 E49.97883
G1 X40.957 Y168.534 E50.00633
G1 X40.893 Y168.049 E50.02915
G1 F944.5 X40.828 Y167.563 E50.05194
G1 F947.9 X40.763 Y167.077 E50.07465
G1 F951.4 X40.698 Y166.592 E50.09723
G1 F954.8 X40.633 Y166.106 E50.11978
G1 F958.3 X40.568 Y165.62 E50.14224
G1 F961.7 X40.503 Y165.134 E50.16463
G1 X40.501 Y165.127 E50.16496
G1 F960 X40.375 Y164.119 E50.21142
G1 F956.5 X40.249 Y163.111 E50.25804
G1 F954.8 X40.123 Y162.103 E50.30475
G1 F951.4 X39.996 Y161.094 E50.35168
G1 F944.5 X39.934 Y160.541 E50.37755
G1 F941.2 X39.805 Y159.335 E50.43413
G1 F942.9 X39.676 Y158.129 E50.4906
G1 F944.5 X39.547 Y156.923 E50.54698
G1 F946.2 X39.418 Y155.717 E50.60325
G1 F947.9 X39.289 Y154.511 E50.65943
G1 F949.6 X39.16 Y153.305 E50.7155
G1 F944.5 X39.111 Y152.756 E50.74112
G1 F941.2 X39.007 Y151.529 E50.79856
G1 F942.9 X38.902 Y150.301 E50.85595
G1 F944.5 X38.798 Y149.073 E50.91324
G1 F946.2 X38.693 Y147.846 E50.97037
G1 F947.9 X38.588 Y146.618 E51.02746
G1 F949.6 X38.484 Y145.39 E51.08443
G1 F947.9 X38.469 Y145.186 E51.09391
G1 F946.2 X38.343 Y143.286 E51.18226
G1 F947.9 X38.217 Y141.386 E51.27045
G1 F951.4 X38.091 Y139.486 E51.35832
G1 F947.9 X38.07 Y139.097 E51.37636
G1 F946.2 X38.002 Y137.725 E51.4401
G1 F947.9 X37.934 Y136.352 E51.50377
G1 F951.4 X37.865 Y134.98 E51.56716
G1 F953.1 X37.797 Y133.607 E51.63049
G1 F951.4 X37.78 Y133.142 E51.65196
G1 F949.6 X37.721 Y131.337 E51.73545
G1 F951.4 X37.661 Y129.532 E51.8188
G1 F954.8 X37.601 Y127.726 E51.90189
G1 F951.4 X37.592 Y127.332 E51.92008
G1 F949.6 X37.545 Y124.587 E52.047
G1 F951.4 X37.497 Y121.842 E52.1737
G1 X37.496 Y121.753 E52.1778
G1 F949.6 X37.496 Y120.845 E52.21978
G1 F946.2 X37.496 Y119.937 E52.26191
G1 F942.9 X37.497 Y119.029 E52.30419
