;FLAVOR:Marlin
;TIME:4019
;Filament used: 2.23426m
;Layer height: 0.2
;MINX:92.7
;MINY:92.739
;MINZ:0.2
;MAXX:142.298
;MAXY:142.279
;MAXZ:8.4
;Generated with Cura_SteamEngine 5.0.0
M82 ;absolute extrusion mode
START_PRINT EXTRUDER_TEMP=222 BED_TEMP=60
G92 E0
G92 E0
G1 F2700 E-5
;LAYER_COUNT:42
;LAYER:0
M107
G0 F2100 X108.622 Y108.395 Z0.2
G0 X108.304 Y108.086
G0 X106.938 Y109.648
G0 X106.17 Y110.803
G0 X105.251 Y112.686
G0 X104.638 Y114.717
G0 X104.458 Y115.833
G0 X104.34 Y117.489
G0 X104.785 Y117.5
;TYPE:SKIRT
G1 F2700 E0
G1 F1200 X104.802 Y116.827 E0.02463
G1 X104.857 Y116.138 E0.04992
G1 X104.945 Y115.48 E0.07421
G1 X105.07 Y114.822 E0.09871
G1 X105.234 Y114.148 E0.12409
G1 X105.426 Y113.511 E0.14843
G1 X105.663 Y112.853 E0.17402
G1 X105.921 Y112.243 E0.19825
G1 X106.214 Y111.64 E0.22278
G1 X106.552 Y111.031 E0.24826
G1 X106.898 Y110.476 E0.27219
G1 X107.298 Y109.907 E0.29763
G1 X107.705 Y109.39 E0.32171
G1 X108.165 Y108.864 E0.34727
G1 X108.622 Y108.395 E0.37123
G1 X109.135 Y107.921 E0.39678
G1 X109.647 Y107.497 E0.42111
G1 X110.21 Y107.078 E0.44678
G1 X110.75 Y106.72 E0.47049
G1 X111.341 Y106.373 E0.49556
G1 X111.957 Y106.052 E0.52097
G1 X112.546 Y105.785 E0.54463
G1 X113.184 Y105.536 E0.56969
G1 X113.85 Y105.315 E0.59536
G1 X114.475 Y105.144 E0.61907
G1 X115.158 Y104.997 E0.64463
G1 X115.804 Y104.893 E0.66857
G1 X116.504 Y104.818 E0.69433
G1 X117.159 Y104.783 E0.71832
G1 X117.852 Y104.783 E0.74368
G1 X118.507 Y104.818 E0.76768
G1 X119.207 Y104.893 E0.79343
G1 X119.853 Y104.997 E0.81737
G1 X120.531 Y105.143 E0.84275
G1 X121.17 Y105.318 E0.86699
G1 X121.822 Y105.534 E0.89212
G1 X122.457 Y105.782 E0.91706
G1 X123.07 Y106.06 E0.94168
G1 X123.658 Y106.366 E0.96593
G1 X124.261 Y106.72 E0.99152
G1 X124.801 Y107.078 E1.01522
G1 X125.364 Y107.497 E1.0409
G1 X125.876 Y107.921 E1.06522
G1 X126.389 Y108.395 E1.09077
G1 X126.846 Y108.864 E1.11473
G1 X127.306 Y109.39 E1.14029
G1 X127.713 Y109.907 E1.16437
G1 X128.112 Y110.476 E1.18979
G1 X128.46 Y111.032 E1.21379
G1 X128.792 Y111.631 E1.23885
G1 X129.082 Y112.227 E1.2631
G1 X129.362 Y112.891 E1.28946
G1 X129.581 Y113.498 E1.31307
G1 X129.777 Y114.148 E1.33791
G1 X129.941 Y114.822 E1.36329
G1 X130.066 Y115.48 E1.38779
G1 X130.154 Y116.138 E1.41208
G1 X130.209 Y116.827 E1.43737
G1 X130.226 Y117.5 E1.462
G1 X130.209 Y118.173 E1.48663
G1 X130.154 Y118.862 E1.51192
G1 X130.066 Y119.52 E1.5362
G1 X129.942 Y120.173 E1.56052
G1 X129.775 Y120.86 E1.58639
G1 X129.583 Y121.498 E1.61077
G1 X129.36 Y122.115 E1.63477
G1 X129.088 Y122.761 E1.66041
G1 X128.796 Y123.36 E1.68479
G1 X128.455 Y123.976 E1.71055
G1 X128.108 Y124.531 E1.7345
G1 X127.715 Y125.09 E1.7595
G1 X127.314 Y125.602 E1.78329
G1 X126.846 Y126.136 E1.80927
G1 X126.389 Y126.605 E1.83323
G1 X125.876 Y127.079 E1.85878
G1 X125.369 Y127.499 E1.88287
G1 X124.804 Y127.919 E1.90863
G1 X124.267 Y128.276 E1.93222
G1 X123.651 Y128.638 E1.95836
G1 X123.07 Y128.94 E1.98232
G1 X122.457 Y129.218 E2.00694
G1 X121.822 Y129.466 E2.03188
G1 X121.17 Y129.682 E2.05701
G1 X120.531 Y129.857 E2.08125
G1 X119.853 Y130.003 E2.10663
G1 X119.207 Y130.107 E2.13057
G1 X118.507 Y130.182 E2.15632
G1 X117.852 Y130.217 E2.18032
G1 X117.159 Y130.217 E2.20567
G1 X116.504 Y130.182 E2.22967
G1 X115.804 Y130.107 E2.25543
G1 X115.158 Y130.003 E2.27937
G1 X114.475 Y129.856 E2.30493
G1 X113.85 Y129.685 E2.32864
G1 X113.184 Y129.464 E2.35431
G1 X112.562 Y129.221 E2.37874
G1 X111.951 Y128.944 E2.40328
G1 X111.333 Y128.622 E2.42878
G1 X110.753 Y128.282 E2.45338
G1 X110.207 Y127.919 E2.47737
G1 X109.642 Y127.499 E2.50312
G1 X109.135 Y127.079 E2.52721
G1 X108.622 Y126.605 E2.55276
G1 X108.165 Y126.136 E2.57672
G1 X107.697 Y125.602 E2.6027
G1 X107.295 Y125.09 E2.62652
G1 X106.903 Y124.531 E2.65149
G1 X106.552 Y123.969 E2.67574
G1 X106.214 Y123.36 E2.70122
G1 X105.921 Y122.757 E2.72575
G1 X105.656 Y122.13 E2.75065
G1 X105.428 Y121.497 E2.77527
G1 X105.236 Y120.86 E2.79961
G1 X105.069 Y120.173 E2.82547
G1 X104.945 Y119.52 E2.84979
G1 X104.857 Y118.862 E2.87408
G1 X104.802 Y118.173 E2.89937
G1 X104.785 Y117.5 E2.924
G0 F2100 X104.345 Y117.5
G1 F1200 X104.363 Y116.799 E2.94965
G1 X104.418 Y116.099 E2.97534
G1 X104.51 Y115.414 E3.00063
G1 X104.639 Y114.733 E3.02599
G1 X104.811 Y114.028 E3.05254
G1 X105.01 Y113.369 E3.07772
G1 X105.251 Y112.699 E3.10377
G1 X105.517 Y112.069 E3.12879
G1 X105.827 Y111.43 E3.15478
G1 X106.174 Y110.804 E3.18096
G1 X106.534 Y110.229 E3.20578
G1 X106.946 Y109.643 E3.23199
G1 X107.365 Y109.109 E3.25683
G1 X107.839 Y108.569 E3.28311
G1 X108.32 Y108.076 E3.30831
G1 X108.848 Y107.588 E3.33462
G1 X109.373 Y107.152 E3.35958
G1 X109.943 Y106.728 E3.38558
G1 X110.519 Y106.346 E3.41086
G1 X111.127 Y105.989 E3.43666
G1 X111.754 Y105.662 E3.46253
G1 X112.394 Y105.372 E3.48824
G1 X113.036 Y105.121 E3.51346
G1 X113.712 Y104.897 E3.53951
G1 X114.377 Y104.715 E3.56474
G1 X115.068 Y104.566 E3.5906
G1 X115.747 Y104.457 E3.61576
G1 X116.471 Y104.38 E3.6424
G1 X117.154 Y104.343 E3.66742
G1 X117.857 Y104.343 E3.69314
G1 X118.54 Y104.38 E3.71817
G1 X119.264 Y104.457 E3.7448
G1 X119.943 Y104.566 E3.76996
G1 X120.628 Y104.714 E3.7956
G1 X121.297 Y104.897 E3.82098
G1 X121.982 Y105.123 E3.84737
G1 X122.632 Y105.378 E3.87291
G1 X123.25 Y105.658 E3.89774
G1 X123.872 Y105.981 E3.92338
G1 X124.493 Y106.347 E3.94975
G1 X125.068 Y106.728 E3.97499
G1 X125.638 Y107.152 E4.00098
G1 X126.163 Y107.588 E4.02595
G1 X126.691 Y108.076 E4.05225
G1 X127.172 Y108.569 E4.07745
G1 X127.646 Y109.109 E4.10374
G1 X128.065 Y109.643 E4.12857
G1 X128.477 Y110.23 E4.15481
G1 X128.841 Y110.812 E4.17992
G1 X129.179 Y111.422 E4.20544
G1 X129.49 Y112.06 E4.23141
G1 X129.761 Y112.705 E4.257
G1 X130.002 Y113.372 E4.28295
G1 X130.2 Y114.028 E4.30802
G1 X130.372 Y114.733 E4.33457
G1 X130.501 Y115.414 E4.35993
G1 X130.593 Y116.099 E4.38521
G1 X130.648 Y116.799 E4.4109
G1 X130.666 Y117.5 E4.43656
G1 X130.648 Y118.201 E4.46221
G1 X130.593 Y118.901 E4.4879
G1 X130.501 Y119.586 E4.51319
G1 X130.373 Y120.262 E4.53836
G1 X130.198 Y120.98 E4.5654
G1 X130.004 Y121.624 E4.59001
G1 X129.759 Y122.302 E4.61638
G1 X129.493 Y122.935 E4.6415
G1 X129.187 Y123.562 E4.66703
G1 X128.836 Y124.196 E4.69354
G1 X128.478 Y124.768 E4.71823
G1 X128.061 Y125.363 E4.74481
G1 X127.653 Y125.882 E4.76897
G1 X127.172 Y126.431 E4.79567
G1 X126.691 Y126.924 E4.82087
G1 X126.163 Y127.412 E4.84717
G1 X125.643 Y127.844 E4.87191
G1 X125.058 Y128.279 E4.89858
G1 X124.493 Y128.654 E4.92339
G1 X123.88 Y129.015 E4.94942
G1 X123.25 Y129.342 E4.97539
G1 X122.632 Y129.622 E5.00021
G1 X121.982 Y129.877 E5.02575
G1 X121.297 Y130.103 E5.05214
G1 X120.628 Y130.286 E5.07752
G1 X119.943 Y130.434 E5.10316
G1 X119.264 Y130.543 E5.12832
G1 X118.54 Y130.62 E5.15496
G1 X117.857 Y130.657 E5.17998
G1 X117.154 Y130.657 E5.2057
G1 X116.471 Y130.62 E5.23073
G1 X115.747 Y130.543 E5.25737
G1 X115.068 Y130.434 E5.28253
G1 X114.377 Y130.285 E5.30839
G1 X113.712 Y130.103 E5.33361
G1 X113.036 Y129.879 E5.35967
G1 X112.386 Y129.625 E5.3852
G1 X111.763 Y129.342 E5.41023
G1 X111.127 Y129.011 E5.43646
G1 X110.513 Y128.651 E5.46251
G1 X109.953 Y128.279 E5.4871
G1 X109.368 Y127.844 E5.51377
G1 X108.848 Y127.412 E5.53851
G1 X108.32 Y126.924 E5.56481
G1 X107.839 Y126.431 E5.59001
G1 X107.358 Y125.882 E5.61672
G1 X106.943 Y125.354 E5.64129
G1 X106.538 Y124.778 E5.66705
G1 X106.171 Y124.189 E5.69244
G1 X105.83 Y123.576 E5.7181
G1 X105.517 Y122.931 E5.74433
G1 X105.243 Y122.284 E5.77004
G1 X105.012 Y121.64 E5.79507
G1 X104.813 Y120.98 E5.82029
G1 X104.638 Y120.262 E5.84733
G1 X104.51 Y119.586 E5.8725
G1 X104.418 Y118.901 E5.89779
G1 X104.363 Y118.201 E5.92347
G1 X104.345 Y117.5 E5.94913
G0 F2100 X103.904 Y117.5
G1 F1200 X103.923 Y116.792 E5.97504
G1 X103.982 Y116.043 E6.00253
G1 X104.075 Y115.35 E6.02811
G1 X104.212 Y114.623 E6.05518
G1 X104.387 Y113.908 E6.08211
G1 X104.589 Y113.237 E6.10775
G1 X104.844 Y112.528 E6.13531
G1 X105.109 Y111.902 E6.16018
G1 X105.436 Y111.229 E6.18756
G1 X105.798 Y110.575 E6.21491
G1 X106.164 Y109.991 E6.24012
G1 X106.594 Y109.379 E6.26749
G1 X107.026 Y108.829 E6.29308
G1 X107.521 Y108.263 E6.32058
G1 X108.007 Y107.766 E6.34602
G1 X108.56 Y107.254 E6.37359
G1 X109.099 Y106.807 E6.39921
G1 X109.698 Y106.362 E6.42651
G1 X110.27 Y105.982 E6.45163
G1 X110.913 Y105.605 E6.4789
G1 X111.573 Y105.26 E6.50615
G1 X112.219 Y104.968 E6.53209
G1 X112.893 Y104.704 E6.55857
G1 X113.569 Y104.48 E6.58463
G1 X114.279 Y104.286 E6.61155
G1 X114.999 Y104.131 E6.6385
G1 X115.687 Y104.021 E6.66399
G1 X116.438 Y103.94 E6.69163
G1 X117.13 Y103.903 E6.71698
G1 X117.881 Y103.903 E6.74446
G1 X118.573 Y103.94 E6.76981
G1 X119.324 Y104.021 E6.79745
G1 X120.012 Y104.131 E6.82294
G1 X120.744 Y104.289 E6.85033
G1 X121.418 Y104.473 E6.8759
G1 X122.13 Y104.709 E6.90334
G1 X122.801 Y104.971 E6.92969
G1 X123.453 Y105.267 E6.95589
G1 X124.086 Y105.596 E6.98199
G1 X124.729 Y105.974 E7.00928
G1 X125.313 Y106.362 E7.03493
G1 X125.912 Y106.807 E7.06223
G1 X126.451 Y107.254 E7.08785
G1 X127.004 Y107.766 E7.11542
G1 X127.49 Y108.263 E7.14086
G1 X127.985 Y108.829 E7.16837
G1 X128.427 Y109.391 E7.19452
G1 X128.829 Y109.965 E7.22016
G1 X129.225 Y110.597 E7.24745
G1 X129.57 Y111.22 E7.2735
G1 X129.887 Y111.87 E7.29996
G1 X130.176 Y112.557 E7.32723
G1 X130.423 Y113.239 E7.35377
G1 X130.624 Y113.908 E7.37932
G1 X130.799 Y114.623 E7.40626
G1 X130.936 Y115.35 E7.43332
G1 X131.029 Y116.043 E7.4589
G1 X131.088 Y116.792 E7.48639
G1 X131.107 Y117.5 E7.5123
G1 X131.088 Y118.208 E7.53822
G1 X131.029 Y118.957 E7.5657
G1 X130.936 Y119.65 E7.59129
G1 X130.799 Y120.372 E7.61817
G1 X130.626 Y121.083 E7.64494
G1 X130.418 Y121.773 E7.67131
G1 X130.177 Y122.442 E7.69733
G1 X129.89 Y123.123 E7.72436
G1 X129.575 Y123.771 E7.75072
G1 X129.217 Y124.416 E7.77771
G1 X128.843 Y125.015 E7.80355
G1 X128.42 Y125.617 E7.83047
G1 X127.985 Y126.171 E7.85624
G1 X127.49 Y126.737 E7.88375
G1 X127.004 Y127.234 E7.90918
G1 X126.451 Y127.746 E7.93675
G1 X125.917 Y128.188 E7.96211
G1 X125.312 Y128.639 E7.98972
G1 X124.725 Y129.028 E8.01549
G1 X124.088 Y129.403 E8.04253
G1 X123.453 Y129.733 E8.06871
G1 X122.801 Y130.029 E8.09491
G1 X122.13 Y130.291 E8.12126
G1 X121.418 Y130.527 E8.14871
G1 X120.744 Y130.711 E8.17427
G1 X120.012 Y130.869 E8.20167
G1 X119.324 Y130.979 E8.22716
G1 X118.573 Y131.06 E8.25479
G1 X117.881 Y131.097 E8.28015
G1 X117.13 Y131.097 E8.30762
G1 X116.438 Y131.06 E8.33298
G1 X115.687 Y130.979 E8.36061
G1 X114.999 Y130.869 E8.3861
G1 X114.279 Y130.714 E8.41305
G1 X113.569 Y130.52 E8.43998
G1 X112.893 Y130.296 E8.46603
G1 X112.211 Y130.029 E8.49283
G1 X111.567 Y129.737 E8.5187
G1 X110.927 Y129.404 E8.54509
G1 X110.274 Y129.02 E8.57281
G1 X109.699 Y128.639 E8.59804
G1 X109.094 Y128.188 E8.62565
G1 X108.56 Y127.746 E8.65101
G1 X108.007 Y127.234 E8.67859
G1 X107.521 Y126.737 E8.70402
G1 X107.026 Y126.171 E8.73153
G1 X106.584 Y125.609 E8.75769
G1 X106.173 Y125.024 E8.78384
G1 X105.785 Y124.402 E8.81066
G1 X105.443 Y123.785 E8.83647
G1 X105.113 Y123.105 E8.86413
G1 X104.837 Y122.453 E8.89003
G1 X104.596 Y121.783 E8.91608
G1 X104.385 Y121.083 E8.94283
G1 X104.212 Y120.372 E8.9696
G1 X104.075 Y119.65 E8.99649
G1 X103.982 Y118.957 E9.02207
G1 X103.923 Y118.208 E9.04956
G1 X103.904 Y117.5 E9.07547
G0 F2100 X103.464 Y117.5
G1 F1200 X103.483 Y116.764 E9.10241
G1 X103.543 Y116.004 E9.1303
G1 X103.642 Y115.266 E9.15754
G1 X103.777 Y114.552 E9.18413
G1 X103.963 Y113.788 E9.21289
G1 X104.173 Y113.094 E9.23942
G1 X104.432 Y112.374 E9.26742
G1 X104.712 Y111.711 E9.29375
G1 X105.048 Y111.02 E9.32186
G1 X105.412 Y110.363 E9.34934
G1 X105.799 Y109.744 E9.37605
G1 X106.242 Y109.115 E9.40419
G1 X106.695 Y108.537 E9.43106
G1 X107.186 Y107.977 E9.45831
G1 X107.694 Y107.456 E9.48493
G1 X108.273 Y106.921 E9.51377
G1 X108.827 Y106.462 E9.5401
G1 X109.44 Y106.006 E9.56805
G1 X110.057 Y105.596 E9.59515
G1 X110.698 Y105.22 E9.62234
G1 X111.377 Y104.866 E9.65036
G1 X112.049 Y104.561 E9.67736
G1 X112.722 Y104.298 E9.70379
G1 X113.465 Y104.052 E9.73243
G1 X114.164 Y103.861 E9.75894
G1 X114.912 Y103.7 E9.78693
G1 X115.627 Y103.585 E9.81343
G1 X116.404 Y103.502 E9.84201
G1 X117.126 Y103.463 E9.86847
G1 X117.885 Y103.463 E9.89624
G1 X118.607 Y103.502 E9.92269
G1 X119.384 Y103.585 E9.95128
G1 X120.099 Y103.7 E9.97778
G1 X120.842 Y103.86 E10.00558
G1 X121.556 Y104.055 E10.03266
G1 X122.284 Y104.296 E10.06072
G1 X122.954 Y104.558 E10.08704
G1 X123.641 Y104.87 E10.11464
G1 X124.308 Y105.216 E10.14213
G1 X124.956 Y105.597 E10.16964
G1 X125.571 Y106.006 E10.19666
G1 X126.184 Y106.462 E10.22461
G1 X126.738 Y106.921 E10.25093
G1 X127.317 Y107.456 E10.27977
G1 X127.825 Y107.977 E10.3064
G1 X128.316 Y108.537 E10.33364
G1 X128.772 Y109.119 E10.3607
G1 X129.205 Y109.736 E10.38827
G1 X129.601 Y110.368 E10.41556
G1 X129.966 Y111.026 E10.44309
G1 X130.288 Y111.688 E10.47002
G1 X130.583 Y112.387 E10.49778
G1 X130.839 Y113.097 E10.52539
G1 X131.048 Y113.788 E10.55181
G1 X131.234 Y114.552 E10.58057
G1 X131.369 Y115.266 E10.60716
G1 X131.468 Y116.004 E10.6344
G1 X131.528 Y116.764 E10.66229
G1 X131.547 Y117.5 E10.68923
G1 X131.528 Y118.236 E10.71617
G1 X131.468 Y118.996 E10.74406
G1 X131.369 Y119.734 E10.7713
G1 X131.235 Y120.443 E10.7977
G1 X131.045 Y121.221 E10.827
G1 X130.841 Y121.899 E10.8529
G1 X130.583 Y122.612 E10.88064
G1 X130.291 Y123.305 E10.90816
G1 X129.966 Y123.973 E10.93534
G1 X129.598 Y124.637 E10.96311
G1 X129.213 Y125.253 E10.98969
G1 X128.772 Y125.881 E11.01776
G1 X128.316 Y126.463 E11.04481
G1 X127.825 Y127.023 E11.07206
G1 X127.317 Y127.544 E11.09868
G1 X126.738 Y128.079 E11.12753
G1 X126.181 Y128.541 E11.154
G1 X125.571 Y128.995 E11.18182
G1 X124.96 Y129.4 E11.20864
G1 X124.302 Y129.787 E11.23657
G1 X123.649 Y130.127 E11.26351
G1 X122.954 Y130.442 E11.29142
G1 X122.284 Y130.704 E11.31774
G1 X121.556 Y130.945 E11.3458
G1 X120.842 Y131.14 E11.37288
G1 X120.099 Y131.3 E11.40069
G1 X119.384 Y131.415 E11.42718
G1 X118.607 Y131.498 E11.45577
G1 X117.885 Y131.537 E11.48222
G1 X117.126 Y131.537 E11.50999
G1 X116.404 Y131.498 E11.53645
G1 X115.627 Y131.415 E11.56504
G1 X114.912 Y131.3 E11.59153
G1 X114.164 Y131.139 E11.61952
G1 X113.465 Y130.948 E11.64604
G1 X112.722 Y130.702 E11.67467
G1 X112.064 Y130.445 E11.70051
G1 X111.364 Y130.127 E11.72864
G1 X110.698 Y129.78 E11.75612
G1 X110.052 Y129.401 E11.78352
G1 X109.44 Y128.995 E11.81039
G1 X108.83 Y128.541 E11.83821
G1 X108.273 Y128.079 E11.86469
G1 X107.694 Y127.544 E11.89353
G1 X107.186 Y127.023 E11.92015
G1 X106.695 Y126.463 E11.9474
G1 X106.232 Y125.873 E11.97484
G1 X105.809 Y125.271 E12.00176
G1 X105.413 Y124.636 E12.02914
G1 X105.044 Y123.972 E12.05693
G1 X104.712 Y123.288 E12.08475
G1 X104.427 Y122.614 E12.11152
G1 X104.173 Y121.908 E12.13897
G1 X103.966 Y121.221 E12.16522
G1 X103.776 Y120.443 E12.19452
G1 X103.642 Y119.734 E12.22092
G1 X103.543 Y118.996 E12.24816
G1 X103.483 Y118.236 E12.27605
G1 X103.464 Y117.5 E12.30299
G0 F2100 X103.024 Y117.5
G1 F1200 X103.043 Y116.736 E12.33095
G1 X103.105 Y115.967 E12.35918
G1 X103.208 Y115.199 E12.38753
G1 X103.35 Y114.446 E12.41556
G1 X103.535 Y113.685 E12.44422
G1 X103.757 Y112.951 E12.47227
G1 X104.02 Y112.22 E12.50069
G1 X104.315 Y111.521 E12.52845
G1 X104.657 Y110.818 E12.55705
G1 X105.031 Y110.143 E12.58529
G1 X105.435 Y109.497 E12.61316
G1 X105.89 Y108.851 E12.64207
G1 X106.348 Y108.267 E12.66922
G1 X106.86 Y107.682 E12.69767
G1 X107.402 Y107.127 E12.72605
G1 X107.975 Y106.597 E12.75461
G1 X108.565 Y106.109 E12.78262
G1 X109.186 Y105.646 E12.81096
G1 X109.817 Y105.227 E12.83867
G1 X110.492 Y104.831 E12.8673
G1 X111.182 Y104.471 E12.89578
G1 X111.865 Y104.162 E12.9232
G1 X112.596 Y103.876 E12.95192
G1 X113.321 Y103.636 E12.97986
G1 X114.062 Y103.433 E13.00797
G1 X114.825 Y103.269 E13.03652
G1 X115.589 Y103.146 E13.06484
G1 X116.353 Y103.064 E13.09295
G1 X117.121 Y103.023 E13.12109
G1 X117.89 Y103.023 E13.14922
G1 X118.658 Y103.064 E13.17736
G1 X119.422 Y103.146 E13.20547
G1 X120.186 Y103.269 E13.23378
G1 X120.961 Y103.436 E13.26279
G1 X121.677 Y103.631 E13.28994
G1 X122.416 Y103.876 E13.31842
G1 X123.146 Y104.162 E13.34711
G1 X123.837 Y104.475 E13.37486
G1 X124.508 Y104.824 E13.40253
G1 X125.195 Y105.228 E13.43169
