;FLAVOR:Marlin
;TIME:4697
;Filament used: 3.14815m
;Layer height: 0.2
;MINX:108.591
;MINY:88.006
;MINZ:0.2
;MAXX:137.441
;MAXY:117.694
;MAXZ:58.8
;Generated with Cura_SteamEngine 5.0.0
M82 ;absolute extrusion mode
START_PRINT EXTRUDER_TEMP=222 BED_TEMP=60
G92 E0
G92 E0
G1 F2700 E-5
;LAYER_COUNT:295
;LAYER:0
M107
G0 F2100 X115.589 Y109.731 Z0.2
G0 X115.532 Y109.909
;TYPE:SKIRT
G1 F2700 E0
G1 F1200 X115.589 Y109.731 E0.00684
G1 X115.746 Y109.617 E0.01394
G1 X115.932 Y109.617 E0.02074
G1 X116.089 Y109.731 E0.02784
G1 X116.146 Y109.909 E0.03468
G1 X116.089 Y110.087 E0.04152
G1 X115.932 Y110.201 E0.04861
G1 X115.746 Y110.201 E0.05542
G1 X115.589 Y110.087 E0.06252
G1 X115.532 Y109.909 E0.06936
G0 F2100 X115.069 Y109.909
G1 F1200 X115.216 Y109.46 E0.08664
G1 X115.604 Y109.177 E0.10421
G1 X116.074 Y109.177 E0.12141
G1 X116.462 Y109.46 E0.13898
G1 X116.609 Y109.909 E0.15626
G1 X116.462 Y110.358 E0.17355
G1 X116.074 Y110.641 E0.19112
G1 X115.604 Y110.641 E0.20831
G1 X115.216 Y110.358 E0.22588
G1 X115.069 Y109.909 E0.24317
G0 F2100 X114.606 Y109.909
G1 F1200 X114.841 Y109.188 E0.27091
G1 X115.46 Y108.737 E0.29893
G1 X116.218 Y108.737 E0.32667
G1 X116.837 Y109.188 E0.35469
G1 X117.072 Y109.909 E0.38243
G1 X116.837 Y110.63 E0.41018
G1 X116.218 Y111.081 E0.4382
G1 X115.46 Y111.081 E0.46593
G1 X114.841 Y110.63 E0.49395
G1 X114.606 Y109.909 E0.52169
G0 F2100 X114.143 Y109.909
G1 F1200 X114.467 Y108.916 E0.55991
G1 X115.317 Y108.297 E0.59838
G1 X116.361 Y108.297 E0.63657
G1 X117.211 Y108.916 E0.67504
G1 X117.535 Y109.909 E0.71326
G1 X117.211 Y110.902 E0.75147
G1 X116.361 Y111.521 E0.78995
G1 X115.317 Y111.521 E0.82814
G1 X114.467 Y110.902 E0.86661
G1 X114.143 Y109.909 E0.90483
G0 F2100 X113.681 Y109.909
G1 F1200 X114.093 Y108.643 E0.95354
G1 X115.173 Y107.857 E1.00241
G1 X116.505 Y107.857 E1.05114
G1 X117.585 Y108.643 E1.10001
G1 X117.997 Y109.909 E1.14872
G1 X117.585 Y111.175 E1.19743
G1 X116.505 Y111.961 E1.2463
G1 X115.173 Y111.961 E1.29503
G1 X114.093 Y111.175 E1.3439
G1 X113.681 Y109.909 E1.39261
G0 F2100 X113.218 Y109.909
G1 F1200 X113.718 Y108.373 E1.45171
G1 X115.031 Y107.417 E1.51113
G1 X116.647 Y107.417 E1.57025
G1 X117.96 Y108.373 E1.62967
G1 X118.46 Y109.909 E1.68877
G1 X117.96 Y111.445 E1.74787
G1 X116.647 Y112.401 E1.80729
G1 X115.031 Y112.401 E1.86641
G1 X113.718 Y111.445 E1.92584
G1 X113.218 Y109.909 E1.98494
G0 F2100 X112.756 Y109.909
G1 F1200 X113.344 Y108.1 E2.05453
G1 X114.887 Y106.977 E2.12435
G1 X116.791 Y106.977 E2.19401
G1 X118.334 Y108.1 E2.26383
G1 X118.922 Y109.909 E2.33342
G1 X118.334 Y111.718 E2.40302
G1 X116.791 Y112.841 E2.47284
G1 X114.887 Y112.841 E2.5425
G1 X113.344 Y111.718 E2.61232
G1 X112.756 Y109.909 E2.68191
G0 F2100 X112.292 Y109.909
G1 F1200 X112.97 Y107.828 E2.76199
G1 X114.744 Y106.537 E2.84226
G1 X116.934 Y106.537 E2.92238
G1 X118.708 Y107.828 E3.00265
G1 X119.386 Y109.909 E3.08273
G1 X118.708 Y111.99 E3.1628
G1 X116.934 Y113.281 E3.24307
G1 X114.744 Y113.281 E3.3232
G1 X112.97 Y111.99 E3.40347
G1 X112.292 Y109.909 E3.48354
G0 F2100 X111.83 Y109.909
G1 F1200 X112.596 Y107.556 E3.57407
G1 X114.6 Y106.097 E3.66477
G1 X117.078 Y106.097 E3.75543
G1 X119.082 Y107.556 E3.84612
G1 X119.848 Y109.909 E3.93665
G1 X119.082 Y112.262 E4.02719
G1 X117.078 Y113.721 E4.11788
G1 X114.6 Y113.721 E4.20854
G1 X112.596 Y112.262 E4.29923
G1 X111.83 Y109.909 E4.38976
G0 F2100 X111.367 Y109.909
G1 F1200 X112.222 Y107.285 E4.49073
G1 X114.458 Y105.657 E4.59193
G1 X117.22 Y105.657 E4.69298
G1 X119.456 Y107.285 E4.79417
G1 X120.311 Y109.909 E4.89514
G1 X119.456 Y112.533 E4.99611
G1 X117.22 Y114.161 E5.0973
G1 X114.458 Y114.161 E5.19835
G1 X112.222 Y112.533 E5.29955
G1 X111.367 Y109.909 E5.40052
G0 F2100 X110.904 Y109.909
G1 F1200 X111.847 Y107.013 E5.51195
G1 X114.314 Y105.217 E5.62359
G1 X117.364 Y105.217 E5.73518
G1 X119.831 Y107.013 E5.84682
G1 X120.774 Y109.909 E5.95825
G1 X119.831 Y112.805 E6.06968
G1 X117.364 Y114.601 E6.18132
G1 X114.314 Y114.601 E6.29291
G1 X111.847 Y112.805 E6.40455
G1 X110.904 Y109.909 E6.51598
G1 F2700 E1.51598
G0 F2100 X114.676 Y110.141
G0 X115.384 Y109.909
;TYPE:SUPPORT
G1 F2700 E6.51598
G1 F1320 X115.471 Y110.174 E6.52526
G1 X115.698 Y110.34 E6.53461
G1 X115.977 Y110.34 E6.54389
G1 X116.205 Y110.174 E6.55327
G1 X116.291 Y109.909 E6.56254
G1 X116.205 Y109.644 E6.5718
G1 X115.977 Y109.478 E6.58118
G1 X115.698 Y109.478 E6.59046
G1 X115.471 Y109.644 E6.59982
G1 X115.384 Y109.909 E6.60909
G1 F2700 E1.60909
;MESH:Gas Can Table Bracket v4.stl
G0 F2100 X114.851 Y110.645
G0 X115.044 Y115.191
G0 X115.034 Y116.285
G0 X115.471 Y117.187
G1 F2700 E6.60909
G0 F2100 X115.456 Y117.676
;TYPE:WALL-OUTER
G1 F1200 X115.992 Y117.666 E6.62871
G1 X116.413 Y117.656 E6.64411
G1 X117.364 Y117.52 E6.67926
G1 X118.168 Y117.307 E6.70969
G1 X118.375 Y117.239 E6.71766
G1 X119.187 Y116.916 E6.74963
G1 X119.885 Y116.532 E6.77878
G1 X120.007 Y116.506 E6.78335
G1 X120.141 Y116.564 E6.78869
G1 X120.138 Y116.891 E6.80065
G1 X120.025 Y116.992 E6.8062
G1 X125.368 Y116.81 E7.00179
G1 X131.521 Y116.486 E7.22722
G1 X137.418 Y116.063 E7.44352
G1 X137.013 Y113.529 E7.5374
G1 X133.514 Y113.789 E7.66577
G1 X129.674 Y114.031 E7.80654
G1 X125.833 Y114.227 E7.94725
G1 X125.67 Y114.168 E7.95359
G1 X125.601 Y114.015 E7.95974
G1 X125.748 Y113.529 E7.97831
G1 X126.006 Y112.762 E8.00792
G1 X126.233 Y111.699 E8.04769
G1 X126.268 Y111.48 E8.0558
G1 X126.385 Y110.383 E8.09616
G1 X126.383 Y109.172 E8.14047
G1 X126.249 Y107.966 E8.18486
G1 X126.011 Y106.89 E8.22518
G1 X125.952 Y106.678 E8.23323
G1 X125.6 Y105.634 E8.27354
G1 X125.089 Y104.533 E8.31795
G1 X124.451 Y103.469 E8.36334
G1 X124.429 Y103.367 E8.36716
G1 X124.519 Y103.193 E8.37432
G1 X124.617 Y103.153 E8.3782
G1 X128.202 Y102.639 E8.5107
G1 X131.758 Y102.043 E8.64261
G1 X135.079 Y101.407 E8.76632
G1 X134.675 Y98.878 E8.86002
G1 X130.871 Y99.603 E9.0017
G1 X126.826 Y100.26 E9.15163
G1 X122.764 Y100.806 E9.30158
G1 X118.689 Y101.243 E9.45153
G1 X116.919 Y101.383 E9.51649
G1 X116.343 Y101.431 E9.53763
G1 X116.381 Y101.603 E9.54408
G1 X116.24 Y101.647 E9.54948
G1 X115.552 Y101.627 E9.57466
G1 X114.644 Y101.703 E9.608
G1 X113.762 Y101.876 E9.64088
G1 X112.875 Y102.163 E9.67499
G1 X112.049 Y102.535 E9.70814
G1 X111.272 Y102.998 E9.74123
G1 X111.059 Y103.223 E9.75256
G1 X110.94 Y103.498 E9.76353
G1 X110.927 Y103.701 E9.77097
G1 X111.011 Y103.989 E9.78194
G1 X111.191 Y104.234 E9.79307
G1 X111.46 Y104.379 E9.80425
G1 X111.756 Y104.423 E9.81519
G1 X112.045 Y104.337 E9.82623
G1 X112.177 Y104.27 E9.83164
G1 X112.959 Y103.822 E9.86462
G1 X113.864 Y103.466 E9.9002
G1 X114.794 Y103.255 E9.93509
G1 X115.747 Y103.183 E9.97005
G1 X116.159 Y103.211 E9.98516
G1 X116.709 Y103.252 E10.00534
G1 X116.782 Y103.266 E10.00806
G1 X117.646 Y103.462 E10.04047
G1 X117.677 Y103.472 E10.04166
G1 X118.541 Y103.808 E10.07558
G1 X119.374 Y104.285 E10.1107
G1 X119.401 Y104.303 E10.11189
G1 X120.131 Y104.881 E10.14595
G1 X120.236 Y104.989 E10.15146
G1 X120.792 Y105.58 E10.18115
G1 X120.922 Y105.764 E10.18939
G1 X121.345 Y106.378 E10.21667
G1 X121.766 Y107.238 E10.2517
G1 X122.055 Y108.143 E10.28646
G1 X122.136 Y108.635 E10.3047
G1 X122.211 Y109.103 E10.32204
G1 X122.221 Y110.081 E10.35783
G1 X122.088 Y111.025 E10.39271
G1 X121.817 Y111.937 E10.42751
G1 X121.565 Y112.483 E10.44951
G1 X121.416 Y112.803 E10.46243
G1 X121.205 Y113.127 E10.47658
G1 X120.889 Y113.604 E10.49751
G1 X120.869 Y113.63 E10.49871
G1 X120.247 Y114.319 E10.53267
G1 X120.206 Y114.355 E10.53467
G1 X119.503 Y114.933 E10.56796
G1 X119.106 Y115.174 E10.58495
G1 X118.674 Y115.434 E10.6034
G1 X117.783 Y115.8 E10.63864
G1 X116.864 Y116.029 E10.67329
G1 X116.831 Y116.035 E10.67452
G1 X115.904 Y116.122 E10.70859
G1 X115.529 Y116.104 E10.72232
G1 X114.936 Y116.071 E10.74405
G1 X113.988 Y115.878 E10.77944
G1 X113.687 Y115.858 E10.79048
G1 X113.399 Y115.944 E10.80148
G1 X113.169 Y116.149 E10.81275
G1 X113.027 Y116.41 E10.82362
G1 X113.007 Y116.715 E10.8348
G1 X113.092 Y116.999 E10.84565
G1 X113.295 Y117.228 E10.85685
G1 X113.565 Y117.374 E10.86808
G1 X114.499 Y117.581 E10.90308
G1 X115.456 Y117.676 E10.93826
G0 F2100 X114.832 Y117.116
;TYPE:WALL-INNER
G1 F947.9 X115.161 Y117.144 E10.95355
G1 F937.8 X115.491 Y117.173 E10.96906
G1 F942.9 X115.91 Y117.171 E10.98857
G1 X116.372 Y117.153 E11.0101
G1 F937.8 X116.68 Y117.113 E11.02464
G1 F947.9 X116.989 Y117.073 E11.03907
G1 F944.5 X117.264 Y117.027 E11.05203
G1 F941.2 X118.125 Y116.802 E11.09354
G1 X118.973 Y116.462 E11.13616
G1 F944.5 X119.212 Y116.335 E11.14874
G1 X119.643 Y116.093 E11.17172
G1 F1053.9 X119.939 Y116.067 E11.1841
G1 F1200 X120.037 Y116.067 E11.18768
G1 X120.44 Y116.241 E11.20374
G1 X120.437 Y116.538 E11.21461
G1 X125.346 Y116.37 E11.39431
G1 X131.49 Y116.047 E11.61941
G1 X136.908 Y115.658 E11.81814
G1 X136.643 Y113.998 E11.87965
G1 X133.542 Y114.229 E11.99341
G1 X129.698 Y114.471 E12.13433
G1 X125.855 Y114.667 E12.27511
G1 X125.6 Y114.63 E12.28454
G1 X125.369 Y114.489 E12.29444
G1 X125.23 Y114.302 E12.30297
G1 X125.161 Y114.031 E12.3132
G1 X125.195 Y113.796 E12.32188
G1 X125.581 Y112.646 E12.36627
G1 X125.821 Y111.52 E12.40839
G1 X125.945 Y110.36 E12.45107
G1 X125.943 Y109.196 E12.49365
G1 X125.814 Y108.038 E12.53628
G1 X125.562 Y106.9 E12.57893
G1 X125.191 Y105.797 E12.6215
G1 X124.699 Y104.739 E12.66419
G1 X124.082 Y103.711 E12.70806
G1 X124.019 Y103.571 E12.71367
G1 X123.989 Y103.36 E12.72147
G1 X124.061 Y103.068 E12.73247
G1 X124.259 Y102.838 E12.74358
G1 X124.555 Y102.717 E12.75528
G1 X128.13 Y102.205 E12.88741
G1 X131.676 Y101.611 E13.01895
G1 X134.577 Y101.055 E13.12702
G1 X134.312 Y99.395 E13.18852
G1 X130.941 Y100.037 E13.31407
G1 X126.885 Y100.696 E13.46441
G1 X122.811 Y101.244 E13.6148
G1 X118.724 Y101.682 E13.76519
G1 X116.643 Y101.847 E13.84156
G1 X116.648 Y101.953 E13.84544
G1 F1045.5 X116.319 Y102.15 E13.86154
G1 F937.8 X115.846 Y102.133 E13.8837
G1 F944.5 X115.581 Y102.129 E13.89602
G1 F937.8 X115.55 Y102.13 E13.89747
G1 F941.2 X114.713 Y102.198 E13.93665
G1 F946.2 X114.565 Y102.226 E13.94363
G1 F939.5 X113.872 Y102.368 E13.97669
G1 F942.9 X113.541 Y102.468 E13.99279
G1 X113.042 Y102.639 E14.01735
G1 X112.547 Y102.855 E14.0425
G1 F944.5 X112.282 Y102.981 E14.05614
G1 F942.9 X111.566 Y103.403 E14.09484
G1 F949.6 X111.444 Y103.561 E14.10407
G1 X111.428 Y103.667 E14.10903
G1 X111.521 Y103.855 E14.11872
G1 X111.72 Y103.922 E14.12843
G1 F947.9 X111.93 Y103.837 E14.13892
G1 F939.5 X112.552 Y103.477 E14.17251
G1 F944.5 X112.773 Y103.359 E14.18415
G1 F942.9 X113.261 Y103.162 E14.20866
G1 X113.71 Y102.993 E14.231
G1 X114.021 Y102.915 E14.24593
G1 F939.5 X114.698 Y102.766 E14.27832
G1 F946.2 X114.783 Y102.754 E14.2823
G1 F941.2 X115.594 Y102.692 E14.32024
G1 F937.8 X116.196 Y102.711 E14.34844
G1 F992.5 X116.468 Y102.762 E14.36068
G1 F1123.4 X116.741 Y102.813 E14.37153
G1 F1200 X116.88 Y102.837 E14.3767
G1 X117.743 Y103.033 E14.40907
G1 X117.837 Y103.062 E14.41267
G1 X118.701 Y103.398 E14.44659
G1 X118.789 Y103.441 E14.45017
G1 X119.593 Y103.903 E14.4841
G1 X119.674 Y103.958 E14.48768
G1 X120.404 Y104.536 E14.52175
G1 X120.556 Y104.687 E14.52959
G1 X121.112 Y105.278 E14.55927
G1 X121.284 Y105.514 E14.56996
G1 X121.7 Y106.116 E14.59673
G1 X121.764 Y106.232 E14.60158
G1 X122.169 Y107.062 E14.63536
G1 X122.193 Y107.126 E14.63787
G1 X122.474 Y108.009 E14.67177
G1 X122.57 Y108.565 E14.69241
G1 X122.649 Y109.055 E14.71057
G1 X122.653 Y109.303 E14.71964
G1 X122.662 Y110.055 E14.74716
G1 X122.655 Y110.149 E14.75061
G1 X122.527 Y111.07 E14.78463
G1 X122.506 Y111.167 E14.78826
G1 X122.235 Y112.077 E14.823
G1 X122.027 Y112.534 E14.84137
G1 X121.815 Y112.989 E14.85973
G1 X121.572 Y113.37 E14.87626
G1 X121.256 Y113.847 E14.8972
G1 X121.195 Y113.925 E14.90082
G1 X120.573 Y114.614 E14.93478
G1 X120.485 Y114.695 E14.93916
G1 X119.782 Y115.273 E14.97245
G1 F1123.4 X119.573 Y115.438 E14.98286
G1 F992.5 X119.363 Y115.604 E14.9947
G1 F944.5 X118.936 Y115.854 E15.0177
G1 X118.747 Y115.946 E15.02747
G1 F941.2 X117.946 Y116.272 E15.06781
G1 F946.2 X117.883 Y116.29 E15.07085
G1 F942.9 X117.141 Y116.478 E15.10649
G1 F944.5 X116.878 Y116.53 E15.11896
G1 F942.9 X116.323 Y116.588 E15.14494
G1 X115.951 Y116.617 E15.16231
G1 X115.501 Y116.606 E15.18327
G1 F937.8 X115.194 Y116.586 E15.19768
G1 F947.9 X114.886 Y116.566 E15.21197
G1 F946.2 X114.68 Y116.532 E15.22166
G1 F944.5 X113.915 Y116.371 E15.258
G1 F949.6 X113.674 Y116.37 E15.26914
G1 F951.4 X113.536 Y116.486 E15.27746
G1 X113.506 Y116.693 E15.28711
G1 X113.633 Y116.861 E15.29683
G1 F949.6 X113.815 Y116.919 E15.30566
G1 F944.5 X114.579 Y117.085 E15.342
G1 F946.2 X114.832 Y117.116 E15.35383
G0 F2100 X120.369 Y115.791
G0 X120.737 Y116.087
G1 F1200 X124.635 Y115.955 E15.49652
G1 X125.323 Y115.93 E15.52171
G1 F1090.9 X125.618 Y115.871 E15.53382
G1 F923.1 X125.913 Y115.811 E15.54813
G1 F857.1 X129.758 Y115.611 E15.74534
G1 F855.8 X130.604 Y115.564 E15.78881
G1 F850.2 X131.45 Y115.517 E15.83256
G1 X132.171 Y115.467 E15.86988
G1 F854.4 X132.892 Y115.417 E15.90702
G1 F859.9 X133.614 Y115.367 E15.94397
G1 F861.3 X133.632 Y115.365 E15.9449
G1 F859.9 X134.964 Y115.269 E16.01308
G1 F857.1 X136.296 Y115.173 E16.08148
G1 F855.8 X136.198 Y114.56 E16.11333
G1 X135.916 Y114.581 E16.12784
G1 F858.5 X133.589 Y114.753 E16.24716
G1 F861.3 X133.575 Y114.754 E16.24787
G1 F859.9 X132.855 Y114.8 E16.28471
G1 F854.4 X132.134 Y114.847 E16.32183
G1 F850.2 X131.413 Y114.894 E16.35914
G1 X130.569 Y114.946 E16.40281
G1 F855.8 X129.726 Y114.997 E16.44614
G1 F857.1 X125.882 Y115.195 E16.64329
G1 F1000 X125.452 Y115.045 E16.66328
G1 F1200 X125.067 Y114.809 E16.6798
G1 X124.836 Y114.499 E16.69395
G1 X124.737 Y114.197 E16.70558
G1 X124.727 Y113.881 E16.71714
G1 X124.913 Y113.249 E16.74125
G1 X125.156 Y112.53 E16.76901
G1 X125.386 Y111.451 E16.80938
G1 X125.494 Y110.426 E16.84708
G1 X125.505 Y110.051 E16.86081
G1 X125.503 Y109.221 E16.89118
G1 X125.379 Y108.11 E16.93208
G1 X125.137 Y107.018 E16.973
G1 X124.782 Y105.961 E17.01379
G1 X124.31 Y104.946 E17.05475
G1 X124.158 Y104.691 E17.06561
G1 X123.705 Y103.938 E17.09776
G1 X123.6 Y103.704 E17.10714
G1 X123.549 Y103.352 E17.12015
G1 X123.67 Y102.867 E17.13844
G1 X123.999 Y102.482 E17.15697
G1 F979.6 X124.286 Y102.228 E17.17415
G1 F834.1 X124.479 Y102.189 E17.18451
G1 F844.8 X125.118 Y102.099 E17.21805
G1 F848.9 X125.758 Y102.009 E17.25147
G1 F851.6 X126.398 Y101.919 E17.28479
G1 F855.8 X127.038 Y101.829 E17.31795
G1 F854.4 X127.541 Y101.754 E17.34408
G1 F848.9 X128.043 Y101.68 E17.37033
G1 F846.2 X128.813 Y101.552 E17.41083
G1 F848.9 X129.584 Y101.424 E17.45125
G1 F851.6 X130.354 Y101.296 E17.49149
G1 F854.4 X131.125 Y101.168 E17.53165
G1 F853 X131.577 Y101.089 E17.55527
G1 F850.2 X133.972 Y100.631 E17.68118
G1 X133.874 Y100.018 E17.71323
G1 X131.461 Y100.479 E17.84008
G1 F853 X131.026 Y100.558 E17.86284
G1 F854.4 X130.256 Y100.684 E17.90293
G1 F851.6 X129.485 Y100.81 E17.94321
G1 F848.9 X128.714 Y100.936 E17.98361
G1 F846.2 X127.943 Y101.062 E18.02415
G1 F848.9 X127.449 Y101.141 E18.05002
G1 F854.4 X126.955 Y101.219 E18.07572
G1 F855.8 X126.315 Y101.306 E18.10886
G1 F851.6 X125.675 Y101.393 E18.14216
G1 F848.9 X125.035 Y101.48 E18.17556
G1 F844.8 X124.394 Y101.568 E18.20919
G1 F834.1 X124.148 Y101.607 E18.2223
G1 F896.4 X123.891 Y101.592 E18.2349
G1 F1079.8 X123.634 Y101.577 E18.24537
G1 F1200 X122.858 Y101.681 E18.27402
G1 X118.758 Y102.121 E18.42488
G1 X117.87 Y102.19 E18.45747
G1 X116.942 Y102.264 E18.49153
G1 X116.796 Y102.378 E18.4983
G1 X116.977 Y102.408 E18.50502
G1 X117.84 Y102.603 E18.53739
G1 X117.997 Y102.652 E18.5434
G1 X118.861 Y102.988 E18.57732
G1 X119.009 Y103.059 E18.58333
G1 X119.813 Y103.521 E18.61725
G1 X119.948 Y103.613 E18.62323
G1 X120.677 Y104.191 E18.65727
G1 X120.877 Y104.386 E18.66749
G1 X121.433 Y104.977 E18.69717
G1 X121.647 Y105.264 E18.71027
G1 X122.063 Y105.866 E18.73704
G1 X122.159 Y106.039 E18.74428
G1 X122.564 Y106.863 E18.77787
G1 X122.613 Y106.993 E18.78296
G1 X122.894 Y107.876 E18.81686
G1 X123.005 Y108.496 E18.8399
G1 X123.086 Y109.006 E18.85879
G1 X123.093 Y109.299 E18.86952
G1 X123.102 Y110.054 E18.89714
G1 X123.091 Y110.21 E18.90286
G1 X122.963 Y111.131 E18.93688
G1 X122.928 Y111.292 E18.94291
