;FLAVOR:Marlin
;TIME:15193
;Filament used: 9.27398m
;Layer height: 0.2
;MINX:73.699
;MINY:74.341
;MINZ:0.2
;MAXX:169.6
;MAXY:138.6
;MAXZ:36.4
;Generated with Cura_SteamEngine 5.0.0
M140 S60
M105
M190 S60
M104 S222
M105
M109 S222
M82 ;absolute extrusion mode
; Ender 3 Custom Start G-code
G92 E0 ; Reset Extruder
M140 S60 ; Start heating the heated bed
M190 S60 ; Wait until the heated bed reaches the desired temperature
G28 ; Auto Home
G29 A; Activate Bed Leveling
G29 L0; Loads the saved mesh in slot 0
G29  J3; 9 point autotilt

G92 E0 ; Reset extruder origin
G1 Z2.0 F3000 ; Move Z Axis up little to prevent scratching of Heat Bed
G1 X0.1 Y20 Z0.3 F5000.0 ; Move to start position
G1 X0.1 Y200.0 Z0.3 F1500.0 E15 ; Draw the first line
G1 X0.4 Y200.0 Z0.3 F5000.0 ; Move to side a little
G1 X0.4 Y20 Z0.3 F1500.0 E30 ; Draw the second line
G92 E0 ; Reset Extruder
G1 Z2.0 F3000 ; Move Z Axis up little to prevent scratching of Heat Bed
G1 X5 Y20 Z0.3 F5000.0 ; Move over to prevent blob squish

; End of Ender 3 Custom Start G-code
G92 E0
G92 E0
G1 F2700 E-5
;LAYER_COUNT:183
;LAYER:0
M107
G0 F2100 X77.174 Y81.547 Z0.2
G0 X73.7 Y90.11
;TYPE:SKIRT
G1 F2700 E0
G1 F1200 X73.71 Y89.439 E0.02455
G1 X73.764 Y88.498 E0.05904
G1 X73.898 Y87.565 E0.09352
G1 X74.11 Y86.647 E0.12799
G1 X74.399 Y85.751 E0.16244
G1 X74.763 Y84.882 E0.19691
G1 X75.2 Y84.047 E0.23139
G1 X75.706 Y83.252 E0.26586
G1 X76.277 Y82.503 E0.30032
G1 X77.174 Y81.547 E0.34828
G1 X77.327 Y81.402 E0.356
G1 X78.037 Y80.784 E0.39043
G1 X78.798 Y80.228 E0.42492
G1 X79.603 Y79.738 E0.45939
G1 X80.446 Y79.319 E0.49384
G1 X81.203 Y79.015 E0.52368
G1 X82.1 Y78.726 E0.55816
G1 X83.388 Y78.453 E0.60633
G1 X83.805 Y78.39 E0.62176
G1 X84.541 Y78.303 E0.64887
G1 X84.937 Y78.27 E0.66341
G1 X85.638 Y78.234 E0.68909
G1 X87.112 Y78.207 E0.74303
G1 X110.524 Y78.205 E1.59959
G1 X113.129 Y78.168 E1.6949
G1 X115.644 Y78.061 E1.787
G1 X118.153 Y77.884 E1.87902
G1 X120.617 Y77.638 E1.96962
G1 X123.148 Y77.314 E2.06297
G1 X125.633 Y76.924 E2.155
G1 X128.104 Y76.465 E2.24695
G1 X130.531 Y75.943 E2.33778
G1 X132.999 Y75.337 E2.43076
G1 X135.207 Y74.733 E2.51451
G1 X136.125 Y74.523 E2.54896
G1 X137.058 Y74.392 E2.58343
G1 X137.999 Y74.341 E2.61791
G1 X138.965 Y74.371 E2.65327
G1 X139.431 Y74.406 E2.67036
G1 X140.676 Y74.571 E2.71631
G1 X159.498 Y78.157 E3.41732
G1 X160.247 Y78.315 E3.44533
G1 X161.16 Y78.548 E3.4798
G1 X162.05 Y78.858 E3.51428
G1 X162.975 Y79.275 E3.55141
G1 X163.192 Y79.385 E3.56031
G1 X164.013 Y79.847 E3.59477
G1 X164.793 Y80.376 E3.62925
G1 X165.524 Y80.969 E3.66369
G1 X166.065 Y81.48 E3.69092
G1 X166.247 Y81.664 E3.70039
G1 X166.88 Y82.361 E3.73483
G1 X167.452 Y83.11 E3.76931
G1 X168.159 Y84.265 E3.81886
G1 X168.262 Y84.459 E3.8269
G1 X168.668 Y85.309 E3.86136
G1 X169.001 Y86.19 E3.89582
G1 X169.257 Y87.097 E3.9303
G1 X169.485 Y88.392 E3.97841
G1 X169.527 Y88.756 E3.99181
G1 X169.6 Y90.09 E4.04069
G1 X169.59 Y90.66 E4.06155
G1 X169.549 Y91.66 E4.09816
G1 X169.549 Y91.818 E4.10395
G1 X169.499 Y92.961 E4.1458
G1 X169.458 Y95.524 E4.23959
G1 X169.491 Y98.056 E4.33223
G1 X169.587 Y100.82 E4.43341
G1 X169.589 Y101.279 E4.45021
G1 X169.553 Y102.22 E4.48466
G1 X169.437 Y103.155 E4.51913
G1 X169.273 Y103.972 E4.54962
G1 X169.031 Y104.882 E4.58407
G1 X168.714 Y105.769 E4.61853
G1 X168.198 Y106.861 E4.66272
G1 X167.856 Y107.484 E4.68872
G1 X166.73 Y109.424 E4.77079
G1 X165.546 Y111.6 E4.86142
G1 X164.39 Y113.875 E4.95478
G1 X163.317 Y116.145 E5.04664
G1 X162.309 Y118.444 E5.13848
G1 X161.356 Y120.8 E5.23147
G1 X160.487 Y123.133 E5.32255
G1 X159.672 Y125.523 E5.41494
G1 X158.975 Y127.771 E5.50104
G1 X158.798 Y128.296 E5.52131
G1 X158.552 Y128.969 E5.54753
G1 X158.192 Y129.839 E5.58198
G1 X157.872 Y130.472 E5.60793
G1 X157.601 Y130.969 E5.62864
G1 X157.116 Y131.776 E5.66309
G1 X156.718 Y132.339 E5.68831
G1 X156.362 Y132.811 E5.70994
G1 X155.763 Y133.538 E5.7444
G1 X155.31 Y134.014 E5.76844
G1 X154.9 Y134.42 E5.78955
G1 X154.203 Y135.054 E5.82403
G1 X153.713 Y135.44 E5.84685
G1 X153.284 Y135.759 E5.86641
G1 X152.505 Y136.289 E5.90088
G1 X151.959 Y136.606 E5.92398
G1 X151.438 Y136.889 E5.94567
G1 X150.592 Y137.303 E5.98013
G1 X150.017 Y137.536 E6.00283
G1 X149.51 Y137.725 E6.02262
G1 X148.614 Y138.016 E6.05709
G1 X147.993 Y138.17 E6.0805
G1 X147.423 Y138.294 E6.10184
G1 X146.494 Y138.455 E6.13634
G1 X145.898 Y138.517 E6.15826
G1 X145.341 Y138.559 E6.17869
G1 X144.754 Y138.587 E6.2002
G1 X144.059 Y138.6 E6.22563
G1 X90.97 Y138.597 E8.16795
G1 X90.102 Y138.58 E8.19971
G1 X89.29 Y138.534 E8.22947
G1 X88.882 Y138.496 E8.24446
G1 X87.762 Y138.334 E8.28586
G1 X87.117 Y138.198 E8.30998
G1 X86.814 Y138.126 E8.32137
G1 X85.509 Y137.73 E8.37127
G1 X84.958 Y137.525 E8.39278
G1 X84.09 Y137.16 E8.42723
G1 X83.472 Y136.844 E8.45262
G1 X82.982 Y136.574 E8.47309
G1 X82.177 Y136.085 E8.50755
G1 X81.646 Y135.707 E8.5314
G1 X81.179 Y135.354 E8.55282
G1 X80.452 Y134.754 E8.5873
G1 X80.003 Y134.328 E8.60995
G1 X79.605 Y133.928 E8.63059
G1 X78.97 Y133.233 E8.66503
G1 X78.57 Y132.726 E8.68866
G1 X78.244 Y132.288 E8.70864
G1 X77.714 Y131.509 E8.74311
G1 X77.394 Y130.959 E8.76639
G1 X77.111 Y130.438 E8.78808
G1 X76.697 Y129.592 E8.82254
G1 X76.464 Y129.017 E8.84524
G1 X76.275 Y128.51 E8.86503
G1 X75.984 Y127.614 E8.8995
G1 X75.83 Y126.993 E8.92291
G1 X75.706 Y126.423 E8.94425
G1 X75.545 Y125.494 E8.97875
G1 X75.482 Y124.877 E9.00144
G1 X75.44 Y124.306 E9.02238
G1 X75.412 Y123.716 E9.04399
G1 X75.4 Y122.996 E9.07034
G1 X75.4 Y120.009 E9.17962
G1 X75.363 Y117.405 E9.2749
G1 X75.256 Y114.889 E9.36704
G1 X75.08 Y112.397 E9.45844
G1 X74.83 Y109.88 E9.55098
G1 X74.513 Y107.405 E9.64227
G1 X73.977 Y104.078 E9.76556
G1 X73.882 Y103.548 E9.78526
G1 X73.755 Y102.615 E9.81971
G1 X73.71 Y101.781 E9.85027
G1 X73.699 Y101.068 E9.87636
G1 X73.7 Y90.11 E10.27727
G0 F2100 X74.14 Y90.116
G1 F1200 X74.15 Y89.445 E10.30182
G1 X74.204 Y88.523 E10.33561
G1 X74.337 Y87.61 E10.36936
G1 X74.549 Y86.711 E10.40316
G1 X74.838 Y85.834 E10.43694
G1 X75.201 Y84.986 E10.47069
G1 X75.637 Y84.172 E10.50447
G1 X76.141 Y83.398 E10.53826
G1 X76.711 Y82.672 E10.57203
G1 X77.476 Y81.867 E10.61266
G1 X77.629 Y81.722 E10.62038
G1 X78.326 Y81.116 E10.65417
G1 X79.073 Y80.573 E10.68795
G1 X79.864 Y80.097 E10.72173
G1 X80.693 Y79.691 E10.7555
G1 X81.355 Y79.427 E10.78158
G1 X82.234 Y79.145 E10.81535
G1 X83.454 Y78.888 E10.86097
G1 X83.871 Y78.825 E10.8764
G1 X84.578 Y78.742 E10.90244
G1 X84.974 Y78.709 E10.91698
G1 X85.647 Y78.674 E10.94163
G1 X87.112 Y78.647 E10.99524
G1 X110.53 Y78.645 E11.85202
G1 X113.154 Y78.608 E11.94803
G1 X115.658 Y78.502 E12.03972
G1 X118.159 Y78.324 E12.13145
G1 X120.715 Y78.07 E12.22543
G1 X123.2 Y77.751 E12.31709
G1 X125.674 Y77.363 E12.40871
G1 X128.204 Y76.893 E12.50286
G1 X130.629 Y76.372 E12.5936
G1 X133.104 Y75.764 E12.68685
G1 X135.323 Y75.157 E12.77102
G1 X136.223 Y74.953 E12.80478
G1 X137.138 Y74.827 E12.83857
G1 X138.06 Y74.78 E12.87235
G1 X138.932 Y74.81 E12.90427
G1 X139.398 Y74.845 E12.92137
G1 X140.594 Y75.003 E12.9655
G1 X159.407 Y78.588 E13.66618
G1 X160.156 Y78.746 E13.69419
G1 X161.051 Y78.975 E13.72799
G1 X161.922 Y79.281 E13.76177
G1 X162.776 Y79.668 E13.79607
G1 X162.993 Y79.778 E13.80497
G1 X163.797 Y80.231 E13.83873
G1 X164.56 Y80.751 E13.87251
G1 X165.274 Y81.336 E13.90628
G1 X165.752 Y81.79 E13.9304
G1 X165.934 Y81.974 E13.93987
G1 X166.554 Y82.657 E13.97362
G1 X167.113 Y83.392 E14.00741
G1 X167.77 Y84.471 E14.05362
G1 X167.873 Y84.665 E14.06166
G1 X168.27 Y85.499 E14.09545
G1 X168.594 Y86.363 E14.12921
G1 X168.842 Y87.253 E14.16302
G1 X169.048 Y88.442 E14.20716
G1 X169.09 Y88.806 E14.22057
G1 X169.16 Y90.088 E14.26754
G1 X169.15 Y90.642 E14.28782
G1 X169.114 Y91.514 E14.31975
G1 X169.11 Y91.799 E14.33017
G1 X169.059 Y92.971 E14.37309
G1 X169.018 Y95.522 E14.46644
G1 X169.05 Y98.037 E14.55846
G1 X169.147 Y100.822 E14.66041
G1 X169.149 Y101.281 E14.67721
G1 X169.113 Y102.203 E14.71096
G1 X168.997 Y103.119 E14.74474
G1 X168.843 Y103.877 E14.77304
G1 X168.606 Y104.769 E14.80681
G1 X168.292 Y105.638 E14.84062
G1 X167.811 Y106.652 E14.88168
G1 X167.476 Y107.263 E14.90717
G1 X166.35 Y109.203 E14.98924
G1 X165.131 Y111.444 E15.08257
G1 X164.007 Y113.656 E15.17335
G1 X162.917 Y115.963 E15.2667
G1 X161.905 Y118.271 E15.3589
G1 X160.954 Y120.62 E15.45162
G1 X160.072 Y122.988 E15.54407
G1 X159.253 Y125.39 E15.63692
G1 X158.555 Y127.641 E15.72314
G1 X158.385 Y128.145 E15.7426
G1 X158.139 Y128.818 E15.76882
G1 X157.785 Y129.67 E15.80257
G1 X157.486 Y130.261 E15.8268
G1 X157.215 Y130.758 E15.84751
G1 X156.738 Y131.549 E15.88131
G1 X156.367 Y132.074 E15.90483
G1 X156.011 Y132.546 E15.92646
G1 X155.423 Y133.258 E15.96024
G1 X155.001 Y133.702 E15.98265
G1 X154.591 Y134.108 E16.00376
G1 X153.907 Y134.728 E16.03754
G1 X153.451 Y135.087 E16.05877
G1 X153.022 Y135.406 E16.07833
G1 X152.258 Y135.925 E16.11212
G1 X151.749 Y136.219 E16.13363
G1 X151.228 Y136.502 E16.15532
G1 X150.399 Y136.907 E16.18908
G1 X149.864 Y137.124 E16.2102
G1 X149.357 Y137.313 E16.22999
G1 X148.478 Y137.597 E16.26379
G1 X147.899 Y137.74 E16.28561
G1 X147.329 Y137.864 E16.30695
G1 X146.419 Y138.021 E16.34074
G1 X145.865 Y138.078 E16.36111
G1 X145.308 Y138.12 E16.38155
G1 X144.744 Y138.147 E16.40221
G1 X144.059 Y138.16 E16.42727
G1 X90.978 Y138.157 E18.3693
G1 X90.11 Y138.14 E18.40107
G1 X89.33 Y138.096 E18.42965
G1 X88.922 Y138.058 E18.44464
G1 X87.847 Y137.902 E18.48438
G1 X87.219 Y137.77 E18.50786
G1 X86.916 Y137.698 E18.51925
G1 X85.663 Y137.318 E18.56716
G1 X85.112 Y137.113 E18.58867
G1 X84.261 Y136.754 E18.62246
G1 X83.684 Y136.458 E18.64619
G1 X83.194 Y136.188 E18.66665
G1 X82.406 Y135.708 E18.70041
G1 X81.911 Y135.356 E18.72263
G1 X81.444 Y135.003 E18.74405
G1 X80.732 Y134.415 E18.77784
G1 X80.315 Y134.018 E18.7989
G1 X79.917 Y133.618 E18.81954
G1 X79.295 Y132.936 E18.85332
G1 X78.923 Y132.464 E18.8753
G1 X78.597 Y132.026 E18.89528
G1 X78.078 Y131.262 E18.92907
G1 X77.781 Y130.749 E18.95076
G1 X77.498 Y130.228 E18.97245
G1 X77.093 Y129.399 E19.00621
G1 X76.876 Y128.864 E19.02733
G1 X76.687 Y128.357 E19.04712
G1 X76.403 Y127.478 E19.08092
G1 X76.26 Y126.899 E19.10274
G1 X76.136 Y126.329 E19.12408
G1 X75.979 Y125.419 E19.15787
G1 X75.921 Y124.845 E19.17897
G1 X75.879 Y124.274 E19.19992
G1 X75.852 Y123.707 E19.22069
G1 X75.84 Y122.996 E19.24671
G1 X75.84 Y120.003 E19.35621
G1 X75.803 Y117.379 E19.45222
G1 X75.697 Y114.875 E19.54391
G1 X75.518 Y112.359 E19.6362
G1 X75.269 Y109.849 E19.72848
G1 X74.948 Y107.342 E19.82095
G1 X74.409 Y103.994 E19.94502
G1 X74.315 Y103.471 E19.96446
G1 X74.192 Y102.556 E19.99824
G1 X74.15 Y101.774 E20.02689
G1 X74.139 Y101.068 E20.05272
G1 X74.14 Y90.116 E20.45341
G0 F2100 X74.58 Y90.123
G1 F1200 X74.59 Y89.452 E20.47796
G1 X74.644 Y88.549 E20.51106
G1 X74.777 Y87.655 E20.54413
G1 X74.988 Y86.776 E20.5772
G1 X75.276 Y85.919 E20.61028
G1 X75.639 Y85.091 E20.64335
G1 X76.074 Y84.299 E20.67641
G1 X76.577 Y83.548 E20.70948
G1 X77.144 Y82.844 E20.74255
G1 X77.779 Y82.186 E20.77601
G1 X77.932 Y82.041 E20.78372
G1 X78.615 Y81.449 E20.81679
G1 X79.348 Y80.919 E20.84988
G1 X80.124 Y80.457 E20.88293
G1 X80.939 Y80.064 E20.91603
G1 X81.508 Y79.84 E20.9384
G1 X82.369 Y79.565 E20.97147
G1 X83.519 Y79.323 E21.01447
G1 X83.936 Y79.26 E21.0299
G1 X84.614 Y79.18 E21.05487
G1 X85.01 Y79.147 E21.06941
G1 X85.655 Y79.114 E21.09304
G1 X87.112 Y79.087 E21.14636
G1 X110.536 Y79.085 E22.00335
G1 X113.143 Y79.048 E22.09874
G1 X115.708 Y78.939 E22.19267
G1 X118.197 Y78.763 E22.28396
G1 X120.746 Y78.509 E22.37768
G1 X123.257 Y78.187 E22.4703
G1 X125.786 Y77.79 E22.56396
G1 X128.271 Y77.329 E22.65643
G1 X130.721 Y76.802 E22.74811
G1 X133.246 Y76.182 E22.84324
G1 X135.439 Y75.582 E22.92642
G1 X136.321 Y75.382 E22.95951
G1 X137.216 Y75.261 E22.99255
G1 X138.119 Y75.22 E23.02562
G1 X138.899 Y75.249 E23.05418
G1 X139.365 Y75.284 E23.07127
G1 X140.512 Y75.435 E23.1136
G1 X159.316 Y79.018 E23.81394
G1 X160.065 Y79.176 E23.84195
G1 X160.941 Y79.402 E23.87505
G1 X161.793 Y79.704 E23.90812
G1 X162.577 Y80.06 E23.93962
G1 X162.794 Y80.17 E23.94852
G1 X163.581 Y80.614 E23.98158
G1 X164.326 Y81.126 E24.01466
G1 X165.023 Y81.702 E24.04774
G1 X165.439 Y82.099 E24.06878
G1 X165.621 Y82.283 E24.07824
G1 X166.228 Y82.953 E24.11132
G1 X166.773 Y83.674 E24.14439
G1 X167.382 Y84.678 E24.18735
G1 X167.485 Y84.872 E24.19539
G1 X167.873 Y85.688 E24.22844
G1 X168.187 Y86.535 E24.26149
G1 X168.426 Y87.407 E24.29457
G1 X168.611 Y88.493 E24.33488
G1 X168.653 Y88.857 E24.34828
G1 X168.72 Y90.085 E24.39328
G1 X168.71 Y90.624 E24.413
G1 X168.668 Y91.642 E24.45028
G1 X168.67 Y91.78 E24.45533
G1 X168.619 Y92.945 E24.49799
G1 X168.578 Y95.521 E24.59225
G1 X168.61 Y98.058 E24.68507
G1 X168.707 Y100.823 E24.7863
G1 X168.709 Y101.282 E24.80309
G1 X168.673 Y102.186 E24.83619
G1 X168.47 Y103.524 E24.8857
G1 X168.413 Y103.783 E24.89541
G1 X168.18 Y104.656 E24.92846
G1 X167.871 Y105.505 E24.96152
G1 X167.424 Y106.443 E24.99953
G1 X167.095 Y107.042 E25.02454
G1 X165.969 Y108.981 E25.10657
G1 X164.753 Y111.217 E25.19969
G1 X163.604 Y113.48 E25.29255
G1 X162.522 Y115.767 E25.38511
G1 X161.494 Y118.111 E25.47876
G1 X160.534 Y120.483 E25.57238
G1 X159.66 Y122.831 E25.66404
G1 X158.844 Y125.224 E25.75654
G1 X158.135 Y127.511 E25.84414
G1 X157.972 Y127.994 E25.86279
G1 X157.726 Y128.667 E25.88901
G1 X157.378 Y129.501 E25.92207
G1 X157.1 Y130.051 E25.94462
G1 X156.829 Y130.548 E25.96533
G1 X156.361 Y131.321 E25.99839
G1 X156.015 Y131.809 E26.02027
G1 X155.659 Y132.281 E26.0419
G1 X155.084 Y132.978 E26.07496
G1 X154.691 Y133.389 E26.09577
G1 X154.281 Y133.795 E26.11688
G1 X153.611 Y134.402 E26.14995
G1 X153.188 Y134.734 E26.16963
G1 X152.759 Y135.053 E26.18919
G1 X152.011 Y135.56 E26.22225
G1 X151.539 Y135.833 E26.2422
G1 X151.018 Y136.116 E26.26389
G1 X150.205 Y136.512 E26.29697
G1 X149.71 Y136.711 E26.31649
G1 X149.203 Y136.9 E26.33629
G1 X148.343 Y137.178 E26.36935
G1 X147.805 Y137.31 E26.38962
G1 X147.235 Y137.434 E26.41096
G1 X146.345 Y137.587 E26.444
G1 X145.831 Y137.639 E26.4629
G1 X145.274 Y137.681 E26.48334
G1 X144.735 Y137.707 E26.50308
G1 X144.059 Y137.72 E26.52782
G1 X90.987 Y137.717 E28.46952
G1 X90.119 Y137.7 E28.50128
G1 X89.371 Y137.658 E28.52869
G1 X88.963 Y137.62 E28.54368
G1 X87.932 Y137.471 E28.5818
G1 X87.32 Y137.342 E28.60468
G1 X87.017 Y137.27 E28.61607
G1 X85.816 Y136.906 E28.66199
G1 X85.265 Y136.701 E28.6835
G1 X84.433 Y136.348 E28.71656
G1 X83.897 Y136.073 E28.7386
G1 X83.407 Y135.803 E28.75907
G1 X82.635 Y135.332 E28.79216
G1 X82.176 Y135.005 E28.81278
G1 X81.709 Y134.652 E28.83419
G1 X81.013 Y134.075 E28.86727
G1 X80.627 Y133.707 E28.88678
G1 X80.229 Y133.307 E28.90743
G1 X79.621 Y132.639 E28.94047
G1 X79.276 Y132.201 E28.96087
G1 X78.95 Y131.763 E28.98085
G1 X78.442 Y131.015 E29.01393
G1 X78.167 Y130.539 E29.03404
G1 X77.884 Y130.018 E29.05573
G1 X77.488 Y129.205 E29.08882
G1 X77.289 Y128.71 E29.10834
G1 X77.1 Y128.203 E29.12813
G1 X76.822 Y127.343 E29.1612
G1 X76.69 Y126.805 E29.18147
G1 X76.566 Y126.235 E29.20281
G1 X76.413 Y125.345 E29.23585
G1 X76.36 Y124.813 E29.25541
G1 X76.318 Y124.242 E29.27636
G1 X76.292 Y123.698 E29.29628
G1 X76.28 Y122.996 E29.32197
G1 X76.28 Y119.997 E29.43169
G1 X76.243 Y117.389 E29.52712
G1 X76.134 Y114.826 E29.62097
G1 X75.957 Y112.321 E29.71285
G1 X75.705 Y109.783 E29.80616
G1 X75.388 Y107.308 E29.89745
G1 X74.839 Y103.9 E30.02375
G1 X74.748 Y103.393 E30.04259
G1 X74.628 Y102.497 E30.07567
G1 X74.59 Y101.766 E30.10245
G1 X74.579 Y101.068 E30.12799
G1 X74.58 Y90.123 E30.52842
G1 F2700 E25.52842
;MESH:octopus clip v3.stl
G0 F2100 X84.134 Y90.123
G0 X85.229 Y90.123
G0 X99.636 Y90.183
G0 X96.973 Y92.583
G0 X97.081 Y97.459
G0 X97.347 Y98.499
G0 X97.908 Y99.418
G0 X98.717 Y100.138
G0 X99.702 Y100.594
G0 X100.761 Y100.756
G0 X138.376 Y101.459
G0 X138.512 Y105.154
G1 F2700 E30.52842
G0 F2100 X138.16 Y105.482
;TYPE:WALL-OUTER
G1 F1200 X138.246 Y105.551 E30.53246
G1 X138.3 Y105.554 E30.53443
G1 X157.802 Y101.843 E31.26074
G1 X158.068 Y101.716 E31.27152
G1 X158.239 Y101.511 E31.28129
G1 X158.288 Y101.263 E31.29054
G1 X158.254 Y100.907 E31.30362
G1 X158.108 Y100.694 E31.31307
G1 X157.877 Y100.568 E31.3227
