;FLAVOR:Marlin
;TIME:589
;Filament used: 0.237636m
;Layer height: 0.2
;MINX:109.076
;MINY:100.452
;MINZ:0.2
;MAXX:125.304
;MAXY:106.55
;MAXZ:10
;Generated with Cura_SteamEngine 5.0.0
M82 ;absolute extrusion mode
START_PRINT EXTRUDER_TEMP=222 BED_TEMP=60
G92 E0
G92 E0
G1 F2700 E-5
;LAYER_COUNT:50
;LAYER:0
M107
;MESH:Markise slot test barrels v2.stl 1
G0 F2100 X121.722 Y106.483 Z0.2
;TYPE:WALL-OUTER
G1 F2700 E0
G1 F1200 X121.996 Y106.518 E0.01011
G1 X122.273 Y106.53 E0.02025
G1 X122.551 Y106.514 E0.03044
G1 X122.828 Y106.475 E0.04067
G1 X123.098 Y106.409 E0.05084
G1 X123.362 Y106.319 E0.06105
G1 X123.617 Y106.206 E0.07125
G1 X123.861 Y106.069 E0.08149
G1 X124.088 Y105.912 E0.09159
G1 X124.301 Y105.733 E0.10177
G1 X124.498 Y105.534 E0.11201
G1 X124.676 Y105.321 E0.12217
G1 X124.834 Y105.092 E0.13234
G1 X124.967 Y104.851 E0.14242
G1 X125.079 Y104.597 E0.15257
G1 X125.166 Y104.33 E0.16285
G1 X125.232 Y104.057 E0.17312
G1 X125.27 Y103.784 E0.18321
G1 X125.284 Y103.504 E0.19346
G1 X125.271 Y103.23 E0.2035
G1 X125.235 Y102.965 E0.21328
G1 X125.171 Y102.681 E0.22393
G1 X125.084 Y102.412 E0.23428
G1 X124.972 Y102.162 E0.2443
G1 X124.838 Y101.917 E0.25452
G1 X124.682 Y101.69 E0.26459
G1 X124.504 Y101.472 E0.27489
G1 X124.309 Y101.275 E0.28503
G1 X124.097 Y101.097 E0.29516
G1 X123.87 Y100.938 E0.3053
G1 X123.626 Y100.8 E0.31556
G1 X123.374 Y100.687 E0.32566
G1 X123.109 Y100.596 E0.33591
G1 X122.838 Y100.529 E0.34612
G1 X122.564 Y100.488 E0.35626
G1 X122.286 Y100.472 E0.36645
G1 X122.009 Y100.482 E0.37659
G1 X121.745 Y100.515 E0.38632
G1 X121.462 Y100.577 E0.39692
G1 X121.196 Y100.662 E0.40714
G1 X120.941 Y100.772 E0.4173
G1 X120.697 Y100.904 E0.42745
G1 X120.464 Y101.059 E0.43769
G1 X120.245 Y101.235 E0.44797
G1 X120.047 Y101.428 E0.45808
G1 X119.868 Y101.637 E0.46815
G1 X119.7 Y101.874 E0.47878
G1 X119.594 Y101.954 E0.48364
G1 X119.514 Y101.967 E0.4866
G1 X114.312 Y101.971 E0.67692
G1 X114.162 Y101.912 E0.68282
G1 X113.971 Y101.677 E0.6939
G1 X113.79 Y101.486 E0.70353
G1 X113.589 Y101.312 E0.71325
G1 X113.375 Y101.161 E0.72284
G1 X113.144 Y101.029 E0.73257
G1 X112.901 Y100.919 E0.74233
G1 X112.641 Y100.827 E0.75242
G1 X112.396 Y100.771 E0.76161
G1 X112.134 Y100.734 E0.7713
G1 X111.873 Y100.722 E0.78085
G1 X111.611 Y100.735 E0.79045
G1 X111.349 Y100.773 E0.80014
G1 X111.104 Y100.832 E0.80936
G1 X110.843 Y100.922 E0.81946
G1 X110.601 Y101.032 E0.82918
G1 X110.369 Y101.165 E0.83897
G1 X110.155 Y101.317 E0.84857
G1 X109.959 Y101.489 E0.85811
G1 X109.774 Y101.684 E0.86795
G1 X109.612 Y101.889 E0.8775
G1 X109.47 Y102.11 E0.88712
G1 X109.347 Y102.347 E0.89688
G1 X109.248 Y102.591 E0.90652
G1 X109.176 Y102.843 E0.91611
G1 X109.123 Y103.104 E0.92585
G1 X109.098 Y103.367 E0.93552
G1 X109.098 Y103.63 E0.94514
G1 X109.123 Y103.891 E0.95473
G1 X109.175 Y104.152 E0.96447
G1 X109.244 Y104.393 E0.97364
G1 X109.345 Y104.651 E0.98378
G1 X109.465 Y104.883 E0.99333
G1 X109.609 Y105.107 E1.00308
G1 X109.771 Y105.316 E1.01275
G1 X109.955 Y105.509 E1.02251
G1 X110.151 Y105.681 E1.03205
G1 X110.367 Y105.835 E1.04175
G1 X110.598 Y105.968 E1.0515
G1 X110.839 Y106.079 E1.06121
G1 X111.099 Y106.171 E1.0713
G1 X111.343 Y106.228 E1.08047
G1 X111.606 Y106.266 E1.09019
G1 X111.867 Y106.28 E1.09975
G1 X112.128 Y106.268 E1.10931
G1 X112.389 Y106.231 E1.11896
G1 X112.65 Y106.169 E1.12877
G1 X112.899 Y106.084 E1.1384
G1 X113.14 Y105.975 E1.14808
G1 X113.371 Y105.843 E1.15781
G1 X113.585 Y105.692 E1.16739
G1 X113.784 Y105.52 E1.17701
G1 X113.969 Y105.328 E1.18677
G1 X114.138 Y105.117 E1.19666
G1 X114.244 Y105.044 E1.20137
G1 X114.315 Y105.035 E1.20399
G1 X119.535 Y105.031 E1.39497
G1 X119.695 Y105.123 E1.40172
G1 X119.862 Y105.359 E1.4123
G1 X120.038 Y105.565 E1.42221
G1 X120.239 Y105.76 E1.43246
G1 X120.456 Y105.936 E1.44268
G1 X120.689 Y106.093 E1.45296
G1 X120.929 Y106.225 E1.46298
G1 X121.182 Y106.334 E1.47306
G1 X121.45 Y106.42 E1.48335
G1 X121.722 Y106.483 E1.49357
G0 F2100 X122.142 Y106.083
;TYPE:WALL-INNER
G1 F1200 X122.398 Y106.083 E1.50294
G1 X122.744 Y106.043 E1.51568
G1 X123.079 Y105.951 E1.52839
G1 X123.419 Y105.812 E1.54183
G1 X123.722 Y105.63 E1.55476
G1 X124.003 Y105.409 E1.56784
G1 X124.242 Y105.154 E1.58063
G1 X124.459 Y104.86 E1.59399
G1 X124.616 Y104.554 E1.60658
G1 X124.708 Y104.315 E1.61595
G1 X124.799 Y103.975 E1.62882
G1 X124.837 Y103.631 E1.64149
G1 X124.833 Y103.27 E1.65469
G1 X124.778 Y102.937 E1.66704
G1 X124.712 Y102.692 E1.67633
G1 X124.62 Y102.452 E1.68573
G1 X124.462 Y102.147 E1.6983
G1 X124.262 Y101.87 E1.7108
G1 X124.092 Y101.682 E1.72007
G1 X123.829 Y101.446 E1.733
G1 X123.529 Y101.251 E1.74609
G1 X123.212 Y101.097 E1.75898
G1 X122.872 Y100.991 E1.77201
G1 X122.519 Y100.926 E1.78514
G1 X122.164 Y100.916 E1.79814
G1 X121.819 Y100.949 E1.81082
G1 X121.469 Y101.037 E1.82402
G1 X121.133 Y101.168 E1.83722
G1 X120.83 Y101.344 E1.85004
G1 X120.537 Y101.565 E1.86346
G1 X120.297 Y101.813 E1.87609
G1 X120.142 Y102.012 E1.88532
G1 X119.9 Y102.287 E1.89872
G1 X119.577 Y102.404 E1.91129
G1 X119.514 Y102.407 E1.9136
G1 X114.311 Y102.411 E2.10395
G1 X114.114 Y102.381 E2.11124
G1 X113.86 Y102.232 E2.12202
G1 X113.637 Y101.967 E2.13469
G1 X113.405 Y101.735 E2.14669
G1 X113.138 Y101.533 E2.15894
G1 X112.841 Y101.375 E2.17125
G1 X112.518 Y101.251 E2.18391
G1 X112.228 Y101.192 E2.19474
G1 X111.874 Y101.162 E2.20773
G1 X111.544 Y101.189 E2.21985
G1 X111.228 Y101.255 E2.23166
G1 X110.908 Y101.375 E2.24416
G1 X110.607 Y101.536 E2.25665
G1 X110.345 Y101.737 E2.26873
G1 X110.107 Y101.972 E2.28097
G1 X109.911 Y102.239 E2.29309
G1 X109.747 Y102.531 E2.30534
G1 X109.634 Y102.844 E2.31752
G1 X109.559 Y103.168 E2.32968
G1 X109.538 Y103.388 E2.33777
G1 X109.549 Y103.716 E2.34978
G1 X109.603 Y104.049 E2.36212
G1 X109.7 Y104.352 E2.37376
G1 X109.847 Y104.663 E2.38634
G1 X110.031 Y104.934 E2.39833
G1 X110.26 Y105.191 E2.41092
G1 X110.513 Y105.399 E2.4229
G1 X110.8 Y105.576 E2.43524
G1 X111.104 Y105.706 E2.44734
G1 X111.425 Y105.795 E2.45952
G1 X111.754 Y105.833 E2.47164
G1 X112.087 Y105.83 E2.48382
G1 X112.412 Y105.773 E2.4959
G1 X112.737 Y105.674 E2.50833
G1 X113.04 Y105.526 E2.52066
G1 X113.313 Y105.345 E2.53265
G1 X113.553 Y105.126 E2.54453
G1 X113.794 Y104.842 E2.55816
G1 X113.959 Y104.695 E2.56625
G1 X114.112 Y104.624 E2.57242
G1 X114.315 Y104.595 E2.57992
G1 X119.574 Y104.592 E2.77233
G1 X119.896 Y104.711 E2.78489
G1 X120.14 Y104.99 E2.79845
G1 X120.359 Y105.263 E2.81125
G1 X120.62 Y105.503 E2.82422
G1 X120.821 Y105.652 E2.83338
G1 X121.123 Y105.829 E2.84618
G1 X121.453 Y105.959 E2.85916
G1 X121.8 Y106.049 E2.87228
G1 X122.142 Y106.083 E2.88485
G0 F2100 X121.877 Y105.615
G1 F1200 X122.161 Y105.644 E2.8953
G1 X122.464 Y105.638 E2.90638
G1 X122.762 Y105.586 E2.91745
G1 X123.041 Y105.499 E2.92814
G1 X123.305 Y105.371 E2.93888
G1 X123.555 Y105.211 E2.94974
G1 X123.772 Y105.017 E2.96039
G1 X123.974 Y104.789 E2.97153
G1 X124.132 Y104.541 E2.98229
G1 X124.256 Y104.281 E2.99283
G1 X124.337 Y104.003 E3.00342
G1 X124.393 Y103.701 E3.01466
G1 X124.399 Y103.403 E3.02556
G1 X124.368 Y103.121 E3.03594
G1 X124.294 Y102.828 E3.047
G1 X124.184 Y102.554 E3.0578
G1 X124.029 Y102.293 E3.06891
G1 X123.85 Y102.062 E3.0796
G1 X123.639 Y101.862 E3.09024
G1 X123.4 Y101.683 E3.10116
G1 X123.141 Y101.548 E3.11185
G1 X122.86 Y101.441 E3.12285
G1 X122.569 Y101.379 E3.13373
G1 X122.278 Y101.353 E3.14442
G1 X121.991 Y101.37 E3.15494
G1 X121.691 Y101.428 E3.16612
G1 X121.412 Y101.526 E3.17694
G1 X121.153 Y101.658 E3.18757
G1 X120.912 Y101.828 E3.19836
G1 X120.69 Y102.031 E3.20937
G1 X120.506 Y102.259 E3.22009
G1 X120.318 Y102.504 E3.23139
G1 X120.153 Y102.647 E3.23938
G1 X119.886 Y102.784 E3.25035
G1 X119.614 Y102.843 E3.26054
G1 X119.514 Y102.847 E3.2642
G1 X114.31 Y102.851 E3.45459
G1 X113.981 Y102.801 E3.46677
G1 X113.727 Y102.683 E3.47702
G1 X113.452 Y102.437 E3.49051
G1 X113.243 Y102.194 E3.50224
G1 X113.046 Y102.006 E3.5122
G1 X112.828 Y101.862 E3.52176
G1 X112.573 Y101.736 E3.53217
G1 X112.304 Y101.653 E3.54247
G1 X112.052 Y101.611 E3.55182
G1 X111.785 Y101.607 E3.56158
G1 X111.516 Y101.638 E3.57149
G1 X111.271 Y101.705 E3.58078
G1 X111.003 Y101.816 E3.5914
G1 X110.777 Y101.955 E3.6011
G1 X110.569 Y102.125 E3.61093
G1 X110.386 Y102.33 E3.62099
G1 X110.232 Y102.552 E3.63087
G1 X110.116 Y102.794 E3.64069
G1 X110.032 Y103.051 E3.65058
G1 X109.987 Y103.323 E3.66067
G1 X109.978 Y103.409 E3.66383
G1 X109.987 Y103.674 E3.67353
G1 X110.031 Y103.945 E3.68358
G1 X110.11 Y104.191 E3.69303
G1 X110.228 Y104.443 E3.70321
G1 X110.379 Y104.663 E3.71297
G1 X110.565 Y104.873 E3.72324
G1 X110.77 Y105.041 E3.73293
G1 X111.002 Y105.185 E3.74292
G1 X111.25 Y105.291 E3.75279
G1 X111.507 Y105.363 E3.76256
G1 X111.777 Y105.394 E3.7725
G1 X112.046 Y105.391 E3.78234
G1 X112.31 Y105.345 E3.79215
G1 X112.575 Y105.264 E3.80228
G1 X112.821 Y105.144 E3.8123
G1 X113.042 Y104.998 E3.82199
G1 X113.236 Y104.82 E3.83162
G1 X113.45 Y104.568 E3.84372
G1 X113.725 Y104.322 E3.85722
G1 X113.98 Y104.204 E3.8675
G1 X114.315 Y104.155 E3.87988
G1 X119.52 Y104.151 E4.07031
G1 X119.884 Y104.213 E4.08382
G1 X120.15 Y104.352 E4.0948
G1 X120.413 Y104.614 E4.10839
G1 X120.618 Y104.889 E4.12093
G1 X120.825 Y105.102 E4.1318
G1 X121.061 Y105.282 E4.14266
G1 X121.316 Y105.433 E4.1535
G1 X121.588 Y105.54 E4.1642
G1 X121.877 Y105.615 E4.17512
G0 F2100 X121.802 Y105.189
;TYPE:SKIN
G1 F1200 X121.463 Y105.052 E4.1885
G1 X121.159 Y104.856 E4.20173
G1 X120.973 Y104.685 E4.21097
G1 X120.751 Y104.408 E4.22396
G1 X120.685 Y104.324 E4.22787
G1 X120.922 Y103.92 E4.24501
G1 X120.943 Y103.939 E4.24604
G1 X121.257 Y103.653 E4.26158
G1 X121.401 Y103.81 E4.26938
G1 X121.111 Y103.493 E4.2851
G1 X121.153 Y103.457 E4.28712
G1 X121.43 Y103.169 E4.30174
G1 F1093.2 X121.634 Y103.334 E4.31228
G1 F926.3 X121.838 Y103.5 E4.32474
G1 F859.9 X122.043 Y103.738 E4.34078
G1 X122.239 Y103.81 E4.35144
G1 X122.422 Y103.769 E4.36101
G1 X122.546 Y103.603 E4.37159
G1 X122.568 Y103.43 E4.3805
G1 X122.49 Y103.285 E4.3889
G1 X122.307 Y103.203 E4.39914
G1 F926.3 X122.054 Y102.998 E4.41457
G1 F1093.2 X121.801 Y102.792 E4.42768
M104 S205
G1 F1200 X121.886 Y102.725 E4.43164
G1 X122.216 Y102.645 E4.44406
G1 X122.582 Y102.709 E4.45765
G1 X122.791 Y102.853 E4.46694
G1 X122.994 Y103.061 E4.47757
G1 X123.093 Y103.338 E4.48833
G1 X123.098 Y103.647 E4.49964
G1 X122.957 Y103.989 E4.51317
G1 X122.707 Y104.228 E4.52583
G1 X122.373 Y104.346 E4.53879
G1 X122.032 Y104.328 E4.55128
G1 X121.825 Y104.22 E4.55982
G1 X121.56 Y104.008 E4.57224
G1 X121.543 Y103.986 E4.57326
G1 X121.22 Y104.281 E4.58926
G1 X121.279 Y104.351 E4.59261
G1 X121.554 Y104.588 E4.60589
G1 X121.791 Y104.709 E4.61563
G1 X122.05 Y104.78 E4.62545
G1 X122.441 Y104.787 E4.63976
G1 X122.72 Y104.714 E4.65031
G1 X123.051 Y104.52 E4.66435
G1 X123.328 Y104.239 E4.67879
G1 X123.459 Y103.988 E4.68914
G1 X123.537 Y103.732 E4.69894
G1 X123.544 Y103.377 E4.71193
G1 X123.49 Y103.111 E4.72186
G1 X123.376 Y102.833 E4.73285
G1 X123.175 Y102.583 E4.74459
G1 X122.943 Y102.399 E4.75542
G1 X122.621 Y102.26 E4.76825
G1 X122.364 Y102.215 E4.7778
G1 X122.053 Y102.221 E4.78918
G1 X121.691 Y102.323 E4.80294
G1 X121.474 Y102.463 E4.81238
G1 X121.268 Y102.653 E4.82264
G1 X121.095 Y102.884 E4.8332
G1 X120.855 Y103.13 E4.84577
G1 X120.606 Y103.348 E4.85788
G1 X120.323 Y103.503 E4.86968
G1 X120.711 Y103.73 E4.88613
G1 X120.572 Y103.649 E4.89202
G1 X120.359 Y104.012 E4.90741
G1 X119.989 Y103.829 E4.92252
G1 F1152.8 X119.628 Y103.736 E4.93671
G1 F1111.6 X117.857 Y103.737 E5.00666
G1 F1113.9 X116.086 Y103.738 E5.07646
G1 F1118.6 X114.315 Y103.739 E5.14597
G1 F1121 X114.281 Y103.743 E5.14731
G1 F1160.4 X113.83 Y103.833 E5.16471
G1 F1200 X113.494 Y103.997 E5.17839
G1 X113.223 Y103.666 E5.19404
G1 X113.307 Y103.597 E5.19802
G1 X113.504 Y103.505 E5.20597
G1 X113.303 Y103.407 E5.21415
G1 X113.024 Y103.203 E5.2268
G1 X112.772 Y102.933 E5.24031
G1 X112.6 Y102.747 E5.24958
G1 X112.351 Y102.562 E5.26093
G1 X112.071 Y102.478 E5.27162
G1 X111.744 Y102.468 E5.28359
G1 X111.607 Y102.506 E5.28879
G1 X111.722 Y102.917 E5.30441
G1 X112.042 Y102.918 E5.31611
G1 X112.31 Y103.083 E5.32763
G1 X112.719 Y103.518 E5.34947
G1 X112.483 Y103.727 E5.36101
G1 X112.291 Y103.93 E5.37123
G1 X112.054 Y104.078 E5.38145
G1 X111.782 Y104.087 E5.39141
G1 X111.598 Y104.032 E5.39844
G1 X111.379 Y103.847 E5.40892
G1 X111.275 Y103.568 E5.41982
G1 X111.333 Y103.24 E5.432
G1 X111.35 Y103.218 E5.43302
G1 X111.206 Y102.702 E5.45262
G1 X111.189 Y102.713 E5.45336
G1 X110.991 Y102.946 E5.46455
G1 X110.884 Y103.186 E5.47416
G1 X110.84 Y103.44 E5.48359
G1 X110.828 Y103.594 E5.48925
G1 X110.89 Y103.858 E5.49917
G1 X111.017 Y104.107 E5.50939
G1 X111.275 Y104.346 E5.52226
G1 X111.569 Y104.498 E5.53437
G1 X111.866 Y104.548 E5.54539
G1 X112.161 Y104.512 E5.55626
G1 X112.472 Y104.348 E5.56912
G1 X112.717 Y104.131 E5.5811
G1 X112.971 Y103.873 E5.59434
G1 X112.891 Y103.954 E5.59851
G1 X113.165 Y104.289 E5.61434
G1 X113.16 Y104.293 E5.61458
G1 X112.954 Y104.535 E5.62621
G1 X112.736 Y104.723 E5.63674
G1 X112.491 Y104.862 E5.64704
G1 X112.145 Y104.966 E5.66026
G1 X111.867 Y104.99 E5.67047
G1 X111.574 Y104.959 E5.68125
G1 X111.248 Y104.856 E5.69376
G1 X111.003 Y104.715 E5.7041
G1 X110.724 Y104.447 E5.71825
G1 X110.571 Y104.218 E5.72833
G1 X110.44 Y103.916 E5.74037
G1 X110.386 Y103.636 E5.75081
G1 X110.386 Y103.362 E5.76083
G1 X110.477 Y102.984 E5.77506
G1 X110.623 Y102.682 E5.78733
G1 X110.792 Y102.473 E5.79716
G1 X111.009 Y102.283 E5.80771
G1 X111.353 Y102.105 E5.82189
G1 X111.608 Y102.034 E5.83157
G1 X111.884 Y102.011 E5.8417
G1 X112.144 Y102.036 E5.85126
G1 X112.444 Y102.125 E5.86271
G1 X112.674 Y102.243 E5.87216
G1 X112.935 Y102.457 E5.88451
G1 X113.117 Y102.659 E5.89446
G1 X113.296 Y102.856 E5.9042
G1 X113.535 Y103.033 E5.91508
G1 X113.892 Y103.189 E5.92933
G1 F1157.9 X114.316 Y103.267 E5.94568
G1 F1118.6 X116.087 Y103.265 E6.01519
G1 F1113.9 X117.858 Y103.263 E6.08499
G1 F1111.6 X119.629 Y103.26 E6.15494
G1 F1121 X119.677 Y103.251 E6.15685
G1 F1165.6 X120.045 Y103.15 E6.17122
G1 F1200 X120.359 Y102.987 E6.18417
G1 X120.543 Y102.82 E6.19326
G1 X120.872 Y102.445 E6.21151
G1 X121.099 Y102.192 E6.22395
G1 X121.39 Y101.989 E6.23693
G1 X121.619 Y101.878 E6.24624
G1 X121.962 Y101.779 E6.2593
G1 X122.298 Y101.76 E6.27161
G1 X122.662 Y101.807 E6.28504
G1 X122.908 Y101.88 E6.29443
G1 X123.209 Y102.045 E6.30699
G1 X123.491 Y102.272 E6.32023
G1 X123.748 Y102.593 E6.33527
G1 X123.89 Y102.899 E6.34762
G1 X123.972 Y103.214 E6.35952
G1 X123.997 Y103.483 E6.36941
G1 X123.972 Y103.816 E6.38163
G1 X123.868 Y104.156 E6.39463
G1 X123.748 Y104.398 E6.40452
G1 X123.549 Y104.673 E6.41694
G1 X123.29 Y104.902 E6.42959
G1 X123.061 Y105.044 E6.43944
G1 X122.74 Y105.178 E6.45217
G1 X122.4 Y105.235 E6.46478
G1 X122.107 Y105.236 E6.4755
G1 X121.802 Y105.189 E6.48679
G1 F2700 E1.48679
G0 F2100 X121.739 Y105.459
G0 X119.747 Y104.806
G0 X117.3 Y104.836
G0 X113.406 Y104.292
G0 X111.975 Y103.5
G1 F2700 E6.48679
G1 F741.6 X111.93 Y103.577 E6.49207
G1 X111.842 Y103.577 E6.49728
G1 X111.797 Y103.5 E6.50256
G1 X111.842 Y103.423 E6.50784
G1 X111.93 Y103.423 E6.51305
G0 F2100 X112.709 Y101.742
G1 F2700 E1.51305
;MESH:NONMESH
G0 F300 X112.709 Y101.742 Z0.4
G0 F2100 X111.403 Y101.851
G0 X110.815 Y102.15
G0 X110.353 Y102.711
G0 X110.159 Y103.417
G0 X110.25 Y104.051
G0 X110.576 Y104.623
G0 X111.085 Y105.024
G0 X111.711 Y105.209
G0 X112.351 Y105.148
G0 X112.93 Y104.855
G0 X117.422 Y103.948
G0 X119.851 Y104.606
G0 X121.808 Y106.001
G1 F2700 E6.51305
G0 F2100 X121.707 Y106.499
;TIME_ELAPSED:18.399450
;LAYER:1
;TYPE:WALL-OUTER
;MESH:Markise slot test barrels v2.stl 1
G1 F1417.3 X121.986 Y106.537 E6.52242
G1 X122.262 Y106.55 E6.53161
G1 X122.541 Y106.535 E6.5409
G1 X122.819 Y106.496 E6.55024
G1 X123.081 Y106.433 E6.5592
G1 X123.358 Y106.343 E6.56889
G1 X123.615 Y106.228 E6.57825
G1 X123.862 Y106.091 E6.58765
G1 X124.09 Y105.936 E6.59682
G1 X124.309 Y105.754 E6.60629
G1 X124.506 Y105.557 E6.61555
G1 X124.687 Y105.341 E6.62493
G1 X124.844 Y105.112 E6.63416
G1 X124.98 Y104.868 E6.64345
G1 X125.094 Y104.613 E6.65274
G1 X125.183 Y104.347 E6.66207
G1 X125.249 Y104.073 E6.67145
G1 X125.289 Y103.795 E6.68079
G1 X125.303 Y103.517 E6.69005
