;FLAVOR:Marlin
;TIME:1016
;Filament used: 0.837879m
;Layer height: 0.2
;MINX:107.709
;MINY:100.202
;MINZ:0.2
;MAXX:126.924
;MAXY:134.798
;MAXZ:10
;Generated with Cura_SteamEngine 5.0.0
M82 ;absolute extrusion mode
START_PRINT EXTRUDER_TEMP=222 BED_TEMP=60
G92 E0
G92 E0
G1 F2700 E-5
;LAYER_COUNT:50
;LAYER:0
M107
;MESH:Markise slot test barrels v1.stl
G0 F2100 X122.017 Y106.271 Z0.2
;TYPE:WALL-OUTER
G1 F2700 E0
G1 F1200 X122.292 Y106.279 E0.01007
G1 X122.569 Y106.263 E0.02022
G1 X122.844 Y106.221 E0.03039
G1 X123.114 Y106.154 E0.04057
G1 X123.375 Y106.064 E0.05067
G1 X123.629 Y105.95 E0.06086
G1 X123.873 Y105.812 E0.07111
G1 X124.094 Y105.656 E0.08101
G1 X124.31 Y105.475 E0.09132
G1 X124.506 Y105.278 E0.10149
G1 X124.681 Y105.065 E0.11158
G1 X124.838 Y104.835 E0.12176
G1 X124.971 Y104.594 E0.13183
G1 X125.089 Y104.325 E0.14258
G1 X125.168 Y104.075 E0.15217
G1 X125.234 Y103.802 E0.16245
G1 X125.272 Y103.528 E0.17257
G1 X125.284 Y103.253 E0.18264
G1 X125.272 Y102.975 E0.19282
G1 X125.235 Y102.715 E0.20243
G1 X125.171 Y102.429 E0.21315
G1 X125.085 Y102.163 E0.22338
G1 X124.974 Y101.915 E0.23332
G1 X124.839 Y101.671 E0.24352
G1 X124.683 Y101.443 E0.25363
G1 X124.507 Y101.225 E0.26388
G1 X124.313 Y101.028 E0.274
G1 X124.102 Y100.851 E0.28407
G1 X123.876 Y100.692 E0.29418
G1 X123.633 Y100.554 E0.30441
G1 X123.379 Y100.438 E0.31462
G1 X123.105 Y100.341 E0.32526
G1 X122.85 Y100.281 E0.33484
G1 X122.575 Y100.239 E0.34502
G1 X122.299 Y100.222 E0.35514
G1 X122.023 Y100.23 E0.36524
G1 X121.746 Y100.265 E0.37545
G1 X121.475 Y100.323 E0.38559
G1 X121.212 Y100.406 E0.39568
G1 X120.954 Y100.514 E0.40591
G1 X120.712 Y100.644 E0.41597
G1 X120.481 Y100.796 E0.42608
G1 X120.263 Y100.969 E0.43626
G1 X120.062 Y101.162 E0.44646
G1 X119.88 Y101.37 E0.45657
G1 X119.718 Y101.595 E0.46671
G1 X119.579 Y101.835 E0.47686
G1 X119.456 Y102.092 E0.48729
G1 X119.359 Y102.192 E0.49238
G1 X119.253 Y102.217 E0.49637
G1 X114.603 Y102.221 E0.66649
G1 X114.449 Y102.16 E0.67255
G1 X114.279 Y101.859 E0.6852
G1 X114.139 Y101.64 E0.69471
G1 X113.98 Y101.436 E0.70417
G1 X113.794 Y101.24 E0.71406
G1 X113.594 Y101.066 E0.72376
G1 X113.374 Y100.91 E0.73362
G1 X113.148 Y100.781 E0.74315
G1 X112.907 Y100.671 E0.75284
G1 X112.645 Y100.578 E0.76301
G1 X112.401 Y100.522 E0.77217
G1 X112.139 Y100.484 E0.78185
G1 X111.877 Y100.472 E0.79145
G1 X111.615 Y100.484 E0.80105
G1 X111.353 Y100.522 E0.81073
G1 X111.108 Y100.581 E0.81995
G1 X110.846 Y100.67 E0.83007
G1 X110.603 Y100.78 E0.83983
G1 X110.372 Y100.913 E0.84959
G1 X110.159 Y101.065 E0.85916
G1 X109.961 Y101.238 E0.86878
G1 X109.775 Y101.432 E0.87861
G1 X109.613 Y101.638 E0.8882
G1 X109.469 Y101.86 E0.89788
G1 X109.348 Y102.096 E0.90758
G1 X109.243 Y102.353 E0.91774
G1 X109.156 Y102.693 E0.93058
G1 X109.113 Y102.982 E0.94127
G1 X109.099 Y103.117 E0.94624
G1 X109.099 Y103.38 E0.95586
G1 X109.124 Y103.642 E0.96549
G1 X109.175 Y103.903 E0.97522
G1 X109.245 Y104.143 E0.98436
G1 X109.346 Y104.402 E0.99454
G1 X109.466 Y104.636 E1.00416
G1 X109.61 Y104.859 E1.01387
G1 X109.772 Y105.067 E1.02351
G1 X109.957 Y105.261 E1.03332
G1 X110.153 Y105.433 E1.04286
G1 X110.368 Y105.586 E1.05252
G1 X110.599 Y105.719 E1.06227
G1 X110.842 Y105.83 E1.07204
G1 X111.103 Y105.923 E1.08218
G1 X111.347 Y105.979 E1.09134
G1 X111.611 Y106.017 E1.1011
G1 X111.872 Y106.03 E1.11066
G1 X112.134 Y106.017 E1.12026
G1 X112.395 Y105.98 E1.1299
G1 X112.64 Y105.921 E1.13912
G1 X112.903 Y105.832 E1.14928
G1 X113.144 Y105.722 E1.15897
G1 X113.369 Y105.594 E1.16844
G1 X113.592 Y105.436 E1.17844
G1 X113.789 Y105.264 E1.18801
G1 X113.974 Y105.071 E1.19779
G1 X114.136 Y104.865 E1.20738
G1 X114.28 Y104.643 E1.21706
G1 X114.404 Y104.404 E1.22691
G1 X114.504 Y104.307 E1.23201
G1 X114.603 Y104.285 E1.23572
G1 X119.274 Y104.281 E1.40661
G1 X119.414 Y104.349 E1.4123
G1 X119.576 Y104.663 E1.42523
G1 X119.714 Y104.899 E1.43523
G1 X119.876 Y105.125 E1.44541
G1 X120.058 Y105.334 E1.45555
G1 X120.258 Y105.527 E1.46572
G1 X120.476 Y105.701 E1.47592
G1 X120.706 Y105.852 E1.48599
G1 X120.946 Y105.981 E1.49596
G1 X121.206 Y106.093 E1.50631
G1 X121.466 Y106.176 E1.5163
G1 X121.74 Y106.235 E1.52655
G1 X122.017 Y106.271 E1.53677
G0 F2100 X121.475 Y105.716
;TYPE:WALL-INNER
G1 F1200 X121.815 Y105.801 E1.54959
G1 X122.173 Y105.835 E1.56275
G1 X122.523 Y105.825 E1.57556
G1 X122.876 Y105.76 E1.58869
G1 X123.213 Y105.654 E1.60162
G1 X123.529 Y105.501 E1.61446
G1 X123.825 Y105.307 E1.62741
G1 X124.092 Y105.07 E1.64047
G1 X124.329 Y104.801 E1.65359
G1 X124.519 Y104.502 E1.66655
G1 X124.677 Y104.169 E1.68004
G1 X124.765 Y103.871 E1.6914
G1 X124.817 Y103.603 E1.70139
G1 X124.844 Y103.253 E1.71423
G1 X124.816 Y102.892 E1.72748
G1 X124.746 Y102.545 E1.74043
G1 X124.621 Y102.204 E1.75372
G1 X124.463 Y101.901 E1.76622
G1 X124.257 Y101.619 E1.779
G1 X124.014 Y101.352 E1.79221
G1 X123.746 Y101.138 E1.80476
G1 X123.531 Y101.002 E1.81406
G1 X123.214 Y100.846 E1.82699
G1 X122.857 Y100.735 E1.84067
G1 X122.528 Y100.677 E1.85289
G1 X122.177 Y100.665 E1.86574
G1 X121.82 Y100.699 E1.87886
G1 X121.475 Y100.784 E1.89186
G1 X121.143 Y100.912 E1.90488
G1 X120.842 Y101.085 E1.91758
G1 X120.553 Y101.301 E1.93078
G1 X120.303 Y101.555 E1.94382
G1 X120.088 Y101.835 E1.95673
G1 X119.924 Y102.134 E1.96921
G1 X119.734 Y102.454 E1.98283
G1 X119.563 Y102.582 E1.99064
G1 X119.314 Y102.654 E2.00013
G1 X119.253 Y102.657 E2.00236
G1 X114.603 Y102.661 E2.17249
G1 X114.314 Y102.595 E2.18333
G1 X114.058 Y102.377 E2.19563
G1 X113.896 Y102.081 E2.20798
G1 X113.714 Y101.811 E2.21989
G1 X113.489 Y101.558 E2.23228
G1 X113.228 Y101.346 E2.24458
G1 X112.947 Y101.173 E2.25665
G1 X112.646 Y101.046 E2.26861
G1 X112.404 Y100.975 E2.27783
G1 X112.097 Y100.923 E2.28922
G1 X111.771 Y100.917 E2.30115
G1 X111.436 Y100.954 E2.31348
G1 X111.131 Y101.037 E2.32505
G1 X110.804 Y101.172 E2.33799
G1 X110.523 Y101.345 E2.35007
G1 X110.265 Y101.556 E2.36226
G1 X110.039 Y101.808 E2.37464
G1 X109.85 Y102.081 E2.38679
G1 X109.71 Y102.373 E2.39864
G1 X109.628 Y102.612 E2.40788
G1 X109.561 Y102.919 E2.41938
G1 X109.539 Y103.139 E2.42747
G1 X109.55 Y103.467 E2.43948
G1 X109.603 Y103.799 E2.45178
G1 X109.698 Y104.096 E2.46318
G1 X109.848 Y104.416 E2.47611
G1 X110.032 Y104.684 E2.48801
G1 X110.262 Y104.943 E2.50068
G1 X110.518 Y105.152 E2.51277
G1 X110.801 Y105.327 E2.52495
G1 X111.101 Y105.455 E2.53688
G1 X111.344 Y105.526 E2.54614
G1 X111.653 Y105.579 E2.55761
G1 X111.984 Y105.584 E2.56972
G1 X112.312 Y105.548 E2.58179
G1 X112.615 Y105.466 E2.59328
G1 X112.944 Y105.33 E2.6063
G1 X113.221 Y105.16 E2.61819
G1 X113.485 Y104.946 E2.63063
G1 X113.711 Y104.693 E2.64304
G1 X113.9 Y104.421 E2.65516
G1 X114.057 Y104.129 E2.66729
G1 X114.313 Y103.91 E2.67961
G1 X114.603 Y103.845 E2.69049
G1 X119.312 Y103.842 E2.86277
G1 X119.561 Y103.916 E2.87227
G1 X119.811 Y104.146 E2.8847
G1 X119.965 Y104.457 E2.8974
G1 X120.152 Y104.755 E2.91027
G1 X120.378 Y105.031 E2.92332
G1 X120.642 Y105.27 E2.93635
G1 X120.931 Y105.474 E2.94929
G1 X121.237 Y105.627 E2.96181
G1 X121.475 Y105.716 E2.97111
G0 F2100 X122.086 Y105.393
G1 F1200 X122.373 Y105.393 E2.98161
G1 X122.672 Y105.357 E2.99262
G1 X122.954 Y105.279 E3.00333
G1 X123.231 Y105.163 E3.01432
G1 X123.483 Y105.009 E3.02512
G1 X123.714 Y104.826 E3.0359
G1 X123.915 Y104.611 E3.04667
G1 X124.087 Y104.374 E3.05739
G1 X124.219 Y104.117 E3.06796
G1 X124.32 Y103.839 E3.07878
G1 X124.381 Y103.542 E3.08987
G1 X124.403 Y103.253 E3.10047
G1 X124.38 Y102.955 E3.11141
G1 X124.321 Y102.661 E3.12238
G1 X124.22 Y102.384 E3.13317
G1 X124.088 Y102.131 E3.14361
G1 X123.915 Y101.899 E3.1542
G1 X123.715 Y101.675 E3.16518
G1 X123.492 Y101.498 E3.1756
G1 X123.233 Y101.339 E3.18672
G1 X122.965 Y101.226 E3.19736
G1 X122.682 Y101.145 E3.20813
G1 X122.384 Y101.109 E3.21911
G1 X122.091 Y101.109 E3.22983
G1 X121.8 Y101.153 E3.2406
G1 X121.515 Y101.234 E3.25144
G1 X121.245 Y101.357 E3.26229
G1 X120.998 Y101.509 E3.2729
G1 X120.775 Y101.698 E3.2836
G1 X120.571 Y101.917 E3.29455
G1 X120.408 Y102.159 E3.30522
G1 X120.25 Y102.472 E3.31805
G1 X120.051 Y102.758 E3.3308
G1 X119.767 Y102.972 E3.34381
G1 F885.9 X119.364 Y103.248 E3.36801
G1 X119.766 Y103.526 E3.39224
G1 F1200 X120.05 Y103.741 E3.40527
G1 X120.247 Y104.027 E3.41797
G1 X120.4 Y104.329 E3.43036
G1 X120.567 Y104.578 E3.44133
G1 X120.763 Y104.791 E3.45192
G1 X120.993 Y104.988 E3.463
G1 X121.239 Y105.139 E3.47356
G1 X121.514 Y105.267 E3.48466
G1 X121.781 Y105.343 E3.49481
G1 X122.086 Y105.393 E3.50612
G0 F2100 X121.072 Y104.797
G0 X119.364 Y103.248
G1 F703.1 X118.412 Y103.248 E3.56557
G1 F704.9 X117.46 Y103.249 E3.62486
G1 F705.9 X116.508 Y103.25 E3.68407
G1 F707.8 X115.556 Y103.251 E3.74312
G1 F709.7 X114.604 Y103.252 E3.80202
G0 F2100 X112.662 Y104.776
G0 X111.509 Y105.113
G1 F1200 X111.782 Y105.144 E3.81207
G1 X112.05 Y105.14 E3.82188
G1 X112.314 Y105.095 E3.83167
G1 X112.579 Y105.012 E3.84183
G1 X112.82 Y104.894 E3.85165
G1 X113.048 Y104.743 E3.86166
G1 X113.237 Y104.569 E3.87106
G1 X113.416 Y104.353 E3.88132
G1 X113.56 Y104.119 E3.89137
G1 X113.695 Y103.879 E3.90145
G1 X113.836 Y103.712 E3.90944
G1 X114.122 Y103.513 E3.92219
G1 F1023.3 X114.362 Y103.383 E3.9339
G1 F790.4 X114.603 Y103.253 E3.94911
G1 X114.363 Y103.122 E3.9643
G1 F1023.3 X114.122 Y102.991 E3.97607
G1 F1200 X113.837 Y102.793 E3.98876
G1 X113.625 Y102.508 E4.00176
G1 X113.465 Y102.228 E4.01356
G1 X113.312 Y102.012 E4.02324
G1 X113.12 Y101.82 E4.03318
G1 X112.902 Y101.654 E4.0432
G1 X112.672 Y101.532 E4.05273
G1 X112.399 Y101.425 E4.06345
G1 X112.147 Y101.375 E4.07285
G1 X111.877 Y101.353 E4.08276
G1 X111.608 Y101.374 E4.09264
G1 X111.353 Y101.427 E4.10217
G1 X111.087 Y101.527 E4.11256
G1 X110.847 Y101.655 E4.12251
G1 X110.637 Y101.815 E4.13217
G1 X110.44 Y102.01 E4.14231
G1 X110.281 Y102.223 E4.15204
G1 X110.148 Y102.464 E4.16211
G1 X110.052 Y102.731 E4.17249
G1 X109.997 Y102.983 E4.18193
G1 X109.979 Y103.161 E4.18847
G1 X109.988 Y103.423 E4.19806
G1 X110.031 Y103.696 E4.20817
G1 X110.108 Y103.935 E4.21736
G1 X110.229 Y104.196 E4.22789
G1 X110.379 Y104.413 E4.23754
G1 X110.567 Y104.625 E4.2479
G1 X110.773 Y104.794 E4.25765
G1 X111.003 Y104.936 E4.26754
G1 X111.249 Y105.04 E4.27731
G1 X111.509 Y105.113 E4.28719
G0 F2100 X111.799 Y104.736
;TYPE:SKIN
G1 F1200 X111.493 Y104.689 E4.29852
G1 X111.19 Y104.58 E4.3103
G1 X110.949 Y104.425 E4.32079
G1 X110.743 Y104.227 E4.33124
G1 X110.576 Y103.993 E4.34176
G1 X110.451 Y103.68 E4.35409
G1 X110.39 Y103.305 E4.36799
G1 X110.381 Y103.176 E4.37272
G1 X110.45 Y102.817 E4.38609
G1 X110.56 Y102.552 E4.39659
G1 X110.696 Y102.339 E4.40584
G1 X110.914 Y102.112 E4.41735
G1 X111.136 Y101.96 E4.4272
G1 X111.361 Y101.851 E4.43634
G1 X111.603 Y101.787 E4.4455
G1 X111.882 Y101.762 E4.45575
G1 X112.17 Y101.791 E4.46634
G1 X112.511 Y101.897 E4.4794
G1 X112.742 Y102.033 E4.48921
G1 X113.02 Y102.295 E4.50319
G1 X113.094 Y102.405 E4.50804
G1 X112.735 Y102.645 E4.52384
G1 X112.554 Y102.455 E4.53344
G1 X112.319 Y102.297 E4.5438
G1 X111.989 Y102.215 E4.55624
G1 X111.738 Y102.221 E4.56542
G1 X111.463 Y102.292 E4.57582
G1 X111.193 Y102.455 E4.58735
G1 X110.99 Y102.681 E4.59847
G1 X110.875 Y102.953 E4.60927
G1 X110.836 Y103.225 E4.61933
G1 X110.859 Y103.448 E4.62753
G1 X110.964 Y103.756 E4.63943
G1 X111.148 Y104.002 E4.65067
G1 X111.402 Y104.19 E4.66223
G1 X111.675 Y104.271 E4.67265
G1 X111.68 Y104.272 E4.67284
G1 X111.578 Y103.761 E4.6919
G1 X111.524 Y103.731 E4.69416
G1 X111.32 Y103.48 E4.706
G1 X111.281 Y103.163 E4.71768
G1 X111.425 Y102.854 E4.73015
G1 X111.632 Y102.712 E4.73934
G1 X111.872 Y102.649 E4.74842
G1 X112.124 Y102.702 E4.75784
G1 X112.39 Y102.926 E4.77056
G1 X112.587 Y103.254 E4.78456
G1 X112.287 Y103.692 E4.80398
G1 X112.041 Y103.834 E4.81437
G1 X112.124 Y104.25 E4.82989
G1 X112.247 Y104.225 E4.83449
G1 X112.476 Y104.096 E4.8441
G1 X112.692 Y103.9 E4.85477
G1 X112.884 Y103.597 E4.8679
G1 X113.047 Y103.365 E4.87827
G1 X113.134 Y103.26 E4.88326
G1 X112.973 Y103.057 E4.89274
G1 X112.955 Y103.026 E4.89405
G1 X113.325 Y102.779 E4.91033
G1 X113.379 Y102.871 E4.91423
G1 X113.583 Y103.1 E4.92545
G1 X113.801 Y103.252 E4.93517
G1 X113.532 Y103.454 E4.94748
G1 X113.27 Y103.809 E4.96362
G1 X113.133 Y104.058 E4.97402
G1 X112.901 Y104.338 E4.98732
G1 X112.681 Y104.512 E4.99759
G1 X112.33 Y104.671 E5.01168
G1 X112.078 Y104.725 E5.02111
G1 X111.799 Y104.736 E5.03133
G0 F2100 X111.788 Y105.024
G0 X112.573 Y104.773
G0 X111.971 Y103.252
G1 F741.6 X111.926 Y103.329 E5.03661
G1 X111.838 Y103.329 E5.04182
G1 X111.793 Y103.252 E5.0471
G1 X111.838 Y103.175 E5.05238
G1 X111.926 Y103.175 E5.05759
G1 F2700 E0.05759
G0 F2100 X113.514 Y103.753
G0 X115.4 Y104.087
G0 X119.536 Y104.058
G0 X119.662 Y104.296
G0 X122.082 Y105.271
G1 F2700 E5.05759
G0 F2100 X122.12 Y104.993
G1 F1200 X121.782 Y104.928 E5.07018
G1 X121.528 Y104.833 E5.0801
G1 X121.426 Y104.774 E5.08441
G1 X121.641 Y104.4 E5.1002
G1 X121.902 Y104.502 E5.11045
G1 X121.938 Y104.509 E5.11179
G1 X121.895 Y104.021 E5.12971
G1 X122.187 Y104.087 E5.14067
G1 X121.86 Y104.013 E5.15293
G1 X121.798 Y103.96 E5.15592
G1 F1095.4 X122.078 Y103.752 E5.1699
G1 F932.9 X122.359 Y103.543 E5.18638
G1 F867 X122.398 Y103.539 E5.18836
G1 X122.551 Y103.374 E5.19976
G1 X122.561 Y103.146 E5.21132
G1 X122.425 Y102.99 E5.2218
G1 X122.202 Y102.929 E5.2335
G1 X122.025 Y103.033 E5.2439
G1 X121.878 Y103.248 E5.25709
G1 F932.9 X121.664 Y103.407 E5.26963
G1 F1095.4 X121.449 Y103.567 E5.28038
G1 F1200 X121.272 Y103.26 E5.29334
G1 X121.53 Y102.792 E5.31289
G1 X121.751 Y102.559 E5.32464
G1 X121.97 Y102.456 E5.3335
G1 X122.225 Y102.394 E5.3431
G1 X122.572 Y102.456 E5.35599
G1 X122.862 Y102.651 E5.36878
G1 X123.06 Y102.949 E5.38187
G1 X123.111 Y103.236 E5.39253
G1 X123.052 Y103.56 E5.40458
G1 X122.894 Y103.824 E5.41584
G1 X122.637 Y104.016 E5.42758
G1 X122.343 Y104.102 E5.43878
G1 X122.381 Y104.532 E5.45458
G1 X122.5 Y104.521 E5.45895
G1 X122.831 Y104.416 E5.47165
G1 X123.131 Y104.208 E5.48501
G1 X123.302 Y104.016 E5.49442
G1 X123.467 Y103.721 E5.50678
G1 X123.539 Y103.481 E5.51595
G1 X123.545 Y103.123 E5.52905
G1 X123.475 Y102.781 E5.54182
G1 X123.338 Y102.543 E5.55187
G1 X123.178 Y102.335 E5.56147
G1 X122.96 Y102.161 E5.57167
G1 X122.737 Y102.04 E5.58096
G1 X122.477 Y101.97 E5.59081
G1 X122.219 Y101.948 E5.60028
G1 X121.929 Y101.993 E5.61102
G1 X121.692 Y102.074 E5.62018
G1 X121.417 Y102.263 E5.63239
G1 X121.242 Y102.443 E5.64157
G1 X121.083 Y102.687 E5.65223
G1 X120.88 Y103.059 E5.66773
G1 X120.725 Y103.248 E5.67668
G1 X120.955 Y103.575 E5.6913
G1 X121.092 Y103.832 E5.70196
G1 X121.227 Y104.052 E5.7114
G1 X121.419 Y104.244 E5.72134
G1 X121.295 Y104.12 E5.72775
G1 X121.068 Y104.515 E5.74442
G1 X120.972 Y104.427 E5.74918
G1 X120.806 Y104.216 E5.75901
G1 X120.661 Y103.956 E5.7699
G1 X120.485 Y103.67 E5.78219
G1 X120.315 Y103.441 E5.79262
G1 X120.059 Y103.25 E5.80431
G1 X120.378 Y102.99 E5.81936
G1 X120.532 Y102.787 E5.82868
G1 X120.67 Y102.522 E5.83962
G1 X120.795 Y102.294 E5.84913
G1 X121.013 Y102.031 E5.86163
G1 X121.23 Y101.843 E5.87213
G1 X121.503 Y101.673 E5.8839
G1 X121.834 Y101.561 E5.89668
G1 X122.204 Y101.506 E5.91037
G1 X122.556 Y101.535 E5.92329
G1 X122.899 Y101.627 E5.93628
G1 X123.205 Y101.792 E5.949
G1 X123.412 Y101.951 E5.95855
G1 X123.588 Y102.137 E5.96792
G1 X123.737 Y102.341 E5.97716
G1 X123.888 Y102.619 E5.98874
G1 X123.972 Y102.957 E6.00148
G1 X123.998 Y103.233 E6.01162
G1 X123.974 Y103.563 E6.02373
G1 X123.869 Y103.904 E6.03678
G1 X123.748 Y104.148 E6.04674
G1 X123.557 Y104.414 E6.05873
G1 X123.31 Y104.64 E6.07097
G1 X123.02 Y104.814 E6.08335
G1 X122.729 Y104.924 E6.09473
G1 X122.449 Y104.982 E6.10519
G1 X122.12 Y104.993 E6.11723
G0 F2100 X122.058 Y105.439
G1 F2700 E1.11723
G0 F2100 X122.034 Y106.063
G0 X122.001 Y107.157
G0 X122.229 Y112.09
G0 X122.298 Y113.181
G0 X120.396 Y115.031
G0 X119.045 Y116.501
G0 X121.531 Y119.422
G1 F2700 E6.11723
G0 F2100 X121.385 Y119.887
;TYPE:WALL-OUTER
G1 F1200 X121.683 Y119.961 E6.12847
G1 X121.981 Y120.008 E6.13951
G1 X122.286 Y120.029 E6.15069
G1 X122.586 Y120.023 E6.16167
G1 X122.887 Y119.991 E6.17274
G1 X123.189 Y119.933 E6.18399
G1 X123.482 Y119.85 E6.19514
G1 X123.765 Y119.743 E6.2062
G1 X124.04 Y119.611 E6.21736
