;FLAVOR:Marlin
;TIME:6550
;Filament used: 10.9692m
;Layer height: 0.2
;MINX:46.4
;MINY:46.4
;MINZ:0.2
;MAXX:188.6
;MAXY:188.6
;MAXZ:60
;Generated with Cura_SteamEngine 5.0.0
M82 ;absolute extrusion mode
START_PRINT EXTRUDER_TEMP=222 BED_TEMP=60
G92 E0
G92 E0
G1 F2700 E-5
;LAYER_COUNT:300
;LAYER:0
M107
G0 F2100 X49.612 Y49.709 Z0.2
G0 X46.401 Y58.007
;TYPE:SKIRT
G1 F2700 E0
G1 F1200 X46.411 Y57.342 E0.02433
G1 X46.465 Y56.402 E0.05878
G1 X46.599 Y55.469 E0.09327
G1 X46.811 Y54.551 E0.12774
G1 X47.101 Y53.654 E0.16223
G1 X47.465 Y52.786 E0.19666
G1 X47.902 Y51.951 E0.23114
G1 X48.408 Y51.156 E0.26562
G1 X48.979 Y50.407 E0.30008
G1 X49.612 Y49.709 E0.33455
G1 X50.302 Y49.068 E0.36901
G1 X51.044 Y48.487 E0.40349
G1 X51.832 Y47.971 E0.43795
G1 X52.662 Y47.524 E0.47244
G1 X53.526 Y47.149 E0.5069
G1 X54.419 Y46.848 E0.54138
G1 X55.334 Y46.624 E0.57584
G1 X56.265 Y46.479 E0.61031
G1 X57.198 Y46.413 E0.64453
G1 X57.83 Y46.4 E0.66766
G1 X129.531 Y46.401 E3.29092
G1 X130.227 Y46.411 E3.31639
G1 X130.704 Y46.428 E3.33385
G1 X133.564 Y46.592 E3.43866
G1 X136.033 Y46.663 E3.52903
G1 X138.552 Y46.663 E3.62119
G1 X141.081 Y46.592 E3.71375
G1 X143.986 Y46.426 E3.82021
G1 X144.472 Y46.409 E3.838
G1 X145.218 Y46.4 E3.8653
G1 X176.952 Y46.401 E5.02632
G1 X177.65 Y46.411 E5.05186
G1 X178.591 Y46.465 E5.08635
G1 X179.523 Y46.598 E5.12079
G1 X180.441 Y46.809 E5.15525
G1 X181.338 Y47.098 E5.18973
G1 X182.207 Y47.462 E5.2242
G1 X183.042 Y47.898 E5.25866
G1 X183.837 Y48.403 E5.29312
G1 X184.587 Y48.974 E5.32761
G1 X185.285 Y49.607 E5.36208
G1 X185.927 Y50.296 E5.39654
G1 X186.509 Y51.037 E5.43101
G1 X187.025 Y51.825 E5.46547
G1 X187.473 Y52.654 E5.49995
G1 X187.848 Y53.518 E5.53441
G1 X188.15 Y54.411 E5.5689
G1 X188.374 Y55.326 E5.60336
G1 X188.52 Y56.257 E5.63784
G1 X188.587 Y57.198 E5.67235
G1 X188.6 Y57.83 E5.69548
G1 X188.599 Y64.901 E5.95418
G1 X188.59 Y65.628 E5.98078
G1 X188.539 Y66.569 E6.01526
G1 X188.407 Y67.502 E6.04973
G1 X188.197 Y68.421 E6.08422
G1 X187.91 Y69.318 E6.11868
G1 X187.548 Y70.188 E6.15316
G1 X187.114 Y71.024 E6.18762
G1 X186.61 Y71.82 E6.22209
G1 X186.041 Y72.57 E6.25653
G1 X185.409 Y73.27 E6.29103
G1 X184.721 Y73.913 E6.32549
G1 X183.981 Y74.496 E6.35995
G1 X183.194 Y75.014 E6.39442
G1 X182.366 Y75.463 E6.42888
G1 X181.503 Y75.841 E6.46335
G1 X180.611 Y76.144 E6.49782
G1 X179.696 Y76.37 E6.5323
G1 X178.766 Y76.518 E6.56676
G1 X177.802 Y76.587 E6.60212
G1 X177.17 Y76.6 E6.62524
G1 X165.586 Y76.6 E7.04906
G1 X162.982 Y76.637 E7.14434
G1 X160.467 Y76.744 E7.23643
G1 X157.975 Y76.92 E7.32783
G1 X155.453 Y77.17 E7.42056
G1 X152.963 Y77.489 E7.5124
G1 X150.504 Y77.875 E7.60347
G1 X148.025 Y78.336 E7.69572
G1 X145.533 Y78.872 E7.78898
G1 X143.137 Y79.459 E7.87923
G1 X140.71 Y80.127 E7.97133
G1 X138.282 Y80.871 E8.06423
G1 X135.896 Y81.675 E8.15635
G1 X133.55 Y82.541 E8.24784
G1 X131.211 Y83.48 E8.34006
G1 X128.905 Y84.484 E8.43207
G1 X126.614 Y85.557 E8.52463
G1 X124.363 Y86.691 E8.61685
G1 X122.19 Y87.865 E8.70721
G1 X119.986 Y89.136 E8.80029
G1 X117.855 Y90.446 E8.89181
G1 X115.738 Y91.832 E8.98439
G1 X113.68 Y93.266 E9.07616
G1 X111.688 Y94.738 E9.16678
G1 X109.671 Y96.319 E9.26054
G1 X107.735 Y97.926 E9.35259
G1 X105.86 Y99.575 E9.44395
G1 X104.036 Y101.271 E9.53507
G1 X102.209 Y103.071 E9.6289
G1 X100.499 Y104.854 E9.71929
G1 X98.795 Y106.735 E9.81215
G1 X97.152 Y108.654 E9.90457
G1 X95.589 Y110.587 E9.99552
G1 X94.059 Y112.595 E10.08788
G1 X92.581 Y114.649 E10.18046
G1 X91.175 Y116.726 E10.27222
G1 X89.844 Y118.819 E10.36297
G1 X88.542 Y120.999 E10.45587
G1 X87.306 Y123.207 E10.54845
G1 X86.149 Y125.419 E10.63978
G1 X85.054 Y127.666 E10.73123
G1 X83.997 Y130 E10.82497
G1 X83.05 Y132.259 E10.91459
G1 X82.114 Y134.683 E11.00966
G1 X81.298 Y136.987 E11.09908
G1 X80.521 Y139.396 E11.19169
G1 X79.815 Y141.815 E11.28388
G1 X79.179 Y144.249 E11.37592
G1 X78.613 Y146.695 E11.46778
G1 X78.108 Y149.205 E11.56145
G1 X77.691 Y151.624 E11.65126
G1 X77.332 Y154.125 E11.7437
G1 X77.045 Y156.63 E11.83594
G1 X76.831 Y159.117 E11.92727
G1 X76.684 Y161.665 E12.02065
G1 X76.61 Y164.165 E12.11215
G1 X76.6 Y165.581 E12.16396
G1 X76.599 Y176.917 E12.5787
G1 X76.589 Y177.644 E12.6053
G1 X76.536 Y178.584 E12.63974
G1 X76.404 Y179.517 E12.67422
G1 X76.192 Y180.435 E12.70869
G1 X75.904 Y181.332 E12.74316
G1 X75.541 Y182.201 E12.77761
G1 X75.105 Y183.037 E12.81211
G1 X74.6 Y183.832 E12.84657
G1 X74.03 Y184.582 E12.88103
G1 X73.398 Y185.281 E12.91551
G1 X72.709 Y185.923 E12.94996
G1 X71.968 Y186.505 E12.98444
G1 X71.18 Y187.022 E13.01892
G1 X70.351 Y187.47 E13.05339
G1 X69.488 Y187.846 E13.08783
G1 X68.595 Y188.148 E13.12232
G1 X67.68 Y188.373 E13.1568
G1 X66.75 Y188.519 E13.19124
G1 X65.802 Y188.587 E13.22601
G1 X65.17 Y188.6 E13.24914
G1 X58.064 Y188.599 E13.50912
G1 X57.366 Y188.59 E13.53466
G1 X56.425 Y188.538 E13.56914
G1 X55.492 Y188.406 E13.60361
G1 X54.574 Y188.196 E13.63807
G1 X53.677 Y187.908 E13.67254
G1 X52.807 Y187.546 E13.70701
G1 X51.971 Y187.111 E13.74149
G1 X51.176 Y186.607 E13.77593
G1 X50.425 Y186.037 E13.81042
G1 X49.726 Y185.405 E13.8449
G1 X49.083 Y184.717 E13.87935
G1 X48.501 Y183.976 E13.91382
G1 X47.983 Y183.189 E13.9483
G1 X47.534 Y182.361 E13.98276
G1 X47.157 Y181.497 E14.01724
G1 X46.855 Y180.605 E14.0517
G1 X46.629 Y179.691 E14.08615
G1 X46.482 Y178.76 E14.12063
G1 X46.413 Y177.791 E14.15617
G1 X46.4 Y177.158 E14.17934
G1 X46.401 Y105.469 E16.80216
G1 X46.411 Y104.773 E16.82763
G1 X46.428 Y104.296 E16.84509
G1 X46.592 Y101.436 E16.9499
G1 X46.663 Y98.967 E17.04027
G1 X46.663 Y96.448 E17.13243
G1 X46.592 Y93.92 E17.22495
G1 X46.426 Y91.015 E17.33141
G1 X46.409 Y90.529 E17.3492
G1 X46.4 Y89.783 E17.3765
G1 X46.401 Y58.007 E18.53906
G0 F2100 X46.841 Y58.014
G1 F1200 X46.851 Y57.349 E18.56339
G1 X46.905 Y56.427 E18.59718
G1 X47.038 Y55.513 E18.63097
G1 X47.25 Y54.615 E18.66473
G1 X47.539 Y53.738 E18.69851
G1 X47.903 Y52.889 E18.73231
G1 X48.339 Y52.075 E18.76609
G1 X48.843 Y51.302 E18.79985
G1 X49.413 Y50.576 E18.83362
G1 X50.043 Y49.901 E18.8674
G1 X50.729 Y49.283 E18.90119
G1 X51.467 Y48.728 E18.93497
G1 X52.249 Y48.238 E18.96873
G1 X53.071 Y47.817 E19.00252
G1 X53.926 Y47.469 E19.03629
G1 X54.809 Y47.197 E19.0701
G1 X55.711 Y47.002 E19.10386
G1 X56.627 Y46.886 E19.13764
G1 X57.21 Y46.853 E19.15901
G1 X57.83 Y46.84 E19.18169
G1 X129.525 Y46.841 E21.80474
G1 X130.221 Y46.851 E21.8302
G1 X130.679 Y46.868 E21.84697
G1 X133.492 Y47.03 E21.95006
G1 X136.055 Y47.103 E22.04387
G1 X138.564 Y47.103 E22.13566
G1 X141.084 Y47.033 E22.22789
G1 X144.011 Y46.865 E22.33516
G1 X144.477 Y46.849 E22.35222
G1 X145.218 Y46.84 E22.37933
G1 X176.946 Y46.841 E23.54014
G1 X177.644 Y46.851 E23.56568
G1 X178.565 Y46.904 E23.59943
G1 X179.479 Y47.037 E23.63322
G1 X180.378 Y47.248 E23.667
G1 X181.255 Y47.537 E23.70079
G1 X182.104 Y47.9 E23.73457
G1 X182.918 Y48.335 E23.76834
G1 X183.692 Y48.839 E23.80213
G1 X184.419 Y49.408 E23.8359
G1 X185.094 Y50.038 E23.86968
G1 X185.712 Y50.724 E23.90347
G1 X186.268 Y51.46 E23.93721
G1 X186.759 Y52.243 E23.97103
G1 X187.18 Y53.064 E24.00478
G1 X187.528 Y53.919 E24.03856
G1 X187.801 Y54.801 E24.07233
G1 X187.997 Y55.703 E24.10611
G1 X188.114 Y56.619 E24.13989
G1 X188.147 Y57.21 E24.16155
G1 X188.16 Y57.83 E24.18424
G1 X188.159 Y64.896 E24.44275
G1 X188.15 Y65.623 E24.46935
G1 X188.099 Y66.545 E24.50314
G1 X187.968 Y67.459 E24.53692
G1 X187.758 Y68.358 E24.57069
G1 X187.472 Y69.236 E24.60448
G1 X187.11 Y70.085 E24.63825
G1 X186.677 Y70.9 E24.67201
G1 X186.174 Y71.675 E24.70581
G1 X185.607 Y72.403 E24.73957
G1 X184.978 Y73.079 E24.77336
G1 X184.293 Y73.699 E24.80716
G1 X183.558 Y74.256 E24.8409
G1 X182.776 Y74.748 E24.8747
G1 X181.956 Y75.171 E24.90846
G1 X181.101 Y75.521 E24.94226
G1 X180.22 Y75.796 E24.97602
G1 X179.318 Y75.993 E25.0098
G1 X178.402 Y76.112 E25.0436
G1 X177.79 Y76.147 E25.06603
G1 X177.17 Y76.16 E25.08871
G1 X165.58 Y76.16 E25.51275
G1 X162.957 Y76.197 E25.60872
G1 X160.453 Y76.303 E25.70042
G1 X157.937 Y76.482 E25.7927
G1 X155.422 Y76.731 E25.88516
G1 X152.911 Y77.052 E25.97778
G1 X150.387 Y77.449 E26.07126
G1 X147.931 Y77.906 E26.16266
G1 X145.468 Y78.436 E26.25483
G1 X143.022 Y79.035 E26.34696
G1 X140.571 Y79.709 E26.43997
G1 X138.152 Y80.45 E26.53253
G1 X135.741 Y81.263 E26.62562
G1 X133.384 Y82.133 E26.71754
G1 X131.04 Y83.074 E26.80995
G1 X128.724 Y84.082 E26.90236
G1 X126.44 Y85.152 E26.99464
G1 X124.166 Y86.297 E27.08778
G1 X121.972 Y87.483 E27.17903
G1 X119.772 Y88.751 E27.27193
G1 X117.611 Y90.081 E27.36477
G1 X115.498 Y91.464 E27.45716
G1 X113.42 Y92.912 E27.54983
G1 X111.391 Y94.411 E27.64212
G1 X109.431 Y95.946 E27.7332
G1 X107.456 Y97.587 E27.82715
G1 X105.563 Y99.252 E27.91938
G1 X103.704 Y100.981 E28.01227
G1 X101.929 Y102.729 E28.10341
G1 X100.15 Y104.583 E28.19742
G1 X98.479 Y106.427 E28.28846
G1 X96.819 Y108.366 E28.38185
G1 X95.227 Y110.336 E28.47452
G1 X93.694 Y112.347 E28.56703
G1 X92.247 Y114.358 E28.65767
G1 X90.8 Y116.496 E28.75213
G1 X89.456 Y118.609 E28.84374
G1 X88.166 Y120.769 E28.93579
G1 X86.918 Y122.998 E29.02925
G1 X85.757 Y125.219 E29.12094
G1 X84.658 Y127.475 E29.21276
G1 X83.604 Y129.801 E29.30618
G1 X82.623 Y132.143 E29.39908
G1 X81.71 Y134.505 E29.49173
G1 X80.878 Y136.855 E29.58294
G1 X80.093 Y139.287 E29.67643
G1 X79.393 Y141.687 E29.7679
G1 X78.751 Y144.144 E29.86081
G1 X78.181 Y146.607 E29.9533
G1 X77.683 Y149.081 E30.04563
G1 X77.25 Y151.592 E30.13886
G1 X76.899 Y154.045 E30.22952
G1 X76.608 Y156.578 E30.3228
G1 X76.389 Y159.125 E30.41633
G1 X76.244 Y161.625 E30.50795
G1 X76.17 Y164.149 E30.60033
G1 X76.16 Y165.577 E30.65258
G1 X76.159 Y176.911 E31.06724
G1 X76.149 Y177.638 E31.09384
G1 X76.096 Y178.559 E31.1276
G1 X75.964 Y179.473 E31.16138
G1 X75.753 Y180.372 E31.19517
G1 X75.466 Y181.249 E31.22893
G1 X75.103 Y182.098 E31.26271
G1 X74.668 Y182.913 E31.29651
G1 X74.165 Y183.687 E31.33028
G1 X73.596 Y184.414 E31.36406
G1 X72.967 Y185.089 E31.39781
G1 X72.281 Y185.708 E31.43162
G1 X71.545 Y186.265 E31.46539
G1 X70.763 Y186.756 E31.49917
G1 X69.941 Y187.177 E31.53296
G1 X69.086 Y187.526 E31.56675
G1 X68.205 Y187.8 E31.6005
G1 X67.303 Y187.996 E31.63427
G1 X66.387 Y188.113 E31.66806
G1 X65.79 Y188.147 E31.68993
G1 X65.17 Y188.16 E31.71262
G1 X58.07 Y188.159 E31.97238
G1 X57.372 Y188.15 E31.99792
G1 X56.45 Y188.098 E32.03171
G1 X55.536 Y187.967 E32.06549
G1 X54.637 Y187.757 E32.09927
G1 X53.759 Y187.47 E32.13306
G1 X52.91 Y187.108 E32.16683
G1 X52.095 Y186.674 E32.20061
G1 X51.321 Y186.171 E32.23438
G1 X50.593 Y185.603 E32.26817
G1 X49.917 Y184.974 E32.30195
G1 X49.298 Y184.289 E32.33573
G1 X48.741 Y183.553 E32.3695
G1 X48.249 Y182.772 E32.40327
G1 X47.827 Y181.951 E32.43704
G1 X47.477 Y181.096 E32.47084
G1 X47.203 Y180.215 E32.5046
G1 X47.006 Y179.313 E32.53837
G1 X46.888 Y178.397 E32.57216
G1 X46.853 Y177.779 E32.59481
G1 X46.84 Y177.158 E32.61754
G1 X46.841 Y105.475 E35.24014
G1 X46.851 Y104.779 E35.26561
G1 X46.868 Y104.321 E35.28238
G1 X47.03 Y101.508 E35.38546
G1 X47.103 Y98.945 E35.47927
G1 X47.103 Y96.436 E35.57107
G1 X47.033 Y93.917 E35.66326
G1 X46.865 Y90.99 E35.77053
G1 X46.849 Y90.523 E35.78762
G1 X46.84 Y89.783 E35.8147
G1 X46.841 Y58.014 E36.977
G0 F2100 X47.281 Y58.02
G1 F1200 X47.291 Y57.355 E37.00133
G1 X47.345 Y56.453 E37.03439
G1 X47.478 Y55.559 E37.06746
G1 X47.689 Y54.68 E37.10054
G1 X47.978 Y53.823 E37.13362
G1 X48.341 Y52.995 E37.1667
G1 X48.776 Y52.203 E37.19976
G1 X49.279 Y51.452 E37.23283
G1 X49.846 Y50.748 E37.2659
G1 X50.474 Y50.097 E37.299
G1 X51.156 Y49.504 E37.33206
G1 X51.888 Y48.974 E37.36512
G1 X52.664 Y48.511 E37.39818
G1 X53.478 Y48.118 E37.43125
G1 X54.324 Y47.798 E37.46435
G1 X55.195 Y47.555 E37.49743
G1 X56.083 Y47.389 E37.53048
G1 X57.223 Y47.293 E37.57234
G1 X57.83 Y47.28 E37.59455
G1 X129.519 Y47.281 E40.21737
G1 X130.215 Y47.291 E40.24284
G1 X130.654 Y47.307 E40.25891
G1 X133.489 Y47.47 E40.36281
G1 X136.043 Y47.543 E40.45629
G1 X138.577 Y47.543 E40.54899
G1 X141.12 Y47.472 E40.64207
G1 X144.036 Y47.305 E40.74893
G1 X144.483 Y47.289 E40.76529
G1 X145.218 Y47.28 E40.79219
G1 X176.939 Y47.281 E41.95274
G1 X177.637 Y47.291 E41.97828
G1 X178.54 Y47.344 E42.01137
G1 X179.434 Y47.476 E42.04443
G1 X180.313 Y47.687 E42.07751
G1 X181.17 Y47.975 E42.11058
G1 X181.998 Y48.338 E42.14366
G1 X182.791 Y48.772 E42.17673
G1 X183.543 Y49.274 E42.20981
G1 X184.247 Y49.841 E42.24288
G1 X184.898 Y50.468 E42.27595
G1 X185.491 Y51.15 E42.30902
G1 X186.022 Y51.882 E42.3421
G1 X186.486 Y52.658 E42.37518
G1 X186.879 Y53.472 E42.40825
G1 X187.199 Y54.317 E42.44131
G1 X187.444 Y55.188 E42.47441
G1 X187.61 Y56.076 E42.50747
G1 X187.707 Y57.223 E42.54958
G1 X187.72 Y57.83 E42.57179
G1 X187.719 Y64.891 E42.83013
G1 X187.71 Y65.618 E42.85673
G1 X187.659 Y66.52 E42.88978
G1 X187.528 Y67.415 E42.92287
G1 X187.319 Y68.294 E42.95593
G1 X187.033 Y69.151 E42.98898
G1 X186.672 Y69.98 E43.02206
G1 X186.24 Y70.774 E43.05514
G1 X185.738 Y71.527 E43.08825
G1 X185.173 Y72.232 E43.1213
G1 X184.547 Y72.884 E43.15437
G1 X183.866 Y73.479 E43.18745
G1 X183.135 Y74.011 E43.22053
G1 X182.361 Y74.476 E43.25357
G1 X181.547 Y74.871 E43.28667
G1 X180.703 Y75.193 E43.31972
G1 X179.833 Y75.439 E43.3528
G1 X178.945 Y75.607 E43.38586
G1 X177.777 Y75.707 E43.42875
G1 X177.17 Y75.72 E43.45096
G1 X165.574 Y75.72 E43.87522
G1 X162.968 Y75.757 E43.97057
G1 X160.403 Y75.866 E44.0645
G1 X157.899 Y76.043 E44.15634
G1 X155.356 Y76.295 E44.24983
G1 X152.853 Y76.616 E44.34216
G1 X150.351 Y77.009 E44.43482
G1 X147.824 Y77.479 E44.52886
G1 X145.386 Y78.003 E44.62009
G1 X142.899 Y78.612 E44.71377
G1 X140.432 Y79.291 E44.80738
G1 X138.032 Y80.026 E44.89922
G1 X135.588 Y80.851 E44.99359
G1 X133.237 Y81.718 E45.08527
G1 X130.883 Y82.663 E45.17807
G1 X128.544 Y83.681 E45.2714
G1 X126.225 Y84.768 E45.3651
G1 X123.97 Y85.904 E45.45748
G1 X121.753 Y87.101 E45.54966
G1 X119.548 Y88.372 E45.64277
G1 X117.375 Y89.709 E45.73612
G1 X115.241 Y91.106 E45.82943
G1 X113.182 Y92.541 E45.92126
G1 X111.128 Y94.059 E46.0147
G1 X109.132 Y95.622 E46.10745
G1 X107.179 Y97.244 E46.20033
G1 X105.264 Y98.928 E46.29363
G1 X103.406 Y100.656 E46.38646
G1 X101.596 Y102.44 E46.47944
G1 X99.851 Y104.258 E46.57164
G1 X98.148 Y106.138 E46.66445
G1 X96.472 Y108.095 E46.75871
G1 X94.878 Y110.067 E46.85148
G1 X93.348 Y112.075 E46.94384
G1 X91.869 Y114.13 E47.03648
G1 X90.452 Y116.224 E47.12898
G1 X89.068 Y118.399 E47.2233
G1 X87.791 Y120.539 E47.31447
G1 X86.531 Y122.79 E47.40885
G1 X85.372 Y125.005 E47.50031
G1 X84.248 Y127.311 E47.59417
G1 X83.204 Y129.618 E47.68682
G1 X82.22 Y131.965 E47.77992
G1 X81.291 Y134.369 E47.87422
G1 X80.462 Y136.712 E47.96515
G1 X79.68 Y139.136 E48.05833
G1 X78.963 Y141.592 E48.15194
G1 X78.323 Y144.041 E48.24455
G1 X77.756 Y146.495 E48.33669
G1 X77.246 Y149.026 E48.43115
G1 X76.821 Y151.488 E48.52256
G1 X76.461 Y154.005 E48.61559
G1 X76.167 Y156.562 E48.70975
G1 X75.952 Y159.061 E48.80152
G1 X75.806 Y161.588 E48.89413
G1 X75.73 Y164.178 E48.98893
G1 X75.72 Y165.574 E49.04
G1 X75.719 Y176.905 E49.45456
G1 X75.709 Y177.632 E49.48116
G1 X75.657 Y178.534 E49.51422
G1 X75.525 Y179.428 E49.54728
G1 X75.314 Y180.307 E49.58035
G1 X75.027 Y181.165 E49.61345
G1 X74.665 Y181.993 E49.64651
G1 X74.231 Y182.786 E49.67959
G1 X73.729 Y183.538 E49.71267
G1 X73.163 Y184.242 E49.74572
G1 X72.536 Y184.894 E49.77881
G1 X71.854 Y185.488 E49.8119
G1 X71.123 Y186.019 E49.84495
G1 X70.347 Y186.483 E49.87803
G1 X69.534 Y186.877 E49.91109
G1 X68.688 Y187.198 E49.94419
G1 X67.818 Y187.442 E49.97725
G1 X66.93 Y187.609 E50.01031
G1 X65.777 Y187.707 E50.05264
G1 X65.17 Y187.72 E50.07486
G1 X58.075 Y187.719 E50.33444
G1 X57.377 Y187.71 E50.35998
G1 X56.475 Y187.659 E50.39303
G1 X55.58 Y187.527 E50.42613
G1 X54.701 Y187.318 E50.45918
G1 X53.844 Y187.031 E50.49225
G1 X53.015 Y186.67 E50.52533
G1 X52.221 Y186.237 E50.55842
G1 X51.469 Y185.735 E50.5915
G1 X50.764 Y185.169 E50.62458
G1 X50.112 Y184.543 E50.65764
G1 X49.518 Y183.862 E50.69071
G1 X48.986 Y183.131 E50.72378
G1 X48.521 Y182.356 E50.75685
G1 X48.126 Y181.543 E50.78992
G1 X47.805 Y180.698 E50.82299
G1 X47.56 Y179.828 E50.85606
G1 X47.392 Y178.939 E50.88916
G1 X47.293 Y177.767 E50.93219
G1 X47.28 Y177.158 E50.95448
