;FLAVOR:Marlin
;TIME:9972
;Filament used: 5.77481m
;Layer height: 0.2
;MINX:76.765
;MINY:81.912
;MINZ:0.2
;MAXX:155.282
;MAXY:155.559
;MAXZ:19.6
;Generated with Cura_SteamEngine 5.0.0
M82 ;absolute extrusion mode
START_PRINT EXTRUDER_TEMP=222 BED_TEMP=60
G92 E0
G92 E0
G1 F2700 E-5
;LAYER_COUNT:98
;LAYER:0
M107
G0 F2100 X139.315 Y144.884 Z0.2
;TYPE:SKIRT
G1 F2700 E0
G1 F1200 X150.89 Y144.884 E0.42348
G1 X150.861 Y145.413 E0.44287
G1 X139.347 Y145.414 E0.86412
G1 X139.315 Y144.884 E0.88355
G0 F2100 X138.843 Y144.394
G1 F1200 X139.038 Y144.444 E0.89091
G1 X151.155 Y144.444 E1.33423
G1 X151.357 Y144.394 E1.34184
G1 X151.297 Y145.495 E1.38218
G1 X151.268 Y145.725 E1.39066
G1 X151.151 Y145.837 E1.39659
G1 X151.07 Y145.853 E1.39961
G1 X139.115 Y145.854 E1.837
G1 X138.98 Y145.79 E1.84246
G1 X138.912 Y145.697 E1.84668
G1 X138.906 Y145.383 E1.85817
G1 X138.843 Y144.394 E1.89442
G1 F2700 E-3.10558
G0 F2100 X138.4 Y144.723
G0 X120.194 Y154.198
G0 X118.794 Y154.717
G0 X117.344 Y155.062
G0 X115.951 Y155.229
G0 X114.461 Y155.229
G0 X112.888 Y155.029
G0 X111.528 Y154.692
G0 X110.402 Y154.264
G0 X92.994 Y145.843
G1 F2700 E1.89442
G1 F1200 X92.943 Y145.853 E1.89633
G1 X80.983 Y145.854 E2.3339
G1 X80.837 Y145.784 E2.33982
G1 X80.769 Y145.696 E2.34389
G1 X80.762 Y145.336 E2.35706
G1 X80.704 Y144.396 E2.39152
G1 X80.897 Y144.444 E2.39879
G1 X93.011 Y144.444 E2.842
G1 X93.21 Y144.396 E2.84949
G1 X93.147 Y145.44 E2.88775
G1 X93.148 Y145.69 E2.8969
G1 X92.994 Y145.843 E2.90484
G0 F2100 X92.708 Y145.413
G1 F1200 X81.204 Y145.414 E3.32573
G1 X81.175 Y144.884 E3.34515
G1 X92.739 Y144.884 E3.76823
G1 X92.708 Y145.413 E3.78762
G0 F2100 X92.984 Y144.024
;TYPE:SUPPORT-INTERFACE
G1 F1200 X80.927 Y144.024 E4.22874
G1 X80.718 Y143.961 E4.23672
G1 X80.652 Y143.896 E4.24011
G1 X80.632 Y143.559 E4.25247
G1 X80.685 Y143.295 E4.26232
G1 X80.71 Y142.661 E4.28553
G1 X80.696 Y142.557 E4.28937
G1 X80.722 Y142.152 E4.30422
G1 X80.7 Y141.969 E4.31096
G1 X80.719 Y141.768 E4.31835
G1 X80.902 Y141.872 E4.32605
G1 X93.007 Y141.872 E4.76892
G1 X93.19 Y141.769 E4.77661
G1 X93.211 Y141.979 E4.78433
G1 X93.19 Y142.148 E4.79056
G1 X93.213 Y142.538 E4.80485
G1 X93.195 Y142.66 E4.80936
G1 X93.224 Y143.366 E4.83522
G1 X93.278 Y143.607 E4.84425
G1 X93.261 Y143.894 E4.85477
G1 X93.189 Y143.965 E4.85847
G1 X92.984 Y144.024 E4.86627
G1 F2700 E-0.13373
G0 F2100 X93.671 Y144.707
G0 X109.461 Y153.836
G0 X110.74 Y154.414
G0 X112.163 Y154.868
G0 X113.715 Y155.161
G0 X115.115 Y155.248
G0 X116.697 Y155.162
G0 X118.163 Y154.893
G0 X119.588 Y154.451
G0 X120.812 Y153.9
G0 X137.908 Y143.642
G0 X138.771 Y143.586
G1 F2700 E4.86627
G1 F1200 X138.827 Y143.34 E4.8755
G1 X138.851 Y142.657 E4.90051
G1 X138.837 Y142.551 E4.90442
G1 X138.863 Y142.153 E4.91901
G1 X138.841 Y141.964 E4.92597
G1 X138.859 Y141.768 E4.93318
G1 X139.045 Y141.871 E4.94095
G1 X151.149 Y141.871 E5.38379
G1 X151.333 Y141.769 E5.39149
G1 X151.355 Y141.977 E5.39914
G1 X151.332 Y142.153 E5.40564
G1 X151.357 Y142.544 E5.41997
G1 X151.339 Y142.659 E5.42423
G1 X151.357 Y143.041 E5.43822
G1 X151.303 Y143.33 E5.44898
G1 X151.413 Y143.743 E5.46461
G1 X151.405 Y143.891 E5.47004
G1 X151.333 Y143.963 E5.47376
G1 X151.126 Y144.024 E5.48166
G1 X139.066 Y144.024 E5.92289
G1 X138.859 Y143.961 E5.9308
G1 X138.79 Y143.892 E5.93437
G1 X138.771 Y143.586 E5.94559
G0 F2100 X139.051 Y142.66
G1 F1200 X139.64 Y142.07 E5.97609
G0 F2100 X139.056 Y142.45
G1 F1200 X140.429 Y143.823 E6.04713
G0 F2100 X141.282 Y143.823
G1 F1200 X143.034 Y142.07 E6.13781
G0 F2100 X142.071 Y142.071
G1 F1200 X143.823 Y143.823 E6.22846
G0 F2100 X144.676 Y143.823
G1 F1200 X146.429 Y142.07 E6.31916
G0 F2100 X145.465 Y142.071
G1 F1200 X147.217 Y143.823 E6.40981
G0 F2100 X148.07 Y143.823
G1 F1200 X149.823 Y142.07 E6.50051
G0 F2100 X148.859 Y142.071
G1 F1200 X150.611 Y143.823 E6.59116
G1 F2700 E1.59116
G0 F2100 X150.611 Y144.889
G0 X118.163 Y154.893
G0 X116.697 Y155.162
G0 X115.115 Y155.248
G0 X113.715 Y155.161
G0 X112.163 Y154.868
G0 X110.74 Y154.414
G0 X109.461 Y153.836
G0 X109.1 Y153.618
G0 X94.127 Y143.897
G0 X92.911 Y143.823
G1 F2700 E6.59116
G1 F1200 X91.159 Y142.071 E6.68181
G0 F2100 X92.122 Y142.071
G1 F1200 X90.37 Y143.823 E6.77246
G0 F2100 X89.517 Y143.823
G1 F1200 X87.765 Y142.071 E6.86311
G0 F2100 X88.728 Y142.071
G1 F1200 X86.976 Y143.823 E6.95376
G0 F2100 X86.123 Y143.823
G1 F1200 X84.371 Y142.071 E7.0444
G0 F2100 X85.334 Y142.071
G1 F1200 X83.582 Y143.823 E7.13505
G0 F2100 X82.729 Y143.823
G1 F1200 X80.977 Y142.071 E7.2257
G0 F2100 X81.94 Y142.071
G1 F1200 X80.892 Y143.119 E7.27993
G1 F2700 E2.27993
;MESH:octopus clip v4.stl
G0 F2100 X81.169 Y140.199
G0 X92.614 Y140.041
G1 F2700 E7.27993
G0 F2100 X92.872 Y140.404
;TYPE:WALL-OUTER
G1 F1200 X92.963 Y140.161 E7.28942
G1 X93.028 Y139.299 E7.32105
G1 X93.032 Y102.486 E8.66789
G1 X93.119 Y102.31 E8.67508
G1 X93.252 Y102.266 E8.6802
G1 X96.827 Y102.264 E8.811
G1 X96.898 Y102.205 E8.81438
G1 X96.908 Y102.125 E8.81733
G1 X93.193 Y82.594 E9.5447
G1 X93.079 Y82.353 E9.55445
G1 X92.85 Y82.189 E9.56476
G1 X92.601 Y82.139 E9.57405
G1 X92.278 Y82.162 E9.5859
G1 X92.049 Y82.317 E9.59602
G1 X91.924 Y82.544 E9.6055
G1 X91.882 Y82.806 E9.6152
G1 X91.882 Y124.663 E11.14659
G1 X91.861 Y124.961 E11.15752
G1 X91.813 Y125.323 E11.17088
G1 X91.727 Y125.666 E11.18382
G1 X91.613 Y125.987 E11.19628
G1 X91.47 Y126.297 E11.20877
G1 X91.296 Y126.588 E11.22118
G1 X91.095 Y126.866 E11.23373
G1 X90.868 Y127.118 E11.24614
G1 X90.619 Y127.345 E11.25846
G1 X90.346 Y127.549 E11.27093
G1 X90.059 Y127.724 E11.28323
G1 X89.756 Y127.868 E11.2955
G1 X89.445 Y127.98 E11.3076
G1 X89.113 Y128.066 E11.32015
G1 X88.78 Y128.115 E11.33246
G1 X88.454 Y128.134 E11.34441
G1 X85.441 Y128.133 E11.45464
G1 X85.11 Y128.113 E11.46677
G1 X84.777 Y128.062 E11.4791
G1 X84.444 Y127.977 E11.49167
G1 X84.135 Y127.861 E11.50375
G1 X83.832 Y127.714 E11.51607
G1 X83.546 Y127.539 E11.52834
G1 X83.29 Y127.347 E11.54004
G1 X83.043 Y127.121 E11.55229
G1 X82.814 Y126.863 E11.56491
G1 X82.604 Y126.572 E11.57804
G1 X82.441 Y126.297 E11.58974
G1 X82.29 Y125.97 E11.60292
G1 X82.182 Y125.668 E11.61465
G1 X82.093 Y125.301 E11.62847
G1 X82.05 Y124.981 E11.64028
G1 X82.028 Y124.647 E11.65253
G1 X82.026 Y82.629 E13.1898
G1 X81.914 Y82.364 E13.20033
G1 X81.702 Y82.2 E13.21013
G1 X81.43 Y82.14 E13.22033
G1 X81.103 Y82.162 E13.23232
G1 X80.87 Y82.32 E13.24262
G1 X80.721 Y82.572 E13.25333
G1 X76.991 Y102.154 E13.98264
G1 X77.032 Y102.244 E13.98626
G1 X77.111 Y102.267 E13.98927
G1 X80.658 Y102.267 E14.11904
G1 X80.79 Y102.311 E14.12413
G1 X80.878 Y102.487 E14.13133
G1 X80.882 Y139.301 E15.47821
G1 X80.925 Y139.984 E15.50325
G1 X81.011 Y140.372 E15.51779
G1 X81.055 Y140.405 E15.5198
G1 X92.872 Y140.404 E15.95214
G0 F2100 X92.536 Y139.964
;TYPE:WALL-INNER
G1 F1200 X92.588 Y139.257 E15.97807
G1 X92.589 Y125.888 E16.46719
G1 F1260.1 X92.61 Y125.484 E16.48129
G1 F932.9 X92.442 Y125.038 E16.50372
G1 F915.1 X92.241 Y125.371 E16.52238
G1 F1233.6 X92.159 Y125.751 E16.53622
G1 F1205.5 X92.037 Y126.114 E16.55016
G1 F1200 X91.88 Y126.46 E16.56406
G1 X91.685 Y126.796 E16.57828
G1 X91.466 Y127.105 E16.59213
G1 X91.212 Y127.395 E16.60624
G1 X90.933 Y127.656 E16.62021
G1 X90.629 Y127.889 E16.63423
G1 X90.308 Y128.089 E16.64807
G1 X89.966 Y128.257 E16.66201
G1 X89.615 Y128.388 E16.67571
G1 X89.248 Y128.487 E16.68962
G1 X88.865 Y128.548 E16.70381
G1 X88.492 Y128.572 E16.71748
G1 X88.454 Y128.574 E16.71888
G1 X85.454 Y128.573 E16.82863
G1 X85.104 Y128.554 E16.84146
G1 X84.732 Y128.501 E16.85521
G1 X84.359 Y128.411 E16.86924
G1 X84 Y128.281 E16.88321
G1 X83.66 Y128.12 E16.89698
G1 X83.336 Y127.926 E16.91079
G1 X83.026 Y127.699 E16.92485
G1 X82.745 Y127.445 E16.93871
G1 X82.484 Y127.154 E16.95301
G1 X82.258 Y126.846 E16.96699
G1 X82.063 Y126.521 E16.98085
G1 X81.898 Y126.172 E16.99498
G1 X81.768 Y125.816 E17.00884
G1 F921.5 X81.54 Y125.458 E17.02907
G1 F711.6 X81.49 Y125.384 E17.03458
G1 F867 X81.322 Y125.799 E17.05725
G1 F1200 X81.32 Y126.298 E17.0755
G1 X81.321 Y127.592 E17.12285
G1 X81.322 Y139.287 E17.55072
G1 X81.366 Y139.965 E17.57558
G1 X92.536 Y139.964 E17.98425
G0 F2100 X92.442 Y125.038
G1 F722.3 X92.445 Y124.988 E17.98729
G1 F736.4 X92.456 Y124.647 E18.00763
G1 F747.9 X92.456 Y122.8 E18.11606
G1 X92.456 Y120.953 E18.22448
G1 X92.456 Y119.106 E18.33291
G1 F746.8 X92.456 Y117.259 E18.44149
G1 X92.456 Y115.412 E18.55007
G1 X92.456 Y113.565 E18.65865
G1 F745.8 X92.456 Y111.718 E18.76739
G1 X92.456 Y109.871 E18.87612
G1 X92.456 Y108.024 E18.98485
G1 F744.7 X92.456 Y106.177 E19.09374
G1 X92.456 Y104.33 E19.20263
G1 X92.457 Y102.483 E19.31151
G0 F2100 X92.457 Y102.486
G1 F822.4 X92.656 Y102.222 E19.32916
G1 F1041.4 X92.855 Y101.958 E19.3431
G1 F1200 X93.252 Y101.826 E19.35841
G1 X96.403 Y101.824 E19.47369
G1 X92.767 Y82.704 E20.18575
G1 X92.674 Y82.592 E20.19108
G1 X92.41 Y82.59 E20.20074
G1 X92.322 Y82.732 E20.20685
G1 X92.322 Y101.691 E20.90049
G1 F1088.7 X92.367 Y101.956 E20.91133
G1 F918.3 X92.412 Y102.221 E20.92418
G1 F794 X92.457 Y102.486 E20.93904
G1 F2700 E15.93904
G0 F2100 X92.189 Y124.988
G0 X92.045 Y125.75
G0 X91.577 Y126.761
G0 X90.837 Y127.593
G0 X89.894 Y128.168
G0 X88.825 Y128.442
G0 X85.085 Y128.442
G0 X84.017 Y128.169
G0 X83.072 Y127.595
G0 X82.334 Y126.761
G0 X81.863 Y125.75
G0 X81.731 Y124.873
G0 X81.452 Y102.487
G1 F2700 E20.93904
G1 F744.7 X81.452 Y106.18 E21.15676
G1 X81.452 Y109.873 E21.37447
G1 X81.452 Y113.566 E21.59219
G1 F745.8 X81.453 Y117.259 E21.8096
G1 X81.453 Y120.952 E22.02701
G1 X81.453 Y124.645 E22.24441
G1 X81.455 Y124.702 E22.24777
G1 F731.3 X81.469 Y125.075 E22.27018
G1 F697.5 X81.49 Y125.384 E22.28967
G0 F2100 X81.452 Y102.487
G1 F794 X81.497 Y102.222 E22.30454
G1 F918.3 X81.542 Y101.957 E22.31739
G1 F1088.7 X81.587 Y101.692 E22.32823
G1 F1200 X81.587 Y82.687 E23.02355
G1 X81.495 Y82.589 E23.02847
G1 X81.235 Y82.59 E23.03798
G1 X81.144 Y82.707 E23.0434
G1 X77.501 Y101.827 E23.75551
G1 X80.658 Y101.827 E23.87102
G1 X81.054 Y101.959 E23.88629
G1 F1041.4 X81.253 Y102.223 E23.90022
G1 F822.4 X81.452 Y102.487 E23.91787
G0 F2100 X81.187 Y101.594
;TYPE:SKIN
G1 F1200 X80.651 Y101.427 E23.93841
G1 X80.728 Y101.001 E23.95425
G1 X80.747 Y101.004 E23.95496
G1 X80.747 Y89.269 E24.38429
G1 X78.697 Y100.033 E24.78519
G1 X79.128 Y100.116 E24.80124
G1 X80.307 Y93.93 E25.03164
G1 X79.046 Y100.547 E25.27809
G1 X78.615 Y100.464 E25.29415
G1 X78.515 Y100.987 E25.31363
G1 X80.652 Y100.987 E25.39181
G1 X80.284 Y100.987 E25.40527
G1 X80.205 Y101.427 E25.42163
G1 X77.984 Y101.427 E25.50289
G1 X81.187 Y84.605 E26.1294
G1 X81.187 Y101.594 E26.75096
G1 F2700 E21.75096
G0 F2100 X81.099 Y101.858
G0 X81.376 Y102.185
G0 X81.367 Y99.976
G0 X79.823 Y99.976
G1 F2700 E26.75096
G1 F752.1 X79.779 Y100.051 E26.75603
G1 X79.693 Y100.051 E26.76105
G1 X79.649 Y99.976 E26.76613
G1 X79.693 Y99.901 E26.77121
G1 X79.779 Y99.901 E26.77623
G1 F2700 E21.77623
G0 F2100 X82.911 Y99.9
G0 X90.997 Y99.902
G0 X94.215 Y99.902
G1 F2700 E26.77623
G1 F758.6 X94.129 Y99.902 E26.7812
G1 X94.085 Y99.977 E26.78624
G1 X94.129 Y100.052 E26.79127
G1 X94.215 Y100.052 E26.79624
G1 X94.259 Y99.977 E26.80128
G1 F2700 E21.80128
G0 F2100 X95.794 Y99.687
G0 X96.195 Y101.374
G1 F2700 E26.80128
G0 F2100 X95.92 Y101.424
G1 F1200 X93.675 Y101.426 E26.88341
G1 X93.603 Y100.967 E26.90041
G1 X93.603 Y100.546 E26.91581
G1 X93.602 Y93.943 E27.15739
G1 X94.858 Y100.544 E27.40323
G1 X94.043 Y100.546 E27.43305
G1 X94.043 Y100.986 E27.44915
G1 X95.389 Y100.984 E27.49839
G1 X93.162 Y89.275 E27.93446
G1 X93.163 Y101.002 E28.3635
G1 X93.231 Y101.431 E28.37939
G1 X93.189 Y101.437 E28.38095
G1 X92.723 Y101.592 E28.39891
G1 X92.722 Y84.618 E29.01993
G1 X95.92 Y101.424 E29.64583
G1 F2700 E24.64583
G0 F2100 X96.195 Y101.373
G0 X96.139 Y101.934
G0 X92.714 Y101.948
G0 X92.443 Y139.585
G1 F2700 E29.64583
G0 F2100 X92.165 Y139.564
G1 F1200 X81.74 Y139.565 E30.02724
G1 X81.722 Y139.273 E30.03794
G1 X81.723 Y139.265 E30.03824
G1 X81.723 Y126.729 E30.49688
G1 X81.889 Y127.017 E30.50904
G1 X82.182 Y127.42 E30.52727
G1 X82.476 Y127.743 E30.54325
G1 X82.718 Y127.961 E30.55517
G1 X83.058 Y128.223 E30.57087
G1 X83.492 Y128.486 E30.58944
G1 X83.865 Y128.659 E30.60448
G1 X84.265 Y128.801 E30.62001
G1 X84.653 Y128.893 E30.6346
G1 X85.065 Y128.952 E30.64983
G1 X85.441 Y128.973 E30.6636
G1 X88.503 Y128.973 E30.77563
G1 X88.906 Y128.946 E30.79041
G1 X89.312 Y128.881 E30.80545
G1 X89.431 Y129.304 E30.82153
G1 X88.997 Y129.379 E30.83764
G1 X88.546 Y129.412 E30.85419
G1 X85.416 Y129.413 E30.9687
G1 X85.043 Y129.393 E30.98237
G1 X84.605 Y129.332 E30.99855
G1 X84.57 Y129.323 E30.99987
G1 X84.426 Y129.74 E31.01601
G1 X84.041 Y129.652 E31.03046
G1 X84.557 Y129.771 E31.04983
G1 X85.008 Y129.832 E31.06648
G1 X84.949 Y130.266 E31.08251
G1 X84.855 Y130.697 E31.09865
G1 X84.47 Y130.649 E31.11284
G1 X84.953 Y130.71 E31.13065
G1 X84.932 Y131.15 E31.14677
G1 X84.417 Y131.086 E31.16576
G1 X83.927 Y130.983 E31.18408
G1 X83.927 Y137.362 E31.41746
G1 X89.981 Y137.362 E31.63895
G1 X89.986 Y130.986 E31.87222
G1 X89.948 Y130.996 E31.87366
G1 X89.293 Y131.115 E31.89802
G1 X88.662 Y131.17 E31.92119
G1 X85.835 Y131.173 E32.02462
G1 X85.82 Y131.613 E32.04073
G1 X85.397 Y131.613 E32.0562
G1 X88.698 Y131.609 E32.17697
G1 X89.35 Y131.552 E32.20092
G1 X89.545 Y131.518 E32.20816
G1 X89.541 Y136.922 E32.40587
G1 X84.367 Y136.922 E32.59517
G1 X84.367 Y132.102 E32.77152
G1 X84.368 Y131.525 E32.79263
G1 X84.94 Y131.593 E32.8137
G1 X84.889 Y132.029 E32.82976
G1 X84.808 Y132.02 E32.83274
G1 X84.808 Y136.481 E32.99595
G1 X89.101 Y136.481 E33.15302
G1 X89.104 Y132.016 E33.31637
G1 X88.754 Y132.047 E33.32923
G1 X85.838 Y132.053 E33.43592
G1 X85.823 Y132.493 E33.45202
G1 X85.4 Y132.493 E33.4675
G1 X88.662 Y132.489 E33.58684
G1 X88.661 Y136.041 E33.7168
G1 X85.248 Y136.041 E33.84167
G1 X85.249 Y133.672 E33.92834
G1 X85.689 Y133.673 E33.94444
G1 X86.129 Y133.674 E33.96053
G1 X86.129 Y133.372 E33.97158
G1 X87.781 Y133.371 E34.03202
G1 X87.781 Y135.16 E34.09748
G1 X86.129 Y135.16 E34.15792
G1 X86.129 Y134.637 E34.17705
G1 F1097.7 X86.391 Y134.637 E34.18753
G1 F936.2 X86.653 Y134.637 E34.19982
G1 F871.3 X86.652 Y134.637 E34.19987
G1 X87.258 Y134.637 E34.2304
G1 X87.258 Y133.895 E34.26779
G1 X86.652 Y133.895 E34.29833
G1 X86.652 Y134.114 E34.30936
G1 F936.2 X86.39 Y134.114 E34.32165
G1 F1097.7 X86.128 Y134.114 E34.33213
G1 F1200 X86.129 Y134.114 E34.33216
G1 X85.689 Y134.114 E34.34826
G1 X85.689 Y135.6 E34.40263
G1 X88.221 Y135.6 E34.49527
G1 X88.221 Y132.93 E34.59295
G1 X85.689 Y132.932 E34.68559
G1 X85.689 Y133.234 E34.69664
G1 X85.249 Y133.232 E34.71273
G1 X85.249 Y132.488 E34.73995
G1 X85.383 Y132.492 E34.74486
G1 X85.398 Y132.053 E34.76093
G1 X84.921 Y132.033 E34.7784
G1 X85.329 Y132.05 E34.79334
G1 X85.38 Y131.612 E34.80947
G1 X85.395 Y131.173 E34.82554
G1 X84.958 Y131.153 E34.84155
G1 X85.371 Y131.171 E34.85667
G1 X85.392 Y130.733 E34.87271
G1 X88.627 Y130.731 E34.99107
G1 X89.197 Y130.684 E35.01199
G1 X89.82 Y130.574 E35.03514
G1 X90.385 Y130.409 E35.05667
G1 X90.427 Y130.393 E35.05832
G1 X90.421 Y137.803 E35.32942
G1 X83.487 Y137.803 E35.58311
G1 X83.486 Y130.39 E35.85432
G1 X83.872 Y130.52 E35.86922
G1 X84.419 Y130.638 E35.8897
G1 X84.512 Y130.21 E35.90572
G1 X83.944 Y130.082 E35.92702
G1 X83.421 Y129.904 E35.94724
G1 X83.046 Y129.737 E35.96226
G1 X83.047 Y138.243 E36.27346
G1 X90.861 Y138.243 E36.55934
G1 X90.868 Y129.729 E36.87084
G1 X90.722 Y129.803 E36.87682
G1 X90.222 Y129.998 E36.89646
G1 X89.717 Y130.146 E36.91571
G1 X89.122 Y130.25 E36.93781
G1 X88.593 Y130.292 E36.95723
G1 X85.391 Y130.293 E37.07438
G1 X84.999 Y130.273 E37.08874
G1 X85.389 Y130.292 E37.10302
G1 X85.448 Y129.853 E37.11923
G1 X88.561 Y129.853 E37.23312
G1 X89.048 Y129.816 E37.25099
G1 X89.592 Y129.722 E37.27119
G1 X90.063 Y129.586 E37.28912
G1 X90.517 Y129.412 E37.30691
G1 X90.97 Y129.185 E37.32545
G1 X91.309 Y128.972 E37.3401
G1 X91.301 Y138.683 E37.69538
G1 X82.607 Y138.683 E38.01346
G1 X82.605 Y128.981 E38.36842
G1 X83.099 Y129.277 E38.38949
G1 X83.566 Y129.488 E38.40824
G1 X83.997 Y129.636 E38.42491
G1 X84.14 Y129.223 E38.4409
G1 X83.697 Y129.066 E38.4581
G1 X83.306 Y128.887 E38.47383
G1 X82.826 Y128.599 E38.49431
