;FLAVOR:Marlin
;TIME:1270
;Filament used: 0.844863m
;Layer height: 0.2
;MINX:82.602
;MINY:95.037
;MINZ:0.2
;MAXX:129.299
;MAXY:129.299
;MAXZ:7
;Generated with Cura_SteamEngine 5.0.0
M82 ;absolute extrusion mode
START_PRINT EXTRUDER_TEMP=222 BED_TEMP=60
G92 E0
G92 E0
G1 F2700 E-5
;LAYER_COUNT:35
;LAYER:0
M107
;MESH:Roof Window Plug v2.stl(1)
G0 F2100 X95.795 Y118.325 Z0.2
;TYPE:WALL-OUTER
G1 F2700 E0
G1 F1200 X96.487 Y118.22 E0.02561
G1 X97.172 Y118.073 E0.05124
G1 X97.843 Y117.886 E0.07672
G1 X98.502 Y117.658 E0.10224
G1 X99.15 Y117.39 E0.12789
G1 X99.779 Y117.083 E0.1535
G1 X100.387 Y116.741 E0.17902
G1 X100.976 Y116.36 E0.20469
G1 X101.538 Y115.947 E0.2302
G1 X102.074 Y115.499 E0.25576
G1 X102.584 Y115.02 E0.28136
G1 X103.064 Y114.51 E0.30698
G1 X103.51 Y113.973 E0.33252
G1 X103.925 Y113.409 E0.35814
G1 X104.304 Y112.825 E0.38361
G1 X104.648 Y112.214 E0.40927
G1 X104.955 Y111.587 E0.43481
G1 X105.229 Y110.927 E0.46095
G1 X105.449 Y110.28 E0.48595
G1 X105.637 Y109.605 E0.51159
G1 X105.784 Y108.923 E0.53711
G1 X105.89 Y108.23 E0.56276
G1 X105.953 Y107.536 E0.58826
G1 X105.974 Y106.837 E0.61384
G1 X105.953 Y106.138 E0.63943
G1 X105.89 Y105.44 E0.66507
G1 X105.784 Y104.749 E0.69065
G1 X105.637 Y104.065 E0.71624
G1 X105.451 Y103.394 E0.74172
G1 X105.223 Y102.732 E0.76733
G1 X104.955 Y102.087 E0.79289
G1 X104.648 Y101.458 E0.8185
G1 X104.306 Y100.849 E0.84405
G1 X103.925 Y100.261 E0.86968
G1 X103.512 Y99.699 E0.8952
G1 X103.064 Y99.163 E0.92076
G1 X102.584 Y98.652 E0.94641
G1 X102.075 Y98.173 E0.97198
G1 X101.538 Y97.727 E0.99752
G1 X100.973 Y97.312 E1.02317
G1 X100.389 Y96.933 E1.04864
G1 X99.779 Y96.589 E1.07426
G1 X99.152 Y96.282 E1.0998
G1 X98.491 Y96.008 E1.12598
G1 X97.845 Y95.788 E1.15095
G1 X97.17 Y95.599 E1.17659
G1 X96.487 Y95.452 E1.20215
G1 X95.795 Y95.347 E1.22776
G1 X95.1 Y95.283 E1.2533
G1 X94.402 Y95.263 E1.27884
G1 X93.703 Y95.283 E1.30443
G1 X93.006 Y95.347 E1.33004
G1 X92.314 Y95.452 E1.35564
G1 X91.63 Y95.599 E1.38124
G1 X90.958 Y95.786 E1.40676
G1 X90.299 Y96.014 E1.43227
G1 X89.652 Y96.282 E1.45789
G1 X89.022 Y96.589 E1.48353
G1 X88.414 Y96.931 E1.50906
G1 X87.825 Y97.312 E1.53472
G1 X87.263 Y97.725 E1.56024
G1 X86.727 Y98.173 E1.5858
G1 X86.217 Y98.652 E1.61139
G1 X85.738 Y99.162 E1.63699
G1 X85.291 Y99.699 E1.66256
G1 X84.876 Y100.263 E1.68817
G1 X84.498 Y100.847 E1.71363
G1 X84.154 Y101.458 E1.73928
G1 X83.847 Y102.085 E1.76482
G1 X83.572 Y102.745 E1.79098
G1 X83.353 Y103.392 E1.81597
G1 X83.164 Y104.067 E1.84162
G1 X83.017 Y104.749 E1.86714
G1 X82.912 Y105.442 E1.89278
G1 X82.848 Y106.136 E1.91828
G1 X82.828 Y106.836 E1.9439
G1 X82.848 Y107.534 E1.96945
G1 X82.912 Y108.23 E1.99502
G1 X83.017 Y108.923 E2.02067
G1 X83.164 Y109.607 E2.04626
G1 X83.351 Y110.278 E2.07175
G1 X83.578 Y110.938 E2.09728
G1 X83.847 Y111.585 E2.12292
G1 X84.154 Y112.214 E2.14853
G1 X84.496 Y112.823 E2.17408
G1 X84.874 Y113.409 E2.19959
G1 X85.289 Y113.973 E2.22521
G1 X85.738 Y114.509 E2.25079
G1 X86.217 Y115.02 E2.27642
G1 X86.724 Y115.497 E2.30189
G1 X87.263 Y115.945 E2.32753
G1 X87.828 Y116.36 E2.35318
G1 X88.412 Y116.739 E2.37865
G1 X89.022 Y117.083 E2.40427
G1 X89.65 Y117.39 E2.42984
G1 X90.31 Y117.664 E2.45599
G1 X90.956 Y117.884 E2.48096
G1 X91.632 Y118.073 E2.50664
G1 X92.314 Y118.22 E2.53216
G1 X93.006 Y118.325 E2.55777
G1 X93.701 Y118.389 E2.5833
G1 X94.4 Y118.409 E2.60889
G1 X95.098 Y118.389 E2.63444
G1 X95.795 Y118.325 E2.66004
G0 F2100 X95.742 Y117.888
;TYPE:WALL-INNER
G1 F1200 X96.408 Y117.787 E2.68469
G1 X97.067 Y117.645 E2.70935
G1 X97.712 Y117.466 E2.73384
G1 X98.346 Y117.246 E2.75839
G1 X98.969 Y116.988 E2.78307
G1 X99.575 Y116.693 E2.80772
G1 X100.159 Y116.364 E2.83225
G1 X100.726 Y115.998 E2.85694
G1 X101.266 Y115.601 E2.88146
G1 X101.782 Y115.169 E2.90608
G1 X102.273 Y114.709 E2.9307
G1 X102.734 Y114.218 E2.95534
G1 X103.164 Y113.701 E2.97994
G1 X103.563 Y113.159 E3.00456
G1 X103.927 Y112.597 E3.02906
G1 X104.258 Y112.009 E3.05375
G1 X104.554 Y111.406 E3.07832
G1 X104.817 Y110.771 E3.10347
G1 X105.029 Y110.15 E3.12748
G1 X105.209 Y109.5 E3.15215
G1 X105.351 Y108.843 E3.17674
G1 X105.453 Y108.177 E3.2014
G1 X105.513 Y107.51 E3.2259
G1 X105.534 Y106.837 E3.25053
G1 X105.513 Y106.164 E3.27517
G1 X105.453 Y105.493 E3.29981
G1 X105.351 Y104.829 E3.32439
G1 X105.209 Y104.17 E3.34905
G1 X105.031 Y103.524 E3.37357
G1 X104.811 Y102.888 E3.39819
G1 X104.554 Y102.268 E3.42275
G1 X104.258 Y101.662 E3.44742
G1 X103.929 Y101.077 E3.47198
G1 X103.563 Y100.511 E3.49664
G1 X103.166 Y99.971 E3.52116
G1 X102.734 Y99.455 E3.54578
G1 X102.273 Y98.963 E3.57045
G1 X101.783 Y98.503 E3.59504
G1 X101.267 Y98.073 E3.61961
G1 X100.723 Y97.674 E3.64429
G1 X100.161 Y97.31 E3.66879
G1 X99.574 Y96.979 E3.69344
G1 X98.971 Y96.683 E3.71802
G1 X98.335 Y96.42 E3.7432
G1 X97.715 Y96.208 E3.76717
G1 X97.064 Y96.027 E3.79189
G1 X96.407 Y95.885 E3.81649
G1 X95.742 Y95.784 E3.8411
G1 X95.074 Y95.723 E3.86564
G1 X94.402 Y95.703 E3.89023
G1 X93.729 Y95.723 E3.91487
G1 X93.059 Y95.784 E3.93948
G1 X92.394 Y95.885 E3.96409
G1 X91.735 Y96.027 E3.98875
G1 X91.089 Y96.206 E4.01328
G1 X90.455 Y96.426 E4.03783
G1 X89.833 Y96.684 E4.06247
G1 X89.226 Y96.979 E4.08716
G1 X88.642 Y97.308 E4.11168
G1 X88.075 Y97.674 E4.13637
G1 X87.535 Y98.071 E4.16089
G1 X87.019 Y98.503 E4.18552
G1 X86.529 Y98.963 E4.2101
G1 X86.068 Y99.454 E4.23475
G1 X85.637 Y99.971 E4.25937
G1 X85.238 Y100.513 E4.28399
G1 X84.875 Y101.075 E4.30847
G1 X84.544 Y101.663 E4.33316
G1 X84.248 Y102.267 E4.35777
G1 X83.984 Y102.901 E4.38289
G1 X83.773 Y103.522 E4.40689
G1 X83.592 Y104.173 E4.43161
G1 X83.45 Y104.829 E4.45617
G1 X83.349 Y105.495 E4.48081
G1 X83.288 Y106.162 E4.50532
G1 X83.268 Y106.836 E4.52999
G1 X83.288 Y107.508 E4.55458
G1 X83.349 Y108.177 E4.57916
G1 X83.45 Y108.843 E4.60381
G1 X83.592 Y109.502 E4.62847
G1 X83.771 Y110.147 E4.65296
G1 X83.99 Y110.782 E4.67754
G1 X84.248 Y111.404 E4.70217
G1 X84.544 Y112.01 E4.72685
G1 X84.873 Y112.596 E4.75143
G1 X85.236 Y113.159 E4.77594
G1 X85.635 Y113.701 E4.80057
G1 X86.068 Y114.217 E4.82521
G1 X86.529 Y114.709 E4.84988
G1 X87.016 Y115.167 E4.87434
G1 X87.535 Y115.599 E4.89904
G1 X88.078 Y115.998 E4.9237
G1 X88.64 Y116.362 E4.94819
G1 X89.227 Y116.693 E4.97285
G1 X89.831 Y116.989 E4.99746
G1 X90.466 Y117.252 E5.0226
G1 X91.086 Y117.464 E5.04658
G1 X91.738 Y117.645 E5.07133
G1 X92.394 Y117.787 E5.09589
G1 X93.059 Y117.888 E5.1205
G1 X93.727 Y117.949 E5.14504
G1 X94.4 Y117.969 E5.16967
G1 X95.072 Y117.949 E5.19427
G1 X95.742 Y117.888 E5.21888
G0 F2100 X95.692 Y117.491
;TYPE:SKIN
G1 F1200 X95.044 Y117.55 E5.24269
G1 X94.399 Y117.568 E5.2663
G1 X93.753 Y117.55 E5.28994
G1 X93.108 Y117.491 E5.31364
G1 X92.466 Y117.393 E5.3374
G1 X91.834 Y117.256 E5.36106
G1 X91.202 Y117.08 E5.38506
G1 X90.622 Y116.884 E5.40746
G1 X89.995 Y116.623 E5.4323
G1 X89.413 Y116.337 E5.45603
G1 X88.846 Y116.018 E5.47983
G1 X88.308 Y115.668 E5.50331
G1 X87.781 Y115.281 E5.52724
G1 X87.28 Y114.865 E5.55106
G1 X86.812 Y114.425 E5.57456
G1 X86.367 Y113.95 E5.59837
G1 X85.949 Y113.453 E5.62213
G1 X85.564 Y112.931 E5.64586
G1 X85.216 Y112.388 E5.66946
G1 X84.9 Y111.824 E5.69311
G1 X84.614 Y111.238 E5.71697
G1 X84.364 Y110.639 E5.74072
G1 X84.153 Y110.028 E5.76437
G1 X83.981 Y109.405 E5.78801
G1 X83.845 Y108.769 E5.81181
G1 X83.747 Y108.127 E5.83557
G1 X83.687 Y107.483 E5.85923
G1 X83.669 Y106.836 E5.88291
G1 X83.687 Y106.189 E5.90659
G1 X83.746 Y105.543 E5.93033
G1 X83.844 Y104.901 E5.95409
G1 X83.981 Y104.27 E5.97771
G1 X84.158 Y103.64 E6.00165
G1 X84.353 Y103.056 E6.02418
G1 X84.614 Y102.43 E6.04899
G1 X84.899 Y101.849 E6.07267
G1 X85.219 Y101.28 E6.09655
G1 X85.568 Y100.742 E6.12001
G1 X85.954 Y100.218 E6.14382
G1 X86.368 Y99.72 E6.16752
G1 X86.812 Y99.247 E6.19125
G1 X87.286 Y98.802 E6.21504
G1 X87.782 Y98.387 E6.2387
G1 X88.304 Y98.004 E6.26239
G1 X88.848 Y97.651 E6.28611
G1 X89.412 Y97.336 E6.30975
G1 X89.999 Y97.049 E6.33365
G1 X90.599 Y96.799 E6.35743
G1 X91.223 Y96.585 E6.38157
G1 X91.832 Y96.416 E6.40469
G1 X92.468 Y96.279 E6.4285
G1 X93.109 Y96.181 E6.45222
G1 X93.758 Y96.122 E6.47606
G1 X94.403 Y96.104 E6.49967
G1 X95.049 Y96.122 E6.52331
G1 X95.692 Y96.182 E6.54694
G1 X96.335 Y96.28 E6.57074
G1 X96.967 Y96.416 E6.59439
G1 X97.598 Y96.592 E6.61836
G1 X98.18 Y96.789 E6.64084
G1 X98.807 Y97.049 E6.66567
G1 X99.388 Y97.335 E6.68936
G1 X99.955 Y97.654 E6.71316
G1 X100.493 Y98.004 E6.73665
G1 X101.02 Y98.389 E6.76052
G1 X101.517 Y98.803 E6.78419
G1 X101.989 Y99.247 E6.8079
G1 X102.435 Y99.722 E6.83174
G1 X102.851 Y100.219 E6.85545
G1 X103.233 Y100.739 E6.87905
G1 X103.585 Y101.282 E6.90273
G1 X103.902 Y101.849 E6.9265
G1 X104.188 Y102.433 E6.95029
G1 X104.437 Y103.031 E6.97399
G1 X104.648 Y103.644 E6.9977
G1 X104.82 Y104.266 E7.02132
G1 X104.957 Y104.902 E7.04512
G1 X105.055 Y105.543 E7.06884
G1 X105.114 Y106.19 E7.09261
G1 X105.133 Y106.837 E7.11629
G1 X105.114 Y107.483 E7.13994
G1 X105.055 Y108.129 E7.16367
G1 X104.957 Y108.77 E7.1874
G1 X104.82 Y109.404 E7.21113
G1 X104.644 Y110.033 E7.23502
G1 X104.457 Y110.588 E7.25645
G1 X104.042 Y110.448 E7.27247
G1 X104.222 Y109.903 E7.29347
G1 X104.391 Y109.296 E7.31652
G1 X104.524 Y108.689 E7.33926
G1 X104.617 Y108.074 E7.36202
G1 X104.674 Y107.457 E7.38469
G1 X104.692 Y106.837 E7.40738
G1 X104.674 Y106.218 E7.43003
G1 X104.618 Y105.596 E7.45288
G1 X104.524 Y104.983 E7.47557
G1 X104.391 Y104.37 E7.49852
G1 X104.228 Y103.775 E7.52109
G1 X104.026 Y103.188 E7.54381
G1 X103.786 Y102.617 E7.56647
G1 X103.51 Y102.054 E7.58941
G1 X103.208 Y101.511 E7.61214
G1 X102.87 Y100.989 E7.63489
G1 X102.505 Y100.492 E7.65745
G1 X102.105 Y100.016 E7.6802
G1 X101.677 Y99.559 E7.70311
G1 X101.223 Y99.133 E7.72588
G1 X100.75 Y98.737 E7.74845
G1 X100.245 Y98.369 E7.77131
G1 X99.728 Y98.032 E7.79389
G1 X99.182 Y97.726 E7.81679
G1 X98.625 Y97.45 E7.83953
G1 X98.01 Y97.195 E7.86389
G1 X97.468 Y97.014 E7.8848
G1 X96.86 Y96.845 E7.90789
G1 X96.254 Y96.713 E7.93058
G1 X95.637 Y96.619 E7.95341
G1 X95.023 Y96.562 E7.97597
G1 X94.405 Y96.545 E7.99859
G1 X93.785 Y96.562 E8.02128
G1 X93.164 Y96.618 E8.04409
G1 X92.549 Y96.712 E8.06686
G1 X91.937 Y96.845 E8.08977
G1 X91.354 Y97.005 E8.11189
G1 X90.758 Y97.21 E8.13495
G1 X90.182 Y97.451 E8.15779
G1 X89.616 Y97.727 E8.18083
G1 X89.077 Y98.028 E8.20342
G1 X88.554 Y98.367 E8.22622
G1 X88.054 Y98.733 E8.24889
G1 X87.58 Y99.132 E8.27156
G1 X87.124 Y99.559 E8.29441
G1 X86.698 Y100.013 E8.31719
G1 X86.302 Y100.49 E8.33987
G1 X85.93 Y100.994 E8.36279
G1 X85.597 Y101.507 E8.38517
G1 X85.29 Y102.054 E8.40812
G1 X85.015 Y102.612 E8.43088
G1 X84.759 Y103.224 E8.45515
G1 X84.58 Y103.769 E8.47613
G1 X84.41 Y104.378 E8.49927
G1 X84.277 Y104.982 E8.52189
G1 X84.184 Y105.598 E8.54469
G1 X84.158 Y105.896 E8.55563
G1 X84.127 Y106.215 E8.56736
G1 X84.11 Y106.836 E8.59009
G1 X84.127 Y107.455 E8.61274
G1 X84.184 Y108.072 E8.63541
G1 X84.278 Y108.689 E8.65824
G1 X84.41 Y109.301 E8.68115
G1 X84.573 Y109.896 E8.70372
G1 X84.775 Y110.48 E8.72633
G1 X85.016 Y111.055 E8.74914
G1 X85.291 Y111.62 E8.77213
G1 X85.593 Y112.16 E8.79477
G1 X85.925 Y112.679 E8.81731
G1 X86.294 Y113.18 E8.84007
G1 X86.697 Y113.656 E8.86289
G1 X87.124 Y114.113 E8.88577
G1 X87.571 Y114.533 E8.90821
G1 X88.053 Y114.933 E8.93113
G1 X88.56 Y115.306 E8.95416
G1 X89.073 Y115.64 E8.97655
G1 X89.619 Y115.946 E8.99945
G1 X90.177 Y116.222 E9.02223
G1 X90.792 Y116.478 E9.0466
G1 X90.821 Y116.487 E9.04771
G1 X90.96 Y116.072 E9.06372
G1 X90.359 Y115.821 E9.08755
G1 X89.825 Y115.555 E9.10938
G1 X89.3 Y115.262 E9.13137
G1 X88.812 Y114.944 E9.15269
G1 X88.325 Y114.585 E9.17482
G1 X87.862 Y114.201 E9.19683
G1 X87.436 Y113.801 E9.21821
G1 X87.026 Y113.362 E9.24018
G1 X86.639 Y112.907 E9.26204
G1 X86.286 Y112.427 E9.28384
G1 X85.97 Y111.933 E9.30529
G1 X85.682 Y111.416 E9.32694
G1 X85.418 Y110.872 E9.34907
G1 X85.186 Y110.32 E9.37097
G1 X84.993 Y109.765 E9.39247
G1 X84.839 Y109.197 E9.414
G1 X84.711 Y108.608 E9.43605
G1 X84.621 Y108.017 E9.45793
G1 X84.567 Y107.427 E9.4796
G1 X84.551 Y106.835 E9.50127
G1 X84.567 Y106.241 E9.52301
G1 X84.622 Y105.653 E9.54462
G1 X84.71 Y105.063 E9.56644
G1 X84.839 Y104.486 E9.58807
G1 X85.003 Y103.897 E9.61044
G1 X85.165 Y103.392 E9.62984
G1 X85.416 Y102.794 E9.65357
G1 X85.681 Y102.26 E9.67538
G1 X85.975 Y101.734 E9.69743
G1 X86.292 Y101.246 E9.71872
G1 X86.65 Y100.762 E9.74074
G1 X87.029 Y100.306 E9.76244
G1 X87.436 Y99.871 E9.78423
G1 X87.874 Y99.462 E9.80616
G1 X88.327 Y99.079 E9.82786
G1 X88.804 Y98.73 E9.84948
G1 X89.306 Y98.405 E9.87136
G1 X89.82 Y98.118 E9.8929
G1 X90.365 Y97.853 E9.91507
G1 X90.917 Y97.621 E9.93698
G1 X91.486 Y97.425 E9.959
G1 X92.042 Y97.274 E9.98008
G1 X92.63 Y97.145 E10.0021
G1 X93.218 Y97.056 E10.02386
G1 X93.813 Y97.002 E10.04572
G1 X94.405 Y96.986 E10.06738
G1 X94.997 Y97.002 E10.08905
G1 X95.582 Y97.057 E10.11055
G1 X96.173 Y97.146 E10.13241
G1 X96.752 Y97.274 E10.15411
G1 X97.34 Y97.437 E10.17643
G1 X97.812 Y97.592 E10.19461
G1 X97.676 Y98.007 E10.21059
G1 X97.213 Y97.86 E10.22836
G1 X96.644 Y97.703 E10.24996
G1 X96.092 Y97.579 E10.27065
G1 X95.527 Y97.494 E10.29156
G1 X94.971 Y97.442 E10.31199
G1 X94.406 Y97.427 E10.33267
G1 X93.841 Y97.442 E10.35335
G1 X93.272 Y97.494 E10.37425
G1 X92.711 Y97.578 E10.395
G1 X92.146 Y97.703 E10.41617
G1 X91.618 Y97.845 E10.43618
G1 X91.077 Y98.032 E10.45712
G1 X90.548 Y98.254 E10.47811
G1 X90.024 Y98.509 E10.49943
G1 X89.535 Y98.782 E10.51992
G1 X89.054 Y99.093 E10.54088
G1 X88.6 Y99.424 E10.56143
G1 X88.168 Y99.791 E10.58217
G1 X87.748 Y100.183 E10.60319
G1 X87.359 Y100.599 E10.62403
G1 X86.998 Y101.034 E10.64471
G1 X86.654 Y101.498 E10.66584
G1 X86.353 Y101.961 E10.68605
G1 X86.072 Y102.466 E10.70719
G1 X85.817 Y102.977 E10.72808
G1 X85.573 Y103.558 E10.75114
G1 X85.462 Y103.922 E10.76506
G1 X85.267 Y104.596 E10.79073
G1 X85.143 Y105.144 E10.81129
G1 X85.06 Y105.707 E10.83211
G1 X85.037 Y105.966 E10.84162
G1 X85.007 Y106.267 E10.85269
G1 X84.992 Y106.834 E10.87344
G1 X84.998 Y107.101 E10.88321
G1 X85.007 Y107.4 E10.89416
G1 X85.058 Y107.962 E10.9148
G1 X85.144 Y108.527 E10.93571
G1 X85.268 Y109.093 E10.95691
G1 X85.413 Y109.634 E10.9774
G1 X85.597 Y110.159 E10.99775
G1 X85.82 Y110.689 E11.01879
G1 X86.073 Y111.212 E11.04005
G1 X86.347 Y111.706 E11.06071
G1 X86.648 Y112.175 E11.0811
G1 X86.984 Y112.633 E11.10189
G1 X87.355 Y113.068 E11.1228
G1 X87.748 Y113.489 E11.14387
G1 X88.153 Y113.868 E11.16417
G1 X88.597 Y114.237 E11.18529
G1 X89.064 Y114.582 E11.20653
G1 X89.527 Y114.884 E11.22676
G1 X90.031 Y115.165 E11.24787
G1 X90.542 Y115.42 E11.26876
G1 X91.128 Y115.666 E11.29201
G1 X91.586 Y115.812 E11.3096
G1 X91.933 Y115.906 E11.32275
G1 X92.16 Y115.963 E11.33132
G1 X92.268 Y115.541 E11.34725
G1 X91.62 Y115.357 E11.3719
G1 X91.329 Y115.268 E11.38303
G1 X91.456 Y114.85 E11.39902
G1 X92.379 Y115.113 E11.43413
G1 X92.873 Y115.228 E11.45269
G1 X93.38 Y115.302 E11.47143
G1 X93.883 Y115.35 E11.48992
G1 X94.396 Y115.363 E11.50869
G1 X94.65 Y115.358 E11.51799
G1 X94.909 Y115.35 E11.52747
G1 X95.418 Y115.304 E11.54617
G1 X95.932 Y115.226 E11.56519
G1 X96.439 Y115.115 E11.58417
G1 X96.933 Y114.983 E11.60288
G1 X97.404 Y114.819 E11.62113
G1 X97.888 Y114.614 E11.64036
G1 X98.369 Y114.382 E11.6599
G1 X98.809 Y114.137 E11.67832
G1 X99.246 Y113.853 E11.69739
G1 X99.656 Y113.554 E11.71596
G1 X100.047 Y113.222 E11.73472
G1 X100.43 Y112.866 E11.75385
G1 X100.782 Y112.49 E11.7727
G1 X101.106 Y112.095 E11.79139
G1 X101.424 Y111.67 E11.81081
G1 X101.689 Y111.258 E11.82873
G1 X101.951 Y110.79 E11.84835
G1 X102.186 Y110.326 E11.86738
G1 X102.413 Y109.786 E11.88881
G1 X102.424 Y109.747 E11.8903
G1 X102.003 Y109.626 E11.90632
G1 X101.786 Y110.142 E11.9268
G1 X101.562 Y110.583 E11.9449
G1 X101.31 Y111.032 E11.96374
G1 X101.062 Y111.417 E11.98049
G1 X100.758 Y111.823 E11.99905
G1 X100.451 Y112.199 E12.01681
G1 X100.119 Y112.554 E12.03459
G1 X99.753 Y112.893 E12.05284
G1 X99.383 Y113.209 E12.07064
G1 X98.996 Y113.49 E12.08814
G1 X98.58 Y113.76 E12.10629
G1 X98.166 Y113.991 E12.12363
G1 X97.705 Y114.213 E12.14235
G1 X97.243 Y114.409 E12.16071
G1 X96.801 Y114.563 E12.17784
G1 X96.337 Y114.686 E12.1954
G1 X95.851 Y114.793 E12.21361
G1 X95.364 Y114.866 E12.23162
