;FLAVOR:Marlin
;TIME:416
;Filament used: 0.265608m
;Layer height: 0.2
;MINX:110.202
;MINY:110.202
;MINZ:0.2
;MAXX:124.798
;MAXY:124.799
;MAXZ:6
;Generated with Cura_SteamEngine 5.0.0
M82 ;absolute extrusion mode
START_PRINT EXTRUDER_TEMP=222 BED_TEMP=60
G92 E0
G92 E0
G1 F2700 E-5
;LAYER_COUNT:30
;LAYER:0
M107
;MESH:screw holder.stl
G0 F2100 X117.272 Y120.461 Z0.2
;TYPE:WALL-OUTER
G1 F2700 E0
G1 F1200 X116.992 Y120.425 E0.01033
G1 X116.714 Y120.365 E0.02073
G1 X116.432 Y120.271 E0.03161
G1 X116.138 Y120.139 E0.0434
G1 X115.887 Y119.991 E0.05406
G1 X115.642 Y119.817 E0.06505
G1 X115.421 Y119.621 E0.07586
G1 X115.221 Y119.402 E0.08671
G1 X115.044 Y119.166 E0.09751
G1 X114.889 Y118.914 E0.10833
G1 X114.762 Y118.646 E0.11918
G1 X114.66 Y118.368 E0.13001
G1 X114.588 Y118.082 E0.1408
G1 X114.545 Y117.787 E0.15171
G1 X114.532 Y117.515 E0.16167
G1 X114.545 Y117.209 E0.17288
G1 X114.592 Y116.904 E0.18417
G1 X114.663 Y116.618 E0.19495
G1 X114.768 Y116.342 E0.20575
G1 X114.897 Y116.073 E0.21667
G1 X115.051 Y115.821 E0.22747
G1 X115.231 Y115.585 E0.23833
G1 X115.433 Y115.367 E0.24921
G1 X115.657 Y115.172 E0.26007
G1 X115.897 Y115.002 E0.27083
G1 X116.153 Y114.853 E0.28167
G1 X116.422 Y114.733 E0.29245
G1 X116.704 Y114.638 E0.30333
G1 X117.003 Y114.569 E0.31456
G1 X117.288 Y114.538 E0.32505
G1 X117.583 Y114.531 E0.33584
G1 X117.876 Y114.553 E0.34659
G1 X118.17 Y114.606 E0.35752
G1 X118.457 Y114.687 E0.36843
G1 X118.733 Y114.797 E0.37931
G1 X118.992 Y114.931 E0.38997
G1 X119.243 Y115.093 E0.4009
G1 X119.472 Y115.277 E0.41165
G1 X119.684 Y115.485 E0.42252
G1 X119.872 Y115.708 E0.43319
G1 X120.039 Y115.956 E0.44413
G1 X120.181 Y116.217 E0.455
G1 X120.294 Y116.489 E0.46577
G1 X120.381 Y116.763 E0.47629
G1 X120.437 Y117.04 E0.48663
G1 X120.468 Y117.344 E0.49781
G1 X120.468 Y117.656 E0.50923
G1 X120.437 Y117.951 E0.52008
G1 X120.376 Y118.252 E0.53131
G1 X120.29 Y118.523 E0.54172
G1 X120.175 Y118.795 E0.55252
G1 X120.032 Y119.054 E0.56335
G1 X119.865 Y119.301 E0.57425
G1 X119.675 Y119.524 E0.58497
G1 X119.461 Y119.733 E0.59592
G1 X119.229 Y119.916 E0.60673
G1 X118.978 Y120.082 E0.61774
G1 X118.723 Y120.208 E0.62814
G1 X118.442 Y120.317 E0.63917
G1 X118.157 Y120.397 E0.65
G1 X117.884 Y120.446 E0.66015
G1 X117.571 Y120.47 E0.67163
G1 X117.272 Y120.461 E0.68258
G0 F2100 X117.309 Y120.903
;TYPE:WALL-INNER
G1 F1200 X116.956 Y120.864 E0.69557
G1 X116.692 Y120.811 E0.70542
G1 X116.29 Y120.688 E0.7208
G1 X115.979 Y120.551 E0.73324
G1 X115.754 Y120.424 E0.74269
G1 X115.408 Y120.192 E0.75793
G1 X115.146 Y119.966 E0.77059
G1 X114.951 Y119.76 E0.78097
G1 X114.704 Y119.448 E0.79553
G1 X114.525 Y119.164 E0.80781
G1 X114.383 Y118.874 E0.81962
G1 X114.254 Y118.541 E0.83269
G1 X114.166 Y118.215 E0.84504
G1 X114.112 Y117.875 E0.85764
G1 X114.092 Y117.536 E0.87006
G1 X114.101 Y117.263 E0.88005
G1 X114.153 Y116.858 E0.89499
G1 X114.232 Y116.527 E0.90744
G1 X114.323 Y116.27 E0.91742
G1 X114.49 Y115.903 E0.93217
G1 X114.663 Y115.611 E0.94459
G1 X114.86 Y115.345 E0.9567
G1 X115.093 Y115.085 E0.96947
G1 X115.349 Y114.856 E0.98204
G1 X115.625 Y114.654 E0.99455
G1 X115.907 Y114.485 E1.00658
G1 X116.16 Y114.367 E1.01679
G1 X116.542 Y114.228 E1.03166
G1 X116.882 Y114.145 E1.04447
G1 X117.156 Y114.11 E1.05457
G1 X117.549 Y114.091 E1.06897
G1 X117.888 Y114.112 E1.0814
G1 X118.215 Y114.167 E1.09353
G1 X118.558 Y114.257 E1.1065
G1 X118.875 Y114.378 E1.11892
G1 X119.174 Y114.528 E1.13115
G1 X119.463 Y114.711 E1.14367
G1 X119.681 Y114.88 E1.15376
G1 X119.975 Y115.152 E1.16842
G1 X120.198 Y115.412 E1.18095
G1 X120.375 Y115.667 E1.1923
G1 X120.557 Y115.984 E1.20568
G1 X120.693 Y116.298 E1.2182
G1 X120.797 Y116.619 E1.23054
G1 X120.871 Y116.964 E1.24345
G1 X120.908 Y117.317 E1.25644
G1 X120.908 Y117.677 E1.26961
G1 X120.878 Y117.987 E1.281
G1 X120.81 Y118.334 E1.29394
G1 X120.703 Y118.678 E1.30712
G1 X120.583 Y118.964 E1.31847
G1 X120.413 Y119.277 E1.3315
G1 X120.214 Y119.571 E1.34449
G1 X119.989 Y119.833 E1.35712
G1 X119.756 Y120.06 E1.36902
G1 X119.478 Y120.28 E1.38199
G1 X119.213 Y120.455 E1.39361
G1 X118.905 Y120.61 E1.40623
G1 X118.608 Y120.726 E1.41789
G1 X118.269 Y120.823 E1.43079
G1 X117.944 Y120.882 E1.44288
G1 X117.621 Y120.908 E1.45473
G1 X117.309 Y120.903 E1.46615
G0 F2100 X116.599 Y121.241
G1 F1200 X116.149 Y121.105 E1.48335
G1 X115.799 Y120.953 E1.49731
G1 X115.532 Y120.804 E1.5085
G1 X115.155 Y120.552 E1.52509
G1 X114.854 Y120.296 E1.53954
G1 X114.627 Y120.058 E1.55158
G1 X114.353 Y119.712 E1.56772
G1 X114.214 Y119.498 E1.57706
G1 X113.986 Y119.064 E1.595
G1 X113.842 Y118.694 E1.60952
G1 X113.764 Y118.416 E1.62009
G1 X113.677 Y117.94 E1.63779
G1 X113.652 Y117.557 E1.65183
G1 X113.661 Y117.242 E1.66336
G1 X113.718 Y116.793 E1.67992
G1 X113.804 Y116.421 E1.69389
G1 X113.911 Y116.114 E1.70578
G1 X114.093 Y115.713 E1.7219
G1 X114.228 Y115.48 E1.73175
G1 X114.508 Y115.08 E1.74961
G1 X114.769 Y114.787 E1.76397
G1 X114.979 Y114.595 E1.77438
G1 X115.369 Y114.296 E1.79236
G1 X115.683 Y114.106 E1.80578
G1 X115.98 Y113.965 E1.81781
G1 X116.4 Y113.811 E1.83418
G1 X116.782 Y113.716 E1.84858
G1 X117.106 Y113.672 E1.86054
G1 X117.537 Y113.651 E1.87633
G1 X117.803 Y113.664 E1.88607
G1 X118.292 Y113.733 E1.90414
G1 X118.676 Y113.833 E1.91866
G1 X118.933 Y113.928 E1.92868
G1 X119.374 Y114.136 E1.94652
G1 X119.701 Y114.341 E1.96064
G1 X119.956 Y114.536 E1.97239
G1 X120.282 Y114.836 E1.9886
G1 X120.534 Y115.128 E2.00271
G1 X120.739 Y115.419 E2.01573
G1 X120.942 Y115.772 E2.03063
G1 X121.056 Y116.028 E2.04088
G1 X121.217 Y116.488 E2.05871
G1 X121.3 Y116.864 E2.0728
G1 X121.334 Y117.16 E2.0837
G1 X121.348 Y117.634 E2.10105
G1 X121.317 Y118.016 E2.11507
G1 X121.256 Y118.349 E2.12746
G1 X121.139 Y118.762 E2.14316
G1 X120.996 Y119.116 E2.15713
G1 X120.83 Y119.432 E2.17019
G1 X120.611 Y119.771 E2.18496
G1 X120.438 Y119.986 E2.19505
G1 X120.093 Y120.346 E2.2133
G1 X119.793 Y120.593 E2.22751
G1 X119.531 Y120.772 E2.23912
G1 X119.136 Y120.987 E2.25558
G1 X118.784 Y121.129 E2.26946
G1 X118.464 Y121.225 E2.28169
G1 X118.04 Y121.311 E2.29751
G1 X117.653 Y121.346 E2.31173
G1 X117.297 Y121.343 E2.32476
G1 X116.9 Y121.301 E2.33936
G1 X116.599 Y121.241 E2.35059
G1 F2700 E-2.64941
G0 F2100 X117.084 Y121.527
G0 X116.919 Y123.648
G0 X116.768 Y124.25
G1 F2700 E2.35059
G0 F2100 X116.72 Y124.737
;TYPE:WALL-OUTER
G1 F1200 X117.164 Y124.772 E2.36689
G1 X117.603 Y124.778 E2.38295
G1 X117.983 Y124.762 E2.39686
G1 X118.243 Y124.738 E2.40642
G1 X118.556 Y124.701 E2.41795
G1 X118.926 Y124.638 E2.43168
G1 X119.36 Y124.536 E2.44799
G1 X119.773 Y124.414 E2.46375
G1 X120.203 Y124.258 E2.48048
G1 X120.612 Y124.081 E2.49679
G1 X121.005 Y123.881 E2.51292
G1 X121.387 Y123.655 E2.52916
G1 X121.756 Y123.406 E2.54544
G1 X122.108 Y123.134 E2.56172
G1 X122.442 Y122.845 E2.57788
G1 X122.76 Y122.532 E2.5942
G1 X123.056 Y122.202 E2.61042
G1 X123.334 Y121.855 E2.62669
G1 X123.588 Y121.492 E2.6429
G1 X123.821 Y121.112 E2.65921
G1 X124.029 Y120.721 E2.67541
G1 X124.211 Y120.324 E2.69139
G1 X124.375 Y119.903 E2.70792
G1 X124.512 Y119.467 E2.72464
G1 X124.613 Y119.05 E2.74034
G1 X124.696 Y118.611 E2.75668
G1 X124.749 Y118.171 E2.7729
G1 X124.778 Y117.728 E2.78914
G1 X124.778 Y117.286 E2.80531
G1 X124.75 Y116.842 E2.82159
G1 X124.698 Y116.403 E2.83776
G1 X124.619 Y115.978 E2.85358
G1 X124.529 Y115.601 E2.86776
G1 X124.408 Y115.202 E2.88301
G1 X124.302 Y114.909 E2.89441
G1 X124.196 Y114.647 E2.90475
G1 X124.035 Y114.291 E2.91905
G1 X123.828 Y113.9 E2.93523
G1 X123.596 Y113.522 E2.95146
G1 X123.342 Y113.157 E2.96773
G1 X123.065 Y112.808 E2.98403
G1 X122.77 Y112.477 E3.00025
G1 X122.453 Y112.165 E3.01652
G1 X122.12 Y111.875 E3.03268
G1 X121.767 Y111.602 E3.04901
G1 X121.401 Y111.353 E3.0652
G1 X121.017 Y111.126 E3.08152
G1 X120.625 Y110.924 E3.09766
G1 X120.203 Y110.74 E3.1145
G1 X119.802 Y110.594 E3.13011
G1 X119.374 Y110.467 E3.14645
G1 X119.012 Y110.382 E3.16005
G1 X118.609 Y110.309 E3.17503
G1 X118.325 Y110.272 E3.18551
G1 X118.062 Y110.243 E3.19519
G1 X117.619 Y110.222 E3.21142
G1 X117.178 Y110.228 E3.22755
G1 X116.734 Y110.262 E3.24385
G1 X116.295 Y110.322 E3.26006
G1 X115.921 Y110.397 E3.27401
G1 X115.667 Y110.46 E3.28359
G1 X115.386 Y110.538 E3.29426
G1 X115.008 Y110.661 E3.3088
G1 X114.597 Y110.826 E3.325
G1 X114.254 Y110.988 E3.33888
G1 X114.002 Y111.122 E3.34932
G1 X113.749 Y111.265 E3.35996
G1 X113.429 Y111.467 E3.3738
G1 X113.068 Y111.728 E3.3901
G1 X112.726 Y112.007 E3.40625
G1 X112.398 Y112.309 E3.42256
G1 X112.092 Y112.629 E3.43876
G1 X111.805 Y112.969 E3.45504
G1 X111.539 Y113.323 E3.47124
G1 X111.295 Y113.696 E3.48754
G1 X111.077 Y114.081 E3.50373
G1 X110.879 Y114.48 E3.52003
G1 X110.707 Y114.889 E3.53626
G1 X110.56 Y115.309 E3.55254
G1 X110.441 Y115.734 E3.56869
G1 X110.345 Y116.169 E3.58499
G1 X110.277 Y116.606 E3.60117
G1 X110.243 Y116.987 E3.61516
G1 X110.228 Y117.325 E3.62754
G1 X110.223 Y117.494 E3.63373
G1 X110.233 Y117.878 E3.64778
G1 X110.259 Y118.19 E3.65923
G1 X110.285 Y118.441 E3.66847
G1 X110.343 Y118.815 E3.68231
G1 X110.438 Y119.251 E3.69864
G1 X110.553 Y119.665 E3.71436
G1 X110.679 Y120.033 E3.72859
G1 X110.792 Y120.316 E3.73974
G1 X110.902 Y120.565 E3.7497
G1 X111.07 Y120.907 E3.76364
G1 X111.288 Y121.29 E3.77976
G1 X111.531 Y121.663 E3.79605
G1 X111.796 Y122.018 E3.81226
G1 X112.083 Y122.359 E3.82856
G1 X112.389 Y122.681 E3.84481
G1 X112.715 Y122.983 E3.86107
G1 X113.057 Y123.263 E3.87724
G1 X113.417 Y123.525 E3.89353
G1 X113.792 Y123.762 E3.90976
G1 X114.182 Y123.978 E3.92608
G1 X114.576 Y124.165 E3.94203
G1 X114.993 Y124.334 E3.95849
G1 X115.428 Y124.479 E3.97527
G1 X115.843 Y124.587 E3.99096
G1 X116.28 Y124.676 E4.00727
G1 X116.72 Y124.737 E4.02353
G0 F2100 X116.767 Y124.299
;TYPE:WALL-INNER
G1 F1200 X117.185 Y124.332 E4.03887
G1 X117.596 Y124.338 E4.05391
G1 X118.014 Y124.319 E4.06921
G1 X118.43 Y124.275 E4.08452
G1 X118.839 Y124.206 E4.09969
G1 X119.201 Y124.122 E4.11329
G1 X119.511 Y124.033 E4.12509
G1 X119.776 Y123.945 E4.13531
G1 X120.041 Y123.849 E4.14562
G1 X120.424 Y123.683 E4.16089
G1 X120.793 Y123.495 E4.17604
G1 X121.152 Y123.283 E4.19129
G1 X121.498 Y123.049 E4.20658
G1 X121.83 Y122.793 E4.22192
G1 X122.144 Y122.521 E4.23711
G1 X122.442 Y122.228 E4.2524
G1 X122.72 Y121.918 E4.26764
G1 X122.982 Y121.591 E4.28297
G1 X123.22 Y121.25 E4.29818
G1 X123.439 Y120.894 E4.31347
G1 X123.634 Y120.526 E4.32871
G1 X123.805 Y120.152 E4.34376
G1 X123.959 Y119.757 E4.35927
G1 X124.088 Y119.349 E4.37492
G1 X124.183 Y118.958 E4.38964
G1 X124.261 Y118.544 E4.40506
G1 X124.311 Y118.131 E4.42028
G1 X124.338 Y117.714 E4.43557
G1 X124.338 Y117.3 E4.45071
G1 X124.312 Y116.882 E4.46604
G1 X124.263 Y116.469 E4.48125
G1 X124.189 Y116.07 E4.4961
G1 X124.087 Y115.651 E4.51188
G1 X123.962 Y115.251 E4.52721
G1 X123.813 Y114.869 E4.54221
G1 X123.639 Y114.485 E4.55763
G1 X123.446 Y114.118 E4.5728
G1 X123.228 Y113.763 E4.58805
G1 X122.989 Y113.42 E4.60334
G1 X122.697 Y113.056 E4.62041
G1 X122.451 Y112.781 E4.63391
G1 X122.154 Y112.488 E4.64918
G1 X121.84 Y112.215 E4.6644
G1 X121.508 Y111.958 E4.67976
G1 X121.165 Y111.725 E4.69493
G1 X120.804 Y111.512 E4.71027
G1 X120.436 Y111.322 E4.72542
G1 X120.039 Y111.149 E4.74126
G1 X119.664 Y111.012 E4.75587
G1 X119.216 Y110.882 E4.77294
G1 X118.854 Y110.796 E4.78655
G1 X118.443 Y110.727 E4.8018
G1 X118.028 Y110.682 E4.81707
G1 X117.612 Y110.662 E4.83231
G1 X117.198 Y110.668 E4.84745
G1 X116.78 Y110.7 E4.86279
G1 X116.368 Y110.756 E4.878
G1 X116.008 Y110.828 E4.89144
G1 X115.714 Y110.903 E4.90254
G1 X115.462 Y110.976 E4.91214
G1 X115.158 Y111.075 E4.92383
G1 X114.773 Y111.23 E4.93902
G1 X114.442 Y111.386 E4.9524
G1 X114.214 Y111.508 E4.96187
G1 X113.983 Y111.637 E4.97155
G1 X113.675 Y111.832 E4.98488
G1 X113.336 Y112.077 E5.00018
G1 X113.014 Y112.34 E5.0154
G1 X112.706 Y112.623 E5.0307
G1 X112.42 Y112.923 E5.04586
G1 X112.149 Y113.243 E5.0612
G1 X111.9 Y113.575 E5.07639
G1 X111.671 Y113.925 E5.09169
G1 X111.465 Y114.287 E5.10693
G1 X111.279 Y114.664 E5.12231
G1 X111.118 Y115.047 E5.13751
G1 X110.98 Y115.441 E5.15278
G1 X110.869 Y115.84 E5.16794
G1 X110.777 Y116.25 E5.18331
G1 X110.714 Y116.66 E5.19849
G1 X110.676 Y117.078 E5.21384
G1 X110.663 Y117.494 E5.22907
G1 X110.675 Y117.918 E5.24459
G1 X110.713 Y118.324 E5.25951
G1 X110.776 Y118.735 E5.27472
G1 X110.865 Y119.145 E5.29007
G1 X110.973 Y119.535 E5.30487
G1 X111.113 Y119.941 E5.32059
G1 X111.273 Y120.324 E5.33577
G1 X111.459 Y120.701 E5.35115
G1 X111.664 Y121.061 E5.36631
G1 X111.892 Y121.411 E5.38159
G1 X112.141 Y121.744 E5.3968
G1 X112.411 Y122.065 E5.41215
G1 X112.698 Y122.367 E5.42739
G1 X113.005 Y122.651 E5.44269
G1 X113.327 Y122.915 E5.45793
G1 X113.664 Y123.161 E5.47319
G1 X114.016 Y123.383 E5.48842
G1 X114.383 Y123.586 E5.50376
G1 X114.753 Y123.762 E5.51875
G1 X115.146 Y123.921 E5.53426
G1 X115.553 Y124.057 E5.54996
G1 X115.943 Y124.158 E5.5647
G1 X116.354 Y124.242 E5.58005
G1 X116.767 Y124.299 E5.5953
G0 F2100 X117.205 Y123.892
G1 F1200 X117.59 Y123.898 E5.60939
G1 X117.981 Y123.88 E5.62371
G1 X118.37 Y123.839 E5.63802
G1 X118.752 Y123.774 E5.6522
G1 X119.135 Y123.685 E5.66659
G1 X119.498 Y123.578 E5.68043
G1 X119.878 Y123.44 E5.69522
G1 X120.236 Y123.284 E5.70951
G1 X120.521 Y123.14 E5.72119
G1 X120.837 Y122.958 E5.73453
G1 X121.135 Y122.763 E5.74756
G1 X121.363 Y122.597 E5.75788
G1 X121.578 Y122.429 E5.76786
G1 X121.845 Y122.197 E5.78081
G1 X122.124 Y121.924 E5.79509
G1 X122.384 Y121.633 E5.80936
G1 X122.629 Y121.327 E5.82371
G1 X122.852 Y121.009 E5.83792
G1 X123.057 Y120.675 E5.85225
G1 X123.24 Y120.332 E5.86648
G1 X123.413 Y119.947 E5.88192
G1 X123.544 Y119.611 E5.89511
G1 X123.664 Y119.231 E5.90969
G1 X123.758 Y118.833 E5.92465
G1 X123.826 Y118.476 E5.93795
G1 X123.872 Y118.09 E5.95217
G1 X123.898 Y117.7 E5.96647
G1 X123.898 Y117.313 E5.98063
G1 X123.874 Y116.921 E5.995
G1 X123.828 Y116.535 E6.00922
G1 X123.759 Y116.162 E6.0231
G1 X123.663 Y115.769 E6.0379
G1 X123.547 Y115.397 E6.05216
G1 X123.408 Y115.039 E6.06621
G1 X123.244 Y114.678 E6.08072
G1 X123.042 Y114.3 E6.0964
G1 X122.86 Y114.005 E6.10908
G1 X122.636 Y113.683 E6.12343
G1 X122.391 Y113.375 E6.13783
G1 X122.132 Y113.084 E6.15208
G1 X121.855 Y112.811 E6.16631
G1 X121.561 Y112.555 E6.18057
G1 X121.25 Y112.314 E6.19497
G1 X120.929 Y112.097 E6.20914
G1 X120.592 Y111.897 E6.22348
G1 X120.247 Y111.72 E6.23767
G1 X119.838 Y111.544 E6.25396
G1 X119.526 Y111.43 E6.26611
G1 X119.114 Y111.31 E6.28181
G1 X118.766 Y111.228 E6.29489
G1 X118.383 Y111.163 E6.3091
G1 X117.994 Y111.121 E6.32342
G1 X117.645 Y111.105 E6.3362
G1 X117.257 Y111.107 E6.3504
G1 X116.926 Y111.13 E6.36253
G1 X116.593 Y111.17 E6.37481
G1 X116.309 Y111.215 E6.38533
G1 X116.024 Y111.276 E6.39599
G1 X115.692 Y111.364 E6.40855
G1 X115.308 Y111.489 E6.42333
G1 X114.949 Y111.633 E6.43748
G1 X114.595 Y111.801 E6.45182
G1 X114.249 Y111.99 E6.46624
G1 X113.921 Y112.197 E6.48043
G1 X113.659 Y112.387 E6.49227
G1 X113.414 Y112.582 E6.50373
G1 X113.15 Y112.813 E6.51656
G1 X112.94 Y113.013 E6.52717
G1 X112.747 Y113.217 E6.53745
G1 X112.493 Y113.517 E6.55183
G1 X112.26 Y113.828 E6.56605
G1 X112.047 Y114.154 E6.58029
G1 X111.854 Y114.494 E6.5946
G1 X111.68 Y114.847 E6.609
G1 X111.529 Y115.205 E6.62321
G1 X111.4 Y115.573 E6.63748
G1 X111.296 Y115.947 E6.65168
G1 X111.21 Y116.332 E6.66611
G1 X111.151 Y116.714 E6.68025
G1 X111.116 Y117.105 E6.69462
G1 X111.103 Y117.494 E6.70886
G1 X111.115 Y117.891 E6.72339
G1 X111.15 Y118.271 E6.73735
G1 X111.208 Y118.654 E6.75152
G1 X111.293 Y119.04 E6.76598
G1 X111.393 Y119.404 E6.77979
G1 X111.525 Y119.784 E6.79451
G1 X111.674 Y120.142 E6.8087
G1 X111.848 Y120.495 E6.8231
G1 X112.04 Y120.832 E6.83729
G1 X112.253 Y121.159 E6.85156
G1 X112.486 Y121.47 E6.86578
G1 X112.713 Y121.741 E6.87872
G1 X112.941 Y121.985 E6.89093
G1 X113.148 Y122.183 E6.90141
G1 X113.409 Y122.414 E6.91417
G1 X113.626 Y122.588 E6.92434
G1 X113.912 Y122.797 E6.9373
G1 X114.24 Y123.004 E6.95149
G1 X114.584 Y123.194 E6.96587
G1 X114.931 Y123.359 E6.97993
G1 X115.256 Y123.491 E6.99276
G1 X115.604 Y123.611 E7.00623
G1 X115.846 Y123.679 E7.01543
G1 X116.282 Y123.778 E7.03178
G1 X116.545 Y123.825 E7.04156
G1 X116.85 Y123.864 E7.05281
G1 X117.205 Y123.892 E7.06584
