;FLAVOR:Marlin
;TIME:4706
;Filament used: 11.7153m
;Layer height: 0.3
;MINX:73.415
;MINY:73.433
;MINZ:0.3
;MAXX:161.585
;MAXY:161.567
;MAXZ:50.1
;Generated with Cura_SteamEngine 5.0.0
M82 ;absolute extrusion mode
START_PRINT EXTRUDER_TEMP=222 BED_TEMP=60
G92 E0
G92 E0
G1 F2700 E-5
;LAYER_COUNT:167
;LAYER:0
M107
G0 F2100 X77.954 Y78.315 Z0.3
G0 X73.415 Y89.626
;TYPE:SKIRT
G1 F2700 E0
G1 F1200 X73.455 Y88.607 E0.05596
G1 X73.556 Y87.493 E0.11735
G1 X73.587 Y87.228 E0.13199
G1 X73.736 Y86.298 E0.18368
G1 X73.989 Y85.298 E0.24029
G1 X74.341 Y84.163 E0.3055
G1 X74.419 Y83.935 E0.31873
G1 X74.761 Y83.057 E0.37044
G1 X75.198 Y82.173 E0.42456
G1 X75.779 Y81.133 E0.48993
G1 X75.915 Y80.906 E0.50446
G1 X76.433 Y80.119 E0.55616
G1 X77.04 Y79.351 E0.60988
G1 X77.788 Y78.495 E0.67227
G1 X77.954 Y78.315 E0.68571
G1 X78.622 Y77.65 E0.73743
G1 X79.415 Y76.99 E0.79405
G1 X80.385 Y76.264 E0.86055
G1 X80.586 Y76.123 E0.87402
G1 X81.38 Y75.615 E0.92575
G1 X82.255 Y75.157 E0.97995
G1 X83.263 Y74.691 E1.04089
G1 X83.506 Y74.586 E1.05542
G1 X84.386 Y74.249 E1.10713
G1 X85.384 Y73.966 E1.16406
G1 X86.469 Y73.718 E1.22514
G1 X86.733 Y73.665 E1.23992
G1 X87.664 Y73.519 E1.29164
G1 X88.691 Y73.45 E1.34812
G1 X89.873 Y73.433 E1.413
G1 X90.129 Y73.437 E1.42705
G1 X91.07 Y73.492 E1.47878
G1 X92.049 Y73.635 E1.53308
G1 X93.219 Y73.866 E1.59852
G1 X94.494 Y74.157 E1.67029
G1 X97.04 Y74.699 E1.81315
G1 X99.514 Y75.154 E1.9512
G1 X102.004 Y75.539 E2.08947
G1 X104.478 Y75.85 E2.22631
G1 X106.994 Y76.095 E2.36504
G1 X109.503 Y76.268 E2.50306
G1 X112.019 Y76.369 E2.64124
G1 X114.407 Y76.4 E2.77231
G1 X120.633 Y76.4 E3.11399
G1 X123.236 Y76.363 E3.25685
G1 X125.752 Y76.256 E3.39505
G1 X128.244 Y76.08 E3.53215
G1 X130.766 Y75.83 E3.67123
G1 X133.256 Y75.511 E3.809
G1 X135.715 Y75.125 E3.9456
G1 X138.197 Y74.663 E4.08415
G1 X141.054 Y74.044 E4.24458
G1 X142.508 Y73.71 E4.32645
G1 X142.777 Y73.657 E4.3415
G1 X143.709 Y73.515 E4.39324
G1 X144.694 Y73.45 E4.44741
G1 X145.873 Y73.433 E4.51212
G1 X146.129 Y73.437 E4.52617
G1 X147.07 Y73.492 E4.5779
G1 X148.046 Y73.635 E4.63203
G1 X149.224 Y73.867 E4.69792
G1 X149.465 Y73.922 E4.71149
G1 X150.373 Y74.171 E4.76316
G1 X151.32 Y74.521 E4.81856
G1 X152.281 Y74.932 E4.87592
G1 X152.557 Y75.058 E4.89257
G1 X153.396 Y75.486 E4.94426
G1 X154.363 Y76.098 E5.00707
G1 X155.203 Y76.693 E5.06356
G1 X155.948 Y77.27 E5.11527
G1 X156.885 Y78.159 E5.18615
G1 X157.44 Y78.751 E5.23069
G1 X157.896 Y79.264 E5.26836
G1 X158.481 Y80.002 E5.32004
G1 X159 Y80.782 E5.37145
G1 X159.59 Y81.77 E5.43461
G1 X159.717 Y81.997 E5.44888
G1 X160.142 Y82.838 E5.50059
G1 X160.517 Y83.779 E5.55618
G1 X160.883 Y84.853 E5.61845
G1 X160.963 Y85.11 E5.63322
G1 X161.205 Y86.021 E5.68495
G1 X161.38 Y87.039 E5.74164
G1 X161.512 Y88.142 E5.8026
G1 X161.538 Y88.423 E5.81809
G1 X161.585 Y89.364 E5.8698
G1 X161.545 Y90.393 E5.92631
G1 X161.442 Y91.522 E5.98852
G1 X161.404 Y91.843 E6.00626
G1 X161.184 Y93.087 E6.07559
G1 X161.004 Y93.852 E6.11872
G1 X160.434 Y96.427 E6.26346
G1 X159.959 Y98.907 E6.40203
G1 X159.563 Y101.343 E6.53747
G1 X159.225 Y103.879 E6.67788
G1 X158.964 Y106.357 E6.81462
G1 X158.772 Y108.878 E6.95337
G1 X158.652 Y111.373 E7.09045
G1 X158.6 Y114.455 E7.25961
G1 X158.6 Y120.543 E7.59372
G1 X158.637 Y123.146 E7.73658
G1 X158.744 Y125.662 E7.87478
G1 X158.92 Y128.15 E8.01167
G1 X159.171 Y130.677 E8.15103
G1 X159.488 Y133.16 E8.2884
G1 X159.877 Y135.635 E8.42589
G1 X160.339 Y138.121 E8.56466
G1 X160.868 Y140.581 E8.70275
G1 X161.151 Y141.762 E8.76939
G1 X161.371 Y142.974 E8.83699
G1 X161.511 Y144.14 E8.90144
G1 X161.537 Y144.42 E8.91688
G1 X161.585 Y145.361 E8.96858
G1 X161.545 Y146.384 E9.02477
G1 X161.445 Y147.5 E9.08626
G1 X161.412 Y147.78 E9.10173
G1 X161.262 Y148.71 E9.15343
G1 X161.012 Y149.696 E9.20925
G1 X160.661 Y150.833 E9.27456
G1 X160.582 Y151.064 E9.28795
G1 X160.239 Y151.942 E9.33968
G1 X159.804 Y152.823 E9.3936
G1 X159.247 Y153.822 E9.45638
G1 X159.098 Y154.072 E9.47235
G1 X158.582 Y154.86 E9.52404
G1 X157.959 Y155.649 E9.57921
G1 X157.228 Y156.487 E9.64024
G1 X157.056 Y156.674 E9.65418
G1 X156.389 Y157.34 E9.70591
G1 X155.585 Y158.01 E9.76334
G1 X154.636 Y158.721 E9.82842
G1 X154.436 Y158.862 E9.84185
G1 X153.643 Y159.372 E9.89359
G1 X152.745 Y159.844 E9.94926
G1 X151.745 Y160.306 E10.00972
G1 X151.5 Y160.412 E10.02437
G1 X150.62 Y160.749 E10.07608
G1 X149.613 Y161.035 E10.13353
G1 X148.531 Y161.282 E10.19444
G1 X148.267 Y161.335 E10.20921
G1 X147.336 Y161.481 E10.26093
G1 X146.309 Y161.55 E10.31742
G1 X145.127 Y161.567 E10.38229
G1 X144.871 Y161.563 E10.39634
G1 X143.93 Y161.508 E10.44807
G1 X142.951 Y161.365 E10.50237
G1 X141.781 Y161.134 E10.56782
G1 X140.506 Y160.843 E10.63959
G1 X137.96 Y160.301 E10.78244
G1 X135.486 Y159.846 E10.92049
G1 X132.996 Y159.461 E11.05876
G1 X130.522 Y159.15 E11.1956
G1 X128.006 Y158.905 E11.33433
G1 X125.497 Y158.732 E11.47235
G1 X122.981 Y158.631 E11.61054
G1 X120.593 Y158.6 E11.7416
G1 X114.367 Y158.6 E12.08328
G1 X111.764 Y158.637 E12.22614
G1 X109.248 Y158.744 E12.36435
G1 X106.756 Y158.92 E12.50144
G1 X104.234 Y159.17 E12.64053
G1 X101.744 Y159.489 E12.77829
G1 X99.285 Y159.875 E12.9149
G1 X96.803 Y160.337 E13.05345
G1 X93.946 Y160.956 E13.21387
G1 X92.492 Y161.29 E13.29575
G1 X92.223 Y161.343 E13.31079
G1 X91.291 Y161.485 E13.36253
G1 X90.306 Y161.55 E13.4167
G1 X89.127 Y161.567 E13.48141
G1 X88.871 Y161.563 E13.49546
G1 X87.93 Y161.508 E13.54719
G1 X86.954 Y161.365 E13.60133
G1 X85.776 Y161.133 E13.66722
G1 X85.535 Y161.078 E13.68078
G1 X84.627 Y160.829 E13.73245
G1 X83.68 Y160.479 E13.78786
G1 X82.719 Y160.068 E13.84522
G1 X82.443 Y159.942 E13.86187
G1 X81.604 Y159.514 E13.91356
G1 X80.637 Y158.902 E13.97636
G1 X79.797 Y158.307 E14.03285
G1 X79.052 Y157.73 E14.08457
G1 X78.115 Y156.841 E14.15545
G1 X77.56 Y156.249 E14.19998
G1 X77.104 Y155.736 E14.23765
G1 X76.519 Y154.998 E14.28933
G1 X76 Y154.218 E14.34075
G1 X75.41 Y153.23 E14.4039
G1 X75.283 Y153.003 E14.41817
G1 X74.858 Y152.162 E14.46989
G1 X74.483 Y151.221 E14.52548
G1 X74.117 Y150.147 E14.58775
G1 X74.037 Y149.89 E14.60252
G1 X73.795 Y148.979 E14.65425
G1 X73.619 Y147.954 E14.71132
G1 X73.488 Y146.85 E14.77233
G1 X73.463 Y146.581 E14.78716
G1 X73.415 Y145.64 E14.83887
G1 X73.455 Y144.607 E14.8956
G1 X73.557 Y143.49 E14.95716
G1 X73.595 Y143.166 E14.97506
G1 X73.818 Y141.901 E15.04555
G1 X74 Y141.134 E15.08881
G1 X74.566 Y138.573 E15.23275
G1 X75.041 Y136.093 E15.37132
G1 X75.437 Y133.657 E15.50676
G1 X75.775 Y131.121 E15.64717
G1 X76.036 Y128.643 E15.78391
G1 X76.228 Y126.122 E15.92266
G1 X76.348 Y123.627 E16.05974
G1 X76.4 Y120.545 E16.22891
G1 X76.4 Y114.457 E16.56301
G1 X76.363 Y111.854 E16.70588
G1 X76.256 Y109.338 E16.84408
G1 X76.08 Y106.846 E16.98118
G1 X75.83 Y104.329 E17.11999
G1 X75.51 Y101.831 E17.2582
G1 X75.125 Y99.376 E17.39457
G1 X74.659 Y96.873 E17.53429
G1 X74.132 Y94.419 E17.67204
G1 X73.849 Y93.238 E17.73869
G1 X73.628 Y92.023 E17.80646
G1 X73.485 Y90.829 E17.87245
G1 X73.461 Y90.567 E17.88689
G1 X73.415 Y89.626 E17.93859
G0 F2100 X73.855 Y89.604
G1 F1200 X73.894 Y88.645 E17.99127
G1 X73.993 Y87.544 E18.05193
G1 X74.024 Y87.279 E18.06657
G1 X74.171 Y86.368 E18.11722
G1 X74.41 Y85.425 E18.1706
G1 X74.757 Y84.305 E18.23495
G1 X74.835 Y84.077 E18.24817
G1 X75.171 Y83.218 E18.29879
G1 X75.583 Y82.386 E18.34974
G1 X76.157 Y81.359 E18.41431
G1 X76.293 Y81.132 E18.42883
G1 X76.801 Y80.362 E18.47946
G1 X77.373 Y79.639 E18.53005
G1 X78.112 Y78.793 E18.5917
G1 X78.278 Y78.613 E18.60514
G1 X78.932 Y77.962 E18.65578
G1 X79.68 Y77.341 E18.70913
G1 X80.638 Y76.624 E18.7748
G1 X80.839 Y76.483 E18.78827
G1 X81.617 Y75.986 E18.83894
G1 X82.442 Y75.555 E18.89002
G1 X83.438 Y75.094 E18.95025
G1 X83.681 Y74.989 E18.96478
G1 X84.543 Y74.66 E19.01541
G1 X85.485 Y74.394 E19.06913
G1 X86.556 Y74.15 E19.12941
G1 X86.82 Y74.097 E19.14419
G1 X87.732 Y73.954 E19.19485
G1 X88.7 Y73.89 E19.24809
G1 X89.867 Y73.873 E19.31214
G1 X90.123 Y73.877 E19.32619
G1 X91.044 Y73.932 E19.37682
G1 X91.966 Y74.067 E19.42796
G1 X93.121 Y74.295 E19.49257
G1 X94.445 Y74.597 E19.5671
G1 X96.941 Y75.128 E19.70714
G1 X99.434 Y75.587 E19.84625
G1 X101.92 Y75.971 E19.9843
G1 X104.449 Y76.289 E20.12418
G1 X106.958 Y76.534 E20.26253
G1 X109.49 Y76.708 E20.40181
G1 X111.997 Y76.809 E20.53951
G1 X114.401 Y76.84 E20.67145
G1 X120.639 Y76.84 E21.01378
G1 X123.262 Y76.803 E21.15775
G1 X125.766 Y76.697 E21.29529
G1 X128.282 Y76.518 E21.43371
G1 X130.797 Y76.269 E21.57241
G1 X133.308 Y75.948 E21.71133
G1 X135.832 Y75.551 E21.85155
G1 X138.265 Y75.099 E21.98736
G1 X141.125 Y74.478 E22.14797
G1 X142.593 Y74.142 E22.23061
G1 X142.862 Y74.089 E22.24566
G1 X143.775 Y73.95 E22.29634
G1 X144.704 Y73.89 E22.34743
G1 X145.867 Y73.873 E22.41126
G1 X146.123 Y73.877 E22.42531
G1 X147.044 Y73.932 E22.47595
G1 X147.963 Y74.067 E22.52692
G1 X149.126 Y74.296 E22.59197
G1 X149.367 Y74.351 E22.60554
G1 X150.257 Y74.595 E22.65618
G1 X151.149 Y74.926 E22.7084
G1 X152.098 Y75.333 E22.76507
G1 X152.374 Y75.459 E22.78172
G1 X153.196 Y75.878 E22.83235
G1 X154.109 Y76.457 E22.89168
G1 X154.949 Y77.052 E22.94817
G1 X155.678 Y77.618 E22.99882
G1 X156.564 Y78.46 E23.0659
G1 X157.119 Y79.052 E23.11043
G1 X157.563 Y79.552 E23.14713
G1 X158.136 Y80.276 E23.1978
G1 X158.623 Y81.01 E23.24614
G1 X159.206 Y81.985 E23.30848
G1 X159.333 Y82.212 E23.32276
G1 X159.748 Y83.037 E23.37344
G1 X160.101 Y83.923 E23.42578
G1 X160.463 Y84.984 E23.4873
G1 X160.543 Y85.241 E23.50207
G1 X160.779 Y86.133 E23.55271
G1 X160.944 Y87.094 E23.60622
G1 X161.074 Y88.183 E23.66641
G1 X161.1 Y88.464 E23.6819
G1 X161.145 Y89.386 E23.73255
G1 X161.106 Y90.355 E23.78578
G1 X161.005 Y91.47 E23.84722
G1 X160.967 Y91.791 E23.86496
G1 X160.756 Y92.986 E23.93155
G1 X160.565 Y93.796 E23.97722
G1 X160.007 Y96.316 E24.11887
G1 X159.527 Y98.826 E24.25911
G1 X159.121 Y101.326 E24.39811
G1 X158.79 Y103.807 E24.53547
G1 X158.526 Y106.314 E24.67381
G1 X158.335 Y108.822 E24.81185
G1 X158.212 Y111.377 E24.95222
G1 X158.16 Y114.448 E25.12078
G1 X158.16 Y120.549 E25.4556
G1 X158.197 Y123.172 E25.59956
G1 X158.303 Y125.676 E25.7371
G1 X158.482 Y128.188 E25.87531
G1 X158.731 Y130.708 E26.01428
G1 X159.052 Y133.217 E26.15309
G1 X159.444 Y135.706 E26.29137
G1 X159.911 Y138.221 E26.43175
G1 X160.441 Y140.689 E26.57028
G1 X160.723 Y141.864 E26.6366
G1 X160.935 Y143.028 E26.70153
G1 X161.073 Y144.18 E26.7652
G1 X161.099 Y144.46 E26.78063
G1 X161.145 Y145.383 E26.83135
G1 X161.107 Y146.346 E26.88424
G1 X161.008 Y147.449 E26.94501
G1 X160.975 Y147.729 E26.96049
G1 X160.827 Y148.64 E27.01114
G1 X160.591 Y149.569 E27.06374
G1 X160.244 Y150.69 E27.12814
G1 X160.165 Y150.921 E27.14154
G1 X159.829 Y151.781 E27.19221
G1 X159.419 Y152.611 E27.24301
G1 X158.869 Y153.597 E27.30497
G1 X158.72 Y153.847 E27.32094
G1 X158.213 Y154.618 E27.37158
G1 X157.626 Y155.362 E27.42359
G1 X156.904 Y156.19 E27.48388
G1 X156.732 Y156.377 E27.49782
G1 X156.078 Y157.028 E27.54846
G1 X155.32 Y157.659 E27.60259
G1 X154.382 Y158.361 E27.66689
G1 X154.182 Y158.502 E27.68032
G1 X153.405 Y159.001 E27.73099
G1 X152.558 Y159.445 E27.78347
G1 X151.57 Y159.903 E27.84324
G1 X151.325 Y160.009 E27.85789
G1 X150.462 Y160.338 E27.90857
G1 X149.513 Y160.606 E27.96269
G1 X148.444 Y160.85 E28.02287
G1 X148.18 Y160.903 E28.03764
G1 X147.268 Y161.046 E28.0883
G1 X146.3 Y161.11 E28.14154
G1 X145.133 Y161.127 E28.20559
G1 X144.877 Y161.123 E28.21964
G1 X143.956 Y161.068 E28.27028
G1 X143.034 Y160.933 E28.32142
G1 X141.879 Y160.705 E28.38603
G1 X140.555 Y160.403 E28.46055
G1 X138.059 Y159.872 E28.6006
G1 X135.566 Y159.413 E28.73971
G1 X133.08 Y159.029 E28.87776
G1 X130.551 Y158.711 E29.01764
G1 X128.042 Y158.466 E29.15599
G1 X125.51 Y158.292 E29.29527
G1 X123.003 Y158.191 E29.43296
G1 X120.599 Y158.16 E29.5649
G1 X114.361 Y158.16 E29.90724
G1 X111.738 Y158.197 E30.0512
G1 X109.234 Y158.303 E30.18874
G1 X106.718 Y158.482 E30.32717
G1 X104.203 Y158.731 E30.46586
G1 X101.692 Y159.052 E30.60479
G1 X99.168 Y159.449 E30.745
G1 X96.735 Y159.901 E30.88081
G1 X93.875 Y160.522 E31.04142
G1 X92.407 Y160.858 E31.12407
G1 X92.138 Y160.911 E31.13911
G1 X91.225 Y161.05 E31.1898
G1 X90.296 Y161.11 E31.24089
G1 X89.133 Y161.127 E31.30472
G1 X88.877 Y161.123 E31.31877
G1 X87.956 Y161.068 E31.3694
G1 X87.037 Y160.933 E31.42038
G1 X85.874 Y160.704 E31.48543
G1 X85.633 Y160.649 E31.49899
G1 X84.743 Y160.405 E31.54964
G1 X83.851 Y160.074 E31.60185
G1 X82.902 Y159.667 E31.65852
G1 X82.626 Y159.541 E31.67517
G1 X81.804 Y159.122 E31.7258
G1 X80.891 Y158.543 E31.78513
G1 X80.051 Y157.948 E31.84163
G1 X79.322 Y157.382 E31.89228
G1 X78.436 Y156.54 E31.95935
G1 X77.881 Y155.948 E32.00389
G1 X77.437 Y155.448 E32.04058
G1 X76.864 Y154.724 E32.09125
G1 X76.377 Y153.99 E32.13959
G1 X75.794 Y153.015 E32.20194
G1 X75.667 Y152.788 E32.21621
G1 X75.252 Y151.963 E32.26689
G1 X74.899 Y151.077 E32.31923
G1 X74.537 Y150.016 E32.38076
G1 X74.457 Y149.759 E32.39553
G1 X74.221 Y148.867 E32.44616
G1 X74.056 Y147.9 E32.5
G1 X73.926 Y146.809 E32.5603
G1 X73.901 Y146.54 E32.57512
G1 X73.855 Y145.618 E32.62578
G1 X73.894 Y144.645 E32.67922
G1 X73.994 Y143.541 E32.74006
G1 X74.032 Y143.217 E32.75796
G1 X74.246 Y142.003 E32.82561
G1 X74.434 Y141.207 E32.8705
G1 X74.993 Y138.684 E33.01232
G1 X75.473 Y136.174 E33.15256
G1 X75.879 Y133.674 E33.29155
G1 X76.21 Y131.193 E33.42892
G1 X76.474 Y128.686 E33.56726
G1 X76.665 Y126.178 E33.70529
G1 X76.788 Y123.623 E33.84567
G1 X76.84 Y120.552 E34.01423
G1 X76.84 Y114.451 E34.34905
G1 X76.803 Y111.828 E34.49301
G1 X76.697 Y109.324 E34.63055
G1 X76.518 Y106.808 E34.76898
G1 X76.269 Y104.298 E34.9074
G1 X75.947 Y101.779 E35.04677
G1 X75.551 Y99.259 E35.18676
G1 X75.096 Y96.814 E35.32324
G1 X74.559 Y94.311 E35.46373
G1 X74.277 Y93.136 E35.53005
G1 X74.065 Y91.969 E35.59514
G1 X73.923 Y90.788 E35.66042
G1 X73.899 Y90.526 E35.67486
G1 X73.855 Y89.604 E35.72551
G0 F2100 X74.295 Y89.583
G1 F1200 X74.332 Y88.682 E35.775
G1 X74.43 Y87.596 E35.83484
G1 X74.461 Y87.331 E35.84948
G1 X74.606 Y86.438 E35.89913
G1 X74.832 Y85.553 E35.94926
G1 X75.173 Y84.448 E36.01272
G1 X75.251 Y84.22 E36.02595
G1 X75.581 Y83.378 E36.07558
G1 X75.969 Y82.598 E36.12339
G1 X76.534 Y81.586 E36.18699
G1 X76.67 Y81.359 E36.20152
G1 X77.168 Y80.604 E36.25115
G1 X77.706 Y79.927 E36.29861
G1 X78.435 Y79.091 E36.35948
G1 X78.601 Y78.911 E36.37292
G1 X79.243 Y78.275 E36.42251
G1 X79.946 Y77.691 E36.47267
G1 X80.891 Y76.984 E36.53744
G1 X81.092 Y76.843 E36.55091
G1 X81.854 Y76.357 E36.60051
G1 X82.628 Y75.954 E36.6484
G1 X83.612 Y75.498 E36.70792
G1 X83.855 Y75.393 E36.72244
G1 X84.7 Y75.072 E36.77205
G1 X85.585 Y74.823 E36.8225
G1 X86.642 Y74.581 E36.88201
G1 X86.906 Y74.528 E36.89679
G1 X87.8 Y74.389 E36.94644
G1 X88.709 Y74.33 E36.99643
G1 X89.86 Y74.313 E37.0596
G1 X90.116 Y74.317 E37.07365
G1 X91.018 Y74.371 E37.12324
G1 X91.883 Y74.499 E37.17123
G1 X93.024 Y74.724 E37.23505
G1 X94.323 Y75.02 E37.30817
G1 X96.878 Y75.564 E37.45153
G1 X99.36 Y76.021 E37.59003
G1 X101.87 Y76.409 E37.72941
G1 X104.388 Y76.726 E37.86869
G1 X106.918 Y76.972 E38.00819
G1 X109.443 Y77.145 E38.14708
G1 X112.01 Y77.249 E38.28807
G1 X114.396 Y77.28 E38.41903
G1 X120.645 Y77.28 E38.76197
G1 X123.252 Y77.243 E38.90505
G1 X125.815 Y77.134 E39.04583
G1 X128.32 Y76.957 E39.18365
G1 X130.863 Y76.705 E39.32389
G1 X133.366 Y76.384 E39.46238
G1 X135.868 Y75.991 E39.60137
G1 X138.372 Y75.526 E39.74114
G1 X141.256 Y74.9 E39.90309
G1 X142.678 Y74.574 E39.98316
G1 X142.947 Y74.521 E39.9982
G1 X143.841 Y74.385 E40.04783
G1 X144.713 Y74.33 E40.09578
G1 X145.86 Y74.313 E40.15873
G1 X146.116 Y74.317 E40.17278
G1 X147.018 Y74.371 E40.22237
G1 X147.88 Y74.499 E40.2702
G1 X149.028 Y74.725 E40.33441
G1 X149.269 Y74.78 E40.34797
G1 X150.14 Y75.02 E40.39756
G1 X150.977 Y75.332 E40.44658
G1 X151.915 Y75.733 E40.50256
G1 X152.191 Y75.859 E40.51921
G1 X152.996 Y76.27 E40.56881
G1 X153.854 Y76.816 E40.62462
G1 X154.694 Y77.411 E40.68112
G1 X155.408 Y77.966 E40.73075
G1 X156.243 Y78.761 E40.79402
G1 X156.798 Y79.353 E40.83855
G1 X157.23 Y79.84 E40.87428
G1 X157.791 Y80.549 E40.92389
G1 X158.247 Y81.238 E40.96924
G1 X158.822 Y82.2 E41.03074
G1 X158.949 Y82.427 E41.04502
