;FLAVOR:Marlin
;TIME:45
;Filament used: 0.0262466m
;Layer height: 0.2
;MINX:107.722
;MINY:107.721
;MINZ:0.2
;MAXX:127.276
;MAXY:127.275
;MAXZ:0.2
;Generated with Cura_SteamEngine 5.0.0
M82 ;absolute extrusion mode
START_PRINT EXTRUDER_TEMP=222 BED_TEMP=60
G92 E0
G92 E0
G1 F2700 E-5
;LAYER_COUNT:1
;LAYER:0
M107
;MESH:TEST Eco Bed Level Print.stl 4
G0 F2100 X116.599 Y127.237 Z0.2
;TYPE:WALL-OUTER
G1 F2700 E0
G1 F1200 X117.199 Y127.275 E0.022
G1 X117.801 Y127.275 E0.04402
G1 X118.403 Y127.237 E0.06609
G1 X118.85 Y127.185 E0.08255
G1 X119.297 Y127.113 E0.09912
G1 X119.726 Y127.021 E0.11517
G1 X120.176 Y126.907 E0.13215
G1 X120.756 Y126.724 E0.15441
G1 X121.31 Y126.506 E0.17619
G1 X121.86 Y126.254 E0.19832
G1 X122.389 Y125.97 E0.22029
G1 X122.9 Y125.652 E0.24231
G1 X123.393 Y125.304 E0.26439
G1 X123.863 Y124.925 E0.28648
G1 X124.307 Y124.52 E0.30846
G1 X124.728 Y124.087 E0.33056
G1 X125.118 Y123.63 E0.35254
G1 X125.483 Y123.149 E0.37463
G1 X125.816 Y122.646 E0.3967
G1 X126.043 Y122.255 E0.41324
G1 X126.254 Y121.859 E0.42966
G1 X126.507 Y121.309 E0.45181
G1 X126.673 Y120.89 E0.4683
G1 X126.821 Y120.465 E0.48476
G1 X126.984 Y119.886 E0.50677
G1 X127.113 Y119.295 E0.5289
G1 X127.186 Y118.851 E0.54536
G1 X127.238 Y118.403 E0.56186
G1 X127.276 Y117.802 E0.58389
G1 X127.276 Y117.198 E0.60599
G1 X127.238 Y116.598 E0.62799
G1 X127.164 Y115.999 E0.65007
G1 X127.054 Y115.41 E0.67199
G1 X126.91 Y114.837 E0.69361
G1 X126.726 Y114.251 E0.71608
G1 X126.507 Y113.689 E0.73815
G1 X126.255 Y113.142 E0.76018
G1 X125.97 Y112.61 E0.78226
G1 X125.653 Y112.099 E0.80426
G1 X125.305 Y111.607 E0.82631
G1 X124.927 Y111.138 E0.84835
G1 X124.521 Y110.693 E0.87039
G1 X124.089 Y110.273 E0.89243
G1 X123.632 Y109.881 E0.91446
G1 X123.151 Y109.519 E0.93648
G1 X122.649 Y109.187 E0.9585
G1 X122.126 Y108.884 E0.98062
G1 X121.723 Y108.68 E0.99714
G1 X121.313 Y108.494 E1.01361
G1 X120.878 Y108.322 E1.03073
G1 X120.466 Y108.182 E1.04665
G1 X120.029 Y108.056 E1.06329
G1 X119.59 Y107.947 E1.07984
G1 X119.147 Y107.861 E1.09635
G1 X118.701 Y107.795 E1.11284
G1 X118.103 Y107.739 E1.13482
G1 X117.502 Y107.721 E1.15681
G1 X116.9 Y107.739 E1.17885
G1 X116.3 Y107.795 E1.2009
G1 X115.704 Y107.887 E1.22296
G1 X115.114 Y108.017 E1.24506
G1 X114.537 Y108.18 E1.267
G1 X113.97 Y108.38 E1.289
G1 X113.415 Y108.615 E1.31105
G1 X112.874 Y108.885 E1.33317
G1 X112.352 Y109.185 E1.3552
G1 X111.85 Y109.518 E1.37724
G1 X111.37 Y109.88 E1.39923
G1 X110.912 Y110.273 E1.42131
G1 X110.48 Y110.692 E1.44333
G1 X110.072 Y111.14 E1.4655
G1 X109.789 Y111.49 E1.48197
G1 X109.519 Y111.85 E1.49843
G1 X109.187 Y112.352 E1.52045
G1 X108.884 Y112.876 E1.54259
G1 X108.681 Y113.278 E1.55907
G1 X108.498 Y113.682 E1.5753
G1 X108.276 Y114.249 E1.59758
G1 X108.088 Y114.837 E1.62016
G1 X107.982 Y115.26 E1.63612
G1 X107.888 Y115.704 E1.65272
G1 X107.815 Y116.151 E1.66929
G1 X107.763 Y116.598 E1.68575
G1 X107.732 Y117.049 E1.70229
G1 X107.722 Y117.499 E1.71876
G1 X107.733 Y117.952 E1.73534
G1 X107.763 Y118.402 E1.75184
G1 X107.837 Y118.997 E1.77378
G1 X107.948 Y119.591 E1.79589
G1 X108.091 Y120.163 E1.81746
G1 X108.276 Y120.749 E1.83994
G1 X108.495 Y121.311 E1.86201
G1 X108.747 Y121.859 E1.88407
G1 X109.03 Y122.388 E1.90602
G1 X109.349 Y122.902 E1.92816
G1 X109.694 Y123.392 E1.95008
G1 X110.074 Y123.862 E1.97219
G1 X110.478 Y124.306 E1.99416
G1 X110.912 Y124.727 E2.01628
G1 X111.368 Y125.118 E2.03825
G1 X111.85 Y125.482 E2.06035
G1 X112.35 Y125.813 E2.08229
G1 X112.875 Y126.116 E2.10447
G1 X113.279 Y126.32 E2.12103
G1 X113.688 Y126.506 E2.13746
G1 X114.123 Y126.678 E2.15458
G1 X114.535 Y126.818 E2.1705
G1 X114.972 Y126.944 E2.18714
G1 X115.409 Y127.052 E2.20361
G1 X116 Y127.164 E2.22561
G1 X116.599 Y127.237 E2.24769
G0 F2100 X116.639 Y126.799
;TYPE:WALL-INNER
G1 F1200 X117.213 Y126.835 E2.26873
G1 X117.787 Y126.835 E2.28973
G1 X118.363 Y126.799 E2.31085
G1 X118.79 Y126.749 E2.32658
G1 X119.216 Y126.681 E2.34236
G1 X119.626 Y126.593 E2.3577
G1 X120.056 Y126.483 E2.37394
G1 X120.609 Y126.309 E2.39515
G1 X121.138 Y126.101 E2.41595
G1 X121.664 Y125.86 E2.43712
G1 X122.169 Y125.589 E2.45808
G1 X122.656 Y125.285 E2.47909
G1 X123.128 Y124.952 E2.50022
G1 X123.577 Y124.591 E2.5213
G1 X124.001 Y124.204 E2.5423
G1 X124.402 Y123.791 E2.56336
G1 X124.594 Y123.566 E2.57419
G1 X124.775 Y123.354 E2.58438
G1 X125.124 Y122.895 E2.60548
G1 X125.442 Y122.414 E2.62658
G1 X125.659 Y122.041 E2.64236
G1 X125.86 Y121.663 E2.65803
G1 X126.102 Y121.136 E2.67924
G1 X126.261 Y120.737 E2.69496
G1 X126.401 Y120.333 E2.7106
G1 X126.557 Y119.779 E2.73166
G1 X126.681 Y119.213 E2.75286
G1 X126.75 Y118.79 E2.76854
G1 X126.8 Y118.363 E2.78427
G1 X126.836 Y117.788 E2.80534
G1 X126.836 Y117.212 E2.82642
G1 X126.8 Y116.639 E2.84742
G1 X126.729 Y116.067 E2.86851
G1 X126.624 Y115.504 E2.88946
G1 X126.486 Y114.957 E2.9101
G1 X126.31 Y114.397 E2.93158
G1 X126.102 Y113.861 E2.95262
G1 X125.861 Y113.338 E2.97368
G1 X125.589 Y112.83 E2.99477
G1 X125.286 Y112.342 E3.01578
G1 X124.953 Y111.872 E3.03686
G1 X124.593 Y111.424 E3.05788
G1 X124.205 Y110.999 E3.07894
G1 X123.792 Y110.598 E3.1
G1 X123.356 Y110.224 E3.12101
G1 X122.897 Y109.879 E3.14202
G1 X122.417 Y109.562 E3.16307
G1 X121.916 Y109.271 E3.18426
G1 X121.533 Y109.077 E3.19997
G1 X121.141 Y108.899 E3.21572
G1 X120.726 Y108.735 E3.23205
G1 X120.334 Y108.602 E3.24719
G1 X119.915 Y108.481 E3.26315
G1 X119.495 Y108.377 E3.27898
G1 X119.073 Y108.295 E3.29471
G1 X118.648 Y108.232 E3.31043
G1 X118.076 Y108.179 E3.33144
G1 X117.502 Y108.161 E3.35245
G1 X116.927 Y108.179 E3.3735
G1 X116.354 Y108.232 E3.39456
G1 X115.785 Y108.32 E3.41562
G1 X115.222 Y108.444 E3.43671
G1 X114.67 Y108.6 E3.4577
G1 X114.129 Y108.79 E3.47868
G1 X113.599 Y109.015 E3.49974
G1 X113.082 Y109.273 E3.52088
G1 X112.583 Y109.559 E3.54192
G1 X112.104 Y109.878 E3.56298
G1 X111.646 Y110.223 E3.58396
G1 X111.209 Y110.598 E3.60503
G1 X110.796 Y110.998 E3.62606
G1 X110.406 Y111.426 E3.64725
G1 X110.137 Y111.76 E3.66294
G1 X109.879 Y112.104 E3.67867
G1 X109.561 Y112.584 E3.69973
G1 X109.271 Y113.085 E3.72091
G1 X109.078 Y113.468 E3.7366
G1 X108.904 Y113.853 E3.75206
G1 X108.691 Y114.397 E3.77344
G1 X108.512 Y114.957 E3.79495
G1 X108.411 Y115.359 E3.81011
G1 X108.321 Y115.785 E3.82604
G1 X108.251 Y116.212 E3.84187
G1 X108.201 Y116.638 E3.85756
G1 X108.172 Y117.069 E3.87337
G1 X108.162 Y117.499 E3.8891
G1 X108.173 Y117.932 E3.90495
G1 X108.201 Y118.36 E3.92064
G1 X108.272 Y118.929 E3.94162
G1 X108.378 Y119.497 E3.96276
G1 X108.515 Y120.043 E3.98336
G1 X108.691 Y120.603 E4.00483
G1 X108.9 Y121.139 E4.02588
G1 X109.141 Y121.663 E4.04698
G1 X109.411 Y122.168 E4.06793
G1 X109.716 Y122.659 E4.08908
G1 X110.046 Y123.127 E4.11003
G1 X110.408 Y123.576 E4.13113
G1 X110.794 Y124 E4.15211
G1 X111.208 Y124.402 E4.17322
G1 X111.644 Y124.775 E4.19422
G1 X112.104 Y125.122 E4.2153
G1 X112.582 Y125.439 E4.23628
G1 X113.085 Y125.729 E4.25752
G1 X113.469 Y125.923 E4.27326
G1 X113.86 Y126.101 E4.28898
G1 X114.275 Y126.265 E4.30531
G1 X114.667 Y126.398 E4.32045
G1 X115.086 Y126.519 E4.33641
G1 X115.503 Y126.622 E4.35212
G1 X116.068 Y126.729 E4.37316
G1 X116.639 Y126.799 E4.39421
G0 F2100 X116.676 Y126.4
;TYPE:SKIN
G1 F1200 X116.132 Y126.333 E4.41426
G1 X115.59 Y126.23 E4.43445
G1 X115.104 Y126.103 E4.45283
G1 X114.786 Y126.014 E4.46491
G1 X114.427 Y125.896 E4.47873
G1 X114.017 Y125.733 E4.49487
G1 X113.479 Y125.48 E4.51663
G1 X113.063 Y125.254 E4.53395
G1 X112.792 Y125.097 E4.54541
G1 X112.335 Y124.796 E4.56543
G1 X111.894 Y124.462 E4.58567
G1 X111.478 Y124.106 E4.6057
G1 X111.08 Y123.72 E4.62598
G1 X110.888 Y123.511 E4.63637
G1 X110.712 Y123.315 E4.646
G1 X110.363 Y122.884 E4.66629
G1 X110.051 Y122.438 E4.68621
G1 X109.757 Y121.965 E4.70658
G1 X109.5 Y121.485 E4.7265
G1 X109.269 Y120.981 E4.74679
G1 X109.069 Y120.475 E4.76669
G1 X108.9 Y119.934 E4.78743
G1 X108.767 Y119.399 E4.8076
G1 X108.668 Y118.866 E4.82743
G1 X108.6 Y118.321 E4.84753
G1 X108.567 Y117.715 E4.86973
G1 X108.567 Y117.276 E4.88579
G1 X108.6 Y116.674 E4.90785
G1 X108.647 Y116.269 E4.92277
G1 X108.715 Y115.86 E4.93794
G1 X108.837 Y115.306 E4.95869
G1 X108.973 Y114.826 E4.97694
G1 X109.067 Y114.531 E4.98827
G1 X109.276 Y114.004 E5.00901
G1 X109.439 Y113.642 E5.02354
G1 X109.624 Y113.276 E5.03854
G1 X109.903 Y112.793 E5.05895
G1 X110.206 Y112.336 E5.07901
G1 X110.452 Y112.007 E5.09404
G1 X110.711 Y111.688 E5.10907
G1 X111.084 Y111.276 E5.12941
G1 X111.478 Y110.894 E5.14948
G1 X111.897 Y110.534 E5.16969
G1 X112.336 Y110.204 E5.18979
G1 X112.793 Y109.901 E5.20985
G1 X113.272 Y109.627 E5.23004
G1 X113.769 Y109.379 E5.25036
G1 X114.275 Y109.163 E5.27049
G1 X114.806 Y108.979 E5.29105
G1 X115.332 Y108.83 E5.31105
G1 X115.859 Y108.714 E5.33079
G1 X116.405 Y108.629 E5.35101
G1 X116.954 Y108.578 E5.37118
G1 X117.502 Y108.562 E5.39124
G1 X118.05 Y108.578 E5.4113
G1 X118.828 Y108.663 E5.43993
G1 X119.197 Y108.727 E5.45363
G1 X119.621 Y108.822 E5.46953
G1 X119.986 Y108.918 E5.48334
G1 X120.391 Y109.045 E5.49887
G1 X120.792 Y109.193 E5.5145
G1 X121.178 Y109.355 E5.52982
G1 X121.525 Y109.521 E5.54389
G1 X121.782 Y109.662 E5.55462
G1 X122.02 Y109.795 E5.56459
G1 X122.206 Y109.911 E5.57261
G1 X121.975 Y110.28 E5.58854
G1 X121.323 Y109.913 E5.61591
G1 X121 Y109.758 E5.62902
G1 X120.435 Y109.529 E5.65133
G1 X120.047 Y109.4 E5.66629
G1 X119.68 Y109.294 E5.68026
G1 X119.109 Y109.159 E5.70173
G1 X118.765 Y109.099 E5.7145
G1 X118.021 Y109.018 E5.74189
G1 X117.503 Y109.003 E5.76084
G1 X116.984 Y109.018 E5.77984
G1 X116.461 Y109.066 E5.79906
G1 X115.943 Y109.147 E5.81824
G1 X115.441 Y109.258 E5.83705
G1 X114.952 Y109.397 E5.85565
G1 X114.434 Y109.573 E5.87566
G1 X113.955 Y109.779 E5.89474
G1 X113.48 Y110.017 E5.91418
G1 X113.023 Y110.277 E5.93341
G1 X112.592 Y110.564 E5.95236
G1 X112.173 Y110.879 E5.97154
G1 X111.776 Y111.22 E5.99068
G1 X111.402 Y111.582 E6.00973
G1 X110.905 Y112.15 E6.03734
G1 X110.566 Y112.593 E6.05775
G1 X110.279 Y113.023 E6.07666
G1 X110.013 Y113.486 E6.0962
G1 X109.837 Y113.832 E6.1104
G1 X109.682 Y114.176 E6.12421
G1 X109.482 Y114.679 E6.14401
G1 X109.265 Y115.414 E6.17205
G1 X109.148 Y115.944 E6.19191
G1 X109.083 Y116.33 E6.20623
G1 X109.039 Y116.712 E6.2203
G1 X109.007 Y117.287 E6.24136
G1 X109.007 Y117.704 E6.25662
G1 X109.039 Y118.281 E6.27776
G1 X109.104 Y118.795 E6.29672
G1 X109.198 Y119.304 E6.31566
G1 X109.322 Y119.801 E6.3344
G1 X109.484 Y120.327 E6.35453
G1 X109.674 Y120.807 E6.37342
G1 X109.895 Y121.289 E6.39282
G1 X110.138 Y121.743 E6.41166
G1 X110.419 Y122.195 E6.43113
G1 X110.714 Y122.618 E6.45
G1 X111.046 Y123.028 E6.4693
G1 X111.395 Y123.412 E6.48829
G1 X111.774 Y123.78 E6.50761
G1 X112.169 Y124.118 E6.52663
G1 X112.588 Y124.436 E6.54588
G1 X113.022 Y124.72 E6.56485
G1 X113.679 Y125.088 E6.5924
G1 X114.154 Y125.311 E6.6116
G1 X114.319 Y124.902 E6.62774
G1 X114.357 Y124.919 E6.62926
G1 X113.881 Y124.696 E6.64849
G1 X113.527 Y124.498 E6.66333
G1 X113.25 Y124.342 E6.67496
G1 X112.841 Y124.076 E6.69281
G1 X112.444 Y123.774 E6.71106
G1 X112.07 Y123.454 E6.72907
G1 X111.71 Y123.104 E6.74744
G1 X111.38 Y122.741 E6.76539
G1 X111.065 Y122.352 E6.7837
G1 X110.787 Y121.953 E6.80149
G1 X110.519 Y121.521 E6.82009
G1 X110.29 Y121.093 E6.83785
G1 X110.079 Y120.633 E6.85637
G1 X109.899 Y120.18 E6.8742
G1 X109.744 Y119.669 E6.89374
G1 X109.629 Y119.209 E6.91109
G1 X109.539 Y118.724 E6.92913
G1 X109.478 Y118.241 E6.94695
G1 X109.471 Y118.132 E6.95094
G1 X109.912 Y118.12 E6.96708
G1 X109.917 Y118.2 E6.97002
G1 X109.974 Y118.653 E6.98672
G1 X110.06 Y119.114 E7.00388
G1 X110.166 Y119.537 E7.01983
G1 X110.314 Y120.033 E7.03877
G1 X110.484 Y120.459 E7.05555
G1 X110.685 Y120.897 E7.07318
G1 X110.9 Y121.299 E7.08986
G1 X111.156 Y121.711 E7.10761
G1 X111.416 Y122.086 E7.1243
G1 X111.714 Y122.454 E7.14163
G1 X112.025 Y122.796 E7.15854
G1 X112.366 Y123.128 E7.17595
G1 X112.719 Y123.43 E7.19295
G1 X113.094 Y123.715 E7.21018
G1 X113.477 Y123.964 E7.22689
G1 X114.083 Y124.304 E7.25231
G1 X114.529 Y124.512 E7.27032
G1 X114.876 Y124.657 E7.28408
G1 X115.201 Y124.761 E7.29656
G1 X115.882 Y124.937 E7.3223
G1 X116.342 Y125.028 E7.33945
G1 X116.799 Y125.083 E7.35629
G1 X117.274 Y125.115 E7.37371
G1 X117.726 Y125.115 E7.39025
G1 X118.193 Y125.083 E7.40737
G1 X118.694 Y125.022 E7.42584
G1 X119.069 Y124.949 E7.43982
G1 X119.594 Y124.821 E7.45959
G1 X120.045 Y124.682 E7.47685
G1 X120.456 Y124.517 E7.49306
G1 X120.899 Y124.316 E7.51085
G1 X121.3 Y124.103 E7.52747
G1 X121.696 Y123.85 E7.54466
G1 X122.089 Y123.576 E7.56219
G1 X122.455 Y123.281 E7.57939
G1 X122.801 Y122.965 E7.59653
G1 X123.127 Y122.632 E7.61358
G1 X123.427 Y122.275 E7.63064
G1 X123.718 Y121.893 E7.64821
G1 X123.967 Y121.515 E7.66477
G1 X124.316 Y120.892 E7.6909
G1 X124.596 Y120.258 E7.71625
G1 X124.761 Y119.799 E7.7341
G1 X124.84 Y119.507 E7.74516
G1 X124.989 Y118.882 E7.76867
G1 X125.046 Y118.544 E7.78121
G1 X125.084 Y118.208 E7.79358
G1 X125.116 Y117.728 E7.81118
G1 X125.116 Y117.272 E7.82787
G1 X125.084 Y116.8 E7.84518
G1 X125.028 Y116.338 E7.8622
G1 X124.94 Y115.876 E7.87941
G1 X124.824 Y115.426 E7.89641
G1 X124.68 Y114.959 E7.91429
G1 X124.515 Y114.538 E7.93083
G1 X124.317 Y114.105 E7.94825
G1 X124.1 Y113.697 E7.96516
G1 X123.85 Y113.302 E7.98226
G1 X123.577 Y112.911 E7.99971
G1 X123.283 Y112.546 E8.01686
G1 X122.966 Y112.201 E8.034
G1 X122.629 Y111.872 E8.05123
G1 X122.275 Y111.569 E8.06828
G1 X121.903 Y111.286 E8.08538
G1 X121.519 Y111.036 E8.10214
G1 X120.914 Y110.695 E8.12755
G1 X120.644 Y110.564 E8.13853
G1 X120.481 Y110.497 E8.14498
G1 X120.353 Y110.92 E8.16115
G1 X120.464 Y110.966 E8.16554
G1 X120.709 Y111.086 E8.17552
G1 X121.291 Y111.414 E8.19997
G1 X121.648 Y111.646 E8.21554
G1 X121.998 Y111.913 E8.23165
G1 X122.331 Y112.197 E8.24766
G1 X122.649 Y112.509 E8.26396
G1 X122.948 Y112.834 E8.28012
G1 X123.224 Y113.176 E8.2962
G1 X123.569 Y113.683 E8.31863
G1 X123.72 Y113.92 E8.32891
G1 X123.922 Y114.3 E8.34466
G1 X124.109 Y114.711 E8.36118
G1 X124.263 Y115.104 E8.37662
G1 X124.399 Y115.546 E8.39354
G1 X124.509 Y115.972 E8.40964
G1 X124.593 Y116.408 E8.42588
G1 X124.645 Y116.842 E8.44187
G1 X124.676 Y117.288 E8.45823
G1 X124.676 Y117.712 E8.47374
G1 X124.645 Y118.165 E8.49036
G1 X124.556 Y118.795 E8.51363
G1 X124.339 Y119.669 E8.54658
G1 X124.185 Y120.096 E8.56319
G1 X123.921 Y120.695 E8.58714
G1 X123.59 Y121.286 E8.61192
G1 X123.358 Y121.637 E8.62731
G1 X123.082 Y121.999 E8.64397
G1 X122.8 Y122.335 E8.66002
G1 X122.494 Y122.648 E8.67603
G1 X122.168 Y122.945 E8.69217
G1 X121.823 Y123.223 E8.70838
G1 X121.45 Y123.484 E8.72503
G1 X121.076 Y123.723 E8.74127
G1 X120.704 Y123.92 E8.75667
G1 X120.282 Y124.112 E8.77363
G1 X119.898 Y124.265 E8.78876
G1 X119.478 Y124.395 E8.80484
G1 X118.841 Y124.544 E8.82878
G1 X118.146 Y124.645 E8.85447
G1 X117.71 Y124.675 E8.87046
G1 X117.29 Y124.675 E8.88583
G1 X116.84 Y124.644 E8.90233
G1 X116.413 Y124.593 E8.91806
G1 X115.979 Y124.506 E8.93426
G1 X115.336 Y124.343 E8.95853
G1 X115.03 Y124.244 E8.97029
G1 X114.603 Y124.061 E8.98729
G1 X114.285 Y123.912 E9.00014
G1 X113.705 Y123.586 E9.02448
G1 X113.349 Y123.354 E9.04003
G1 X112.996 Y123.086 E9.05624
G1 X112.662 Y122.8 E9.07233
G1 X112.342 Y122.488 E9.08868
G1 X112.048 Y122.165 E9.10466
G1 X111.769 Y121.821 E9.12086
G1 X111.524 Y121.467 E9.13662
G1 X111.281 Y121.077 E9.15343
G1 X111.08 Y120.701 E9.16903
G1 X110.889 Y120.284 E9.18581
G1 X110.73 Y119.885 E9.20152
G1 X110.592 Y119.421 E9.21923
G1 X110.491 Y119.018 E9.23443
G1 X110.409 Y118.583 E9.25063
G1 X110.356 Y118.158 E9.2663
G1 X110.327 Y117.666 E9.28433
G1 X110.327 Y117.325 E9.2968
G1 X110.356 Y116.832 E9.31487
G1 X110.417 Y116.371 E9.33189
G1 X110.549 Y115.741 E9.35544
G1 X110.722 Y115.132 E9.3786
G1 X111.028 Y114.408 E9.40736
G1 X111.404 Y113.717 E9.43614
G1 X111.643 Y113.36 E9.45185
G1 X111.925 Y112.989 E9.4689
G1 X112.362 Y112.491 E9.49314
G1 X112.664 Y112.198 E9.50854
G1 X113.001 Y111.908 E9.5248
G1 X113.354 Y111.644 E9.54093
G1 X113.716 Y111.401 E9.55688
G1 X114.101 Y111.187 E9.573
G1 X114.518 Y110.977 E9.59008
G1 X114.917 Y110.803 E9.60601
G1 X115.348 Y110.657 E9.62266
G1 X115.762 Y110.542 E9.63838
G1 X116.191 Y110.446 E9.65446
G1 X116.626 Y110.377 E9.67057
G1 X117.067 Y110.338 E9.68677
