;FLAVOR:Marlin
;TIME:283
;Filament used: 0.183876m
;Layer height: 0.2
;MINX:13.913
;MINY:13.915
;MINZ:0.2
;MAXX:221.08
;MAXY:221.086
;MAXZ:0.2
;Generated with Cura_SteamEngine 5.0.0
M82 ;absolute extrusion mode
START_PRINT EXTRUDER_TEMP=222 BED_TEMP=60
G92 E0
G92 E0
G1 F2700 E-5
;LAYER_COUNT:1
;LAYER:0
M107
G0 F2100 X19.407 Y19.305 Z0.2
G0 X14.003 Y30.73
;TYPE:SKIRT
G1 F2700 E0
G1 F1200 X14.111 Y29.834 E0.03302
G1 X14.233 Y29.053 E0.06194
G1 X14.269 Y28.867 E0.06887
G1 X14.448 Y28.094 E0.0979
G1 X14.672 Y27.261 E0.12946
G1 X14.979 Y26.296 E0.16651
G1 X15.163 Y25.798 E0.18593
G1 X15.473 Y25.045 E0.21572
G1 X15.682 Y24.586 E0.23418
G1 X16.023 Y23.896 E0.26234
G1 X16.411 Y23.202 E0.29142
G1 X16.794 Y22.572 E0.3184
G1 X17.254 Y21.876 E0.34892
G1 X17.617 Y21.369 E0.37174
G1 X18.324 Y20.481 E0.41326
G1 X18.787 Y19.957 E0.43885
G1 X19.2 Y19.515 E0.46098
G1 X19.407 Y19.305 E0.47177
G1 X20.039 Y18.712 E0.50347
G1 X20.582 Y18.241 E0.52977
G1 X21.092 Y17.824 E0.55387
G1 X21.282 Y17.678 E0.56264
G1 X21.874 Y17.254 E0.58928
G1 X22.484 Y16.846 E0.61613
G1 X23.165 Y16.423 E0.64546
G1 X23.924 Y16.015 E0.67699
G1 X24.747 Y15.613 E0.7105
G1 X25.642 Y15.224 E0.7462
G1 X25.986 Y15.092 E0.75968
G1 X26.606 Y14.875 E0.78372
G1 X27.208 Y14.684 E0.80682
G1 X28.232 Y14.412 E0.84559
G1 X28.939 Y14.26 E0.87204
G1 X29.663 Y14.129 E0.89896
G1 X29.977 Y14.083 E0.91057
G1 X30.858 Y13.99 E0.94298
G1 X31.71 Y13.934 E0.97422
G1 X32.755 Y13.915 E1.01246
G1 X33.315 Y13.931 E1.03296
G1 X34.107 Y13.982 E1.06199
G1 X34.615 Y14.033 E1.08067
G1 X35.364 Y14.134 E1.10832
G1 X35.735 Y14.197 E1.12209
G1 X36.328 Y14.314 E1.14421
G1 X36.964 Y14.458 E1.16806
G1 X38.069 Y14.769 E1.21006
G1 X38.829 Y15.026 E1.23941
G1 X39.585 Y15.313 E1.269
G1 X39.789 Y15.399 E1.2771
G1 X40.467 Y15.712 E1.30442
G1 X41.244 Y16.103 E1.33624
G1 X42.044 Y16.547 E1.36972
G1 X42.309 Y16.709 E1.38108
G1 X42.892 Y17.092 E1.4066
G1 X43.481 Y17.505 E1.43292
G1 X44.23 Y18.079 E1.46745
G1 X44.947 Y18.692 E1.50196
G1 X45.173 Y18.898 E1.51315
G1 X45.699 Y19.41 E1.54
G1 X46.067 Y19.793 E1.55944
G1 X46.615 Y20.402 E1.58941
G1 X46.905 Y20.747 E1.6059
G1 X49.074 Y23.442 E1.73246
G1 X50.692 Y25.34 E1.82371
G1 X52.378 Y27.206 E1.91572
G1 X54.093 Y29 E2.00652
G1 X55.929 Y30.815 E2.10098
G1 X57.733 Y32.501 E2.19132
G1 X59.618 Y34.165 E2.28331
G1 X61.563 Y35.785 E2.37592
G1 X63.524 Y37.328 E2.46721
G1 X65.558 Y38.836 E2.55985
G1 X67.613 Y40.273 E2.65159
G1 X69.732 Y41.666 E2.74437
G1 X71.865 Y42.983 E2.83608
G1 X74.017 Y44.228 E2.92704
G1 X76.224 Y45.426 E3.01892
G1 X78.492 Y46.574 E3.11192
G1 X80.778 Y47.651 E3.20437
G1 X83.042 Y48.64 E3.29476
G1 X85.397 Y49.591 E3.38768
G1 X87.754 Y50.466 E3.47967
G1 X90.128 Y51.271 E3.57138
G1 X92.551 Y52.018 E3.66415
G1 X94.952 Y52.683 E3.7553
G1 X97.423 Y53.293 E3.84841
G1 X99.867 Y53.824 E3.93992
G1 X102.324 Y54.286 E4.03138
G1 X104.794 Y54.678 E4.12288
G1 X107.297 Y55.003 E4.21523
G1 X109.817 Y55.258 E4.3079
G1 X112.325 Y55.44 E4.39989
G1 X114.806 Y55.55 E4.49075
G1 X117.361 Y55.591 E4.58424
G1 X119.842 Y55.56 E4.67502
G1 X122.358 Y55.458 E4.76715
G1 X124.88 Y55.283 E4.85964
G1 X127.378 Y55.04 E4.95146
G1 X129.883 Y54.724 E5.04384
G1 X132.343 Y54.343 E5.13491
G1 X134.862 Y53.879 E5.22862
G1 X137.252 Y53.37 E5.31803
G1 X139.712 Y52.772 E5.41065
G1 X142.168 Y52.1 E5.50381
G1 X144.566 Y51.371 E5.59551
G1 X146.952 Y50.571 E5.68758
G1 X149.297 Y49.711 E5.77896
G1 X151.635 Y48.777 E5.87107
G1 X153.964 Y47.769 E5.96392
G1 X156.242 Y46.706 E6.05589
G1 X158.466 Y45.591 E6.14691
G1 X160.694 Y44.394 E6.23944
G1 X162.872 Y43.142 E6.33135
G1 X164.988 Y41.845 E6.42216
G1 X167.129 Y40.449 E6.51567
G1 X169.176 Y39.029 E6.60681
G1 X171.218 Y37.527 E6.69956
G1 X173.199 Y35.979 E6.79154
G1 X175.131 Y34.382 E6.88324
G1 X177.036 Y32.712 E6.97593
G1 X178.857 Y31.023 E7.0668
G1 X180.65 Y29.265 E7.15867
G1 X182.396 Y27.451 E7.25078
G1 X184.122 Y25.555 E7.34459
G1 X185.721 Y23.694 E7.43436
G1 X187.364 Y21.67 E7.52973
G1 X187.84 Y21.063 E7.55796
G1 X188.227 Y20.597 E7.58012
G1 X188.757 Y19.992 E7.60954
G1 X189.201 Y19.514 E7.63341
G1 X189.408 Y19.304 E7.6442
G1 X190.04 Y18.711 E7.67591
G1 X190.583 Y18.24 E7.70221
G1 X191.093 Y17.823 E7.72631
G1 X191.283 Y17.677 E7.73508
G1 X191.878 Y17.25 E7.76187
G1 X192.487 Y16.843 E7.78867
G1 X193.196 Y16.406 E7.81914
G1 X193.916 Y16.02 E7.84903
G1 X194.737 Y15.618 E7.88247
G1 X195.651 Y15.22 E7.91895
G1 X195.996 Y15.088 E7.93246
G1 X196.606 Y14.875 E7.9561
G1 X197.208 Y14.684 E7.97921
G1 X198.232 Y14.412 E8.01797
G1 X198.939 Y14.26 E8.04443
G1 X199.663 Y14.129 E8.07135
G1 X199.977 Y14.083 E8.08296
G1 X200.858 Y13.99 E8.11537
G1 X201.71 Y13.934 E8.14661
G1 X202.755 Y13.915 E8.18485
G1 X203.315 Y13.931 E8.20534
G1 X204.109 Y13.982 E8.23445
G1 X204.616 Y14.033 E8.25309
G1 X205.358 Y14.133 E8.28049
G1 X205.73 Y14.196 E8.29429
G1 X206.341 Y14.317 E8.31708
G1 X206.978 Y14.462 E8.34098
G1 X208.034 Y14.758 E8.3811
G1 X208.707 Y14.983 E8.40707
G1 X209.309 Y15.204 E8.43053
G1 X209.599 Y15.32 E8.44196
G1 X210.472 Y15.713 E8.47698
G1 X211.248 Y16.104 E8.50877
G1 X212.053 Y16.553 E8.5425
G1 X212.319 Y16.716 E8.55391
G1 X212.892 Y17.092 E8.57899
G1 X213.481 Y17.505 E8.6053
G1 X214.23 Y18.079 E8.63983
G1 X214.947 Y18.692 E8.67434
G1 X215.173 Y18.898 E8.68553
G1 X215.699 Y19.41 E8.71239
G1 X216.067 Y19.793 E8.73182
G1 X216.607 Y20.392 E8.76132
G1 X217.166 Y21.085 E8.7939
G1 X217.6 Y21.67 E8.82055
G1 X218.043 Y22.315 E8.84918
G1 X218.36 Y22.812 E8.87074
G1 X218.918 Y23.793 E8.91203
G1 X219.251 Y24.455 E8.93915
G1 X219.605 Y25.232 E8.97038
G1 X219.835 Y25.793 E8.99257
G1 X220.222 Y26.898 E9.0354
G1 X220.447 Y27.67 E9.06482
G1 X220.667 Y28.555 E9.09819
G1 X220.814 Y29.35 E9.12777
G1 X220.943 Y30.225 E9.16012
G1 X221.031 Y31.01 E9.18902
G1 X221.046 Y31.209 E9.19633
G1 X221.077 Y32.004 E9.22543
G1 X221.08 Y32.852 E9.25646
G1 X221.037 Y33.866 E9.29359
G1 X220.99 Y34.399 E9.31317
G1 X220.894 Y35.174 E9.34174
G1 X220.81 Y35.7 E9.36123
G1 X220.674 Y36.403 E9.38742
G1 X220.594 Y36.756 E9.40067
G1 X220.424 Y37.415 E9.42556
G1 X220.228 Y38.086 E9.45114
G1 X219.839 Y39.195 E9.49414
G1 X219.582 Y39.82 E9.51886
G1 X219.258 Y40.535 E9.54758
G1 X218.975 Y41.105 E9.57086
G1 X218.393 Y42.135 E9.61415
G1 X217.994 Y42.761 E9.64131
G1 X217.514 Y43.455 E9.67218
G1 X217.169 Y43.915 E9.69322
G1 X216.488 Y44.738 E9.7323
G1 X216.028 Y45.242 E9.75726
G1 X215.417 Y45.86 E9.78906
G1 X214.928 Y46.318 E9.81357
G1 X214.332 Y46.838 E9.84251
G1 X213.663 Y47.378 E9.87396
G1 X212.639 Y48.177 E9.92148
G1 X210.717 Y49.764 E10.01267
G1 X208.801 Y51.442 E10.10586
G1 X206.97 Y53.138 E10.19717
G1 X205.177 Y54.895 E10.28901
G1 X203.432 Y56.705 E10.381
G1 X201.738 Y58.564 E10.47301
G1 X200.08 Y60.491 E10.56602
G1 X198.513 Y62.42 E10.65694
G1 X196.982 Y64.419 E10.74907
G1 X195.508 Y66.459 E10.84115
G1 X194.094 Y68.537 E10.9331
G1 X192.742 Y70.65 E11.02488
G1 X191.446 Y72.808 E11.11698
G1 X190.214 Y74.997 E11.20888
G1 X189.041 Y77.23 E11.30116
G1 X187.935 Y79.483 E11.39299
G1 X186.883 Y81.792 E11.48582
G1 X185.905 Y84.112 E11.57793
G1 X185.001 Y86.435 E11.66913
G1 X184.165 Y88.778 E11.76014
G1 X183.379 Y91.194 E11.8531
G1 X182.668 Y93.607 E11.94513
G1 X182.029 Y96.031 E12.03685
G1 X181.453 Y98.495 E12.12942
G1 X180.951 Y100.952 E12.22117
G1 X180.521 Y103.411 E12.3125
G1 X180.156 Y105.911 E12.40494
G1 X179.863 Y108.413 E12.4971
G1 X179.642 Y110.914 E12.58896
G1 X179.491 Y113.426 E12.68103
G1 X179.412 Y115.921 E12.77236
G1 X179.404 Y118.443 E12.86463
G1 X179.467 Y120.99 E12.95784
G1 X179.6 Y123.479 E13.04904
G1 X179.804 Y125.98 E13.14084
G1 X180.078 Y128.466 E13.23235
G1 X180.426 Y130.975 E13.32502
G1 X180.838 Y133.432 E13.41617
G1 X181.328 Y135.92 E13.50894
G1 X181.877 Y138.345 E13.59991
G1 X182.507 Y140.799 E13.6926
G1 X183.207 Y143.238 E13.78544
G1 X183.965 Y145.621 E13.87693
G1 X184.8 Y148.014 E13.96966
G1 X185.678 Y150.316 E14.05979
G1 X186.651 Y152.665 E14.15282
G1 X187.675 Y154.953 E14.24453
G1 X188.779 Y157.243 E14.33754
G1 X189.927 Y159.461 E14.42891
G1 X191.137 Y161.65 E14.52042
G1 X192.426 Y163.827 E14.61298
G1 X193.771 Y165.961 E14.70527
G1 X195.164 Y168.039 E14.7968
G1 X196.617 Y170.08 E14.88846
G1 X198.13 Y172.082 E14.98027
G1 X199.717 Y174.063 E15.07314
G1 X201.346 Y175.981 E15.1652
G1 X203.013 Y177.837 E15.25647
G1 X204.754 Y179.668 E15.34891
G1 X206.549 Y181.452 E15.4415
G1 X208.341 Y183.134 E15.53142
G1 X210.246 Y184.822 E15.62454
G1 X212.222 Y186.478 E15.71887
G1 X214.295 Y188.134 E15.81594
G1 X214.789 Y188.552 E15.83961
G1 X215.115 Y188.845 E15.85565
G1 X215.699 Y189.41 E15.88538
G1 X216.067 Y189.793 E15.90481
G1 X216.589 Y190.37 E15.93328
G1 X217.174 Y191.095 E15.96736
G1 X217.607 Y191.68 E15.99399
G1 X218.043 Y192.315 E16.02217
G1 X218.36 Y192.812 E16.04374
G1 X218.918 Y193.793 E16.08503
G1 X219.251 Y194.455 E16.11214
G1 X219.605 Y195.232 E16.14338
G1 X219.835 Y195.793 E16.16556
G1 X220.222 Y196.898 E16.2084
G1 X220.447 Y197.67 E16.23782
G1 X220.667 Y198.555 E16.27118
G1 X220.815 Y199.353 E16.30088
G1 X220.943 Y200.223 E16.33305
G1 X221.027 Y200.971 E16.36059
G1 X221.043 Y201.175 E16.36807
G1 X221.077 Y202.004 E16.39843
G1 X221.08 Y202.852 E16.42945
G1 X221.037 Y203.866 E16.46659
G1 X220.99 Y204.399 E16.48616
G1 X220.894 Y205.174 E16.51473
G1 X220.81 Y205.7 E16.53422
G1 X220.674 Y206.403 E16.56042
G1 X220.594 Y206.756 E16.57366
G1 X220.424 Y207.415 E16.59856
G1 X220.228 Y208.086 E16.62414
G1 X219.839 Y209.195 E16.66713
G1 X219.582 Y209.82 E16.69186
G1 X219.258 Y210.535 E16.72058
G1 X218.975 Y211.105 E16.74386
G1 X218.393 Y212.135 E16.78714
G1 X217.994 Y212.761 E16.8143
G1 X217.514 Y213.455 E16.84517
G1 X217.169 Y213.915 E16.86621
G1 X216.488 Y214.738 E16.90529
G1 X216.028 Y215.242 E16.93026
G1 X215.426 Y215.852 E16.96161
G1 X214.937 Y216.311 E16.98615
G1 X214.082 Y217.036 E17.02716
G1 X213.534 Y217.455 E17.0524
G1 X212.835 Y217.952 E17.08378
G1 X212.199 Y218.357 E17.11137
G1 X211.709 Y218.646 E17.13218
G1 X210.785 Y219.134 E17.17041
G1 X210.005 Y219.5 E17.20193
G1 X209.325 Y219.792 E17.22901
G1 X209.12 Y219.872 E17.23706
G1 X208.313 Y220.151 E17.2683
G1 X207.52 Y220.392 E17.29862
G1 X206.566 Y220.636 E17.33465
G1 X206.031 Y220.748 E17.35465
G1 X205.286 Y220.878 E17.38232
G1 X204.948 Y220.925 E17.3948
G1 X204.309 Y220.995 E17.41832
G1 X203.613 Y221.051 E17.44387
G1 X202.587 Y221.086 E17.48143
G1 X201.585 Y221.065 E17.51809
G1 X201.331 Y221.052 E17.5274
G1 X200.672 Y220.999 E17.55159
G1 X200.249 Y220.952 E17.56716
G1 X199.612 Y220.863 E17.59069
G1 X199.142 Y220.783 E17.60813
G1 X198.301 Y220.606 E17.63958
G1 X197.664 Y220.446 E17.6636
G1 X196.909 Y220.229 E17.69235
G1 X196.318 Y220.03 E17.71516
G1 X195.812 Y219.843 E17.7349
G1 X194.85 Y219.434 E17.77314
G1 X194.17 Y219.107 E17.80075
G1 X193.456 Y218.732 E17.83025
G1 X192.907 Y218.417 E17.85341
G1 X191.937 Y217.791 E17.89565
G1 X191.37 Y217.382 E17.92123
G1 X190.895 Y217.02 E17.94308
G1 X190.246 Y216.477 E17.97404
G1 X189.71 Y215.984 E18.00068
G1 X189.267 Y215.552 E18.02332
G1 X188.502 Y214.725 E18.06453
G1 X187.861 Y213.955 E18.10119
G1 X186.098 Y211.749 E18.20451
G1 X184.47 Y209.829 E18.2966
G1 X182.788 Y207.957 E18.38868
G1 X181.062 Y206.141 E18.48034
G1 X179.288 Y204.378 E18.57184
G1 X177.457 Y202.657 E18.66378
G1 X175.557 Y200.971 E18.75672
G1 X173.659 Y199.381 E18.8473
G1 X171.659 Y197.798 E18.94062
G1 X169.658 Y196.305 E19.03196
G1 X167.58 Y194.844 E19.1249
G1 X165.5 Y193.467 E19.21616
G1 X163.373 Y192.145 E19.30779
G1 X161.188 Y190.872 E19.40031
G1 X158.988 Y189.67 E19.49203
G1 X156.749 Y188.53 E19.58395
G1 X154.479 Y187.452 E19.67589
G1 X152.162 Y186.433 E19.7685
G1 X149.844 Y185.488 E19.86008
G1 X147.51 Y184.615 E19.95125
G1 X145.085 Y183.784 E20.04503
G1 X142.702 Y183.042 E20.13635
G1 X140.312 Y182.373 E20.22715
G1 X137.802 Y181.745 E20.32181
G1 X135.384 Y181.213 E20.41239
G1 X132.943 Y180.747 E20.50331
G1 X130.455 Y180.345 E20.59552
G1 X127.922 Y180.009 E20.689
G1 X125.439 Y179.751 E20.78034
G1 X122.966 Y179.564 E20.87107
G1 X120.417 Y179.444 E20.96443
G1 X117.898 Y179.397 E21.05661
G1 X115.417 Y179.42 E21.14738
G1 X112.889 Y179.516 E21.23994
G1 X110.363 Y179.683 E21.33256
G1 X107.904 Y179.916 E21.42293
G1 X105.373 Y180.228 E21.51623
G1 X102.87 Y180.608 E21.60885
G1 X100.42 Y181.052 E21.69995
G1 X97.985 Y181.564 E21.79098
G1 X95.529 Y182.154 E21.8834
G1 X93.1 Y182.811 E21.97546
G1 X90.653 Y183.547 E22.06895
G1 X88.324 Y184.321 E22.15874
G1 X85.914 Y185.197 E22.25255
G1 X83.586 Y186.12 E22.34418
G1 X81.29 Y187.106 E22.4356
G1 X78.998 Y188.167 E22.528
G1 X76.76 Y189.281 E22.61946
G1 X74.53 Y190.471 E22.71194
G1 X72.345 Y191.718 E22.80398
G1 X70.2 Y193.025 E22.89588
G1 X68.089 Y194.393 E22.98791
G1 X66.02 Y195.821 E23.07989
G1 X63.992 Y197.304 E23.17181
G1 X62.004 Y198.846 E23.26386
G1 X60.057 Y200.448 E23.3561
G1 X58.18 Y202.083 E23.44717
G1 X56.325 Y203.794 E23.5395
G1 X54.525 Y205.549 E23.63148
G1 X52.758 Y207.374 E23.72442
G1 X51.071 Y209.218 E23.81586
G1 X49.441 Y211.103 E23.90703
G1 X47.371 Y213.659 E24.02736
G1 X47.044 Y214.079 E24.04684
G1 X46.488 Y214.737 E24.07836
G1 X46.025 Y215.244 E24.10348
G1 X45.426 Y215.852 E24.1347
G1 X44.937 Y216.311 E24.15924
G1 X44.082 Y217.036 E24.20025
G1 X43.534 Y217.455 E24.22549
G1 X42.835 Y217.952 E24.25687
G1 X42.199 Y218.357 E24.28446
G1 X41.709 Y218.646 E24.30527
G1 X40.785 Y219.134 E24.3435
G1 X40.005 Y219.5 E24.37502
G1 X39.325 Y219.792 E24.4021
G1 X39.12 Y219.872 E24.41015
G1 X38.313 Y220.151 E24.44139
G1 X37.52 Y220.392 E24.47171
G1 X36.566 Y220.636 E24.50774
G1 X36.031 Y220.748 E24.52774
G1 X35.286 Y220.878 E24.5554
G1 X34.948 Y220.925 E24.56789
G1 X34.309 Y220.995 E24.59141
G1 X33.613 Y221.051 E24.61695
G1 X32.587 Y221.086 E24.65451
G1 X31.585 Y221.065 E24.69118
G1 X31.331 Y221.052 E24.70049
G1 X30.672 Y220.999 E24.72467
G1 X30.249 Y220.952 E24.74025
G1 X29.612 Y220.863 E24.76378
G1 X29.142 Y220.783 E24.78122
G1 X28.301 Y220.606 E24.81266
G1 X27.664 Y220.446 E24.83669
G1 X26.909 Y220.229 E24.86543
G1 X26.318 Y220.03 E24.88825
G1 X25.812 Y219.843 E24.90798
G1 X24.85 Y219.434 E24.94623
G1 X24.17 Y219.107 E24.97384
G1 X23.456 Y218.732 E25.00334
G1 X22.907 Y218.417 E25.0265
G1 X21.937 Y217.791 E25.06874
G1 X21.37 Y217.382 E25.09431
G1 X20.895 Y217.02 E25.11616
G1 X20.246 Y216.477 E25.14712
G1 X19.71 Y215.984 E25.17377
G1 X19.267 Y215.552 E25.19641
G1 X18.479 Y214.698 E25.23892
G1 X17.954 Y214.066 E25.26898
G1 X17.499 Y213.48 E25.29612
G1 X17.376 Y213.31 E25.3038
G1 X16.923 Y212.633 E25.3336
G1 X16.47 Y211.899 E25.36516
G1 X16.075 Y211.203 E25.39444
G1 X15.979 Y211.019 E25.40203
G1 X15.652 Y210.336 E25.42973
G1 X15.304 Y209.541 E25.46148
G1 X15.005 Y208.784 E25.49126
G1 X14.945 Y208.614 E25.49786
G1 X14.711 Y207.868 E25.52646
G1 X14.503 Y207.113 E25.55511
G1 X14.315 Y206.317 E25.58504
G1 X14.199 Y205.73 E25.60693
G1 X14.037 Y204.615 E25.64815
G1 X13.97 Y203.901 E25.67439
G1 X13.929 Y203.292 E25.69672
G1 X13.918 Y203.007 E25.70716
G1 X13.913 Y202.302 E25.73295
G1 X13.926 Y201.781 E25.75202
G1 X14.003 Y200.73 E25.79057
G1 X14.111 Y199.834 E25.82359
G1 X14.233 Y199.053 E25.85251
G1 X14.269 Y198.867 E25.85944
G1 X14.448 Y198.094 E25.88847
G1 X14.672 Y197.261 E25.92003
G1 X14.979 Y196.296 E25.95708
G1 X15.163 Y195.798 E25.9765
G1 X15.473 Y195.045 E26.0063
G1 X15.682 Y194.586 E26.02475
G1 X16.023 Y193.896 E26.05291
G1 X16.411 Y193.202 E26.082
G1 X16.794 Y192.572 E26.10897
G1 X17.254 Y191.876 E26.13949
G1 X17.617 Y191.369 E26.16231
G1 X18.324 Y190.481 E26.20383
G1 X18.787 Y189.957 E26.22942
G1 X19.2 Y189.515 E26.25155
G1 X19.407 Y189.305 E26.26234
G1 X20.046 Y188.705 E26.29441
G1 X20.59 Y188.234 E26.32073
G1 X20.936 Y187.947 E26.33718
G1 X22.689 Y186.549 E26.41921
G1 X24.622 Y184.936 E26.51132
G1 X26.515 Y183.262 E26.60377
G1 X28.339 Y181.556 E26.69515
G1 X30.152 Y179.761 E26.78849
G1 X31.868 Y177.962 E26.87945
G1 X33.555 Y176.091 E26.97162
G1 X35.208 Y174.15 E27.06489
G1 X36.76 Y172.219 E27.15553
G1 X38.294 Y170.197 E27.24839
G1 X39.73 Y168.189 E27.33871
G1 X41.158 Y166.067 E27.43229
G1 X42.495 Y163.954 E27.52377
G1 X43.777 Y161.793 E27.6157
G1 X44.998 Y159.599 E27.70756
G1 X46.148 Y157.385 E27.79884
G1 X47.262 Y155.083 E27.8924
G1 X48.285 Y152.81 E27.9836
