;FLAVOR:Marlin
;TIME:1697
;Filament used: 1.20396m
;Layer height: 0.2
;MINX:78.43
;MINY:82.107
;MINZ:0.2
;MAXX:141.032
;MAXY:155.388
;MAXZ:10
;Generated with Cura_SteamEngine 5.0.0
M82 ;absolute extrusion mode
START_PRINT EXTRUDER_TEMP=222 BED_TEMP=60
G92 E0
G92 E0
G1 F2700 E-5
;LAYER_COUNT:50
;LAYER:0
M107
G0 F2100 X82.554 Y88.128 Z0.2
G0 X78.43 Y97.424
;TYPE:SKIRT
G1 F2700 E0
G1 F1200 X78.47 Y96.483 E0.03446
G1 X78.599 Y95.495 E0.07091
G1 X78.656 Y95.172 E0.08291
G1 X78.859 Y94.252 E0.11738
G1 X79.183 Y93.234 E0.15647
G1 X79.296 Y92.93 E0.16833
G1 X79.661 Y92.061 E0.20282
G1 X80.234 Y91.001 E0.2469
G1 X80.403 Y90.725 E0.25874
G1 X80.928 Y89.943 E0.2932
G1 X81.665 Y89.044 E0.33573
G1 X81.891 Y88.796 E0.34801
G1 X82.554 Y88.128 E0.38244
G1 X83.424 Y87.401 E0.42392
G1 X83.69 Y87.201 E0.4361
G1 X84.467 Y86.667 E0.47059
G1 X85.519 Y86.085 E0.51458
G1 X85.814 Y85.942 E0.52657
G1 X86.679 Y85.567 E0.56107
G1 X87.73 Y85.223 E0.60152
G1 X88.041 Y85.138 E0.61332
G1 X88.959 Y84.928 E0.64777
G1 X90.171 Y84.774 E0.69247
G1 X90.949 Y84.727 E0.72099
G1 X92.061 Y84.693 E0.76169
G1 X94.639 Y84.578 E0.8561
G1 X97.178 Y84.394 E0.94924
G1 X99.631 Y84.145 E1.03945
G1 X102.157 Y83.817 E1.13264
G1 X104.624 Y83.426 E1.22402
G1 X107.093 Y82.962 E1.31594
G1 X108.505 Y82.647 E1.36887
G1 X108.928 Y82.571 E1.38459
G1 X109.91 Y82.356 E1.42137
G1 X110.838 Y82.194 E1.45583
G1 X111.777 Y82.111 E1.49032
G1 X112.719 Y82.107 E1.52479
G1 X113.644 Y82.182 E1.55874
G1 X114.278 Y82.262 E1.58212
G1 X115.987 Y82.498 E1.64524
G1 X118.55 Y82.779 E1.73957
G1 X119.792 Y82.894 E1.78521
G1 X120.469 Y82.978 E1.81016
G1 X121.393 Y83.161 E1.84463
G1 X122.299 Y83.421 E1.87911
G1 X123.179 Y83.757 E1.91357
G1 X124.027 Y84.167 E1.94803
G1 X124.838 Y84.647 E1.98251
G1 X125.605 Y85.194 E2.01698
G1 X126.322 Y85.804 E2.05142
G1 X126.986 Y86.473 E2.08591
G1 X127.59 Y87.196 E2.12037
G1 X128.041 Y87.829 E2.14881
G1 X129.258 Y89.67 E2.22955
G1 X130.694 Y91.727 E2.32133
G1 X132.204 Y93.766 E2.41416
G1 X133.764 Y95.751 E2.50653
G1 X134.797 Y96.994 E2.56566
G1 X135.522 Y97.902 E2.60817
G1 X136.107 Y98.682 E2.64384
G1 X136.539 Y99.3 E2.67143
G1 X137.11 Y100.18 E2.70981
G1 X137.49 Y100.811 E2.73676
G1 X137.964 Y101.66 E2.77233
G1 X138.313 Y102.338 E2.80023
G1 X138.757 Y103.28 E2.83833
G1 X139.051 Y103.964 E2.86557
G1 X139.422 Y104.911 E2.90278
G1 X139.676 Y105.632 E2.93075
G1 X139.978 Y106.593 E2.9676
G1 X140.178 Y107.313 E2.99494
G1 X140.418 Y108.306 E3.03232
G1 X140.563 Y109.004 E3.0584
G1 X140.726 Y109.937 E3.09305
G1 X140.833 Y110.701 E3.12128
G1 X140.942 Y111.751 E3.1599
G1 X140.994 Y112.5 E3.18737
G1 X141.03 Y113.505 E3.22416
G1 X141.032 Y114.222 E3.25039
G1 X141.004 Y115.192 E3.2859
G1 X140.956 Y115.952 E3.31376
G1 X140.852 Y117.016 E3.35287
G1 X140.75 Y117.786 E3.38129
G1 X140.581 Y118.786 E3.41839
G1 X140.432 Y119.517 E3.44569
G1 X140.208 Y120.454 E3.48094
G1 X140.015 Y121.157 E3.50761
G1 X139.704 Y122.161 E3.54606
G1 X139.451 Y122.887 E3.57419
G1 X139.093 Y123.811 E3.61044
G1 X138.808 Y124.482 E3.63712
G1 X138.381 Y125.4 E3.67416
G1 X138.041 Y126.07 E3.70165
G1 X137.554 Y126.955 E3.7386
G1 X137.184 Y127.578 E3.76511
G1 X136.787 Y128.2 E3.79211
G1 X135.404 Y130.433 E3.88821
G1 X134.133 Y132.62 E3.98075
G1 X132.945 Y134.804 E4.07171
G1 X131.798 Y137.065 E4.16447
G1 X130.727 Y139.329 E4.2561
G1 X129.733 Y141.599 E4.34676
G1 X129.031 Y143.344 E4.41558
G1 X128.453 Y144.722 E4.47025
G1 X128.052 Y145.575 E4.50474
G1 X127.58 Y146.391 E4.53922
G1 X127.198 Y146.953 E4.56409
G1 X127.044 Y147.165 E4.57367
G1 X126.458 Y147.903 E4.60815
G1 X125.652 Y148.742 E4.65072
G1 X125.399 Y148.979 E4.6634
G1 X124.684 Y149.593 E4.69788
G1 X123.801 Y150.223 E4.73756
G1 X123.358 Y150.507 E4.75682
G1 X122.291 Y151.11 E4.80166
G1 X121.79 Y151.358 E4.82211
G1 X120.647 Y151.846 E4.86758
G1 X120.095 Y152.046 E4.88906
G1 X118.807 Y152.426 E4.93819
G1 X118.269 Y152.55 E4.95839
G1 X116.975 Y152.769 E5.00641
G1 X116.349 Y152.837 E5.02944
G1 X115.355 Y152.9 E5.06588
G1 X113.331 Y152.937 E5.13995
G1 X110.829 Y153.048 E5.23157
G1 X108.27 Y153.235 E5.32545
G1 X105.823 Y153.483 E5.41543
G1 X103.287 Y153.812 E5.50899
G1 X100.818 Y154.204 E5.60046
G1 X98.376 Y154.663 E5.69136
G1 X96.417 Y155.087 E5.76469
G1 X96.02 Y155.166 E5.7795
G1 X95.089 Y155.31 E5.81397
G1 X94.166 Y155.375 E5.84782
G1 X93.534 Y155.388 E5.87095
G1 X91.928 Y155.387 E5.92971
G1 X91.23 Y155.378 E5.95525
G1 X90.289 Y155.326 E5.98973
G1 X89.356 Y155.194 E6.0242
G1 X88.438 Y154.984 E6.05866
G1 X87.541 Y154.696 E6.09312
G1 X86.671 Y154.334 E6.1276
G1 X85.835 Y153.899 E6.16208
G1 X85.04 Y153.395 E6.19652
G1 X84.289 Y152.825 E6.23101
G1 X83.59 Y152.193 E6.26549
G1 X82.947 Y151.505 E6.29994
G1 X82.365 Y150.764 E6.33441
G1 X81.847 Y149.977 E6.36888
G1 X81.398 Y149.149 E6.40334
G1 X81.021 Y148.285 E6.43783
G1 X80.719 Y147.393 E6.47229
G1 X80.493 Y146.479 E6.50673
G1 X80.346 Y145.548 E6.54122
G1 X80.277 Y144.579 E6.57676
G1 X80.264 Y143.946 E6.59992
G1 X80.265 Y133.61 E6.97808
G1 X80.275 Y132.904 E7.00391
G1 X80.302 Y132.273 E7.02702
G1 X80.476 Y129.312 E7.13554
G1 X80.548 Y126.759 E7.22898
G1 X80.548 Y124.277 E7.31978
G1 X80.476 Y121.724 E7.41323
G1 X80.335 Y119.233 E7.50451
G1 X80.124 Y116.751 E7.59564
G1 X79.836 Y114.222 E7.68877
G1 X79.477 Y111.698 E7.78204
G1 X79.173 Y109.869 E7.84987
G1 X79.058 Y108.934 E7.88434
G1 X79.026 Y108.303 E7.90746
G1 X78.958 Y105.34 E8.01589
G1 X78.834 Y102.84 E8.10747
G1 X78.632 Y100.282 E8.20135
G1 X78.482 Y98.743 E8.25792
G1 X78.43 Y97.665 E8.2974
G1 X78.43 Y97.424 E8.30622
G0 F2100 X78.87 Y97.424
G1 F1200 X78.91 Y96.502 E8.33999
G1 X79.032 Y95.571 E8.37434
G1 X79.089 Y95.248 E8.38634
G1 X79.289 Y94.347 E8.4201
G1 X79.595 Y93.387 E8.45697
G1 X79.708 Y93.083 E8.46883
G1 X80.067 Y92.232 E8.50263
G1 X80.609 Y91.23 E8.5443
G1 X80.778 Y90.954 E8.55615
G1 X81.294 Y90.189 E8.58991
G1 X81.99 Y89.341 E8.63004
G1 X82.216 Y89.093 E8.64232
G1 X82.867 Y88.438 E8.6761
G1 X83.689 Y87.753 E8.71525
G1 X83.955 Y87.553 E8.72743
G1 X84.716 Y87.03 E8.76121
G1 X85.711 Y86.481 E8.80279
G1 X86.006 Y86.338 E8.81478
G1 X86.854 Y85.971 E8.84859
G1 X87.846 Y85.647 E8.88677
G1 X88.157 Y85.562 E8.89856
G1 X89.057 Y85.358 E8.93233
G1 X90.203 Y85.212 E8.97459
G1 X90.963 Y85.167 E9.00245
G1 X92.094 Y85.133 E9.04385
G1 X94.654 Y85.018 E9.1376
G1 X97.183 Y84.835 E9.23037
G1 X99.734 Y84.576 E9.32418
G1 X102.211 Y84.255 E9.41556
G1 X104.701 Y83.86 E9.5078
G1 X107.148 Y83.399 E9.5989
G1 X108.6 Y83.076 E9.65332
G1 X109.022 Y83.001 E9.669
G1 X110.004 Y82.786 E9.70578
G1 X110.914 Y82.628 E9.73957
G1 X111.834 Y82.549 E9.77336
G1 X112.757 Y82.549 E9.80713
G1 X113.59 Y82.619 E9.83771
G1 X114.218 Y82.697 E9.86086
G1 X115.951 Y82.937 E9.92487
G1 X118.523 Y83.218 E10.01953
G1 X119.751 Y83.332 E10.06465
G1 X120.402 Y83.413 E10.08865
G1 X121.308 Y83.593 E10.12245
G1 X122.194 Y83.85 E10.1562
G1 X123.055 Y84.183 E10.18997
G1 X123.884 Y84.59 E10.22376
G1 X124.675 Y85.067 E10.25756
G1 X125.421 Y85.61 E10.29131
G1 X126.118 Y86.216 E10.32511
G1 X126.76 Y86.88 E10.3589
G1 X127.341 Y87.596 E10.39263
G1 X127.674 Y88.072 E10.41389
G1 X128.878 Y89.894 E10.49379
G1 X130.357 Y92.012 E10.5883
G1 X131.848 Y94.024 E10.67992
G1 X133.409 Y96.012 E10.77239
G1 X134.455 Y97.271 E10.83228
G1 X135.17 Y98.166 E10.87419
G1 X135.755 Y98.946 E10.90986
G1 X136.169 Y99.54 E10.93635
G1 X136.74 Y100.42 E10.97473
G1 X137.106 Y101.026 E11.00063
G1 X137.58 Y101.875 E11.03621
G1 X137.915 Y102.526 E11.06299
G1 X138.359 Y103.468 E11.10109
G1 X138.642 Y104.125 E11.12727
G1 X139.013 Y105.072 E11.16448
G1 X139.257 Y105.764 E11.19132
G1 X139.559 Y106.725 E11.22818
G1 X139.751 Y107.417 E11.25445
G1 X139.991 Y108.41 E11.29183
G1 X140.13 Y109.079 E11.31683
G1 X140.293 Y110.012 E11.35148
G1 X140.395 Y110.746 E11.37859
G1 X140.504 Y111.796 E11.41721
G1 X140.554 Y112.515 E11.44358
G1 X140.59 Y113.52 E11.48037
G1 X140.593 Y114.21 E11.50562
G1 X140.565 Y115.18 E11.54112
G1 X140.518 Y115.909 E11.56785
G1 X140.414 Y116.973 E11.60696
G1 X140.316 Y117.712 E11.63423
G1 X140.147 Y118.712 E11.67134
G1 X140.004 Y119.415 E11.69759
G1 X139.78 Y120.352 E11.73283
G1 X139.595 Y121.027 E11.75844
G1 X139.284 Y122.031 E11.79689
G1 X139.041 Y122.728 E11.8239
G1 X138.683 Y123.652 E11.86015
G1 X138.409 Y124.297 E11.88579
G1 X137.982 Y125.215 E11.92284
G1 X137.655 Y125.858 E11.94923
G1 X137.168 Y126.743 E11.98618
G1 X136.814 Y127.341 E12.01161
G1 X136.387 Y128.01 E12.04065
G1 X135.02 Y130.217 E12.13563
G1 X133.767 Y132.373 E12.22686
G1 X132.553 Y134.606 E12.31985
G1 X131.394 Y136.89 E12.41356
G1 X130.326 Y139.147 E12.50491
G1 X129.32 Y141.443 E12.59662
G1 X128.625 Y143.174 E12.66486
G1 X128.047 Y144.552 E12.71954
G1 X127.654 Y145.387 E12.7533
G1 X127.189 Y146.185 E12.78709
G1 X126.842 Y146.694 E12.80963
G1 X126.688 Y146.906 E12.81922
G1 X126.113 Y147.629 E12.85301
G1 X125.351 Y148.421 E12.89322
G1 X125.098 Y148.658 E12.90591
G1 X124.397 Y149.259 E12.93969
G1 X123.563 Y149.852 E12.97713
G1 X123.12 Y150.136 E12.99638
G1 X122.096 Y150.716 E13.03944
G1 X121.595 Y150.964 E13.05989
G1 X120.497 Y151.432 E13.10356
G1 X119.945 Y151.632 E13.12504
G1 X118.708 Y151.998 E13.17223
G1 X118.17 Y152.122 E13.19243
G1 X116.927 Y152.332 E13.23855
G1 X116.301 Y152.4 E13.26159
G1 X115.347 Y152.46 E13.29656
G1 X113.341 Y152.497 E13.36997
G1 X110.778 Y152.61 E13.46383
G1 X108.266 Y152.794 E13.55598
G1 X105.72 Y153.052 E13.64961
G1 X103.267 Y153.37 E13.7401
G1 X100.74 Y153.772 E13.83372
G1 X98.274 Y154.235 E13.92552
G1 X96.331 Y154.655 E13.99824
G1 X95.934 Y154.734 E14.01305
G1 X95.022 Y154.875 E14.04682
G1 X94.154 Y154.935 E14.07865
G1 X93.534 Y154.948 E14.10134
G1 X91.934 Y154.947 E14.15988
G1 X91.236 Y154.938 E14.18542
G1 X90.314 Y154.886 E14.2192
G1 X89.4 Y154.755 E14.25298
G1 X88.501 Y154.545 E14.28676
G1 X87.623 Y154.258 E14.32055
G1 X86.774 Y153.896 E14.35432
G1 X85.959 Y153.462 E14.3881
G1 X85.185 Y152.959 E14.42188
G1 X84.457 Y152.391 E14.45566
G1 X83.781 Y151.762 E14.48944
G1 X83.162 Y151.077 E14.52322
G1 X82.605 Y150.341 E14.55699
G1 X82.113 Y149.56 E14.59076
G1 X81.691 Y148.739 E14.62453
G1 X81.341 Y147.884 E14.65833
G1 X81.067 Y147.003 E14.69209
G1 X80.87 Y146.101 E14.72587
G1 X80.752 Y145.185 E14.75966
G1 X80.717 Y144.567 E14.7823
G1 X80.704 Y143.946 E14.80503
G1 X80.705 Y133.616 E15.18296
G1 X80.715 Y132.91 E15.2088
G1 X80.741 Y132.305 E15.23095
G1 X80.916 Y129.314 E15.34057
G1 X80.988 Y126.772 E15.43361
G1 X80.988 Y124.264 E15.52536
G1 X80.916 Y121.722 E15.6184
G1 X80.774 Y119.208 E15.71053
G1 X80.558 Y116.667 E15.80383
G1 X80.277 Y114.196 E15.89482
G1 X79.915 Y111.65 E15.9889
G1 X79.607 Y109.797 E16.05762
G1 X79.495 Y108.881 E16.09139
G1 X79.466 Y108.293 E16.11293
G1 X79.399 Y105.344 E16.22085
G1 X79.271 Y102.785 E16.31459
G1 X79.072 Y100.259 E16.40729
G1 X78.92 Y98.701 E16.46456
G1 X78.87 Y97.665 E16.50251
G1 X78.87 Y97.424 E16.51133
G0 F2100 X79.31 Y97.424
G1 F1200 X79.35 Y96.521 E16.5444
G1 X79.466 Y95.648 E16.57662
G1 X79.523 Y95.325 E16.58862
G1 X79.719 Y94.442 E16.62171
G1 X80.007 Y93.54 E16.65635
G1 X80.12 Y93.236 E16.66822
G1 X80.473 Y92.404 E16.70128
G1 X80.984 Y91.46 E16.74056
G1 X81.153 Y91.184 E16.7524
G1 X81.659 Y90.435 E16.78547
G1 X82.315 Y89.637 E16.82326
G1 X82.541 Y89.389 E16.83554
G1 X83.179 Y88.749 E16.8686
G1 X83.953 Y88.104 E16.90546
G1 X84.219 Y87.904 E16.91764
G1 X84.965 Y87.394 E16.9507
G1 X85.903 Y86.877 E16.98988
G1 X86.198 Y86.734 E17.00188
G1 X87.028 Y86.376 E17.03495
G1 X87.962 Y86.072 E17.07088
G1 X88.273 Y85.987 E17.08268
G1 X89.154 Y85.787 E17.11573
G1 X90.234 Y85.651 E17.15556
G1 X90.976 Y85.607 E17.18275
G1 X92.059 Y85.574 E17.22239
G1 X94.705 Y85.456 E17.3193
G1 X97.226 Y85.273 E17.41177
G1 X99.759 Y85.016 E17.50492
G1 X102.269 Y84.691 E17.59752
G1 X104.779 Y84.292 E17.6905
G1 X107.268 Y83.824 E17.78316
G1 X108.696 Y83.506 E17.83669
G1 X109.117 Y83.431 E17.85233
G1 X110.099 Y83.216 E17.88911
G1 X110.989 Y83.062 E17.92216
G1 X111.89 Y82.987 E17.95523
G1 X112.794 Y82.992 E17.98831
G1 X113.536 Y83.056 E18.01556
G1 X114.157 Y83.133 E18.03845
G1 X115.91 Y83.375 E18.10319
G1 X118.49 Y83.658 E18.19815
G1 X119.711 Y83.771 E18.24301
G1 X120.335 Y83.848 E18.26602
G1 X121.222 Y84.025 E18.29911
G1 X122.089 Y84.279 E18.33216
G1 X122.931 Y84.609 E18.36525
G1 X123.74 Y85.013 E18.39833
G1 X124.51 Y85.486 E18.4314
G1 X125.235 Y86.025 E18.46445
G1 X125.91 Y86.626 E18.49751
G1 X126.53 Y87.285 E18.53062
G1 X127.307 Y88.314 E18.57779
G1 X128.528 Y90.162 E18.65883
G1 X129.986 Y92.25 E18.752
G1 X131.509 Y94.306 E18.84561
G1 X133.071 Y96.294 E18.93811
G1 X134.113 Y97.548 E18.99776
G1 X134.818 Y98.43 E19.03907
G1 X135.403 Y99.21 E19.07474
G1 X135.8 Y99.779 E19.10013
G1 X136.371 Y100.659 E19.13851
G1 X136.721 Y101.24 E19.16332
G1 X137.195 Y102.089 E19.1989
G1 X137.517 Y102.714 E19.22462
G1 X137.961 Y103.656 E19.26272
G1 X138.232 Y104.285 E19.28778
G1 X138.603 Y105.232 E19.32499
G1 X138.837 Y105.896 E19.35075
G1 X139.139 Y106.857 E19.3876
G1 X139.323 Y107.52 E19.41277
G1 X139.563 Y108.513 E19.45015
G1 X139.697 Y109.155 E19.47414
G1 X139.86 Y110.088 E19.5088
G1 X139.957 Y110.792 E19.5348
G1 X140.066 Y111.842 E19.57342
G1 X140.114 Y112.531 E19.59869
G1 X140.15 Y113.536 E19.63548
G1 X140.153 Y114.197 E19.65966
G1 X140.125 Y115.167 E19.69517
G1 X140.081 Y115.866 E19.72079
G1 X139.977 Y116.93 E19.7599
G1 X139.882 Y117.639 E19.78608
G1 X139.713 Y118.639 E19.82318
G1 X139.576 Y119.312 E19.84831
G1 X139.352 Y120.249 E19.88356
G1 X139.174 Y120.897 E19.90814
G1 X138.863 Y121.901 E19.9466
G1 X138.631 Y122.569 E19.97247
G1 X138.273 Y123.493 E20.00872
G1 X138.01 Y124.111 E20.03329
G1 X137.583 Y125.029 E20.07034
G1 X137.27 Y125.646 E20.09565
G1 X136.783 Y126.531 E20.13261
G1 X136.443 Y127.104 E20.15698
G1 X136.019 Y127.768 E20.18581
G1 X134.652 Y129.974 E20.28075
G1 X133.375 Y132.173 E20.37379
G1 X132.159 Y134.407 E20.46685
G1 X131.019 Y136.656 E20.5591
G1 X129.919 Y138.98 E20.65317
G1 X128.915 Y141.272 E20.74471
G1 X128.22 Y143.004 E20.81299
G1 X127.642 Y144.382 E20.86766
G1 X127.255 Y145.199 E20.90074
G1 X126.798 Y145.979 E20.93381
G1 X126.332 Y146.647 E20.96361
G1 X125.769 Y147.355 E20.99671
G1 X125.05 Y148.1 E21.03459
G1 X124.797 Y148.337 E21.04727
G1 X124.111 Y148.925 E21.08032
G1 X123.326 Y149.482 E21.11554
G1 X122.883 Y149.766 E21.13479
G1 X121.901 Y150.321 E21.17606
G1 X121.4 Y150.569 E21.19651
G1 X120.347 Y151.019 E21.23841
G1 X119.795 Y151.219 E21.25989
G1 X118.609 Y151.569 E21.30513
G1 X118.071 Y151.693 E21.32533
G1 X116.88 Y151.894 E21.36952
G1 X116.254 Y151.962 E21.39256
G1 X115.339 Y152.02 E21.4261
G1 X113.314 Y152.057 E21.5002
G1 X110.761 Y152.17 E21.5937
G1 X108.223 Y152.356 E21.6868
G1 X105.695 Y152.612 E21.77976
G1 X103.175 Y152.939 E21.87273
G1 X100.691 Y153.334 E21.96476
G1 X98.172 Y153.807 E22.05853
G1 X96.246 Y154.223 E22.13062
G1 X95.849 Y154.302 E22.14543
G1 X94.955 Y154.44 E22.17852
G1 X94.141 Y154.495 E22.20837
G1 X93.534 Y154.508 E22.23058
G1 X91.939 Y154.507 E22.28894
G1 X91.241 Y154.498 E22.31448
G1 X90.339 Y154.447 E22.34753
G1 X89.444 Y154.315 E22.38063
G1 X88.565 Y154.106 E22.41369
G1 X87.708 Y153.819 E22.44675
G1 X86.879 Y153.458 E22.47983
G1 X86.085 Y153.025 E22.51292
G1 X85.333 Y152.523 E22.546
G1 X84.628 Y151.957 E22.57908
G1 X83.976 Y151.331 E22.61215
G1 X83.382 Y150.65 E22.64521
G1 X82.85 Y149.919 E22.67829
G1 X82.385 Y149.144 E22.71135
G1 X81.99 Y148.331 E22.74442
G1 X81.669 Y147.486 E22.77749
G1 X81.424 Y146.616 E22.81056
G1 X81.256 Y145.727 E22.84366
G1 X81.157 Y144.555 E22.88669
G1 X81.144 Y143.946 E22.90898
G1 X81.145 Y133.622 E23.28669
G1 X81.155 Y132.916 E23.31253
G1 X81.18 Y132.336 E23.33377
G1 X81.356 Y129.317 E23.44441
G1 X81.428 Y126.784 E23.53712
G1 X81.428 Y124.252 E23.62975
G1 X81.356 Y121.719 E23.72246
G1 X81.21 Y119.144 E23.81682
G1 X80.999 Y116.651 E23.90836
G1 X80.711 Y114.121 E24.00152
G1 X80.353 Y111.602 E24.09461
G1 X80.041 Y109.725 E24.16422
G1 X79.933 Y108.828 E24.19728
G1 X79.906 Y108.283 E24.21724
G1 X79.838 Y105.312 E24.32597
G1 X79.711 Y102.762 E24.41938
G1 X79.512 Y100.236 E24.51208
G1 X79.358 Y98.658 E24.57009
G1 X79.31 Y97.665 E24.60646
G1 X79.31 Y97.424 E24.61528
G1 F2700 E19.61528
;MESH:clip1.stl
G0 F2100 X91.74 Y132.379
G0 X91.788 Y133.466
