;FLAVOR:Marlin
;TIME:722
;Filament used: 0.523502m
;Layer height: 0.2
;MINX:93.951
;MINY:82.101
;MINZ:0.2
;MAXX:141.032
;MAXY:152.897
;MAXZ:5.6
;Generated with Cura_SteamEngine 5.0.0
M82 ;absolute extrusion mode
START_PRINT EXTRUDER_TEMP=222 BED_TEMP=60
G92 E0
G92 E0
G1 F2700 E-5
;LAYER_COUNT:28
;LAYER:0
M107
G0 F2100 X97.161 Y88.96 Z0.2
G0 X93.951 Y98.409
;TYPE:SKIRT
G1 F2700 E0
G1 F1200 X93.952 Y97.274 E0.04153
G1 X93.962 Y96.594 E0.06641
G1 X94.016 Y95.653 E0.10089
G1 X94.149 Y94.721 E0.13533
G1 X94.361 Y93.803 E0.1698
G1 X94.65 Y92.906 E0.20428
G1 X95.015 Y92.037 E0.23877
G1 X95.451 Y91.202 E0.27323
G1 X95.957 Y90.407 E0.30771
G1 X96.528 Y89.658 E0.34217
G1 X97.161 Y88.96 E0.37664
G1 X97.85 Y88.318 E0.4111
G1 X98.592 Y87.737 E0.44557
G1 X99.38 Y87.221 E0.48004
G1 X99.973 Y86.892 E0.50485
G1 X101.088 Y86.319 E0.55071
G1 X106.898 Y83.469 E0.78747
G1 X107.543 Y83.164 E0.81358
G1 X108.411 Y82.798 E0.84804
G1 X109.307 Y82.507 E0.88251
G1 X110.224 Y82.293 E0.91696
G1 X111.157 Y82.157 E0.95146
G1 X112.097 Y82.101 E0.98591
G1 X113.039 Y82.124 E1.02038
G1 X113.647 Y82.183 E1.04273
G1 X114.278 Y82.262 E1.066
G1 X115.987 Y82.498 E1.12912
G1 X118.555 Y82.779 E1.22363
G1 X119.792 Y82.894 E1.26908
G1 X120.766 Y83.028 E1.30505
G1 X121.685 Y83.236 E1.33953
G1 X122.583 Y83.521 E1.37399
G1 X123.453 Y83.881 E1.40844
G1 X124.29 Y84.313 E1.4429
G1 X125.087 Y84.815 E1.47736
G1 X125.839 Y85.383 E1.51184
G1 X126.54 Y86.012 E1.5463
G1 X127.185 Y86.699 E1.58078
G1 X127.964 Y87.715 E1.62762
G1 X128.316 Y88.236 E1.65062
G1 X129.269 Y89.686 E1.7141
G1 X130.694 Y91.727 E1.80518
G1 X132.204 Y93.766 E1.898
G1 X133.764 Y95.751 E1.99037
G1 X134.797 Y96.994 E2.0495
G1 X135.522 Y97.902 E2.09201
G1 X136.107 Y98.682 E2.12768
G1 X136.539 Y99.3 E2.15527
G1 X137.11 Y100.18 E2.19365
G1 X137.49 Y100.811 E2.2206
G1 X137.964 Y101.66 E2.25617
G1 X138.313 Y102.338 E2.28407
G1 X138.757 Y103.28 E2.32217
G1 X139.051 Y103.964 E2.34941
G1 X139.422 Y104.911 E2.38662
G1 X139.676 Y105.632 E2.41459
G1 X139.978 Y106.593 E2.45144
G1 X140.178 Y107.313 E2.47878
G1 X140.418 Y108.306 E2.51616
G1 X140.563 Y109.004 E2.54224
G1 X140.726 Y109.937 E2.57689
G1 X140.833 Y110.701 E2.60512
G1 X140.942 Y111.751 E2.64374
G1 X140.994 Y112.5 E2.67121
G1 X141.03 Y113.505 E2.708
G1 X141.032 Y114.222 E2.73424
G1 X141.004 Y115.192 E2.76974
G1 X140.956 Y115.952 E2.7976
G1 X140.852 Y117.016 E2.83671
G1 X140.75 Y117.786 E2.86513
G1 X140.581 Y118.786 E2.90223
G1 X140.433 Y119.513 E2.92938
G1 X140.211 Y120.443 E2.96436
G1 X140.017 Y121.149 E2.99115
G1 X139.704 Y122.16 E3.02987
G1 X139.451 Y122.887 E3.05803
G1 X139.093 Y123.811 E3.09428
G1 X138.808 Y124.482 E3.12096
G1 X138.381 Y125.4 E3.158
G1 X138.041 Y126.07 E3.18549
G1 X137.554 Y126.955 E3.22244
G1 X137.184 Y127.578 E3.24895
G1 X136.787 Y128.2 E3.27595
G1 X135.404 Y130.433 E3.37205
G1 X134.133 Y132.62 E3.46459
G1 X132.946 Y134.802 E3.55547
G1 X131.798 Y137.065 E3.64831
G1 X130.727 Y139.329 E3.73994
G1 X129.733 Y141.599 E3.83061
G1 X129.031 Y143.344 E3.89942
G1 X128.453 Y144.722 E3.95409
G1 X128.052 Y145.575 E3.98858
G1 X127.58 Y146.391 E4.02307
G1 X127.198 Y146.953 E4.04793
G1 X127.044 Y147.165 E4.05751
G1 X126.458 Y147.903 E4.09199
G1 X125.652 Y148.742 E4.13456
G1 X125.399 Y148.979 E4.14724
G1 X124.684 Y149.593 E4.18172
G1 X123.801 Y150.223 E4.22141
G1 X123.358 Y150.507 E4.24066
G1 X122.299 Y151.106 E4.28517
G1 X121.801 Y151.353 E4.30551
G1 X120.649 Y151.846 E4.35135
G1 X120.094 Y152.047 E4.37295
G1 X118.807 Y152.426 E4.42203
G1 X118.269 Y152.55 E4.44223
G1 X117.002 Y152.766 E4.48926
G1 X116.435 Y152.829 E4.51013
G1 X115.151 Y152.897 E4.55717
G1 X114.58 Y152.894 E4.57806
G1 X113.266 Y152.809 E4.62624
G1 X112.696 Y152.738 E4.64725
G1 X111.407 Y152.499 E4.69522
G1 X110.844 Y152.36 E4.71643
G1 X109.601 Y151.975 E4.76404
G1 X109.082 Y151.78 E4.78432
G1 X107.901 Y151.256 E4.8316
G1 X107.379 Y150.987 E4.85308
G1 X106.256 Y150.322 E4.90083
G1 X105.798 Y150.013 E4.92104
G1 X104.77 Y149.228 E4.96837
G1 X104.314 Y148.836 E4.99037
G1 X103.354 Y147.904 E5.03932
G1 X102.996 Y147.512 E5.05874
G1 X102.206 Y146.543 E5.10448
G1 X101.85 Y146.052 E5.12667
G1 X101.139 Y144.937 E5.17505
G1 X100.875 Y144.463 E5.1949
G1 X100.317 Y143.31 E5.24177
G1 X100.102 Y142.791 E5.26232
G1 X99.665 Y141.526 E5.31128
G1 X99.499 Y140.931 E5.33388
G1 X99.225 Y139.665 E5.38127
G1 X99.145 Y139.154 E5.4002
G1 X99.019 Y137.871 E5.44736
G1 X98.994 Y137.232 E5.47076
G1 X98.995 Y136.349 E5.50307
G1 X99.022 Y135.712 E5.52639
G1 X99.098 Y134.342 E5.57659
G1 X99.168 Y131.818 E5.66897
G1 X99.166 Y129.298 E5.76117
G1 X99.094 Y126.818 E5.85194
G1 X98.948 Y124.271 E5.94528
G1 X98.736 Y121.797 E6.03612
G1 X98.446 Y119.267 E6.12929
G1 X98.094 Y116.805 E6.22028
G1 X97.667 Y114.323 E6.31242
G1 X97.167 Y111.847 E6.40484
G1 X96.612 Y109.436 E6.49536
G1 X95.966 Y106.964 E6.58883
G1 X95.248 Y104.502 E6.68266
G1 X94.491 Y102.119 E6.77414
G1 X94.241 Y101.211 E6.8086
G1 X94.07 Y100.285 E6.84305
G1 X93.964 Y99.041 E6.88873
G1 X93.951 Y98.409 E6.91185
G0 F2100 X94.391 Y98.409
G1 F1200 X94.392 Y97.28 E6.95316
G1 X94.402 Y96.6 E6.97804
G1 X94.456 Y95.679 E7.01179
G1 X94.589 Y94.765 E7.04559
G1 X94.8 Y93.866 E7.07937
G1 X95.089 Y92.989 E7.11315
G1 X95.452 Y92.141 E7.1469
G1 X95.888 Y91.326 E7.18072
G1 X96.392 Y90.553 E7.21448
G1 X96.962 Y89.826 E7.24828
G1 X97.592 Y89.151 E7.28206
G1 X98.278 Y88.534 E7.31582
G1 X99.015 Y87.978 E7.34959
G1 X100.174 Y87.283 E7.39904
G1 X101.282 Y86.714 E7.44461
G1 X107.086 Y83.867 E7.68112
G1 X107.731 Y83.562 E7.70723
G1 X108.582 Y83.204 E7.741
G1 X109.461 Y82.921 E7.77479
G1 X110.361 Y82.715 E7.80857
G1 X111.275 Y82.587 E7.84233
G1 X112.197 Y82.539 E7.87611
G1 X113.12 Y82.572 E7.9099
G1 X113.594 Y82.619 E7.92733
G1 X114.218 Y82.697 E7.95034
G1 X115.951 Y82.937 E8.01435
G1 X118.522 Y83.218 E8.10897
G1 X119.752 Y83.332 E8.15416
G1 X120.687 Y83.461 E8.18869
G1 X121.587 Y83.665 E8.22246
G1 X122.467 Y83.947 E8.25627
G1 X123.318 Y84.303 E8.29002
G1 X124.136 Y84.732 E8.32381
G1 X124.913 Y85.23 E8.35757
G1 X125.645 Y85.794 E8.39138
G1 X126.325 Y86.418 E8.42515
G1 X126.948 Y87.099 E8.45892
G1 X127.6 Y87.962 E8.49849
G1 X127.949 Y88.478 E8.52128
G1 X128.902 Y89.928 E8.58476
G1 X130.357 Y92.012 E8.67775
G1 X131.848 Y94.024 E8.76937
G1 X133.409 Y96.012 E8.86185
G1 X134.455 Y97.271 E8.92173
G1 X135.17 Y98.166 E8.96364
G1 X135.755 Y98.946 E8.99932
G1 X136.169 Y99.54 E9.02581
G1 X136.74 Y100.42 E9.06418
G1 X137.106 Y101.026 E9.09009
G1 X137.58 Y101.875 E9.12566
G1 X137.915 Y102.526 E9.15245
G1 X138.359 Y103.468 E9.19055
G1 X138.642 Y104.125 E9.21672
G1 X139.013 Y105.072 E9.25393
G1 X139.257 Y105.764 E9.28078
G1 X139.559 Y106.725 E9.31763
G1 X139.751 Y107.417 E9.3439
G1 X139.991 Y108.41 E9.38128
G1 X140.13 Y109.079 E9.40628
G1 X140.293 Y110.012 E9.44093
G1 X140.395 Y110.746 E9.46804
G1 X140.504 Y111.796 E9.50667
G1 X140.554 Y112.515 E9.53303
G1 X140.59 Y113.52 E9.56983
G1 X140.593 Y114.21 E9.59507
G1 X140.565 Y115.18 E9.63058
G1 X140.518 Y115.909 E9.6573
G1 X140.414 Y116.973 E9.69642
G1 X140.316 Y117.712 E9.72369
G1 X140.147 Y118.712 E9.76079
G1 X140.005 Y119.411 E9.78689
G1 X139.783 Y120.341 E9.82187
G1 X139.597 Y121.019 E9.84759
G1 X139.284 Y122.03 E9.88631
G1 X139.041 Y122.728 E9.91335
G1 X138.683 Y123.652 E9.94961
G1 X138.409 Y124.297 E9.97525
G1 X137.982 Y125.215 E10.01229
G1 X137.655 Y125.858 E10.03868
G1 X137.168 Y126.743 E10.07564
G1 X136.814 Y127.341 E10.10106
G1 X136.387 Y128.01 E10.1301
G1 X135.02 Y130.217 E10.22508
G1 X133.767 Y132.373 E10.31631
G1 X132.553 Y134.606 E10.4093
G1 X131.394 Y136.89 E10.50301
G1 X130.326 Y139.147 E10.59436
G1 X129.32 Y141.443 E10.68607
G1 X128.625 Y143.174 E10.75432
G1 X128.047 Y144.552 E10.80899
G1 X127.654 Y145.387 E10.84275
G1 X127.189 Y146.185 E10.87654
G1 X126.842 Y146.694 E10.89908
G1 X126.688 Y146.906 E10.90867
G1 X126.113 Y147.629 E10.94247
G1 X125.351 Y148.421 E10.98268
G1 X125.098 Y148.658 E10.99536
G1 X124.397 Y149.259 E11.02914
G1 X123.563 Y149.852 E11.06658
G1 X123.12 Y150.136 E11.08583
G1 X122.104 Y150.712 E11.12856
G1 X121.606 Y150.959 E11.1489
G1 X120.499 Y151.432 E11.19294
G1 X119.944 Y151.633 E11.21454
G1 X118.708 Y151.998 E11.26169
G1 X118.17 Y152.122 E11.28189
G1 X116.953 Y152.329 E11.32706
G1 X116.386 Y152.392 E11.34793
G1 X115.153 Y152.457 E11.3931
G1 X114.582 Y152.454 E11.41399
G1 X113.32 Y152.372 E11.46026
G1 X112.75 Y152.301 E11.48128
G1 X111.513 Y152.072 E11.5273
G1 X110.95 Y151.933 E11.54852
G1 X109.756 Y151.563 E11.59425
G1 X109.237 Y151.368 E11.61454
G1 X108.103 Y150.865 E11.65992
G1 X107.581 Y150.596 E11.68141
G1 X106.502 Y149.957 E11.72729
G1 X106.044 Y149.648 E11.7475
G1 X105.057 Y148.895 E11.79292
G1 X104.601 Y148.503 E11.81492
G1 X103.679 Y147.608 E11.86193
G1 X103.321 Y147.216 E11.88135
G1 X102.562 Y146.284 E11.92533
G1 X102.206 Y145.793 E11.94752
G1 X101.523 Y144.723 E11.99396
G1 X101.259 Y144.249 E12.01381
G1 X100.724 Y143.142 E12.05879
G1 X100.509 Y142.623 E12.07935
G1 X100.089 Y141.408 E12.12638
G1 X99.923 Y140.813 E12.14898
G1 X99.659 Y139.597 E12.19451
G1 X99.579 Y139.086 E12.21343
G1 X99.459 Y137.854 E12.25872
G1 X99.434 Y137.215 E12.28211
G1 X99.435 Y136.366 E12.31317
G1 X99.461 Y135.737 E12.33621
G1 X99.539 Y134.345 E12.38721
G1 X99.608 Y131.83 E12.47926
G1 X99.606 Y129.32 E12.57109
G1 X99.531 Y126.743 E12.66542
G1 X99.39 Y124.277 E12.75579
G1 X99.172 Y121.746 E12.84873
G1 X98.884 Y119.227 E12.94149
G1 X98.524 Y116.707 E13.03462
G1 X98.103 Y114.262 E13.12539
G1 X97.595 Y111.742 E13.21944
G1 X97.036 Y109.317 E13.31049
G1 X96.391 Y106.845 E13.40396
G1 X95.686 Y104.43 E13.496
G1 X94.91 Y101.985 E13.58985
G1 X94.666 Y101.094 E13.62365
G1 X94.5 Y100.186 E13.65742
G1 X94.404 Y99.029 E13.6999
G1 X94.391 Y98.409 E13.72259
G0 F2100 X94.831 Y98.409
G1 F1200 X94.832 Y97.287 E13.76364
G1 X94.842 Y96.607 E13.78852
G1 X94.895 Y95.704 E13.82161
G1 X95.028 Y94.81 E13.85468
G1 X95.239 Y93.931 E13.88775
G1 X95.528 Y93.074 E13.92084
G1 X95.89 Y92.246 E13.9539
G1 X96.325 Y91.454 E13.98696
G1 X96.828 Y90.702 E14.02006
G1 X97.395 Y89.998 E14.05314
G1 X98.022 Y89.347 E14.0862
G1 X98.704 Y88.754 E14.11927
G1 X99.436 Y88.224 E14.15233
G1 X100.376 Y87.674 E14.19218
G1 X101.476 Y87.109 E14.23742
G1 X107.274 Y84.265 E14.47369
G1 X107.919 Y83.96 E14.4998
G1 X108.753 Y83.61 E14.53289
G1 X109.614 Y83.335 E14.56596
G1 X110.496 Y83.137 E14.59903
G1 X111.392 Y83.018 E14.6321
G1 X112.295 Y82.979 E14.66516
G1 X113.54 Y83.056 E14.7108
G1 X114.157 Y83.133 E14.73355
G1 X115.91 Y83.375 E14.79829
G1 X118.495 Y83.658 E14.89343
G1 X119.711 Y83.771 E14.93811
G1 X120.608 Y83.894 E14.97124
G1 X121.49 Y84.095 E15.00434
G1 X122.35 Y84.373 E15.0374
G1 X123.182 Y84.726 E15.07047
G1 X123.98 Y85.151 E15.10355
G1 X124.737 Y85.645 E15.13662
G1 X125.448 Y86.204 E15.16971
G1 X126.106 Y86.823 E15.20276
G1 X126.707 Y87.498 E15.23583
G1 X127.236 Y88.209 E15.26825
G1 X127.581 Y88.719 E15.29078
G1 X128.545 Y90.185 E15.35497
G1 X129.983 Y92.246 E15.44691
G1 X131.509 Y94.306 E15.54071
G1 X133.071 Y96.294 E15.6332
G1 X134.113 Y97.548 E15.69286
G1 X134.818 Y98.43 E15.73417
G1 X135.403 Y99.21 E15.76984
G1 X135.8 Y99.779 E15.79522
G1 X136.371 Y100.659 E15.8336
G1 X136.721 Y101.24 E15.85842
G1 X137.195 Y102.089 E15.89399
G1 X137.517 Y102.714 E15.91971
G1 X137.961 Y103.656 E15.95781
G1 X138.232 Y104.285 E15.98287
G1 X138.603 Y105.232 E16.02008
G1 X138.837 Y105.896 E16.04584
G1 X139.139 Y106.857 E16.0827
G1 X139.323 Y107.52 E16.10787
G1 X139.563 Y108.513 E16.14525
G1 X139.697 Y109.155 E16.16924
G1 X139.86 Y110.088 E16.20389
G1 X139.957 Y110.792 E16.22989
G1 X140.066 Y111.842 E16.26851
G1 X140.114 Y112.531 E16.29378
G1 X140.15 Y113.536 E16.33057
G1 X140.153 Y114.197 E16.35476
G1 X140.125 Y115.167 E16.39026
G1 X140.081 Y115.866 E16.41589
G1 X139.977 Y116.93 E16.455
G1 X139.882 Y117.639 E16.48117
G1 X139.713 Y118.639 E16.51828
G1 X139.577 Y119.309 E16.54329
G1 X139.355 Y120.239 E16.57827
G1 X139.177 Y120.889 E16.60293
G1 X138.864 Y121.9 E16.64165
G1 X138.631 Y122.569 E16.66756
G1 X138.273 Y123.493 E16.70382
G1 X138.01 Y124.111 E16.72839
G1 X137.583 Y125.029 E16.76543
G1 X137.27 Y125.646 E16.79075
G1 X136.783 Y126.531 E16.8277
G1 X136.443 Y127.104 E16.85208
G1 X136.019 Y127.768 E16.8809
G1 X134.652 Y129.974 E16.97585
G1 X133.375 Y132.173 E17.06889
G1 X132.159 Y134.407 E17.16194
G1 X131.019 Y136.656 E17.25419
G1 X129.919 Y138.98 E17.34826
G1 X128.915 Y141.272 E17.43981
G1 X128.22 Y143.004 E17.50809
G1 X127.642 Y144.382 E17.56276
G1 X127.255 Y145.199 E17.59583
G1 X126.798 Y145.979 E17.62891
G1 X126.332 Y146.647 E17.65871
G1 X125.769 Y147.355 E17.6918
G1 X125.05 Y148.1 E17.72968
G1 X124.797 Y148.337 E17.74237
G1 X124.111 Y148.925 E17.77542
G1 X123.326 Y149.482 E17.81064
G1 X122.883 Y149.766 E17.82989
G1 X121.908 Y150.318 E17.87088
G1 X121.41 Y150.565 E17.89122
G1 X120.349 Y151.018 E17.93343
G1 X119.794 Y151.219 E17.95502
G1 X118.609 Y151.569 E18.00023
G1 X118.071 Y151.693 E18.02043
G1 X116.905 Y151.891 E18.0637
G1 X116.338 Y151.954 E18.08457
G1 X115.155 Y152.017 E18.12791
G1 X114.584 Y152.014 E18.1488
G1 X113.375 Y151.936 E18.19313
G1 X112.805 Y151.865 E18.21414
G1 X111.618 Y151.645 E18.25831
G1 X111.055 Y151.506 E18.27953
G1 X109.91 Y151.151 E18.32339
G1 X109.391 Y150.956 E18.34367
G1 X108.304 Y150.474 E18.38717
G1 X107.782 Y150.205 E18.40866
G1 X106.748 Y149.592 E18.45264
G1 X106.29 Y149.283 E18.47285
G1 X105.344 Y148.561 E18.51639
G1 X104.888 Y148.169 E18.53839
G1 X104.004 Y147.311 E18.58346
G1 X103.646 Y146.919 E18.60288
G1 X102.918 Y146.026 E18.64504
G1 X102.562 Y145.535 E18.66723
G1 X101.907 Y144.509 E18.71176
G1 X101.643 Y144.035 E18.73161
G1 X101.13 Y142.973 E18.77476
G1 X100.915 Y142.454 E18.79531
G1 X100.513 Y141.289 E18.8404
G1 X100.347 Y140.694 E18.863
G1 X100.094 Y139.529 E18.90662
G1 X100.014 Y139.018 E18.92554
G1 X99.899 Y137.837 E18.96895
G1 X99.874 Y137.198 E18.99235
G1 X99.874 Y136.384 E19.02213
G1 X99.901 Y135.761 E19.04495
G1 X99.978 Y134.38 E19.09555
G1 X100.048 Y131.842 E19.18844
G1 X100.046 Y129.307 E19.28119
G1 X99.972 Y126.743 E19.37503
G1 X99.829 Y124.248 E19.46647
G1 X99.609 Y121.695 E19.56022
G1 X99.318 Y119.151 E19.6539
G1 X98.963 Y116.671 E19.74556
G1 X98.527 Y114.139 E19.83956
G1 X98.028 Y111.663 E19.93197
G1 X97.464 Y109.214 E20.02391
G1 X96.821 Y106.75 E20.11708
G1 X96.098 Y104.271 E20.21155
G1 X95.329 Y101.85 E20.30449
G1 X95.091 Y100.978 E20.33756
G1 X94.931 Y100.089 E20.37061
G1 X94.844 Y99.016 E20.40999
G1 X94.831 Y98.409 E20.43221
G1 F2700 E15.43221
;MESH:clip_2.stl
G0 F2100 X111.331 Y132.747
G0 X112.006 Y133.607
G0 X111.049 Y135.911
G0 X110.923 Y136.988
G0 X111.013 Y137.805
G0 X111.39 Y138.819
G0 X112.008 Y139.689
G0 X112.682 Y140.243
G0 X114.14 Y141.127
G1 F2700 E20.43221
G0 F2100 X114.074 Y141.511
;TYPE:WALL-OUTER
G1 F1200 X114.54 Y141.572 E20.4494
G1 X115.04 Y141.588 E20.4677
G1 X115.368 Y141.569 E20.47972
G1 X115.7 Y141.534 E20.49194
G1 X116.235 Y141.414 E20.512
G1 X116.746 Y141.234 E20.53182
G1 X117.239 Y140.993 E20.5519
G1 X117.693 Y140.701 E20.57164
G1 X117.883 Y140.528 E20.58105
G1 X118.042 Y140.311 E20.59089
G1 X118.145 Y140.079 E20.60017
G1 X118.199 Y139.821 E20.60982
G1 X118.198 Y139.562 E20.61929
G1 X118.143 Y139.307 E20.62884
G1 X118.036 Y139.072 E20.63829
G1 X117.882 Y138.86 E20.64787
G1 X117.694 Y138.691 E20.65712
G1 X117.471 Y138.562 E20.66655
G1 X117.222 Y138.48 E20.67614
G1 X116.961 Y138.454 E20.68573
G1 X116.7 Y138.482 E20.69534
G1 X116.461 Y138.56 E20.70454
G1 X115.89 Y138.896 E20.72877
G1 X115.516 Y139.034 E20.74336
G1 X115.127 Y139.101 E20.7578
G1 X114.727 Y139.097 E20.77244
G1 X114.328 Y139.018 E20.78732
G1 X114.026 Y138.897 E20.79922
G1 X113.622 Y138.655 E20.81645
G1 X113.426 Y138.471 E20.82629
G1 X113.085 Y138.048 E20.84616
G1 X112.912 Y137.681 E20.86101
G1 X112.82 Y137.334 E20.87414
G1 X112.782 Y136.894 E20.8903
G1 X112.814 Y136.6 E20.90112
G1 X112.949 Y136.102 E20.92
G1 X113.136 Y135.75 E20.93458
G1 X113.376 Y135.448 E20.94869
G1 X113.696 Y135.17 E20.9642
G1 X113.969 Y135.009 E20.9758
G1 X114.422 Y134.834 E20.99356
G1 X114.823 Y134.773 E21.0084
G1 X115.306 Y134.771 E21.02608
G1 X116.763 Y134.77 E21.07938
G1 X116.923 Y134.103 E21.10448
G1 X117.19 Y133.251 E21.13714
