;FLAVOR:Marlin
;TIME:1045
;Filament used: 0.695574m
;Layer height: 0.2
;MINX:78.43
;MINY:84.722
;MINZ:0.2
;MAXX:117.347
;MAXY:155.388
;MAXZ:10
;Generated with Cura_SteamEngine 5.0.0
M82 ;absolute extrusion mode
START_PRINT EXTRUDER_TEMP=222 BED_TEMP=60
G92 E0
G92 E0
G1 F2700 E-5
;LAYER_COUNT:50
;LAYER:0
M107
G0 F2100 X82.554 Y88.128 Z0.2
G0 X78.43 Y97.424
;TYPE:SKIRT
G1 F2700 E0
G1 F1200 X78.47 Y96.483 E0.03446
G1 X78.599 Y95.495 E0.07091
G1 X78.656 Y95.172 E0.08291
G1 X78.859 Y94.252 E0.11738
G1 X79.183 Y93.234 E0.15647
G1 X79.296 Y92.93 E0.16833
G1 X79.661 Y92.061 E0.20282
G1 X80.234 Y91.001 E0.2469
G1 X80.403 Y90.725 E0.25874
G1 X80.928 Y89.943 E0.2932
G1 X81.665 Y89.044 E0.33573
G1 X81.891 Y88.796 E0.34801
G1 X82.554 Y88.128 E0.38244
G1 X83.424 Y87.401 E0.42392
G1 X83.69 Y87.201 E0.4361
G1 X84.467 Y86.667 E0.47059
G1 X85.519 Y86.085 E0.51458
G1 X85.814 Y85.942 E0.52657
G1 X86.679 Y85.567 E0.56107
G1 X87.73 Y85.223 E0.60152
G1 X88.041 Y85.138 E0.61332
G1 X88.959 Y84.928 E0.64777
G1 X90.162 Y84.774 E0.69215
G1 X90.492 Y84.75 E0.70425
G1 X91.434 Y84.722 E0.73873
G1 X92.519 Y84.788 E0.7785
G1 X92.835 Y84.823 E0.79013
G1 X93.766 Y84.967 E0.8246
G1 X94.882 Y85.248 E0.8667
G1 X95.213 Y85.35 E0.87938
G1 X96.101 Y85.666 E0.91386
G1 X97.231 Y86.198 E0.95955
G1 X97.519 Y86.354 E0.97154
G1 X98.327 Y86.837 E1.00598
G1 X99.27 Y87.53 E1.04879
G1 X99.531 Y87.744 E1.06114
G1 X100.233 Y88.372 E1.0956
G1 X101.023 Y89.225 E1.13814
G1 X101.222 Y89.464 E1.14952
G1 X101.794 Y90.213 E1.184
G1 X102.224 Y90.879 E1.213
G1 X103.429 Y92.898 E1.29902
G1 X104.757 Y95.008 E1.39024
G1 X106.166 Y97.115 E1.48297
G1 X107.634 Y99.18 E1.57567
G1 X109.131 Y101.163 E1.66657
G1 X110.536 Y102.926 E1.74905
G1 X111.823 Y104.508 E1.82366
G1 X112.266 Y105.091 E1.85045
G1 X112.81 Y105.858 E1.88486
G1 X113.21 Y106.463 E1.91139
G1 X113.741 Y107.326 E1.94846
G1 X114.105 Y107.964 E1.97534
G1 X114.566 Y108.838 E2.01149
G1 X114.887 Y109.5 E2.0384
G1 X115.267 Y110.353 E2.07257
G1 X115.534 Y111.006 E2.09838
G1 X115.899 Y111.989 E2.13674
G1 X116.132 Y112.687 E2.16367
G1 X116.39 Y113.554 E2.19676
G1 X116.57 Y114.239 E2.22267
G1 X116.797 Y115.229 E2.25983
G1 X116.937 Y115.945 E2.28653
G1 X117.086 Y116.87 E2.3208
G1 X117.179 Y117.6 E2.34773
G1 X117.277 Y118.646 E2.38616
G1 X117.321 Y119.369 E2.41266
G1 X117.347 Y120.294 E2.44652
G1 X117.344 Y121.001 E2.47239
G1 X117.309 Y121.984 E2.50837
G1 X117.259 Y122.708 E2.53493
G1 X117.162 Y123.665 E2.57012
G1 X117.064 Y124.392 E2.59696
G1 X116.893 Y125.406 E2.63458
G1 X116.746 Y126.132 E2.66168
G1 X116.529 Y127.043 E2.69594
G1 X116.346 Y127.717 E2.72149
G1 X116.054 Y128.672 E2.75803
G1 X115.818 Y129.362 E2.78471
G1 X115.479 Y130.256 E2.81969
G1 X115.197 Y130.931 E2.84646
G1 X114.781 Y131.842 E2.8831
G1 X114.457 Y132.494 E2.90973
G1 X113.989 Y133.363 E2.94584
G1 X113.629 Y133.982 E2.97204
G1 X113.121 Y134.795 E3.00712
G1 X112.719 Y135.395 E3.03354
G1 X112.051 Y136.321 E3.07531
G1 X110.458 Y138.467 E3.17309
G1 X109.015 Y140.528 E3.26514
G1 X107.628 Y142.632 E3.35734
G1 X106.312 Y144.761 E3.44891
G1 X105.044 Y146.947 E3.54137
G1 X103.604 Y149.583 E3.65126
G1 X103.119 Y150.391 E3.68574
G1 X102.567 Y151.154 E3.7202
G1 X101.953 Y151.869 E3.75468
G1 X101.28 Y152.528 E3.78914
G1 X100.554 Y153.128 E3.8236
G1 X99.779 Y153.665 E3.85809
G1 X98.962 Y154.133 E3.89254
G1 X98.108 Y154.531 E3.92701
G1 X97.223 Y154.855 E3.96149
G1 X96.314 Y155.103 E3.99596
G1 X95.388 Y155.272 E4.0304
G1 X94.166 Y155.375 E4.07527
G1 X93.534 Y155.388 E4.0984
G1 X91.928 Y155.387 E4.15715
G1 X91.23 Y155.378 E4.18269
G1 X90.289 Y155.326 E4.21717
G1 X89.356 Y155.194 E4.25165
G1 X88.438 Y154.984 E4.2861
G1 X87.541 Y154.696 E4.32057
G1 X86.671 Y154.334 E4.35505
G1 X85.835 Y153.899 E4.38952
G1 X85.04 Y153.395 E4.42396
G1 X84.289 Y152.825 E4.45846
G1 X83.59 Y152.193 E4.49293
G1 X82.947 Y151.505 E4.52739
G1 X82.365 Y150.764 E4.56186
G1 X81.847 Y149.977 E4.59633
G1 X81.398 Y149.149 E4.63079
G1 X81.021 Y148.285 E4.66528
G1 X80.719 Y147.393 E4.69973
G1 X80.493 Y146.479 E4.73418
G1 X80.346 Y145.548 E4.76866
G1 X80.277 Y144.579 E4.80421
G1 X80.264 Y143.946 E4.82737
G1 X80.265 Y133.61 E5.20552
G1 X80.275 Y132.904 E5.23136
G1 X80.302 Y132.273 E5.25446
G1 X80.476 Y129.312 E5.36298
G1 X80.548 Y126.759 E5.45642
G1 X80.548 Y124.277 E5.54723
G1 X80.476 Y121.724 E5.64067
G1 X80.335 Y119.233 E5.73195
G1 X80.124 Y116.751 E5.82309
G1 X79.838 Y114.239 E5.91559
G1 X79.477 Y111.698 E6.00949
G1 X79.173 Y109.869 E6.07732
G1 X79.058 Y108.934 E6.11179
G1 X79.026 Y108.303 E6.1349
G1 X78.958 Y105.34 E6.24333
G1 X78.834 Y102.84 E6.33491
G1 X78.632 Y100.282 E6.42879
G1 X78.482 Y98.743 E6.48536
G1 X78.43 Y97.665 E6.52485
G1 X78.43 Y97.424 E6.53367
G0 F2100 X78.87 Y97.424
G1 F1200 X78.91 Y96.502 E6.56743
G1 X79.032 Y95.571 E6.60178
G1 X79.089 Y95.248 E6.61378
G1 X79.289 Y94.347 E6.64755
G1 X79.595 Y93.387 E6.68441
G1 X79.708 Y93.083 E6.69628
G1 X80.067 Y92.232 E6.73007
G1 X80.609 Y91.23 E6.77175
G1 X80.778 Y90.954 E6.78359
G1 X81.294 Y90.189 E6.81735
G1 X81.99 Y89.341 E6.85749
G1 X82.216 Y89.093 E6.86976
G1 X82.867 Y88.438 E6.90355
G1 X83.689 Y87.753 E6.9427
G1 X83.955 Y87.553 E6.95487
G1 X84.716 Y87.03 E6.98866
G1 X85.711 Y86.481 E7.03023
G1 X86.006 Y86.338 E7.04223
G1 X86.854 Y85.971 E7.07603
G1 X87.846 Y85.647 E7.11421
G1 X88.157 Y85.562 E7.12601
G1 X89.057 Y85.358 E7.15977
G1 X90.194 Y85.213 E7.20171
G1 X90.524 Y85.189 E7.21381
G1 X91.447 Y85.162 E7.2476
G1 X92.471 Y85.226 E7.28513
G1 X92.787 Y85.261 E7.29677
G1 X93.699 Y85.402 E7.33053
G1 X94.752 Y85.669 E7.37027
G1 X95.083 Y85.771 E7.38295
G1 X95.953 Y86.081 E7.41674
G1 X97.021 Y86.585 E7.45994
G1 X97.309 Y86.741 E7.47193
G1 X98.101 Y87.215 E7.50569
G1 X98.991 Y87.871 E7.54615
G1 X99.252 Y88.085 E7.55849
G1 X99.94 Y88.7 E7.59226
G1 X100.685 Y89.507 E7.63244
G1 X100.884 Y89.746 E7.64382
G1 X101.444 Y90.48 E7.67759
G1 X101.846 Y91.105 E7.70478
G1 X103.026 Y93.083 E7.78905
G1 X104.406 Y95.277 E7.88388
G1 X105.802 Y97.363 E7.97571
G1 X107.268 Y99.424 E8.06824
G1 X108.783 Y101.432 E8.16027
G1 X110.261 Y103.286 E8.24702
G1 X111.481 Y104.786 E8.31776
G1 X111.907 Y105.346 E8.3435
G1 X112.451 Y106.113 E8.3779
G1 X112.835 Y106.694 E8.40338
G1 X113.366 Y107.557 E8.44046
G1 X113.716 Y108.17 E8.46628
G1 X114.177 Y109.044 E8.50243
G1 X114.485 Y109.679 E8.52825
G1 X114.865 Y110.532 E8.56242
G1 X115.121 Y111.159 E8.5872
G1 X115.486 Y112.142 E8.62556
G1 X115.71 Y112.813 E8.65144
G1 X115.968 Y113.68 E8.68454
G1 X116.141 Y114.338 E8.70943
G1 X116.368 Y115.328 E8.74659
G1 X116.502 Y116.015 E8.7722
G1 X116.651 Y116.94 E8.80647
G1 X116.741 Y117.641 E8.83233
G1 X116.839 Y118.687 E8.87077
G1 X116.881 Y119.381 E8.89621
G1 X116.907 Y120.306 E8.93006
G1 X116.904 Y120.985 E8.9549
G1 X116.869 Y121.968 E8.99089
G1 X116.822 Y122.664 E9.01641
G1 X116.725 Y123.621 E9.0516
G1 X116.631 Y124.319 E9.07737
G1 X116.46 Y125.333 E9.11499
G1 X116.318 Y126.03 E9.14102
G1 X116.101 Y126.941 E9.17528
G1 X115.925 Y127.588 E9.19981
G1 X115.633 Y128.543 E9.23635
G1 X115.406 Y129.206 E9.26199
G1 X115.067 Y130.1 E9.29697
G1 X114.797 Y130.748 E9.32265
G1 X114.381 Y131.659 E9.35929
G1 X114.069 Y132.286 E9.38492
G1 X113.601 Y133.155 E9.42103
G1 X113.256 Y133.749 E9.44616
G1 X112.748 Y134.562 E9.48123
G1 X112.362 Y135.138 E9.5066
G1 X111.698 Y136.058 E9.54811
G1 X110.105 Y138.204 E9.64589
G1 X108.642 Y140.293 E9.7392
G1 X107.273 Y142.371 E9.83024
G1 X105.935 Y144.535 E9.92332
G1 X104.655 Y146.742 E10.01667
G1 X103.902 Y148.126 E10.07431
G1 X103.832 Y148.242 E10.07927
G1 X103.217 Y149.373 E10.12637
G1 X102.742 Y150.164 E10.16013
G1 X102.199 Y150.911 E10.19391
G1 X101.594 Y151.608 E10.22768
G1 X100.931 Y152.25 E10.26145
G1 X100.214 Y152.833 E10.29526
G1 X99.45 Y153.351 E10.32903
G1 X98.644 Y153.802 E10.36282
G1 X97.802 Y154.18 E10.39659
G1 X96.931 Y154.485 E10.43035
G1 X96.036 Y154.713 E10.46414
G1 X95.125 Y154.863 E10.49792
G1 X94.154 Y154.935 E10.53354
G1 X93.534 Y154.948 E10.55623
G1 X91.934 Y154.947 E10.61477
G1 X91.236 Y154.938 E10.64031
G1 X90.314 Y154.886 E10.67409
G1 X89.4 Y154.755 E10.70787
G1 X88.501 Y154.545 E10.74165
G1 X87.623 Y154.258 E10.77545
G1 X86.774 Y153.896 E10.80921
G1 X85.959 Y153.462 E10.843
G1 X85.185 Y152.959 E10.87677
G1 X84.457 Y152.391 E10.91055
G1 X83.781 Y151.762 E10.94433
G1 X83.162 Y151.077 E10.97811
G1 X82.605 Y150.341 E11.01188
G1 X82.113 Y149.56 E11.04565
G1 X81.691 Y148.739 E11.07942
G1 X81.341 Y147.884 E11.11322
G1 X81.067 Y147.003 E11.14698
G1 X80.87 Y146.101 E11.18076
G1 X80.752 Y145.185 E11.21455
G1 X80.717 Y144.567 E11.23719
G1 X80.704 Y143.946 E11.25992
G1 X80.705 Y133.616 E11.63785
G1 X80.715 Y132.91 E11.66369
G1 X80.741 Y132.305 E11.68584
G1 X80.916 Y129.314 E11.79546
G1 X80.988 Y126.772 E11.8885
G1 X80.988 Y124.264 E11.98026
G1 X80.916 Y121.722 E12.07329
G1 X80.774 Y119.208 E12.16542
G1 X80.558 Y116.667 E12.25872
G1 X80.277 Y114.196 E12.34971
G1 X79.915 Y111.65 E12.44379
G1 X79.607 Y109.797 E12.51252
G1 X79.495 Y108.881 E12.54628
G1 X79.466 Y108.293 E12.56782
G1 X79.399 Y105.344 E12.67574
G1 X79.271 Y102.785 E12.76948
G1 X79.072 Y100.259 E12.86218
G1 X78.92 Y98.701 E12.91945
G1 X78.87 Y97.665 E12.9574
G1 X78.87 Y97.424 E12.96622
G0 F2100 X79.31 Y97.424
G1 F1200 X79.35 Y96.521 E12.99929
G1 X79.466 Y95.648 E13.03151
G1 X79.523 Y95.325 E13.04351
G1 X79.719 Y94.442 E13.0766
G1 X80.007 Y93.54 E13.11124
G1 X80.12 Y93.236 E13.12311
G1 X80.473 Y92.404 E13.15617
G1 X80.984 Y91.46 E13.19545
G1 X81.153 Y91.184 E13.20729
G1 X81.659 Y90.435 E13.24036
G1 X82.315 Y89.637 E13.27815
G1 X82.541 Y89.389 E13.29043
G1 X83.179 Y88.749 E13.32349
G1 X83.953 Y88.104 E13.36035
G1 X84.219 Y87.904 E13.37253
G1 X84.965 Y87.394 E13.40559
G1 X85.903 Y86.877 E13.44477
G1 X86.198 Y86.734 E13.45677
G1 X87.028 Y86.376 E13.48984
G1 X87.962 Y86.072 E13.52577
G1 X88.273 Y85.987 E13.53757
G1 X89.154 Y85.787 E13.57062
G1 X90.226 Y85.652 E13.61015
G1 X90.556 Y85.628 E13.62226
G1 X91.459 Y85.602 E13.65531
G1 X92.422 Y85.663 E13.69061
G1 X92.738 Y85.698 E13.70224
G1 X93.631 Y85.837 E13.73531
G1 X94.623 Y86.089 E13.77276
G1 X94.954 Y86.191 E13.78543
G1 X95.805 Y86.495 E13.81849
G1 X96.812 Y86.972 E13.85926
G1 X97.1 Y87.128 E13.87124
G1 X97.875 Y87.593 E13.90431
G1 X98.712 Y88.211 E13.94237
G1 X98.973 Y88.425 E13.95472
G1 X99.646 Y89.028 E13.98778
G1 X100.347 Y89.789 E14.02563
G1 X100.546 Y90.028 E14.03701
G1 X101.093 Y90.747 E14.07006
G1 X101.468 Y91.33 E14.09543
G1 X102.649 Y93.309 E14.17974
G1 X104.04 Y95.52 E14.27531
G1 X105.439 Y97.61 E14.36733
G1 X106.919 Y99.692 E14.46078
G1 X108.45 Y101.72 E14.55375
G1 X109.853 Y103.481 E14.63612
G1 X111.14 Y105.063 E14.71074
G1 X111.548 Y105.601 E14.73544
G1 X112.092 Y106.368 E14.76984
G1 X112.46 Y106.924 E14.79424
G1 X112.991 Y107.787 E14.83131
G1 X113.327 Y108.375 E14.85609
G1 X113.788 Y109.249 E14.89224
G1 X114.084 Y109.858 E14.91701
G1 X114.464 Y110.711 E14.95118
G1 X114.709 Y111.313 E14.97496
G1 X115.074 Y112.296 E15.01332
G1 X115.288 Y112.938 E15.03808
G1 X115.546 Y113.805 E15.07117
G1 X115.712 Y114.436 E15.09504
G1 X115.939 Y115.426 E15.13221
G1 X116.068 Y116.085 E15.15677
G1 X116.217 Y117.01 E15.19105
G1 X116.302 Y117.682 E15.21583
G1 X116.4 Y118.728 E15.25427
G1 X116.441 Y119.394 E15.27868
G1 X116.467 Y120.319 E15.31254
G1 X116.465 Y120.97 E15.33636
G1 X116.43 Y121.953 E15.37234
G1 X116.384 Y122.62 E15.3968
G1 X116.287 Y123.577 E15.432
G1 X116.197 Y124.245 E15.45666
G1 X116.026 Y125.259 E15.49428
G1 X115.89 Y125.928 E15.51926
G1 X115.673 Y126.839 E15.55352
G1 X115.504 Y127.459 E15.57703
G1 X115.212 Y128.414 E15.61357
G1 X114.995 Y129.05 E15.63815
G1 X114.656 Y129.944 E15.67313
G1 X114.397 Y130.565 E15.69775
G1 X113.981 Y131.476 E15.73439
G1 X113.682 Y132.077 E15.75895
G1 X113.214 Y132.946 E15.79506
G1 X112.883 Y133.516 E15.81917
G1 X112.375 Y134.329 E15.85425
G1 X112.004 Y134.881 E15.87858
G1 X111.345 Y135.796 E15.91984
G1 X109.734 Y137.966 E16.01872
G1 X108.291 Y140.027 E16.11076
G1 X106.893 Y142.149 E16.20373
G1 X105.551 Y144.319 E16.29708
G1 X104.274 Y146.521 E16.39021
G1 X103.515 Y147.916 E16.44831
G1 X103.451 Y148.021 E16.45281
G1 X102.831 Y149.162 E16.50032
G1 X102.364 Y149.937 E16.53343
G1 X101.831 Y150.667 E16.5665
G1 X101.235 Y151.347 E16.59958
G1 X100.582 Y151.971 E16.63262
G1 X99.876 Y152.536 E16.66571
G1 X99.123 Y153.036 E16.69878
G1 X98.328 Y153.467 E16.73186
G1 X97.499 Y153.827 E16.76493
G1 X96.641 Y154.111 E16.79799
G1 X95.761 Y154.319 E16.83108
G1 X94.866 Y154.449 E16.86416
G1 X94.141 Y154.495 E16.89074
G1 X93.534 Y154.508 E16.91296
G1 X91.939 Y154.507 E16.97131
G1 X91.241 Y154.498 E16.99685
G1 X90.339 Y154.447 E17.0299
G1 X89.444 Y154.315 E17.063
G1 X88.565 Y154.106 E17.09606
G1 X87.708 Y153.819 E17.12912
G1 X86.879 Y153.458 E17.1622
G1 X86.085 Y153.025 E17.19529
G1 X85.333 Y152.523 E17.22837
G1 X84.628 Y151.957 E17.26145
G1 X83.976 Y151.331 E17.29452
G1 X83.382 Y150.65 E17.32758
G1 X82.85 Y149.919 E17.36066
G1 X82.385 Y149.144 E17.39372
G1 X81.99 Y148.331 E17.42679
G1 X81.669 Y147.486 E17.45986
G1 X81.424 Y146.616 E17.49293
G1 X81.256 Y145.727 E17.52603
G1 X81.157 Y144.555 E17.56906
G1 X81.144 Y143.946 E17.59135
G1 X81.145 Y133.622 E17.96907
G1 X81.155 Y132.916 E17.9949
G1 X81.18 Y132.336 E18.01614
G1 X81.356 Y129.317 E18.12678
G1 X81.428 Y126.784 E18.21949
G1 X81.428 Y124.245 E18.31238
G1 X81.356 Y121.719 E18.40484
G1 X81.21 Y119.144 E18.4992
G1 X80.999 Y116.651 E18.59073
G1 X80.711 Y114.121 E18.68389
G1 X80.353 Y111.602 E18.77698
G1 X80.041 Y109.725 E18.84659
G1 X79.933 Y108.828 E18.87965
G1 X79.906 Y108.283 E18.89961
G1 X79.838 Y105.312 E19.00834
G1 X79.711 Y102.762 E19.10175
G1 X79.512 Y100.236 E19.19445
G1 X79.358 Y98.658 E19.25246
G1 X79.31 Y97.665 E19.28883
G1 X79.31 Y97.424 E19.29765
G1 F2700 E14.29765
;MESH:clip1.stl
G0 F2100 X91.74 Y132.379
G0 X91.788 Y133.466
G0 X92.217 Y143.435
G0 X93.284 Y143.708
G1 F2700 E19.29765
G0 F2100 X93.643 Y144.067
;TYPE:WALL-OUTER
G1 F1200 X93.644 Y141.633 E19.3867
G1 X93.675 Y140.878 E19.41434
G1 X93.767 Y140.132 E19.44184
G1 X93.92 Y139.382 E19.46985
G1 X94.137 Y138.647 E19.49789
G1 X94.408 Y137.942 E19.52552
G1 X94.741 Y137.252 E19.55355
G1 X95.124 Y136.597 E19.58131
G1 X95.562 Y135.972 E19.60923
G1 X96.049 Y135.386 E19.63711
G1 X96.569 Y134.855 E19.6643
G1 X97.156 Y134.342 E19.69282
G1 X97.805 Y133.868 E19.72223
G1 X99.256 Y132.99 E19.78428
G1 X100.068 Y132.431 E19.82034
G1 X100.822 Y131.834 E19.85553
G1 X101.538 Y131.184 E19.89091
G1 X102.209 Y130.491 E19.9262
G1 X102.835 Y129.755 E19.96155
G1 X103.41 Y128.982 E19.9968
G1 X103.934 Y128.169 E20.03218
G1 X104.402 Y127.327 E20.06743
G1 X104.814 Y126.46 E20.10255
G1 X105.173 Y125.559 E20.13803
G1 X105.474 Y124.627 E20.17387
G1 X105.71 Y123.673 E20.20982
G1 X105.879 Y122.755 E20.24397
G1 X105.993 Y121.763 E20.2805
G1 X106.041 Y120.799 E20.31582
G1 X106.027 Y119.869 E20.34985
G1 X105.951 Y118.907 E20.38515
G1 X105.811 Y117.952 E20.42046
G1 X105.601 Y116.976 E20.45699
G1 X105.347 Y116.079 E20.4911
G1 X105.025 Y115.169 E20.52641
G1 X104.628 Y114.253 E20.56294
G1 X104.205 Y113.423 E20.59702
G1 X103.713 Y112.594 E20.63229
G1 X103.165 Y111.798 E20.66765
G1 X102.688 Y111.193 E20.69583
G1 X102.547 Y111.016 E20.70411
G1 X101.923 Y110.322 E20.73826
G1 X101.232 Y109.649 E20.77355
G1 X100.505 Y109.027 E20.80855
G1 X99.733 Y108.449 E20.84384
G1 X98.163 Y107.425 E20.91242
G1 X97.445 Y106.878 E20.94544
G1 X96.775 Y106.285 E20.97817
G1 X96.138 Y105.641 E21.01131
G1 X95.551 Y104.958 E21.04426
G1 X95.018 Y104.235 E21.07713
G1 X94.543 Y103.488 E21.10951
G1 X94.12 Y102.711 E21.14188
G1 X93.749 Y101.894 E21.17471
G1 X93.439 Y101.06 E21.20726
G1 X93.182 Y100.192 E21.24038
G1 X92.988 Y99.311 E21.27339
G1 X92.861 Y98.431 E21.30591
G1 X92.797 Y97.56 E21.33787
G1 X92.753 Y97.215 E21.35059
G1 X92.663 Y96.939 E21.36121
G1 X92.519 Y96.69 E21.37174
G1 X92.335 Y96.474 E21.38212
G1 X92.11 Y96.287 E21.39282
G1 X91.862 Y96.155 E21.4031
G1 X91.583 Y96.065 E21.41383
G1 X91.294 Y96.033 E21.42446
G1 X91.009 Y96.053 E21.43492
G1 X90.726 Y96.13 E21.44565
G1 X90.471 Y96.255 E21.45604
G1 X90.235 Y96.432 E21.46683
G1 X90.039 Y96.645 E21.47742
G1 X89.888 Y96.891 E21.48798
G1 X89.79 Y97.158 E21.49839
G1 X89.74 Y97.447 E21.50912
G1 X89.745 Y97.734 E21.51962
