;FLAVOR:Marlin
;TIME:1891
;Filament used: 1.00349m
;Layer height: 0.2
;MINX:102.431
;MINY:105.932
;MINZ:0.2
;MAXX:132.569
;MAXY:129.067
;MAXZ:30
;Generated with Cura_SteamEngine 4.13.1
M140 S60
M105
M190 S60
M104 S222
M105
M109 S222
M82 ;absolute extrusion mode
; Ender 3 Custom Start G-code
G92 E0 ; Reset Extruder
G28 ; Home all axes
G1 Z2.0 F3000 ; Move Z Axis up little to prevent scratching of Heat Bed
G1 X0.1 Y20 Z0.3 F5000.0 ; Move to start position
G1 X0.1 Y200.0 Z0.3 F1500.0 E15 ; Draw the first line
G1 X0.4 Y200.0 Z0.3 F5000.0 ; Move to side a little
G1 X0.4 Y20 Z0.3 F1500.0 E30 ; Draw the second line
G92 E0 ; Reset Extruder
G1 Z2.0 F3000 ; Move Z Axis up little to prevent scratching of Heat Bed
G1 X5 Y20 Z0.3 F5000.0 ; Move over to prevent blob squish
G92 E0
G92 E0
G1 F2700 E-5
;LAYER_COUNT:150
;LAYER:0
M107
G0 F2100 X105.012 Y108.371 Z0.2
;TYPE:SKIRT
G1 F2700 E0
G1 F1200 X105.778 Y107.707 E0.03709
G1 X105.816 Y107.678 E0.03884
G1 X106.48 Y107.221 E0.06833
G1 X107.187 Y106.832 E0.09785
G1 X107.919 Y106.519 E0.12698
G1 X108.137 Y106.438 E0.13549
G1 X108.906 Y106.195 E0.16499
G1 X109.696 Y106.029 E0.19453
G1 X110.498 Y105.942 E0.22404
G1 X111.001 Y105.938 E0.24244
G1 X111.001 Y105.932 E0.24266
G1 X124.001 Y105.933 E0.71828
G1 X124.806 Y105.973 E0.74777
G1 X125.604 Y106.093 E0.7773
G1 X126.245 Y106.249 E0.80143
G1 X126.482 Y106.317 E0.81045
G1 X127.245 Y106.577 E0.83994
G1 X127.979 Y106.912 E0.86946
G1 X128.676 Y107.318 E0.89898
G1 X129.33 Y107.791 E0.9285
G1 X129.934 Y108.326 E0.95802
G1 X130.481 Y108.919 E0.98754
G1 X130.95 Y109.538 E1.01595
G1 X131.142 Y109.818 E1.02838
G1 X131.565 Y110.505 E1.05789
G1 X131.918 Y111.23 E1.08739
G1 X132.197 Y111.987 E1.11691
G1 X132.399 Y112.768 E1.14643
G1 X132.524 Y113.565 E1.17594
G1 X132.569 Y114.424 E1.20741
G1 X132.567 Y120.503 E1.42982
G1 X132.562 Y120.503 E1.43
G1 X132.565 Y120.848 E1.44262
G1 X132.493 Y121.651 E1.47212
G1 X132.342 Y122.444 E1.50165
G1 X132.092 Y123.276 E1.53344
G1 X132.013 Y123.496 E1.54199
G1 X131.703 Y124.241 E1.57151
G1 X131.321 Y124.951 E1.60101
G1 X130.884 Y125.602 E1.6297
G1 X130.855 Y125.641 E1.63148
G1 X130.342 Y126.264 E1.661
G1 X129.77 Y126.833 E1.69052
G1 X128.82 Y127.569 E1.73449
G1 X128.645 Y127.685 E1.74217
G1 X127.952 Y128.097 E1.77166
G1 X127.221 Y128.438 E1.80118
G1 X126.459 Y128.705 E1.83072
G1 X125.599 Y128.91 E1.86306
G1 X125.45 Y128.937 E1.8686
G1 X124.65 Y129.041 E1.89812
G1 X123.999 Y129.067 E1.92195
G1 X111 Y129.067 E2.39754
G1 X110.194 Y129.027 E2.42706
G1 X109.396 Y128.907 E2.45659
G1 X108.755 Y128.751 E2.48072
G1 X108.518 Y128.683 E2.48974
G1 X107.755 Y128.423 E2.51923
G1 X107.021 Y128.088 E2.54875
G1 X106.324 Y127.682 E2.57826
G1 X105.67 Y127.209 E2.60779
G1 X105.066 Y126.674 E2.63731
G1 X104.519 Y126.081 E2.66683
G1 X104.05 Y125.462 E2.69524
G1 X103.858 Y125.182 E2.70766
G1 X103.435 Y124.495 E2.73718
G1 X103.082 Y123.77 E2.76668
G1 X102.803 Y123.013 E2.7962
G1 X102.601 Y122.232 E2.82571
G1 X102.476 Y121.435 E2.85523
G1 X102.431 Y120.576 E2.8867
G1 X102.433 Y114.498 E3.10907
G1 X102.473 Y113.693 E3.13856
G1 X102.558 Y113.077 E3.16131
G1 X102.585 Y112.925 E3.16696
G1 X102.766 Y112.139 E3.19647
G1 X103.023 Y111.374 E3.22599
G1 X103.355 Y110.639 E3.2555
G1 X103.864 Y109.779 E3.29206
G1 X103.98 Y109.608 E3.29962
G1 X104.465 Y108.964 E3.32912
G1 X105.012 Y108.371 E3.35863
G0 F2100 X105.351 Y108.655
G1 F1200 X106.045 Y108.057 E3.39215
G1 X106.083 Y108.028 E3.3939
G1 X106.73 Y107.584 E3.42261
G1 X107.419 Y107.209 E3.45131
G1 X108.072 Y106.931 E3.47727
G1 X108.29 Y106.85 E3.48578
G1 X109.039 Y106.615 E3.5145
G1 X109.807 Y106.457 E3.54319
G1 X110.588 Y106.378 E3.57191
G1 X111.001 Y106.378 E3.58702
G1 X111.001 Y106.372 E3.58724
G1 X124.001 Y106.373 E4.06286
G1 X124.784 Y106.413 E4.09154
G1 X125.56 Y106.533 E4.12027
G1 X126.124 Y106.672 E4.14152
G1 X126.361 Y106.74 E4.15054
G1 X127.103 Y106.994 E4.17924
G1 X127.815 Y107.323 E4.20793
G1 X128.49 Y107.722 E4.23662
G1 X129.122 Y108.189 E4.26537
G1 X129.702 Y108.717 E4.29407
G1 X130.226 Y109.301 E4.32277
G1 X130.587 Y109.786 E4.34489
G1 X130.779 Y110.066 E4.35731
G1 X131.19 Y110.735 E4.38604
G1 X131.53 Y111.442 E4.41474
G1 X131.796 Y112.18 E4.44344
G1 X131.986 Y112.942 E4.47218
G1 X132.097 Y113.718 E4.50086
G1 X132.129 Y114.424 E4.52671
G1 X132.127 Y120.503 E4.74912
G1 X132.121 Y120.503 E4.74934
G1 X132.123 Y120.873 E4.76288
G1 X132.048 Y121.654 E4.79158
G1 X131.893 Y122.423 E4.82028
G1 X131.678 Y123.127 E4.84721
G1 X131.599 Y123.347 E4.85576
G1 X131.296 Y124.071 E4.88448
G1 X130.922 Y124.761 E4.91319
G1 X130.531 Y125.34 E4.93875
G1 X130.502 Y125.379 E4.94053
G1 X130.002 Y125.984 E4.96925
G1 X129.444 Y126.535 E4.99794
G1 X128.577 Y127.202 E5.03796
G1 X128.402 Y127.318 E5.04564
G1 X127.727 Y127.718 E5.07435
G1 X127.015 Y128.046 E5.10303
G1 X126.273 Y128.301 E5.13173
G1 X125.521 Y128.477 E5.15999
G1 X125.372 Y128.504 E5.16553
G1 X124.594 Y128.604 E5.19423
G1 X123.999 Y128.627 E5.21601
G1 X111 Y128.627 E5.6916
G1 X110.216 Y128.587 E5.72032
G1 X109.441 Y128.468 E5.749
G1 X108.876 Y128.328 E5.7703
G1 X108.639 Y128.26 E5.77932
G1 X107.897 Y128.006 E5.80801
G1 X107.185 Y127.677 E5.83671
G1 X106.51 Y127.278 E5.8654
G1 X105.878 Y126.811 E5.89415
G1 X105.298 Y126.283 E5.92284
G1 X104.774 Y125.699 E5.95155
G1 X104.413 Y125.214 E5.97367
G1 X104.221 Y124.934 E5.98609
G1 X103.81 Y124.265 E6.01482
G1 X103.47 Y123.558 E6.04352
G1 X103.204 Y122.82 E6.07222
G1 X103.014 Y122.058 E6.10095
G1 X102.903 Y121.282 E6.12963
G1 X102.871 Y120.576 E6.15549
G1 X102.873 Y114.498 E6.37786
G1 X102.913 Y113.715 E6.40654
G1 X102.992 Y113.154 E6.42727
G1 X103.019 Y113.002 E6.43292
G1 X103.195 Y112.238 E6.4616
G1 X103.448 Y111.495 E6.49032
G1 X103.776 Y110.782 E6.51903
G1 X104.228 Y110.026 E6.55126
G1 X104.344 Y109.855 E6.55882
G1 X104.817 Y109.229 E6.58752
G1 X105.351 Y108.655 E6.61621
G0 F2100 X105.689 Y108.94
G1 F1200 X106.312 Y108.407 E6.6462
G1 X106.35 Y108.378 E6.64795
G1 X106.979 Y107.948 E6.67583
G1 X107.649 Y107.586 E6.70369
G1 X108.225 Y107.344 E6.72655
G1 X108.443 Y107.263 E6.73506
G1 X109.17 Y107.035 E6.76293
G1 X109.917 Y106.885 E6.79081
G1 X110.676 Y106.814 E6.8187
G1 X111.001 Y106.818 E6.83059
G1 X111.001 Y106.812 E6.83081
G1 X124.001 Y106.813 E7.30643
G1 X124.761 Y106.853 E7.33427
G1 X125.514 Y106.973 E7.36217
G1 X126.002 Y107.095 E7.38057
G1 X126.239 Y107.163 E7.38959
G1 X126.96 Y107.411 E7.41749
G1 X127.65 Y107.733 E7.44535
G1 X128.302 Y108.126 E7.4732
G1 X128.91 Y108.585 E7.50107
G1 X129.467 Y109.106 E7.52898
G1 X129.966 Y109.681 E7.55683
G1 X130.225 Y110.035 E7.57288
G1 X130.417 Y110.315 E7.5853
G1 X130.814 Y110.965 E7.61316
G1 X131.141 Y111.653 E7.64103
G1 X131.394 Y112.372 E7.66892
G1 X131.57 Y113.113 E7.69679
G1 X131.668 Y113.869 E7.72468
G1 X131.689 Y114.423 E7.74496
G1 X131.687 Y120.502 E7.96737
G1 X131.681 Y120.502 E7.96759
G1 X131.681 Y120.897 E7.98204
G1 X131.603 Y121.655 E8.00992
G1 X131.445 Y122.4 E8.03778
G1 X131.264 Y122.979 E8.05997
G1 X131.185 Y123.199 E8.06853
G1 X130.89 Y123.901 E8.09638
G1 X130.523 Y124.569 E8.12427
G1 X130.178 Y125.077 E8.14674
G1 X130.149 Y125.116 E8.14851
G1 X129.663 Y125.703 E8.1764
G1 X129.118 Y126.235 E8.20426
G1 X128.334 Y126.835 E8.24038
G1 X128.159 Y126.951 E8.24806
G1 X127.503 Y127.338 E8.27593
G1 X126.81 Y127.654 E8.30379
G1 X126.087 Y127.896 E8.33169
G1 X125.442 Y128.044 E8.3559
G1 X125.293 Y128.071 E8.36144
G1 X124.538 Y128.167 E8.38928
G1 X123.999 Y128.187 E8.40902
G1 X111 Y128.187 E8.8846
G1 X110.239 Y128.147 E8.91248
G1 X109.487 Y128.028 E8.94034
G1 X108.998 Y127.905 E8.95878
G1 X108.761 Y127.837 E8.9678
G1 X108.04 Y127.589 E8.9957
G1 X107.35 Y127.267 E9.02356
G1 X106.698 Y126.874 E9.05141
G1 X106.09 Y126.415 E9.07928
G1 X105.533 Y125.894 E9.10719
G1 X105.034 Y125.319 E9.13504
G1 X104.775 Y124.965 E9.15109
G1 X104.583 Y124.685 E9.16351
G1 X104.186 Y124.035 E9.19137
G1 X103.859 Y123.347 E9.21924
G1 X103.606 Y122.628 E9.24713
G1 X103.43 Y121.887 E9.275
G1 X103.332 Y121.131 E9.30289
G1 X103.311 Y120.577 E9.32317
G1 X103.313 Y114.499 E9.54554
G1 X103.353 Y113.738 E9.57342
G1 X103.425 Y113.231 E9.59216
G1 X103.452 Y113.079 E9.5978
G1 X103.624 Y112.337 E9.62567
G1 X103.874 Y111.617 E9.65356
G1 X104.197 Y110.927 E9.68143
G1 X104.592 Y110.273 E9.70938
G1 X104.708 Y110.102 E9.71694
G1 X105.168 Y109.495 E9.74481
G1 X105.689 Y108.94 E9.77266
G0 F2100 X106.027 Y109.226
G1 F1200 X106.578 Y108.756 E9.79915
G1 X106.616 Y108.727 E9.8009
G1 X107.227 Y108.312 E9.82792
G1 X107.879 Y107.965 E9.85495
G1 X108.379 Y107.756 E9.87477
G1 X108.597 Y107.675 E9.88328
G1 X109.302 Y107.456 E9.91029
G1 X110.026 Y107.314 E9.93728
G1 X110.762 Y107.251 E9.96431
G1 X124.001 Y107.253 E10.44867
G1 X124.738 Y107.293 E10.47568
G1 X125.466 Y107.413 E10.50267
G1 X125.881 Y107.517 E10.51832
G1 X126.118 Y107.585 E10.52735
G1 X126.816 Y107.827 E10.55437
G1 X127.483 Y108.143 E10.58138
G1 X128.112 Y108.529 E10.60838
G1 X128.696 Y108.981 E10.6354
G1 X129.228 Y109.493 E10.66241
G1 X129.862 Y110.284 E10.6995
G1 X130.054 Y110.564 E10.71192
G1 X130.438 Y111.195 E10.73894
G1 X130.751 Y111.863 E10.76593
G1 X130.991 Y112.562 E10.79297
G1 X131.153 Y113.282 E10.81997
G1 X131.237 Y114.016 E10.847
G1 X131.249 Y114.423 E10.8619
G1 X131.247 Y120.502 E11.08431
G1 X131.241 Y120.502 E11.08453
G1 X131.24 Y120.92 E11.09982
G1 X131.157 Y121.654 E11.12684
G1 X130.995 Y122.374 E11.15384
G1 X130.85 Y122.83 E11.17135
G1 X130.771 Y123.05 E11.1799
G1 X130.484 Y123.73 E11.20691
G1 X130.125 Y124.376 E11.23395
G1 X129.825 Y124.815 E11.2534
G1 X129.796 Y124.854 E11.25518
G1 X129.324 Y125.421 E11.28217
G1 X128.793 Y125.935 E11.30921
G1 X128.091 Y126.469 E11.34148
G1 X127.916 Y126.585 E11.34916
G1 X127.279 Y126.959 E11.37618
G1 X126.606 Y127.262 E11.40319
G1 X125.904 Y127.49 E11.43019
G1 X125.364 Y127.611 E11.45044
G1 X125.215 Y127.638 E11.45598
G1 X124.482 Y127.73 E11.48301
G1 X123.999 Y127.747 E11.50069
G1 X111 Y127.747 E11.97627
G1 X110.263 Y127.707 E12.00327
G1 X109.534 Y127.588 E12.0303
G1 X109.119 Y127.483 E12.04596
G1 X108.882 Y127.415 E12.05498
G1 X108.184 Y127.173 E12.08201
G1 X107.517 Y126.857 E12.10901
G1 X106.888 Y126.471 E12.13601
G1 X106.304 Y126.019 E12.16303
G1 X105.772 Y125.507 E12.19004
G1 X105.138 Y124.716 E12.22713
G1 X104.946 Y124.436 E12.23955
G1 X104.562 Y123.805 E12.26658
G1 X104.249 Y123.137 E12.29357
G1 X104.009 Y122.438 E12.32061
G1 X103.847 Y121.718 E12.34761
G1 X103.763 Y120.984 E12.37464
G1 X103.751 Y120.577 E12.38953
G1 X103.753 Y114.499 E12.61191
G1 X103.793 Y113.761 E12.63895
G1 X103.858 Y113.308 E12.65569
G1 X103.885 Y113.156 E12.66134
G1 X104.053 Y112.437 E12.68835
G1 X104.298 Y111.741 E12.71535
G1 X104.617 Y111.075 E12.74236
G1 X104.956 Y110.52 E12.76616
G1 X105.072 Y110.349 E12.77372
G1 X105.519 Y109.762 E12.80071
G1 X106.027 Y109.226 E12.82773
G0 F2100 X106.364 Y109.513
G1 F1200 X106.845 Y109.106 E12.85078
G1 X106.883 Y109.077 E12.85253
G1 X107.474 Y108.676 E12.87866
G1 X108.107 Y108.344 E12.90481
G1 X108.532 Y108.168 E12.92164
G1 X108.75 Y108.087 E12.93015
G1 X109.432 Y107.877 E12.95626
G1 X110.134 Y107.743 E12.98241
G1 X110.846 Y107.689 E13.00853
G1 X111 Y107.692 E13.01416
G1 X124 Y107.693 E13.48978
G1 X124.714 Y107.733 E13.51595
G1 X125.76 Y107.94 E13.55496
G1 X125.997 Y108.008 E13.56398
G1 X126.671 Y108.243 E13.59009
G1 X127.315 Y108.552 E13.61623
G1 X127.92 Y108.931 E13.64235
G1 X128.479 Y109.376 E13.66849
G1 X128.985 Y109.88 E13.69462
G1 X129.499 Y110.533 E13.72502
G1 X129.691 Y110.813 E13.73744
G1 X130.061 Y111.424 E13.76358
G1 X130.361 Y112.072 E13.7897
G1 X130.586 Y112.749 E13.8158
G1 X130.734 Y113.448 E13.84194
G1 X130.809 Y114.423 E13.87772
G1 X130.807 Y120.502 E14.10013
G1 X130.801 Y120.502 E14.10035
G1 X130.797 Y120.942 E14.11644
G1 X130.711 Y121.65 E14.14254
G1 X130.436 Y122.681 E14.18158
G1 X130.357 Y122.901 E14.19013
G1 X130.078 Y123.559 E14.21628
G1 X129.728 Y124.181 E14.24239
G1 X129.472 Y124.552 E14.25888
G1 X129.443 Y124.591 E14.26066
G1 X128.985 Y125.139 E14.28679
G1 X128.469 Y125.633 E14.31292
G1 X127.848 Y126.102 E14.3414
G1 X127.673 Y126.218 E14.34908
G1 X127.057 Y126.578 E14.37518
G1 X126.404 Y126.868 E14.40132
G1 X125.723 Y127.083 E14.42745
G1 X125.286 Y127.178 E14.44381
G1 X125.137 Y127.205 E14.44935
G1 X124.428 Y127.293 E14.47549
G1 X123.999 Y127.307 E14.49119
G1 X111 Y127.307 E14.96678
G1 X110.287 Y127.267 E14.9929
G1 X109.24 Y127.06 E15.03195
G1 X109.003 Y126.992 E15.04097
G1 X108.329 Y126.757 E15.06709
G1 X107.685 Y126.448 E15.09322
G1 X107.08 Y126.069 E15.11934
G1 X106.521 Y125.624 E15.14548
G1 X106.015 Y125.12 E15.17161
G1 X105.501 Y124.467 E15.20201
G1 X105.309 Y124.187 E15.21443
G1 X104.939 Y123.576 E15.24057
G1 X104.639 Y122.928 E15.26669
G1 X104.414 Y122.251 E15.29279
G1 X104.266 Y121.552 E15.31893
G1 X104.191 Y120.577 E15.35471
G1 X104.193 Y114.499 E15.57708
G1 X104.233 Y113.786 E15.60321
G1 X104.291 Y113.385 E15.61803
G1 X104.318 Y113.233 E15.62368
G1 X104.482 Y112.538 E15.64981
G1 X104.723 Y111.866 E15.67592
G1 X105.037 Y111.225 E15.70204
G1 X105.32 Y110.767 E15.72174
G1 X105.436 Y110.596 E15.7293
G1 X105.87 Y110.029 E15.75542
G1 X106.364 Y109.513 E15.78156
G0 F2100 X106.699 Y109.802
G1 F1200 X107.112 Y109.456 E15.80127
G1 X107.15 Y109.427 E15.80302
G1 X107.721 Y109.041 E15.82823
G1 X108.333 Y108.725 E15.85343
G1 X108.685 Y108.581 E15.86735
G1 X108.903 Y108.5 E15.87585
G1 X109.562 Y108.298 E15.90107
G1 X110.24 Y108.173 E15.9263
G1 X110.927 Y108.128 E15.95148
G1 X111 Y108.132 E15.95416
G1 X124 Y108.133 E16.42978
G1 X124.688 Y108.173 E16.45499
G1 X125.638 Y108.363 E16.49044
G1 X125.875 Y108.431 E16.49946
G1 X126.525 Y108.66 E16.52467
G1 X127.145 Y108.961 E16.54989
G1 X127.725 Y109.333 E16.5751
G1 X128.258 Y109.769 E16.60029
G1 X128.738 Y110.264 E16.62552
G1 X129.136 Y110.782 E16.64942
G1 X129.328 Y111.062 E16.66184
G1 X129.684 Y111.652 E16.68705
G1 X129.969 Y112.279 E16.71225
G1 X130.18 Y112.935 E16.73746
G1 X130.314 Y113.611 E16.76267
G1 X130.369 Y114.423 E16.79245
G1 X130.367 Y120.502 E17.01486
G1 X130.362 Y120.502 E17.01504
G1 X130.355 Y120.961 E17.03183
G1 X130.265 Y121.644 E17.05704
G1 X130.021 Y122.532 E17.09073
G1 X129.942 Y122.752 E17.09928
G1 X129.672 Y123.386 E17.12449
G1 X129.331 Y123.985 E17.14971
G1 X129.09 Y124.328 E17.16505
G1 X128.647 Y124.857 E17.19029
G1 X128.146 Y125.33 E17.2155
G1 X127.605 Y125.735 E17.24023
G1 X127.43 Y125.851 E17.24791
G1 X126.834 Y126.198 E17.27314
G1 X126.203 Y126.473 E17.29832
G1 X125.207 Y126.745 E17.3361
G1 X125.058 Y126.772 E17.34164
G1 X124.374 Y126.855 E17.36684
G1 X123.999 Y126.867 E17.38057
G1 X111 Y126.867 E17.85615
G1 X110.312 Y126.827 E17.88137
G1 X109.362 Y126.637 E17.91681
G1 X109.125 Y126.569 E17.92583
G1 X108.475 Y126.34 E17.95105
G1 X107.855 Y126.039 E17.97626
G1 X107.275 Y125.667 E18.00147
G1 X106.742 Y125.231 E18.02667
G1 X106.262 Y124.736 E18.05189
G1 X105.864 Y124.218 E18.07579
G1 X105.672 Y123.938 E18.08821
G1 X105.316 Y123.348 E18.11342
G1 X105.031 Y122.721 E18.13862
G1 X104.82 Y122.065 E18.16383
G1 X104.686 Y121.389 E18.18905
G1 X104.631 Y120.577 E18.21882
G1 X104.633 Y114.499 E18.44119
G1 X104.673 Y113.811 E18.46641
G1 X104.725 Y113.462 E18.47932
G1 X104.752 Y113.31 E18.48497
G1 X104.911 Y112.64 E18.51016
G1 X105.147 Y111.993 E18.53536
G1 X105.457 Y111.377 E18.56059
G1 X105.684 Y111.014 E18.57625
G1 X105.8 Y110.843 E18.58381
G1 X106.22 Y110.297 E18.60901
G1 X106.699 Y109.802 E18.63421
G0 F2100 X107.034 Y110.092
G1 F1200 X107.379 Y109.806 E18.65061
G1 X107.417 Y109.777 E18.65236
G1 X107.968 Y109.407 E18.67664
G1 X108.838 Y108.993 E18.71189
G1 X109.056 Y108.912 E18.7204
G1 X109.691 Y108.719 E18.74468
G1 X110.344 Y108.604 E18.76894
G1 X111.006 Y108.568 E18.79319
G1 X111.06 Y108.572 E18.79518
G1 X124 Y108.573 E19.2686
G1 X124.662 Y108.613 E19.29286
G1 X125.517 Y108.786 E19.32478
G1 X125.754 Y108.854 E19.3338
G1 X126.379 Y109.075 E19.35805
G1 X126.973 Y109.37 E19.38232
G1 X127.527 Y109.734 E19.40657
G1 X128.034 Y110.162 E19.43085
G1 X128.485 Y110.647 E19.45508
G1 X128.773 Y111.031 E19.47264
G1 X128.965 Y111.311 E19.48506
G1 X129.306 Y111.879 E19.5093
G1 X129.577 Y112.484 E19.53355
G1 X129.772 Y113.118 E19.55782
G1 X129.89 Y113.77 E19.58206
G1 X129.929 Y114.423 E19.60599
