;FLAVOR:Marlin
;TIME:791
;Filament used: 0.38637m
;Layer height: 0.2
;MINX:90.506
;MINY:92.515
;MINZ:0.2
;MAXX:153.21
;MAXY:142.473
;MAXZ:2
;Generated with Cura_SteamEngine 5.0.0
M140 S60
M105
M190 S60
M104 S222
M105
M109 S222
M82 ;absolute extrusion mode
; Ender 3 Custom Start G-code
G92 E0 ; Reset Extruder
M140 S60 ; Start heating the heated bed
M190 S60 ; Wait until the heated bed reaches the desired temperature
G28 ; Auto Home
G29 A; Activate Bed Leveling
G29 L0; Loads the saved mesh in slot 0
G29  J3; 9 point autotilt

G92 E0 ; Reset extruder origin
G1 Z2.0 F3000 ; Move Z Axis up little to prevent scratching of Heat Bed
G1 X0.1 Y20 Z0.3 F5000.0 ; Move to start position
G1 X0.1 Y200.0 Z0.3 F1500.0 E15 ; Draw the first line
G1 X0.4 Y200.0 Z0.3 F5000.0 ; Move to side a little
G1 X0.4 Y20 Z0.3 F1500.0 E30 ; Draw the second line
G92 E0 ; Reset Extruder
G1 Z2.0 F3000 ; Move Z Axis up little to prevent scratching of Heat Bed
G1 X5 Y20 Z0.3 F5000.0 ; Move over to prevent blob squish

; End of Ender 3 Custom Start G-code
G92 E0
G92 E0
G1 F2700 E-5
;LAYER_COUNT:10
;LAYER:0
M107
G0 F2100 X99.567 Y98.008 Z0.2
G0 X96.781 Y102.019
;TYPE:SKIRT
G1 F2700 E0
G1 F1200 X97.237 Y101.143 E0.03613
G1 X97.406 Y100.851 E0.04848
G1 X97.739 Y100.312 E0.07165
G1 X97.885 Y100.09 E0.08138
G1 X98.315 Y99.481 E0.10865
G1 X98.494 Y99.245 E0.11949
G1 X99.198 Y98.406 E0.15956
G1 X99.567 Y98.008 E0.17942
G1 X100.139 Y97.435 E0.20904
G1 X100.806 Y96.843 E0.24167
G1 X100.997 Y96.686 E0.25071
G1 X101.511 Y96.288 E0.2745
G1 X101.798 Y96.079 E0.28748
G1 X102.74 Y95.463 E0.32866
G1 X103.155 Y95.221 E0.34624
G1 X103.963 Y94.794 E0.37968
G1 X104.254 Y94.655 E0.39147
G1 X105.071 Y94.302 E0.42404
G1 X105.801 Y94.033 E0.4525
G1 X106.577 Y93.798 E0.48216
G1 X107.104 Y93.659 E0.5021
G1 X108.255 Y93.42 E0.54511
G1 X108.588 Y93.369 E0.55744
G1 X109.252 Y93.288 E0.58191
G1 X109.513 Y93.264 E0.5915
G1 X110.186 Y93.222 E0.61617
G1 X111.643 Y93.177 E0.6695
G1 X111.845 Y93.161 E0.67692
G1 X113.12 Y93.123 E0.72358
G1 X115.634 Y92.976 E0.81572
G1 X118.141 Y92.758 E0.90779
G1 X119.474 Y92.611 E0.95685
G1 X120.01 Y92.563 E0.97654
G1 X120.638 Y92.525 E0.99956
G1 X120.914 Y92.516 E1.00966
G1 X121.593 Y92.515 E1.0345
G1 X121.838 Y92.522 E1.04347
G1 X122.511 Y92.561 E1.06813
G1 X122.779 Y92.585 E1.07798
G1 X123.462 Y92.668 E1.10315
G1 X123.744 Y92.711 E1.11359
G1 X124.416 Y92.835 E1.13859
G1 X124.726 Y92.902 E1.15019
G1 X125.409 Y93.072 E1.17594
G1 X126.132 Y93.291 E1.20358
G1 X126.372 Y93.372 E1.21285
G1 X127.064 Y93.631 E1.23988
G1 X127.85 Y93.972 E1.27123
G1 X128.463 Y94.271 E1.29618
G1 X129.292 Y94.704 E1.3304
G1 X129.778 Y94.966 E1.3506
G1 X132.08 Y96.127 E1.44492
G1 X134.295 Y97.169 E1.53448
G1 X136.659 Y98.199 E1.62882
G1 X138.943 Y99.119 E1.71891
G1 X142.293 Y100.338 E1.84934
G1 X143.048 Y100.605 E1.87864
G1 X143.831 Y100.916 E1.90946
G1 X144.621 Y101.286 E1.94138
G1 X144.899 Y101.429 E1.95281
G1 X145.522 Y101.775 E1.97889
G1 X145.781 Y101.93 E1.98993
G1 X146.375 Y102.312 E2.01577
G1 X147.032 Y102.782 E2.04532
G1 X147.737 Y103.349 E2.07842
G1 X148.008 Y103.585 E2.09157
G1 X148.567 Y104.107 E2.11955
G1 X149.14 Y104.704 E2.14983
G1 X149.699 Y105.352 E2.18114
G1 X149.888 Y105.588 E2.1922
G1 X150.413 Y106.296 E2.22445
G1 X150.807 Y106.891 E2.25056
G1 X150.979 Y107.17 E2.26255
G1 X151.377 Y107.867 E2.29191
G1 X151.731 Y108.573 E2.32081
G1 X152.072 Y109.352 E2.35192
G1 X152.158 Y109.568 E2.36042
G1 X152.398 Y110.232 E2.38626
G1 X152.489 Y110.511 E2.39699
G1 X152.72 Y111.315 E2.4276
G1 X152.897 Y112.113 E2.4575
G1 X152.998 Y112.661 E2.47789
G1 X153.148 Y113.809 E2.52025
G1 X153.174 Y114.142 E2.53247
G1 X153.206 Y114.823 E2.55741
G1 X153.21 Y115.066 E2.5663
G1 X153.201 Y115.747 E2.59122
G1 X153.189 Y116.014 E2.601
G1 X153.138 Y116.69 E2.6258
G1 X153.038 Y117.527 E2.65664
G1 X152.863 Y118.464 E2.69152
G1 X152.761 Y118.905 E2.70808
G1 X152.485 Y119.89 E2.7455
G1 X152.357 Y120.277 E2.76041
G1 X152.021 Y121.164 E2.79512
G1 X151.877 Y121.5 E2.80849
G1 X151.386 Y122.502 E2.84931
G1 X151.148 Y122.932 E2.8673
G1 X150.724 Y123.635 E2.89733
G1 X150.582 Y123.852 E2.90682
G1 X150.138 Y124.481 E2.93499
G1 X149.956 Y124.721 E2.94601
G1 X149.482 Y125.306 E2.97355
G1 X148.94 Y125.9 E3.00297
G1 X148.577 Y126.27 E3.02194
G1 X147.728 Y127.05 E3.06412
G1 X147.41 Y127.313 E3.07922
G1 X146.796 Y127.786 E3.10757
G1 X146.578 Y127.942 E3.11738
G1 X145.992 Y128.333 E3.14315
G1 X143.774 Y129.716 E3.23878
G1 X141.677 Y131.102 E3.33075
G1 X139.628 Y132.542 E3.42238
G1 X137.574 Y134.072 E3.51608
G1 X135.633 Y135.606 E3.60659
G1 X133.165 Y137.688 E3.72473
G1 X132.506 Y138.257 E3.75658
G1 X132.321 Y138.409 E3.76534
G1 X131.808 Y138.806 E3.78907
G1 X131.521 Y139.015 E3.80206
G1 X130.579 Y139.631 E3.84324
G1 X130.164 Y139.873 E3.86082
G1 X129.356 Y140.3 E3.89425
G1 X129.065 Y140.439 E3.90605
G1 X128.124 Y140.836 E3.94342
G1 X127.704 Y140.991 E3.9598
G1 X126.813 Y141.278 E3.99405
G1 X126.465 Y141.374 E4.00725
G1 X125.382 Y141.615 E4.04785
G1 X124.902 Y141.697 E4.06566
G1 X124.025 Y141.812 E4.09802
G1 X123.163 Y141.87 E4.12963
G1 X122.099 Y141.903 E4.16858
G1 X120.538 Y141.927 E4.22569
G1 X118.047 Y142.036 E4.31692
G1 X115.49 Y142.22 E4.41071
G1 X113.307 Y142.421 E4.49092
G1 X112.663 Y142.462 E4.51452
G1 X112.365 Y142.472 E4.52543
G1 X111.652 Y142.473 E4.55152
G1 X111.392 Y142.465 E4.56104
G1 X110.736 Y142.425 E4.58508
G1 X110.492 Y142.403 E4.59404
G1 X109.829 Y142.323 E4.61848
G1 X109.505 Y142.274 E4.63047
G1 X108.643 Y142.111 E4.66256
G1 X107.806 Y141.9 E4.69414
G1 X107.139 Y141.695 E4.71967
G1 X106.773 Y141.57 E4.73382
G1 X105.842 Y141.205 E4.77041
G1 X105.492 Y141.049 E4.78443
G1 X104.594 Y140.599 E4.82118
G1 X104.281 Y140.424 E4.8343
G1 X103.631 Y140.03 E4.8621
G1 X103.297 Y139.812 E4.8767
G1 X102.352 Y139.122 E4.91951
G1 X102.028 Y138.858 E4.9348
G1 X101.352 Y138.262 E4.96777
G1 X100.872 Y137.792 E4.99235
G1 X100.684 Y137.596 E5.00228
G1 X100.237 Y137.101 E5.02669
G1 X100.05 Y136.881 E5.03725
G1 X99.599 Y136.313 E5.06378
G1 X99.408 Y136.056 E5.0755
G1 X98.904 Y135.318 E5.1082
G1 X98.327 Y134.394 E5.14805
G1 X96.926 Y132.209 E5.24301
G1 X95.528 Y130.156 E5.33389
G1 X93.448 Y127.293 E5.46336
G1 X93.011 Y126.644 E5.49198
G1 X92.724 Y126.184 E5.51182
G1 X92.197 Y125.239 E5.55141
G1 X92.076 Y124.995 E5.56137
G1 X91.714 Y124.186 E5.5938
G1 X91.522 Y123.706 E5.61271
G1 X91.13 Y122.543 E5.65761
G1 X91.018 Y122.138 E5.67299
G1 X90.783 Y121.096 E5.71207
G1 X90.702 Y120.634 E5.72923
G1 X90.58 Y119.718 E5.76304
G1 X90.556 Y119.453 E5.77277
G1 X90.517 Y118.816 E5.79612
G1 X90.508 Y118.542 E5.80615
G1 X90.506 Y117.864 E5.83095
G1 X90.513 Y117.617 E5.84
G1 X90.553 Y116.941 E5.86477
G1 X90.577 Y116.673 E5.87462
G1 X90.661 Y115.985 E5.89997
G1 X90.711 Y115.658 E5.91208
G1 X90.92 Y114.621 E5.95078
G1 X91.032 Y114.177 E5.96753
G1 X91.295 Y113.292 E6.00131
G1 X91.415 Y112.942 E6.01485
G1 X91.686 Y112.23 E6.04272
G1 X91.952 Y111.632 E6.06666
G1 X92.134 Y111.253 E6.08205
G1 X92.435 Y110.67 E6.10605
G1 X92.894 Y109.843 E6.14066
G1 X94.146 Y107.512 E6.23746
G1 X95.249 Y105.311 E6.32753
G1 X96.781 Y102.019 E6.46038
G1 F2700 E1.46038
G0 F2100 X94.526 Y107.734
G1 F2700 E6.46038
G1 F1200 X95.64 Y105.511 E6.55135
G1 X97.179 Y102.205 E6.68477
G1 X97.618 Y101.363 E6.71951
G1 X97.787 Y101.071 E6.73185
G1 X98.106 Y100.554 E6.75408
G1 X98.252 Y100.332 E6.7638
G1 X98.666 Y99.747 E6.79002
G1 X98.845 Y99.511 E6.80086
G1 X99.521 Y98.705 E6.83934
G1 X99.89 Y98.307 E6.8592
G1 X100.439 Y97.757 E6.88763
G1 X101.085 Y97.183 E6.91925
G1 X101.276 Y97.026 E6.92829
G1 X101.77 Y96.644 E6.95114
G1 X102.057 Y96.435 E6.96413
G1 X102.962 Y95.843 E7.0037
G1 X103.377 Y95.601 E7.02127
G1 X104.152 Y95.191 E7.05335
G1 X104.443 Y95.052 E7.06515
G1 X105.237 Y94.709 E7.09679
G1 X105.944 Y94.449 E7.12435
G1 X106.689 Y94.224 E7.15282
G1 X107.216 Y94.085 E7.17277
G1 X108.321 Y93.855 E7.21406
G1 X108.654 Y93.804 E7.22638
G1 X109.292 Y93.726 E7.2499
G1 X109.553 Y93.702 E7.25949
G1 X110.2 Y93.662 E7.28321
G1 X111.561 Y93.62 E7.33302
G1 X111.858 Y93.601 E7.34391
G1 X113.125 Y93.563 E7.39029
G1 X115.662 Y93.415 E7.48326
G1 X118.189 Y93.195 E7.57607
G1 X119.513 Y93.049 E7.6248
G1 X120.049 Y93.001 E7.64449
G1 X120.653 Y92.965 E7.66663
G1 X120.929 Y92.956 E7.67673
G1 X121.58 Y92.954 E7.70055
G1 X121.825 Y92.961 E7.70951
G1 X122.472 Y92.999 E7.73323
G1 X122.74 Y93.023 E7.74307
G1 X123.396 Y93.103 E7.76725
G1 X123.678 Y93.146 E7.77769
G1 X124.323 Y93.265 E7.80168
G1 X124.633 Y93.332 E7.81329
G1 X125.289 Y93.495 E7.83802
G1 X125.991 Y93.708 E7.86486
G1 X126.231 Y93.789 E7.87412
G1 X126.896 Y94.038 E7.9001
G1 X127.661 Y94.37 E7.93061
G1 X128.261 Y94.662 E7.95503
G1 X129.083 Y95.091 E7.98895
G1 X129.596 Y95.368 E8.01028
G1 X131.862 Y96.511 E8.10313
G1 X134.143 Y97.583 E8.19534
G1 X136.458 Y98.591 E8.28772
G1 X138.777 Y99.526 E8.3792
G1 X142.228 Y100.782 E8.51356
G1 X142.901 Y101.02 E8.53968
G1 X143.653 Y101.319 E8.56929
G1 X144.42 Y101.678 E8.60027
G1 X144.698 Y101.821 E8.61171
G1 X145.296 Y102.153 E8.63673
G1 X145.555 Y102.308 E8.64777
G1 X146.126 Y102.675 E8.67261
G1 X146.765 Y103.131 E8.70133
G1 X147.448 Y103.681 E8.73341
G1 X147.719 Y103.917 E8.74656
G1 X148.256 Y104.418 E8.77343
G1 X148.813 Y104.997 E8.80282
G1 X149.356 Y105.627 E8.83325
G1 X149.545 Y105.863 E8.84431
G1 X150.054 Y106.551 E8.87563
G1 X150.432 Y107.122 E8.90068
G1 X150.604 Y107.401 E8.91267
G1 X150.991 Y108.078 E8.9412
G1 X151.331 Y108.756 E8.96895
G1 X151.663 Y109.515 E8.99926
G1 X151.749 Y109.731 E9.00777
G1 X151.98 Y110.368 E9.03256
G1 X152.071 Y110.647 E9.04329
G1 X152.294 Y111.427 E9.07297
G1 X152.464 Y112.193 E9.10168
G1 X152.565 Y112.741 E9.12207
G1 X152.71 Y113.843 E9.16273
G1 X152.736 Y114.176 E9.17495
G1 X152.767 Y114.831 E9.19894
G1 X152.771 Y115.074 E9.20784
G1 X152.761 Y115.728 E9.23177
G1 X152.749 Y115.995 E9.24154
G1 X152.7 Y116.643 E9.26532
G1 X152.603 Y117.461 E9.29546
G1 X152.434 Y118.365 E9.3291
G1 X152.332 Y118.806 E9.34566
G1 X152.067 Y119.751 E9.38157
G1 X151.939 Y120.138 E9.39648
G1 X151.616 Y120.99 E9.42982
G1 X151.472 Y121.326 E9.44319
G1 X151.001 Y122.289 E9.48242
G1 X150.763 Y122.719 E9.5004
G1 X150.356 Y123.394 E9.52923
G1 X150.214 Y123.611 E9.53872
G1 X149.788 Y124.215 E9.56576
G1 X149.606 Y124.455 E9.57678
G1 X149.146 Y125.022 E9.6035
G1 X148.626 Y125.591 E9.6317
G1 X148.263 Y125.961 E9.65066
G1 X147.448 Y126.711 E9.69118
G1 X147.13 Y126.974 E9.70628
G1 X146.54 Y127.428 E9.73352
G1 X146.322 Y127.584 E9.74333
G1 X145.759 Y127.96 E9.76809
G1 X143.525 Y129.354 E9.86444
G1 X141.434 Y130.735 E9.95612
G1 X139.364 Y132.19 E10.04869
G1 X137.313 Y133.717 E10.14224
G1 X135.371 Y135.252 E10.2328
G1 X132.845 Y137.383 E10.35371
G1 X132.226 Y137.917 E10.38362
G1 X131.549 Y138.45 E10.41515
G1 X131.262 Y138.659 E10.42814
G1 X130.357 Y139.251 E10.4677
G1 X129.942 Y139.493 E10.48528
G1 X129.167 Y139.903 E10.51736
G1 X128.876 Y140.042 E10.52915
G1 X127.972 Y140.424 E10.56506
G1 X127.552 Y140.579 E10.58144
G1 X126.696 Y140.854 E10.61433
G1 X126.348 Y140.95 E10.62754
G1 X125.308 Y141.182 E10.66653
G1 X124.828 Y141.264 E10.68434
G1 X123.985 Y141.373 E10.71544
G1 X123.149 Y141.431 E10.7461
G1 X122.092 Y141.463 E10.78479
G1 X120.546 Y141.487 E10.84136
G1 X117.996 Y141.599 E10.93474
G1 X115.471 Y141.78 E11.02736
G1 X113.267 Y141.983 E11.10834
G1 X112.649 Y142.022 E11.13099
G1 X112.351 Y142.032 E11.1419
G1 X111.665 Y142.033 E11.167
G1 X111.405 Y142.025 E11.17652
G1 X110.776 Y141.987 E11.19957
G1 X110.532 Y141.965 E11.20853
G1 X109.895 Y141.888 E11.23201
G1 X109.571 Y141.839 E11.244
G1 X108.735 Y141.68 E11.27513
G1 X107.922 Y141.475 E11.30581
G1 X107.282 Y141.279 E11.3303
G1 X106.916 Y141.154 E11.34445
G1 X106.021 Y140.803 E11.37962
G1 X105.671 Y140.647 E11.39364
G1 X104.809 Y140.214 E11.42893
G1 X104.496 Y140.039 E11.44205
G1 X103.872 Y139.662 E11.46872
G1 X103.538 Y139.444 E11.48332
G1 X102.63 Y138.781 E11.52445
G1 X102.306 Y138.517 E11.53974
G1 X101.65 Y137.939 E11.57173
G1 X101.19 Y137.487 E11.59532
G1 X101.002 Y137.291 E11.60526
G1 X100.573 Y136.816 E11.62868
G1 X100.386 Y136.596 E11.63924
G1 X99.952 Y136.051 E11.66473
G1 X99.761 Y135.794 E11.67644
G1 X99.277 Y135.085 E11.70785
G1 X98.677 Y134.125 E11.74927
G1 X97.294 Y131.968 E11.84301
G1 X95.882 Y129.893 E11.93484
G1 X93.804 Y127.034 E12.06415
G1 X93.384 Y126.411 E12.09164
G1 X93.097 Y125.951 E12.11148
G1 X92.591 Y125.044 E12.14947
G1 X92.47 Y124.8 E12.15944
G1 X92.122 Y124.023 E12.19059
G1 X91.93 Y123.543 E12.2095
G1 X91.554 Y122.425 E12.25265
G1 X91.442 Y122.02 E12.26803
G1 X91.216 Y121.02 E12.30554
G1 X91.135 Y120.558 E12.3227
G1 X91.018 Y119.678 E12.35518
G1 X90.994 Y119.413 E12.36491
G1 X90.957 Y118.802 E12.38731
G1 X90.948 Y118.528 E12.39734
G1 X90.946 Y117.876 E12.42119
G1 X90.953 Y117.629 E12.43023
G1 X90.991 Y116.98 E12.45402
G1 X91.015 Y116.712 E12.46386
G1 X91.095 Y116.052 E12.48818
G1 X91.145 Y115.725 E12.50029
G1 X91.347 Y114.729 E12.53747
G1 X91.459 Y114.285 E12.55422
G1 X91.711 Y113.435 E12.58666
G1 X91.831 Y113.085 E12.6002
G1 X92.093 Y112.397 E12.62713
G1 X92.349 Y111.822 E12.65016
G1 X92.531 Y111.443 E12.66554
G1 X92.82 Y110.884 E12.68856
G1 X93.272 Y110.069 E12.72266
G1 X94.526 Y107.734 E12.81963
G1 F2700 E7.81963
G0 F2100 X91.386 Y117.888
G1 F2700 E12.81963
G1 F1200 X91.393 Y117.641 E12.82867
G1 X91.43 Y117.019 E12.85147
G1 X91.454 Y116.751 E12.86131
G1 X91.53 Y116.118 E12.88464
G1 X91.58 Y115.791 E12.89674
G1 X91.773 Y114.836 E12.93238
G1 X91.885 Y114.392 E12.94914
G1 X92.127 Y113.577 E12.98024
G1 X92.247 Y113.227 E12.99378
G1 X92.5 Y112.564 E13.01974
G1 X92.745 Y112.013 E13.0418
G1 X92.927 Y111.634 E13.05719
G1 X93.205 Y111.097 E13.07931
G1 X93.667 Y110.265 E13.11413
G1 X94.906 Y107.956 E13.21
G1 X96.046 Y105.683 E13.30303
G1 X97.578 Y102.391 E13.43588
G1 X97.999 Y101.584 E13.46918
G1 X98.168 Y101.292 E13.48152
G1 X98.474 Y100.795 E13.50287
G1 X98.62 Y100.573 E13.51259
G1 X99.016 Y100.013 E13.53769
G1 X99.195 Y99.777 E13.54853
G1 X99.843 Y99.005 E13.5854
G1 X100.212 Y98.607 E13.60526
G1 X100.739 Y98.079 E13.63255
G1 X101.364 Y97.523 E13.66316
G1 X101.555 Y97.366 E13.6722
G1 X102.029 Y96.999 E13.69413
G1 X102.316 Y96.79 E13.70712
G1 X103.184 Y96.223 E13.74505
G1 X103.599 Y95.981 E13.76263
G1 X104.342 Y95.588 E13.79338
G1 X104.633 Y95.449 E13.80518
G1 X105.402 Y95.117 E13.83583
G1 X106.087 Y94.866 E13.86252
G1 X106.802 Y94.649 E13.88985
G1 X107.329 Y94.51 E13.9098
G1 X108.388 Y94.29 E13.94937
G1 X108.721 Y94.239 E13.96169
G1 X109.332 Y94.164 E13.98421
G1 X109.593 Y94.14 E13.9938
G1 X110.213 Y94.102 E14.01653
G1 X111.715 Y94.056 E14.07151
G1 X111.872 Y94.041 E14.07728
G1 X113.126 Y94.003 E14.12318
G1 X115.691 Y93.853 E14.21718
G1 X118.236 Y93.632 E14.31064
G1 X119.552 Y93.488 E14.35908
G1 X120.088 Y93.44 E14.37877
G1 X120.667 Y93.404 E14.39999
G1 X120.943 Y93.395 E14.41009
G1 X121.568 Y93.394 E14.43296
G1 X121.813 Y93.401 E14.44193
G1 X122.433 Y93.438 E14.46465
G1 X122.701 Y93.462 E14.4745
G1 X123.33 Y93.538 E14.49768
G1 X123.612 Y93.581 E14.50811
G1 X124.23 Y93.695 E14.5311
G1 X124.54 Y93.762 E14.54271
G1 X125.37 Y93.976 E14.57407
G1 X126.09 Y94.206 E14.60172
G1 X126.728 Y94.445 E14.62665
G1 X127.472 Y94.767 E14.65631
G1 X128.058 Y95.052 E14.68015
G1 X128.874 Y95.478 E14.71383
G1 X129.399 Y95.762 E14.73566
G1 X131.659 Y96.901 E14.82826
G1 X133.962 Y97.984 E14.92137
G1 X136.287 Y98.997 E15.01415
G1 X138.645 Y99.947 E15.10716
G1 X142.037 Y101.182 E15.23923
G1 X142.754 Y101.435 E15.26705
G1 X143.476 Y101.721 E15.29546
G1 X144.219 Y102.069 E15.32548
G1 X144.497 Y102.212 E15.33691
G1 X145.07 Y102.53 E15.36089
G1 X145.329 Y102.685 E15.37193
G1 X145.876 Y103.037 E15.39573
G1 X146.497 Y103.481 E15.42366
G1 X147.159 Y104.013 E15.45473
G1 X147.43 Y104.249 E15.46788
G1 X147.945 Y104.729 E15.49364
G1 X148.485 Y105.291 E15.52215
G1 X149.012 Y105.902 E15.55167
G1 X149.201 Y106.138 E15.56273
G1 X149.695 Y106.805 E15.5931
G1 X150.058 Y107.353 E15.61715
G1 X150.23 Y107.632 E15.62914
G1 X150.605 Y108.289 E15.65682
G1 X150.93 Y108.939 E15.68341
G1 X151.254 Y109.678 E15.71293
G1 X151.34 Y109.894 E15.72143
G1 X151.561 Y110.505 E15.74521
G1 X151.652 Y110.784 E15.75594
G1 X151.868 Y111.538 E15.78464
