;FLAVOR:Marlin
;TIME:735
;Filament used: 0.28024m
;Layer height: 0.15
;MINX:99.263
;MINY:96.5
;MINZ:0.2
;MAXX:135.737
;MAXY:138.5
;MAXZ:4.25
;Generated with Cura_SteamEngine 5.0.0
M140 S60
M105
M190 S60
M104 S222
M105
M109 S222
M82 ;absolute extrusion mode
; Ender 3 Custom Start G-code
G92 E0 ; Reset Extruder
M140 S60 ; Start heating the heated bed
M190 S60 ; Wait until the heated bed reaches the desired temperature
G28 ; Auto Home
G29 A; Activate Bed Leveling
G29 L0; Loads the saved mesh in slot 0
G29  J3; 9 point autotilt

G92 E0 ; Reset extruder origin
G1 Z2.0 F3000 ; Move Z Axis up little to prevent scratching of Heat Bed
G1 X0.1 Y20 Z0.3 F5000.0 ; Move to start position
G1 X0.1 Y200.0 Z0.3 F1500.0 E15 ; Draw the first line
G1 X0.4 Y200.0 Z0.3 F5000.0 ; Move to side a little
G1 X0.4 Y20 Z0.3 F1500.0 E30 ; Draw the second line
G92 E0 ; Reset Extruder
G1 Z2.0 F3000 ; Move Z Axis up little to prevent scratching of Heat Bed
G1 X5 Y20 Z0.3 F5000.0 ; Move over to prevent blob squish

; End of Ender 3 Custom Start G-code
G92 E0
G92 E0
G1 F2700 E-5
;LAYER_COUNT:28
;LAYER:0
M107
G0 F2100 X102.463 Y99.821 Z0.2
G0 X99.264 Y108.124
;TYPE:SKIRT
G1 F2700 E0
G1 F1200 X99.273 Y107.459 E0.02433
G1 X99.326 Y106.518 E0.05881
G1 X99.458 Y105.585 E0.09329
G1 X99.669 Y104.667 E0.12775
G1 X99.957 Y103.77 E0.16222
G1 X100.32 Y102.901 E0.19667
G1 X100.755 Y102.065 E0.23115
G1 X101.26 Y101.27 E0.26561
G1 X101.831 Y100.52 E0.3001
G1 X102.463 Y99.821 E0.33458
G1 X103.151 Y99.179 E0.369
G1 X103.892 Y98.597 E0.40348
G1 X104.68 Y98.08 E0.43796
G1 X105.509 Y97.631 E0.47245
G1 X106.372 Y97.255 E0.50689
G1 X107.265 Y96.953 E0.54138
G1 X108.179 Y96.728 E0.57582
G1 X109.11 Y96.581 E0.6103
G1 X110.061 Y96.513 E0.64518
G1 X110.693 Y96.5 E0.66831
G1 X123.93 Y96.5 E1.1526
G1 X124.787 Y96.511 E1.18396
G1 X125.728 Y96.565 E1.21844
G1 X126.66 Y96.698 E1.25289
G1 X127.578 Y96.909 E1.28735
G1 X128.475 Y97.198 E1.32183
G1 X129.344 Y97.562 E1.3563
G1 X130.179 Y97.998 E1.39076
G1 X130.974 Y98.503 E1.42522
G1 X131.724 Y99.074 E1.45971
G1 X132.422 Y99.707 E1.49418
G1 X133.064 Y100.396 E1.52863
G1 X133.646 Y101.137 E1.56311
G1 X134.162 Y101.925 E1.59757
G1 X134.61 Y102.754 E1.63204
G1 X134.985 Y103.618 E1.6665
G1 X135.287 Y104.511 E1.70099
G1 X135.511 Y105.426 E1.73546
G1 X135.657 Y106.357 E1.76994
G1 X135.724 Y107.298 E1.80445
G1 X135.737 Y107.93 E1.82758
G1 X135.736 Y112.302 E1.98753
G1 X135.72 Y113.197 E2.02028
G1 X135.644 Y115.85 E2.11738
G1 X135.644 Y118.382 E2.21002
G1 X135.737 Y121.962 E2.34104
G1 X135.736 Y126.801 E2.51808
G1 X135.727 Y127.528 E2.54468
G1 X135.676 Y128.469 E2.57916
G1 X135.544 Y129.402 E2.61364
G1 X135.334 Y130.321 E2.64813
G1 X135.047 Y131.218 E2.68258
G1 X134.685 Y132.088 E2.71706
G1 X134.251 Y132.924 E2.75152
G1 X133.747 Y133.72 E2.78599
G1 X133.178 Y134.47 E2.82043
G1 X132.546 Y135.17 E2.85494
G1 X131.858 Y135.813 E2.88939
G1 X131.118 Y136.396 E2.92386
G1 X130.331 Y136.914 E2.95833
G1 X129.503 Y137.363 E2.99279
G1 X128.64 Y137.741 E3.02726
G1 X127.748 Y138.044 E3.06172
G1 X126.833 Y138.27 E3.09621
G1 X125.903 Y138.418 E3.13066
G1 X124.939 Y138.487 E3.16602
G1 X124.307 Y138.5 E3.18915
G1 X110.927 Y138.499 E3.67867
G1 X110.229 Y138.49 E3.70421
G1 X109.288 Y138.438 E3.73869
G1 X108.355 Y138.306 E3.77316
G1 X107.437 Y138.096 E3.80762
G1 X106.54 Y137.808 E3.84208
G1 X105.67 Y137.446 E3.87656
G1 X104.834 Y137.011 E3.91104
G1 X104.039 Y136.507 E3.94548
G1 X103.288 Y135.937 E3.97997
G1 X102.589 Y135.305 E4.01445
G1 X101.946 Y134.617 E4.0489
G1 X101.364 Y133.876 E4.08337
G1 X100.846 Y133.089 E4.11784
G1 X100.397 Y132.261 E4.1523
G1 X100.02 Y131.397 E4.18679
G1 X99.718 Y130.505 E4.22125
G1 X99.492 Y129.591 E4.25569
G1 X99.345 Y128.66 E4.29018
G1 X99.276 Y127.691 E4.32572
G1 X99.263 Y127.058 E4.34888
G1 X99.264 Y108.124 E5.04161
G0 F2100 X99.704 Y108.13
G1 F1200 X99.713 Y107.465 E5.06594
G1 X99.765 Y106.543 E5.09972
G1 X99.897 Y105.629 E5.13351
G1 X100.108 Y104.73 E5.1673
G1 X100.396 Y103.853 E5.20107
G1 X100.758 Y103.004 E5.23483
G1 X101.193 Y102.189 E5.26863
G1 X101.696 Y101.415 E5.30241
G1 X102.264 Y100.688 E5.33616
G1 X102.894 Y100.012 E5.36997
G1 X103.579 Y99.394 E5.40372
G1 X104.315 Y98.837 E5.43749
G1 X105.097 Y98.346 E5.47127
G1 X105.919 Y97.924 E5.50508
G1 X106.773 Y97.575 E5.53883
G1 X107.655 Y97.301 E5.57262
G1 X108.557 Y97.105 E5.60639
G1 X109.473 Y96.987 E5.64018
G1 X110.073 Y96.953 E5.66217
G1 X110.693 Y96.94 E5.68486
G1 X123.93 Y96.94 E6.16915
G1 X124.781 Y96.951 E6.20029
G1 X125.702 Y97.004 E6.23404
G1 X126.616 Y97.137 E6.26783
G1 X127.515 Y97.348 E6.30161
G1 X128.392 Y97.637 E6.3354
G1 X129.241 Y98 E6.36918
G1 X130.055 Y98.435 E6.40295
G1 X130.829 Y98.939 E6.43674
G1 X131.556 Y99.508 E6.47051
G1 X132.231 Y100.138 E6.50429
G1 X132.849 Y100.824 E6.53808
G1 X133.405 Y101.56 E6.57182
G1 X133.896 Y102.343 E6.60564
G1 X134.317 Y103.164 E6.63939
G1 X134.665 Y104.019 E6.67317
G1 X134.938 Y104.901 E6.70694
G1 X135.134 Y105.803 E6.74072
G1 X135.251 Y106.719 E6.7745
G1 X135.284 Y107.31 E6.79616
G1 X135.297 Y107.93 E6.81885
G1 X135.296 Y112.295 E6.97854
G1 X135.281 Y113.184 E7.01107
G1 X135.204 Y115.872 E7.10946
G1 X135.204 Y118.394 E7.20173
G1 X135.297 Y121.962 E7.33231
G1 X135.296 Y126.796 E7.50917
G1 X135.287 Y127.523 E7.53577
G1 X135.236 Y128.445 E7.56955
G1 X135.105 Y129.359 E7.60333
G1 X134.895 Y130.258 E7.63711
G1 X134.609 Y131.136 E7.67089
G1 X134.247 Y131.985 E7.70466
G1 X133.814 Y132.8 E7.73843
G1 X133.311 Y133.575 E7.77223
G1 X132.744 Y134.303 E7.80599
G1 X132.115 Y134.979 E7.83977
G1 X131.43 Y135.599 E7.87357
G1 X130.695 Y136.156 E7.90731
G1 X129.913 Y136.648 E7.94112
G1 X129.093 Y137.071 E7.97487
G1 X128.238 Y137.421 E8.00867
G1 X127.357 Y137.696 E8.04244
G1 X126.455 Y137.893 E8.07622
G1 X125.539 Y138.012 E8.11001
G1 X124.927 Y138.047 E8.13244
G1 X124.307 Y138.06 E8.15513
G1 X110.933 Y138.059 E8.64443
G1 X110.235 Y138.05 E8.66997
G1 X109.313 Y137.998 E8.70376
G1 X108.399 Y137.867 E8.73754
G1 X107.5 Y137.657 E8.77132
G1 X106.622 Y137.37 E8.80511
G1 X105.773 Y137.008 E8.83888
G1 X104.958 Y136.574 E8.87266
G1 X104.184 Y136.071 E8.90643
G1 X103.456 Y135.503 E8.94022
G1 X102.78 Y134.874 E8.974
G1 X102.161 Y134.189 E9.00778
G1 X101.604 Y133.453 E9.04155
G1 X101.112 Y132.672 E9.07532
G1 X100.69 Y131.851 E9.10909
G1 X100.34 Y130.996 E9.14289
G1 X100.066 Y130.115 E9.17664
G1 X99.869 Y129.213 E9.21042
G1 X99.751 Y128.297 E9.24421
G1 X99.716 Y127.679 E9.26686
G1 X99.703 Y127.058 E9.28958
G1 X99.704 Y108.13 E9.98209
G0 F2100 X100.144 Y108.136
G1 F1200 X100.153 Y107.471 E10.00642
G1 X100.205 Y106.568 E10.03951
G1 X100.337 Y105.674 E10.07257
G1 X100.547 Y104.795 E10.10564
G1 X100.834 Y103.937 E10.13874
G1 X101.196 Y103.109 E10.1718
G1 X101.63 Y102.316 E10.20487
G1 X102.131 Y101.564 E10.23793
G1 X102.698 Y100.859 E10.27103
G1 X103.324 Y100.208 E10.30408
G1 X104.006 Y99.614 E10.33717
G1 X104.737 Y99.083 E10.37022
G1 X105.513 Y98.618 E10.40332
G1 X106.326 Y98.224 E10.43637
G1 X107.172 Y97.903 E10.46948
G1 X108.042 Y97.658 E10.50255
G1 X108.93 Y97.491 E10.5356
G1 X110.086 Y97.393 E10.57805
G1 X110.693 Y97.38 E10.60026
G1 X123.93 Y97.38 E11.08455
G1 X124.774 Y97.391 E11.11543
G1 X125.677 Y97.444 E11.14853
G1 X126.571 Y97.576 E11.18159
G1 X127.45 Y97.787 E11.21466
G1 X128.307 Y98.075 E11.24774
G1 X129.135 Y98.438 E11.28082
G1 X129.928 Y98.872 E11.31389
G1 X130.68 Y99.374 E11.34697
G1 X131.384 Y99.941 E11.38004
G1 X132.035 Y100.568 E11.41311
G1 X132.628 Y101.25 E11.44618
G1 X133.159 Y101.982 E11.47926
G1 X133.623 Y102.758 E11.51234
G1 X134.016 Y103.572 E11.54541
G1 X134.336 Y104.417 E11.57847
G1 X134.581 Y105.288 E11.61157
G1 X134.747 Y106.176 E11.64462
G1 X134.844 Y107.323 E11.68674
G1 X134.857 Y107.93 E11.70895
G1 X134.856 Y112.288 E11.86839
G1 X134.841 Y113.172 E11.90074
G1 X134.764 Y115.86 E11.99912
G1 X134.764 Y118.406 E12.09227
G1 X134.857 Y121.962 E12.22242
G1 X134.856 Y126.791 E12.39909
G1 X134.847 Y127.518 E12.42569
G1 X134.796 Y128.42 E12.45874
G1 X134.665 Y129.315 E12.49184
G1 X134.456 Y130.194 E12.52489
G1 X134.17 Y131.051 E12.55795
G1 X133.809 Y131.88 E12.59103
G1 X133.377 Y132.674 E12.6241
G1 X132.875 Y133.427 E12.65721
G1 X132.31 Y134.132 E12.69026
G1 X131.684 Y134.784 E12.72333
G1 X131.003 Y135.379 E12.75642
G1 X130.272 Y135.911 E12.7895
G1 X129.498 Y136.376 E12.82253
G1 X128.684 Y136.771 E12.85563
G1 X127.84 Y137.093 E12.88868
G1 X126.97 Y137.339 E12.92176
G1 X126.082 Y137.507 E12.95483
G1 X124.914 Y137.607 E12.99771
G1 X124.307 Y137.62 E13.01993
G1 X110.938 Y137.619 E13.50905
G1 X110.24 Y137.61 E13.53459
G1 X109.338 Y137.559 E13.56764
G1 X108.443 Y137.427 E13.60074
G1 X107.564 Y137.218 E13.6338
G1 X106.707 Y136.931 E13.66686
G1 X105.878 Y136.57 E13.69994
G1 X105.084 Y136.137 E13.73303
G1 X104.332 Y135.635 E13.76611
G1 X103.627 Y135.069 E13.79919
G1 X102.975 Y134.443 E13.83226
G1 X102.381 Y133.762 E13.86532
G1 X101.849 Y133.031 E13.89839
G1 X101.384 Y132.256 E13.93146
G1 X100.989 Y131.443 E13.96453
G1 X100.668 Y130.598 E13.9976
G1 X100.423 Y129.728 E14.03067
G1 X100.255 Y128.839 E14.06377
G1 X100.156 Y127.667 E14.1068
G1 X100.143 Y127.058 E14.12909
G1 X100.144 Y108.136 E14.82137
G1 F2700 E9.82137
G0 F2100 X109.71 Y106.947
G0 X125.29 Y106.947
G0 X125.29 Y113.485
G0 X119.801 Y117.5
G0 X119.674 Y117.786
G1 F2700 E14.82137
G1 F1200 X119.801 Y117.5 E14.83282
G1 X119.962 Y117.688 E14.84188
G1 X119.878 Y117.878 E14.84948
G1 X119.674 Y117.786 E14.85766
G0 F2100 X117.382 Y117.923
G1 F1200 X117.412 Y117.676 E14.86677
G1 X117.587 Y117.874 E14.87643
G1 X117.834 Y118.036 E14.88724
G1 X118.116 Y118.126 E14.89807
G1 X118.412 Y118.137 E14.90891
G1 X118.7 Y118.069 E14.91974
G1 X118.949 Y117.934 E14.9301
G1 X119.207 Y117.699 E14.94287
G1 X119.359 Y117.446 E14.95366
G1 X119.439 Y117.161 E14.96449
G1 X119.439 Y116.865 E14.97532
G1 X119.361 Y116.579 E14.98617
G1 X119.209 Y116.325 E14.997
G1 X118.997 Y116.122 E15.00774
G1 X118.666 Y115.93 E15.02174
G1 X118.375 Y115.864 E15.03265
G1 X118.325 Y115.712 E15.03851
G1 X118.161 Y115.466 E15.04933
G1 X118.011 Y115.327 E15.05681
G1 X118.262 Y115.327 E15.06599
G1 X118.506 Y115.294 E15.075
G1 X118.8 Y115.66 E15.09218
G1 X119.014 Y115.864 E15.10299
G1 X119.276 Y116.003 E15.11384
G1 X119.564 Y116.068 E15.12464
G1 X119.86 Y116.053 E15.13549
G1 X120.141 Y115.96 E15.14632
G1 X120.191 Y115.926 E15.14853
G1 X120.04 Y116.175 E15.15918
G1 X119.96 Y116.46 E15.17001
G1 X119.958 Y116.756 E15.18084
G1 X120.036 Y117.042 E15.19169
G1 X120.187 Y117.296 E15.2025
G1 X120.401 Y117.502 E15.21337
G1 X120.527 Y117.594 E15.21908
G1 X120.345 Y117.903 E15.2322
G1 X120.231 Y118.175 E15.24299
G1 X120.193 Y118.469 E15.25383
G1 X120.238 Y118.772 E15.26504
G1 X120.295 Y118.966 E15.27244
G1 X120.129 Y118.683 E15.28444
G1 X119.946 Y118.45 E15.29528
G1 X119.707 Y118.275 E15.30612
G1 X119.431 Y118.169 E15.31693
G1 X119.136 Y118.141 E15.32778
G1 X118.845 Y118.192 E15.33858
G1 X118.578 Y118.32 E15.34942
G1 X118.293 Y118.59 E15.36378
G1 X117.894 Y119.134 E15.38846
G1 X117.698 Y119.124 E15.39564
G1 X117.527 Y119.028 E15.40282
G1 X117.397 Y118.636 E15.41793
G1 X117.382 Y117.923 E15.44402
G0 F2100 X116.942 Y117.903
G1 F1200 X117.044 Y117.039 E15.47585
G1 X117.598 Y116.801 E15.49791
G1 X117.66 Y116.76 E15.50063
G1 X117.623 Y116.888 E15.5055
G1 X117.652 Y117.166 E15.51573
G1 X117.787 Y117.45 E15.52723
G1 X117.958 Y117.603 E15.53563
G1 X118.17 Y117.688 E15.54399
G1 X118.399 Y117.695 E15.55237
G1 X118.692 Y117.577 E15.56392
G1 X118.895 Y117.382 E15.57422
G1 X118.989 Y117.174 E15.58257
G1 X119.006 Y116.945 E15.59098
G1 X118.944 Y116.725 E15.59934
G1 X118.738 Y116.478 E15.61111
G1 X118.462 Y116.326 E15.62263
G1 X118.234 Y116.302 E15.63102
G1 X117.956 Y116.394 E15.64173
G1 X117.992 Y116.273 E15.64635
G1 X117.98 Y116.045 E15.65471
G1 X117.89 Y115.834 E15.6631
G1 X117.737 Y115.67 E15.6713
G1 X117.338 Y115.366 E15.68966
G1 X117.265 Y115.142 E15.69828
G1 X117.336 Y114.925 E15.70663
G1 X117.482 Y114.818 E15.71325
G1 X118.025 Y114.891 E15.7333
G1 X118.693 Y114.824 E15.75786
G1 X119.143 Y115.385 E15.78417
G1 X119.315 Y115.536 E15.79254
G1 X119.528 Y115.619 E15.80091
G1 X119.757 Y115.625 E15.80929
G1 X119.974 Y115.551 E15.81768
G1 X120.107 Y115.456 E15.82366
G1 X120.58 Y115.017 E15.84727
G1 X120.764 Y115.017 E15.854
G1 X120.95 Y115.153 E15.86243
G1 X121.015 Y115.35 E15.87002
G1 X120.827 Y115.837 E15.88912
G1 X120.535 Y116.198 E15.90611
G1 X120.425 Y116.399 E15.91449
G1 X120.389 Y116.625 E15.92286
G1 X120.433 Y116.85 E15.93125
G1 X120.551 Y117.046 E15.93962
G1 X121.02 Y117.409 E15.96132
G1 X121.065 Y117.547 E15.96663
G1 X120.724 Y118.126 E15.99121
G1 X120.644 Y118.34 E15.99957
G1 X120.66 Y118.648 E16.01085
G1 X120.822 Y119.198 E16.03183
G1 X120.748 Y119.424 E16.04053
G1 X120.568 Y119.556 E16.0487
G1 X120.272 Y119.551 E16.05953
G1 X120.019 Y119.367 E16.07098
G1 X119.749 Y118.906 E16.09052
G1 X119.601 Y118.731 E16.09891
G1 X119.402 Y118.618 E16.10728
G1 X119.176 Y118.58 E16.11566
G1 X118.951 Y118.621 E16.12403
G1 X118.753 Y118.737 E16.13243
G1 X118.648 Y118.85 E16.13807
G1 X118.109 Y119.586 E16.17145
G1 X117.573 Y119.557 E16.19109
G1 X117.162 Y119.328 E16.2083
G1 X116.958 Y118.712 E16.23204
G1 X116.942 Y117.903 E16.26164
G0 F2100 X116.501 Y117.881
G1 F1200 X116.637 Y116.735 E16.30387
G1 X117.424 Y116.397 E16.3352
G1 X117.523 Y116.312 E16.33998
G1 X117.557 Y116.185 E16.34479
G1 X117.47 Y116.02 E16.35161
G1 X116.963 Y115.634 E16.37492
G1 X116.802 Y115.142 E16.39386
G1 X116.962 Y114.654 E16.41265
G1 X117.366 Y114.359 E16.43095
G1 X118.084 Y114.455 E16.45746
G1 X118.143 Y114.455 E16.45962
G1 X118.88 Y114.354 E16.48683
G1 X119.486 Y115.11 E16.52228
G1 X119.595 Y115.183 E16.52708
G1 X119.726 Y115.181 E16.53187
G1 X119.808 Y115.133 E16.53535
G1 X120.407 Y114.577 E16.56525
G1 X120.907 Y114.577 E16.58354
G1 X121.324 Y114.882 E16.60244
G1 X121.482 Y115.364 E16.621
G1 X121.213 Y116.061 E16.64834
G1 X120.878 Y116.475 E16.66782
G1 X120.83 Y116.597 E16.67262
G1 X120.859 Y116.725 E16.67742
G1 X120.919 Y116.791 E16.68068
G1 X121.394 Y117.138 E16.7022
G1 X121.545 Y117.599 E16.71995
G1 X121.103 Y118.349 E16.7518
G1 X121.082 Y118.523 E16.75821
G1 X121.283 Y119.204 E16.78419
G1 X121.122 Y119.695 E16.8031
G1 X120.706 Y119.999 E16.82195
G1 X120.126 Y119.988 E16.84317
G1 X119.686 Y119.667 E16.8631
G1 X119.37 Y119.129 E16.88593
G1 X119.273 Y119.04 E16.89074
G1 X119.143 Y119.023 E16.89554
G1 X119.003 Y119.11 E16.90157
G1 X118.324 Y120.038 E16.94364
G1 X117.447 Y119.991 E16.97577
G1 X116.799 Y119.629 E17.00293
G1 X116.519 Y118.785 E17.03546
G1 X116.501 Y117.881 E17.06854
G1 F2700 E12.06854
;MESH:Cameraspacer_12.stl
G0 F2100 X114.565 Y117.881
G0 X114.356 Y122.742
G0 X123.345 Y122.924
G0 X123.345 Y126.108
G0 X111.463 Y126.3
;TYPE:WALL-INNER
G1 F2700 E17.06854
G1 F1200 X123.537 Y126.3 E17.51028
G1 X123.537 Y122.732 E17.64082
G1 X114.995 Y122.732 E17.95334
G1 X114.706 Y122.694 E17.96401
G1 X114.446 Y122.586 E17.97431
G1 X114.179 Y122.371 E17.98685
G1 X113.973 Y122.041 E18.00108
G1 X113.895 Y121.632 E18.01631
G1 X113.895 Y112.832 E18.33827
G1 X113.955 Y112.473 E18.35159
G1 X114.117 Y112.168 E18.36422
G1 X114.339 Y111.948 E18.37566
G1 X114.64 Y111.79 E18.3881
G1 X114.995 Y111.732 E18.40126
G1 X123.537 Y111.732 E18.71377
G1 X123.537 Y108.7 E18.8247
G1 X111.463 Y108.7 E19.26645
G1 X111.463 Y126.3 E19.91036
G0 F2100 X111.023 Y126.74
G1 F1200 X123.977 Y126.74 E20.3843
G1 X123.977 Y122.292 E20.54703
G1 X114.995 Y122.292 E20.87565
G1 X114.665 Y122.204 E20.88815
G1 X114.505 Y122.075 E20.89566
G1 X114.344 Y121.746 E20.90907
G1 X114.335 Y121.632 E20.91325
G1 X114.335 Y112.832 E21.23521
G1 X114.371 Y112.616 E21.24322
G1 X114.468 Y112.434 E21.25076
G1 X114.601 Y112.302 E21.25762
G1 X114.881 Y112.181 E21.26878
G1 X114.995 Y112.172 E21.27296
G1 X123.977 Y112.172 E21.60158
G1 X123.977 Y108.26 E21.74471
G1 X111.023 Y108.26 E22.21864
G1 X111.023 Y126.74 E22.89475
G0 F2100 X110.583 Y127.18
;TYPE:WALL-OUTER
G1 F1200 X124.417 Y127.18 E23.40089
G1 X124.417 Y121.852 E23.59582
G1 X114.995 Y121.852 E23.94053
G1 X114.831 Y121.78 E23.94709
G1 X114.775 Y121.632 E23.95288
G1 X114.775 Y112.832 E24.27483
G1 X114.819 Y112.699 E24.27996
G1 X114.957 Y112.615 E24.28587
G1 X114.995 Y112.612 E24.28726
