;FLAVOR:Marlin
;TIME:3093
;Filament used: 2.2677m
;Layer height: 0.2
;MINX:92.4
;MINY:90.346
;MINZ:0.2
;MAXX:142.6
;MAXY:160.546
;MAXZ:10
;Generated with Cura_SteamEngine 4.7.1
M140 S60
M105
M190 S60
M104 S220
M105
M109 S220
M82 ;absolute extrusion mode
; Ender 3 Custom Start G-code
G92 E0 ; Reset Extruder
G28 ; Home all axes
G1 Z2.0 F3000 ; Move Z Axis up little to prevent scratching of Heat Bed
G1 X0.1 Y20 Z0.3 F5000.0 ; Move to start position
G1 X0.1 Y200.0 Z0.3 F1500.0 E15 ; Draw the first line
G1 X0.4 Y200.0 Z0.3 F5000.0 ; Move to side a little
G1 X0.4 Y20 Z0.3 F1500.0 E30 ; Draw the second line
G92 E0 ; Reset Extruder
G1 Z2.0 F3000 ; Move Z Axis up little to prevent scratching of Heat Bed
G1 X5 Y20 Z0.3 F5000.0 ; Move over to prevent blob squish
G92 E0
G92 E0
G1 F2700 E-5
;LAYER_COUNT:50
;LAYER:0
M107
G0 F6000 X95.673 Y93.631 Z0.2
;TYPE:SKIRT
G1 F2700 E0
G1 F1200 X95.768 Y93.537 E0.00445
G1 X96.462 Y92.906 E0.03564
G1 X97.208 Y92.337 E0.06685
G1 X97.999 Y91.833 E0.09804
G1 X98.83 Y91.399 E0.12922
G1 X99.695 Y91.037 E0.16041
G1 X100.588 Y90.75 E0.19161
G1 X101.502 Y90.54 E0.2228
G1 X102.431 Y90.409 E0.25401
G1 X103.134 Y90.362 E0.27744
G1 X103.282 Y90.357 E0.28237
G1 X103.519 Y90.352 E0.29025
G1 X104.062 Y90.346 E0.30831
G1 X130.95 Y90.347 E1.20261
G1 X131.652 Y90.357 E1.22596
G1 X132.588 Y90.41 E1.25714
G1 X133.516 Y90.543 E1.28832
G1 X134.43 Y90.755 E1.31953
G1 X135.323 Y91.043 E1.35074
G1 X136.187 Y91.407 E1.38192
G1 X137.018 Y91.843 E1.41313
G1 X137.808 Y92.348 E1.44432
G1 X138.552 Y92.918 E1.47549
G1 X139.273 Y93.578 E1.508
G1 X139.368 Y93.673 E1.51247
G1 X140.002 Y94.364 E1.54366
G1 X140.576 Y95.106 E1.57486
G1 X141.083 Y95.895 E1.60606
G1 X141.522 Y96.723 E1.63723
G1 X141.889 Y97.587 E1.66845
G1 X142.181 Y98.478 E1.69963
G1 X142.395 Y99.391 E1.73082
G1 X142.532 Y100.319 E1.76202
G1 X142.584 Y101.08 E1.78739
G1 X142.589 Y101.228 E1.79232
G1 X142.594 Y101.455 E1.79987
G1 X142.6 Y101.981 E1.81737
G1 X142.599 Y148.891 E3.3776
G1 X142.589 Y149.597 E3.40108
G1 X142.536 Y150.533 E3.43226
G1 X142.403 Y151.462 E3.46348
G1 X142.191 Y152.375 E3.49465
G1 X141.903 Y153.268 E3.52586
G1 X141.539 Y154.132 E3.55704
G1 X141.104 Y154.963 E3.58824
G1 X140.599 Y155.753 E3.61943
G1 X140.028 Y156.498 E3.65065
G1 X139.409 Y157.178 E3.68123
G1 X139.315 Y157.273 E3.68567
G1 X138.628 Y157.911 E3.71686
G1 X137.888 Y158.488 E3.74807
G1 X137.103 Y159 E3.77924
G1 X136.276 Y159.443 E3.81044
G1 X135.415 Y159.814 E3.84163
G1 X134.525 Y160.111 E3.87283
G1 X133.613 Y160.33 E3.90403
G1 X132.686 Y160.471 E3.93521
G1 X131.865 Y160.53 E3.96259
G1 X131.716 Y160.535 E3.96755
G1 X131.481 Y160.54 E3.97537
G1 X130.938 Y160.546 E3.99343
G1 X104.05 Y160.545 E4.88773
G1 X103.348 Y160.535 E4.91108
G1 X102.412 Y160.482 E4.94226
G1 X101.484 Y160.349 E4.97344
G1 X100.57 Y160.137 E5.00465
G1 X99.677 Y159.849 E5.03586
G1 X98.813 Y159.485 E5.06704
G1 X97.982 Y159.049 E5.09825
G1 X97.192 Y158.544 E5.12944
G1 X96.448 Y157.974 E5.16061
G1 X95.727 Y157.314 E5.19312
G1 X95.632 Y157.219 E5.19759
G1 X94.998 Y156.528 E5.22878
G1 X94.424 Y155.786 E5.25998
G1 X93.917 Y154.997 E5.29117
G1 X93.478 Y154.169 E5.32234
G1 X93.111 Y153.305 E5.35357
G1 X92.819 Y152.414 E5.38475
G1 X92.605 Y151.501 E5.41594
G1 X92.468 Y150.573 E5.44714
G1 X92.417 Y149.841 E5.47155
G1 X92.411 Y149.676 E5.47704
G1 X92.404 Y149.377 E5.48699
G1 X92.4 Y148.943 E5.50142
G1 X92.401 Y101.956 E7.06422
G1 X92.411 Y101.286 E7.0865
G1 X92.465 Y100.35 E7.11769
G1 X92.599 Y99.421 E7.1489
G1 X92.811 Y98.508 E7.18008
G1 X93.1 Y97.615 E7.2113
G1 X93.464 Y96.751 E7.24248
G1 X93.901 Y95.921 E7.27368
G1 X94.406 Y95.131 E7.30486
G1 X94.977 Y94.387 E7.33606
G1 X95.673 Y93.631 E7.37023
G0 F6000 X95.954 Y93.915
G1 F1200 X96.049 Y93.821 E7.37468
G1 X96.731 Y93.203 E7.40529
G1 X97.464 Y92.646 E7.43591
G1 X98.243 Y92.154 E7.46655
G1 X99.061 Y91.732 E7.49717
G1 X99.913 Y91.383 E7.52779
G1 X100.792 Y91.109 E7.55841
G1 X101.691 Y90.912 E7.58903
G1 X102.604 Y90.794 E7.61964
G1 X103.147 Y90.762 E7.63774
G1 X103.295 Y90.757 E7.64266
G1 X103.523 Y90.752 E7.65025
G1 X104.062 Y90.746 E7.66817
G1 X130.793 Y90.746 E8.55725
G1 X131.646 Y90.757 E8.58562
G1 X132.565 Y90.81 E8.61624
G1 X133.476 Y90.943 E8.64686
G1 X134.372 Y91.154 E8.67748
G1 X135.247 Y91.442 E8.70812
G1 X136.093 Y91.805 E8.73874
G1 X136.904 Y92.24 E8.76935
G1 X137.675 Y92.744 E8.79998
G1 X138.399 Y93.312 E8.83059
G1 X138.99 Y93.861 E8.85742
G1 X139.085 Y93.956 E8.86189
G1 X139.707 Y94.634 E8.89249
G1 X140.268 Y95.364 E8.92311
G1 X140.764 Y96.14 E8.95374
G1 X141.19 Y96.956 E8.98436
G1 X141.544 Y97.806 E9.01498
G1 X141.822 Y98.684 E9.04561
G1 X142.024 Y99.582 E9.07623
G1 X142.147 Y100.495 E9.10687
G1 X142.184 Y101.093 E9.1268
G1 X142.194 Y101.46 E9.13901
G1 X142.2 Y101.981 E9.15634
G1 X142.199 Y148.885 E10.71637
G1 X142.189 Y149.591 E10.73985
G1 X142.136 Y150.51 E10.77047
G1 X142.003 Y151.421 E10.80109
G1 X141.792 Y152.317 E10.83171
G1 X141.504 Y153.192 E10.86235
G1 X141.141 Y154.038 E10.89297
G1 X140.706 Y154.849 E10.92358
G1 X140.203 Y155.62 E10.95419
G1 X139.634 Y156.344 E10.98482
G1 X139.125 Y156.897 E11.00982
G1 X139.031 Y156.992 E11.01426
G1 X138.356 Y157.617 E11.04486
G1 X137.628 Y158.182 E11.07551
G1 X136.855 Y158.682 E11.10613
G1 X136.041 Y159.112 E11.13675
G1 X135.193 Y159.47 E11.16736
G1 X134.317 Y159.754 E11.19799
G1 X133.42 Y159.96 E11.2286
G1 X132.508 Y160.088 E11.25923
G1 X131.852 Y160.13 E11.2811
G1 X131.703 Y160.135 E11.28606
G1 X131.477 Y160.14 E11.29358
G1 X130.938 Y160.146 E11.3115
G1 X104.056 Y160.145 E12.2056
G1 X103.354 Y160.135 E12.22895
G1 X102.435 Y160.082 E12.25957
G1 X101.524 Y159.949 E12.29019
G1 X100.628 Y159.738 E12.32081
G1 X99.753 Y159.45 E12.35145
G1 X98.907 Y159.087 E12.38207
G1 X98.096 Y158.652 E12.41267
G1 X97.325 Y158.148 E12.44331
G1 X96.601 Y157.58 E12.47392
G1 X96.01 Y157.031 E12.50075
G1 X95.915 Y156.936 E12.50522
G1 X95.293 Y156.258 E12.53582
G1 X94.732 Y155.528 E12.56644
G1 X94.236 Y154.752 E12.59707
G1 X93.81 Y153.936 E12.62769
G1 X93.456 Y153.086 E12.65831
G1 X93.178 Y152.208 E12.68894
G1 X92.976 Y151.31 E12.71956
G1 X92.853 Y150.397 E12.7502
G1 X92.817 Y149.826 E12.76923
G1 X92.811 Y149.661 E12.77472
G1 X92.804 Y149.374 E12.78427
G1 X92.8 Y148.94 E12.7987
G1 X92.801 Y101.962 E14.3612
G1 X92.811 Y101.292 E14.38348
G1 X92.865 Y100.373 E14.4141
G1 X92.998 Y99.462 E14.44472
G1 X93.21 Y98.566 E14.47535
G1 X93.499 Y97.692 E14.50597
G1 X93.862 Y96.846 E14.53658
G1 X94.298 Y96.035 E14.56721
G1 X94.802 Y95.264 E14.59785
G1 X95.371 Y94.541 E14.62845
G1 X95.954 Y93.915 E14.6569
G0 F6000 X96.236 Y94.199
G1 F1200 X96.331 Y94.105 E14.66134
G1 X97 Y93.499 E14.69137
G1 X97.721 Y92.955 E14.72141
G1 X98.486 Y92.476 E14.75143
G1 X99.292 Y92.067 E14.78149
G1 X100.13 Y91.731 E14.81152
G1 X100.994 Y91.47 E14.84154
G1 X101.879 Y91.286 E14.8716
G1 X103.161 Y91.162 E14.91444
G1 X103.528 Y91.152 E14.92665
G1 X104.062 Y91.146 E14.94441
G1 X130.793 Y91.146 E15.83349
G1 X131.64 Y91.157 E15.86166
G1 X132.542 Y91.21 E15.89172
G1 X133.435 Y91.342 E15.92174
G1 X134.313 Y91.553 E15.95177
G1 X135.169 Y91.841 E15.98181
G1 X135.997 Y92.203 E16.01187
G1 X136.789 Y92.637 E16.04191
G1 X137.539 Y93.14 E16.07194
G1 X138.242 Y93.706 E16.10196
G1 X138.707 Y94.144 E16.12321
G1 X138.802 Y94.239 E16.12768
G1 X139.412 Y94.905 E16.15771
G1 X139.961 Y95.622 E16.18775
G1 X140.443 Y96.386 E16.21779
G1 X140.857 Y97.189 E16.24784
G1 X141.197 Y98.025 E16.27786
G1 X141.463 Y98.888 E16.3079
G1 X141.651 Y99.771 E16.33792
G1 X141.784 Y101.107 E16.38258
G1 X141.794 Y101.466 E16.39452
G1 X141.8 Y101.981 E16.41165
G1 X141.799 Y148.879 E17.97149
G1 X141.789 Y149.585 E17.99497
G1 X141.736 Y150.487 E18.02502
G1 X141.604 Y151.38 E18.05505
G1 X141.393 Y152.259 E18.08511
G1 X141.105 Y153.115 E18.11515
G1 X140.743 Y153.942 E18.14518
G1 X140.309 Y154.734 E18.17522
G1 X139.807 Y155.484 E18.20523
G1 X139.24 Y156.188 E18.2353
G1 X138.841 Y156.615 E18.25474
G1 X138.747 Y156.71 E18.25918
G1 X138.084 Y157.323 E18.28921
G1 X137.369 Y157.876 E18.31928
G1 X136.608 Y158.362 E18.34931
G1 X135.807 Y158.78 E18.37936
G1 X134.973 Y159.125 E18.40938
G1 X134.111 Y159.395 E18.43942
G1 X133.229 Y159.588 E18.46945
G1 X132.333 Y159.702 E18.49949
G1 X131.838 Y159.73 E18.51598
G1 X131.472 Y159.74 E18.52816
G1 X130.938 Y159.746 E18.54592
G1 X104.062 Y159.745 E19.43982
G1 X103.36 Y159.735 E19.46317
G1 X102.458 Y159.682 E19.49323
G1 X101.565 Y159.55 E19.52325
G1 X100.687 Y159.339 E19.55328
G1 X99.831 Y159.051 E19.58332
G1 X99.003 Y158.689 E19.61338
G1 X98.211 Y158.255 E19.64342
G1 X97.461 Y157.752 E19.67345
G1 X96.758 Y157.186 E19.70347
G1 X96.293 Y156.748 E19.72472
G1 X96.198 Y156.653 E19.72919
G1 X95.588 Y155.987 E19.75923
G1 X95.039 Y155.27 E19.78926
G1 X94.557 Y154.506 E19.81931
G1 X94.143 Y153.703 E19.84935
G1 X93.803 Y152.867 E19.87937
G1 X93.537 Y152.004 E19.90941
G1 X93.349 Y151.121 E19.93943
G1 X93.217 Y149.812 E19.98319
G1 X93.211 Y149.647 E19.98868
G1 X93.204 Y149.37 E19.9979
G1 X93.2 Y148.936 E20.01234
G1 X93.201 Y101.968 E21.5745
G1 X93.211 Y101.298 E21.59678
G1 X93.265 Y100.396 E21.62684
G1 X93.398 Y99.503 E21.65687
G1 X93.609 Y98.625 E21.6869
G1 X93.897 Y97.769 E21.71694
G1 X94.26 Y96.942 E21.74698
G1 X94.695 Y96.15 E21.77703
G1 X95.198 Y95.4 E21.80707
G1 X95.765 Y94.698 E21.83708
G1 X96.236 Y94.199 E21.85991
G1 F2700 E16.85991
;MESH:839222c5-9efb-46cc-a27e-92b289f1114d.stl
G0 F6000 X112.944 Y107.933
G0 X111.5 Y107.738
G0 X112.159 Y110.406
G0 X112.638 Y111.401
G0 X113.317 Y112.303
G0 X114.173 Y113.061
G0 X115.127 Y113.617
G0 X115.734 Y113.825
G0 X117.323 Y114.293
;TYPE:WALL-INNER
G1 F2700 E21.85991
G1 F1200 X117.712 Y114.292 E21.87284
G1 X118.102 Y114.265 E21.88585
G1 X118.489 Y114.212 E21.89884
G1 X118.871 Y114.134 E21.91181
G1 X119.247 Y114.029 E21.92479
G1 X119.581 Y113.912 E21.93656
G1 X119.941 Y113.763 E21.94952
G1 X120.225 Y113.62 E21.96009
G1 X120.282 Y113.594 E21.96218
G1 X120.628 Y113.39 E21.97554
G1 X120.95 Y113.171 E21.98849
G1 X121.259 Y112.929 E22.00154
G1 X121.547 Y112.669 E22.01445
G1 X121.82 Y112.391 E22.02741
G1 X122.073 Y112.094 E22.04038
G1 X122.287 Y111.809 E22.05224
G1 X122.499 Y111.483 E22.06517
G1 X122.692 Y111.144 E22.07815
G1 X122.859 Y110.79 E22.09117
G1 X122.977 Y110.496 E22.1017
G1 X123.002 Y110.438 E22.1038
G1 X123.124 Y110.058 E22.11708
G1 X123.219 Y109.679 E22.13007
G1 X123.288 Y109.294 E22.14308
G1 X123.331 Y108.907 E22.15603
G1 X123.349 Y108.517 E22.16902
G1 X123.341 Y108.128 E22.18196
G1 X123.311 Y107.775 E22.19374
G1 X123.254 Y107.39 E22.20669
G1 X123.17 Y107.007 E22.21973
G1 X123.062 Y106.633 E22.23268
G1 X122.929 Y106.265 E22.24569
G1 X122.77 Y105.907 E22.25872
G1 X122.589 Y105.563 E22.27165
G1 X122.386 Y105.23 E22.28462
G1 X122.161 Y104.911 E22.2976
G1 X121.915 Y104.608 E22.31058
G1 X121.649 Y104.323 E22.32355
G1 X121.391 Y104.08 E22.33534
G1 X121.092 Y103.829 E22.34832
G1 X120.78 Y103.602 E22.36116
G1 X120.445 Y103.392 E22.37431
G1 X120.102 Y103.207 E22.38727
G1 X119.794 Y103.067 E22.39852
G1 X119.76 Y103.049 E22.3998
G1 X119.381 Y102.907 E22.41326
G1 X119.009 Y102.795 E22.42618
G1 X118.629 Y102.706 E22.43916
G1 X118.243 Y102.645 E22.45216
G1 X117.889 Y102.61 E22.46399
G1 X117.5 Y102.597 E22.47694
G1 X117.161 Y102.608 E22.48822
G1 X117.12 Y102.608 E22.48958
G1 X116.721 Y102.648 E22.50292
G1 X116.336 Y102.713 E22.51591
G1 X115.957 Y102.804 E22.52887
G1 X115.585 Y102.919 E22.54182
G1 X115.22 Y103.059 E22.55482
G1 X114.867 Y103.223 E22.56777
G1 X114.524 Y103.411 E22.58078
G1 X114.195 Y103.621 E22.59376
G1 X113.881 Y103.85 E22.60669
G1 X113.607 Y104.081 E22.61861
G1 X113.329 Y104.344 E22.63133
G1 X113.061 Y104.635 E22.64449
G1 X112.818 Y104.939 E22.65744
G1 X112.594 Y105.26 E22.67046
G1 X112.422 Y105.547 E22.68158
G1 X112.4 Y105.58 E22.6829
G1 X112.213 Y105.941 E22.69643
G1 X112.059 Y106.298 E22.70936
G1 X111.928 Y106.666 E22.72235
G1 X111.823 Y107.04 E22.73527
G1 X111.746 Y107.39 E22.74719
G1 X111.698 Y107.716 E22.75815
G1 X111.689 Y107.764 E22.75977
G1 X111.657 Y108.163 E22.77309
G1 X111.651 Y108.552 E22.78603
G1 X111.671 Y108.942 E22.79902
G1 X111.716 Y109.331 E22.81204
G1 X111.789 Y109.714 E22.82501
G1 X111.886 Y110.091 E22.83795
G1 X112.008 Y110.462 E22.85094
G1 X112.155 Y110.822 E22.86388
G1 X112.325 Y111.174 E22.87688
G1 X112.502 Y111.485 E22.88878
G1 X112.672 Y111.744 E22.89909
G1 X112.703 Y111.798 E22.90116
G1 X112.915 Y112.076 E22.91278
G1 X112.94 Y112.113 E22.91427
G1 X113.158 Y112.363 E22.9253
G1 X113.198 Y112.411 E22.92738
G1 X113.479 Y112.695 E22.94067
G1 X113.77 Y112.952 E22.95358
G1 X114.078 Y113.191 E22.96655
G1 X114.402 Y113.41 E22.97955
G1 X114.74 Y113.604 E22.99252
G1 X115.06 Y113.763 E23.0044
G1 X115.42 Y113.912 E23.01736
G1 X115.785 Y114.039 E23.03021
G1 X116.164 Y114.143 E23.04329
G1 X116.548 Y114.218 E23.0563
G1 X116.933 Y114.268 E23.06921
G1 X117.323 Y114.293 E23.08221
G0 F6000 X117.335 Y113.893
;TYPE:WALL-OUTER
G1 F1200 X117.698 Y113.892 E23.09428
G1 X118.061 Y113.867 E23.10639
G1 X118.422 Y113.817 E23.11851
G1 X118.777 Y113.745 E23.13055
G1 X119.127 Y113.647 E23.14264
G1 X119.438 Y113.538 E23.1536
G1 X119.775 Y113.399 E23.16573
G1 X120.057 Y113.257 E23.17623
G1 X120.096 Y113.239 E23.17766
G1 X120.414 Y113.052 E23.18993
G1 X120.714 Y112.848 E23.202
G1 X121.001 Y112.623 E23.21412
G1 X121.27 Y112.38 E23.22618
G1 X121.525 Y112.121 E23.23827
G1 X121.76 Y111.844 E23.25035
G1 X121.959 Y111.579 E23.26137
G1 X122.157 Y111.275 E23.27344
G1 X122.337 Y110.959 E23.28554
G1 X122.492 Y110.63 E23.29763
G1 X122.61 Y110.336 E23.30817
G1 X122.627 Y110.297 E23.30958
G1 X122.739 Y109.948 E23.32178
G1 X122.828 Y109.595 E23.33388
G1 X122.892 Y109.237 E23.34598
G1 X122.932 Y108.876 E23.35806
G1 X122.949 Y108.512 E23.37018
G1 X122.941 Y108.149 E23.38226
G1 X122.913 Y107.821 E23.39321
G1 X122.86 Y107.462 E23.40528
G1 X122.782 Y107.105 E23.41743
G1 X122.681 Y106.756 E23.42951
G1 X122.558 Y106.414 E23.4416
G1 X122.41 Y106.082 E23.45369
G1 X122.241 Y105.76 E23.46579
G1 X122.052 Y105.45 E23.47786
G1 X121.842 Y105.153 E23.48996
G1 X121.613 Y104.871 E23.50204
G1 X121.365 Y104.605 E23.51414
G1 X121.125 Y104.379 E23.5251
G1 X120.846 Y104.144 E23.53724
G1 X120.556 Y103.934 E23.54915
G1 X120.244 Y103.738 E23.5614
G1 X119.924 Y103.566 E23.57348
G1 X119.628 Y103.431 E23.5843
G1 X119.597 Y103.415 E23.58546
G1 X119.253 Y103.286 E23.59768
G1 X118.906 Y103.182 E23.60973
G1 X118.552 Y103.099 E23.62183
G1 X118.192 Y103.042 E23.63395
G1 X117.862 Y103.009 E23.64498
G1 X117.5 Y102.997 E23.65703
G1 X117.175 Y103.008 E23.66784
G1 X117.14 Y103.008 E23.66901
G1 X116.774 Y103.045 E23.68124
G1 X116.416 Y103.105 E23.69331
G1 X116.063 Y103.19 E23.70539
G1 X115.716 Y103.297 E23.71747
G1 X115.376 Y103.428 E23.72959
G1 X115.047 Y103.58 E23.74164
G1 X114.728 Y103.755 E23.75374
G1 X114.421 Y103.951 E23.76586
G1 X114.128 Y104.165 E23.77792
G1 X113.874 Y104.379 E23.78897
G1 X113.614 Y104.625 E23.80088
G1 X113.365 Y104.896 E23.81312
G1 X113.138 Y105.179 E23.82518
G1 X112.93 Y105.477 E23.83727
G1 X112.763 Y105.757 E23.84811
G1 X112.744 Y105.785 E23.84924
G1 X112.575 Y106.112 E23.86148
G1 X112.431 Y106.445 E23.87355
G1 X112.309 Y106.787 E23.88563
G1 X112.211 Y107.137 E23.89771
G1 X112.14 Y107.462 E23.90878
G1 X112.094 Y107.774 E23.91927
G1 X112.086 Y107.817 E23.92072
G1 X112.057 Y108.182 E23.9329
G1 X112.051 Y108.545 E23.94498
G1 X112.07 Y108.908 E23.95707
G1 X112.112 Y109.27 E23.96919
G1 X112.18 Y109.627 E23.98127
G1 X112.27 Y109.979 E23.99336
G1 X112.384 Y110.324 E24.00544
G1 X112.521 Y110.66 E24.01751
G1 X112.679 Y110.988 E24.02962
G1 X112.843 Y111.276 E24.04064
G1 X113.014 Y111.536 E24.05099
G1 X113.037 Y111.576 E24.05253
G1 X113.233 Y111.833 E24.06328
G1 X113.257 Y111.868 E24.06469
G1 X113.468 Y112.11 E24.07537
G1 X113.495 Y112.143 E24.07679
G1 X113.754 Y112.404 E24.08902
G1 X114.025 Y112.644 E24.10106
G1 X114.313 Y112.867 E24.11317
G1 X114.614 Y113.07 E24.12525
G1 X114.929 Y113.251 E24.13733
G1 X115.226 Y113.399 E24.14837
G1 X115.562 Y113.538 E24.16046
G1 X115.904 Y113.657 E24.17251
G1 X116.255 Y113.753 E24.18461
G1 X116.612 Y113.823 E24.19671
G1 X116.972 Y113.87 E24.20878
G1 X117.335 Y113.893 E24.22088
G0 F6000 X117.322 Y114.332
G1 F2700 E19.22088
