;FLAVOR:Marlin
;TIME:2658
;Filament used: 1.46484m
;Layer height: 0.2
;MINX:100.399
;MINY:91.085
;MINZ:0.2
;MAXX:134.6
;MAXY:161.285
;MAXZ:7
;Generated with Cura_SteamEngine 4.7.1
M140 S60
M105
M190 S60
M104 S220
M105
M109 S220
M82 ;absolute extrusion mode
; Ender 3 Custom Start G-code
G92 E0 ; Reset Extruder
G28 ; Home all axes
G1 Z2.0 F3000 ; Move Z Axis up little to prevent scratching of Heat Bed
G1 X0.1 Y20 Z0.3 F5000.0 ; Move to start position
G1 X0.1 Y200.0 Z0.3 F1500.0 E15 ; Draw the first line
G1 X0.4 Y200.0 Z0.3 F5000.0 ; Move to side a little
G1 X0.4 Y20 Z0.3 F1500.0 E30 ; Draw the second line
G92 E0 ; Reset Extruder
G1 Z2.0 F3000 ; Move Z Axis up little to prevent scratching of Heat Bed
G1 X5 Y20 Z0.3 F5000.0 ; Move over to prevent blob squish
G92 E0
G92 E0
G1 F2700 E-5
;LAYER_COUNT:35
;LAYER:0
M107
G0 F6000 X102.975 Y95.126 Z0.2
;TYPE:SKIRT
G1 F2700 E0
G1 F1200 X103.755 Y94.287 E0.0381
G1 X103.851 Y94.194 E0.04255
G1 X104.552 Y93.571 E0.07374
G1 X105.303 Y93.01 E0.10492
G1 X106.1 Y92.515 E0.13612
G1 X106.936 Y92.089 E0.16733
G1 X107.805 Y91.736 E0.19853
G1 X108.7 Y91.459 E0.22969
G1 X109.617 Y91.258 E0.26091
G1 X110.547 Y91.137 E0.2921
G1 X111.179 Y91.1 E0.31316
G1 X111.449 Y91.092 E0.32214
G1 X111.977 Y91.085 E0.33971
G1 X122.95 Y91.086 E0.70467
G1 X123.652 Y91.096 E0.72802
G1 X124.588 Y91.149 E0.7592
G1 X125.516 Y91.282 E0.79038
G1 X126.43 Y91.494 E0.82159
G1 X127.323 Y91.782 E0.8528
G1 X128.187 Y92.146 E0.88398
G1 X129.018 Y92.582 E0.91519
G1 X129.808 Y93.087 E0.94638
G1 X130.552 Y93.657 E0.97755
G1 X131.245 Y94.289 E1.00875
G1 X131.882 Y94.978 E1.03996
G1 X132.458 Y95.718 E1.07115
G1 X132.969 Y96.505 E1.10236
G1 X133.41 Y97.332 E1.13353
G1 X133.655 Y97.879 E1.15346
G1 X133.755 Y98.12 E1.16214
G1 X134.077 Y99.001 E1.19334
G1 X134.323 Y99.906 E1.22453
G1 X134.491 Y100.829 E1.25574
G1 X134.594 Y102.194 E1.30126
G1 X134.6 Y102.724 E1.31889
G1 X134.599 Y149.63 E2.87899
G1 X134.589 Y150.336 E2.90248
G1 X134.536 Y151.272 E2.93366
G1 X134.403 Y152.201 E2.96487
G1 X134.191 Y153.114 E2.99605
G1 X133.903 Y154.007 E3.02725
G1 X133.539 Y154.871 E3.05844
G1 X133.104 Y155.702 E3.08963
G1 X132.599 Y156.492 E3.12082
G1 X132.028 Y157.237 E3.15204
G1 X131.409 Y157.917 E3.18262
G1 X131.315 Y158.012 E3.18707
G1 X130.628 Y158.65 E3.21825
G1 X129.888 Y159.227 E3.24946
G1 X129.103 Y159.739 E3.28063
G1 X128.276 Y160.182 E3.31184
G1 X127.415 Y160.553 E3.34302
G1 X126.525 Y160.85 E3.37423
G1 X125.613 Y161.069 E3.40542
G1 X124.686 Y161.21 E3.43661
G1 X123.865 Y161.269 E3.46399
G1 X123.716 Y161.274 E3.46894
G1 X123.481 Y161.279 E3.47676
G1 X122.938 Y161.285 E3.49482
G1 X112.05 Y161.284 E3.85696
G1 X111.348 Y161.274 E3.88031
G1 X110.412 Y161.221 E3.91149
G1 X109.484 Y161.088 E3.94267
G1 X108.57 Y160.876 E3.97388
G1 X107.677 Y160.588 E4.00509
G1 X106.813 Y160.224 E4.03627
G1 X105.982 Y159.788 E4.06748
G1 X105.192 Y159.283 E4.09867
G1 X104.448 Y158.713 E4.12984
G1 X103.727 Y158.053 E4.16235
G1 X103.632 Y157.958 E4.16682
G1 X102.998 Y157.267 E4.19801
G1 X102.424 Y156.525 E4.22921
G1 X101.917 Y155.736 E4.26041
G1 X101.478 Y154.908 E4.29158
G1 X101.111 Y154.044 E4.3228
G1 X100.819 Y153.153 E4.35398
G1 X100.605 Y152.24 E4.38517
G1 X100.468 Y151.312 E4.41637
G1 X100.417 Y150.58 E4.44078
G1 X100.411 Y150.415 E4.44627
G1 X100.404 Y150.116 E4.45622
G1 X100.4 Y149.682 E4.47065
G1 X100.401 Y133.637 E5.00431
G1 X100.411 Y132.93 E5.02783
G1 X100.422 Y132.58 E5.03948
G1 X100.434 Y132.314 E5.04833
G1 X100.567 Y129.951 E5.12705
G1 X100.638 Y127.487 E5.20904
G1 X100.638 Y124.962 E5.29302
G1 X100.568 Y122.448 E5.37667
G1 X100.449 Y120.401 E5.44487
G1 X100.423 Y119.839 E5.46358
G1 X100.413 Y119.508 E5.47459
G1 X100.401 Y118.707 E5.50124
G1 X100.399 Y102.864 E6.02818
G1 X100.4 Y102.7 E6.03363
G1 X100.41 Y102.025 E6.05609
G1 X100.464 Y101.089 E6.08727
G1 X100.597 Y100.16 E6.11848
G1 X100.81 Y99.247 E6.14966
G1 X101.099 Y98.355 E6.18085
G1 X101.463 Y97.49 E6.21206
G1 X101.899 Y96.66 E6.24325
G1 X102.404 Y95.87 E6.27443
G1 X102.975 Y95.126 E6.30563
G0 F6000 X103.369 Y95.28
G1 F1200 X104.034 Y94.575 E6.33786
G1 X104.13 Y94.482 E6.34231
G1 X104.818 Y93.87 E6.37293
G1 X105.557 Y93.321 E6.40355
G1 X106.341 Y92.838 E6.43418
G1 X107.163 Y92.425 E6.46477
G1 X108.019 Y92.085 E6.49541
G1 X108.901 Y91.82 E6.52604
G1 X109.802 Y91.633 E6.55665
G1 X110.716 Y91.524 E6.58726
G1 X111.191 Y91.5 E6.60308
G1 X111.461 Y91.492 E6.61206
G1 X111.977 Y91.485 E6.62923
G1 X122.793 Y91.485 E6.98897
G1 X123.646 Y91.496 E7.01734
G1 X124.565 Y91.549 E7.04796
G1 X125.476 Y91.682 E7.07858
G1 X126.372 Y91.893 E7.1092
G1 X127.247 Y92.181 E7.13984
G1 X128.093 Y92.544 E7.17045
G1 X128.904 Y92.979 E7.20106
G1 X129.675 Y93.483 E7.2317
G1 X130.399 Y94.051 E7.26231
G1 X131.071 Y94.681 E7.29294
G1 X131.685 Y95.366 E7.32354
G1 X132.238 Y96.102 E7.35416
G1 X132.725 Y96.884 E7.3848
G1 X133.286 Y98.033 E7.42733
G1 X133.386 Y98.274 E7.43601
G1 X133.701 Y99.138 E7.46659
G1 X133.941 Y100.027 E7.49722
G1 X134.102 Y100.934 E7.52786
G1 X134.194 Y102.199 E7.57004
G1 X134.2 Y102.724 E7.58751
G1 X134.199 Y149.624 E9.14741
G1 X134.189 Y150.33 E9.17089
G1 X134.136 Y151.249 E9.20151
G1 X134.003 Y152.16 E9.23213
G1 X133.792 Y153.056 E9.26274
G1 X133.504 Y153.931 E9.29338
G1 X133.141 Y154.777 E9.324
G1 X132.706 Y155.588 E9.35461
G1 X132.203 Y156.359 E9.38523
G1 X131.634 Y157.083 E9.41586
G1 X131.125 Y157.636 E9.44086
G1 X131.031 Y157.731 E9.4453
G1 X130.356 Y158.356 E9.4759
G1 X129.628 Y158.921 E9.50655
G1 X128.855 Y159.421 E9.53717
G1 X128.041 Y159.851 E9.56779
G1 X127.193 Y160.209 E9.5984
G1 X126.317 Y160.493 E9.62903
G1 X125.42 Y160.699 E9.65964
G1 X124.508 Y160.827 E9.69027
G1 X123.852 Y160.869 E9.71213
G1 X123.703 Y160.874 E9.71709
G1 X123.477 Y160.879 E9.72461
G1 X122.938 Y160.885 E9.74254
G1 X112.056 Y160.884 E10.10448
G1 X111.354 Y160.874 E10.12783
G1 X110.435 Y160.821 E10.15844
G1 X109.524 Y160.688 E10.18907
G1 X108.628 Y160.477 E10.21968
G1 X107.753 Y160.189 E10.25032
G1 X106.907 Y159.826 E10.28094
G1 X106.096 Y159.391 E10.31155
G1 X105.325 Y158.887 E10.34218
G1 X104.601 Y158.319 E10.37279
G1 X104.01 Y157.77 E10.39962
G1 X103.915 Y157.675 E10.40409
G1 X103.293 Y156.997 E10.43469
G1 X102.732 Y156.267 E10.46531
G1 X102.236 Y155.491 E10.49594
G1 X101.81 Y154.675 E10.52656
G1 X101.456 Y153.825 E10.55719
G1 X101.178 Y152.947 E10.58782
G1 X100.976 Y152.049 E10.61843
G1 X100.853 Y151.136 E10.64907
G1 X100.817 Y150.565 E10.6681
G1 X100.811 Y150.4 E10.67359
G1 X100.804 Y150.113 E10.68314
G1 X100.8 Y149.679 E10.69758
G1 X100.801 Y133.643 E11.23094
G1 X100.811 Y132.936 E11.25445
G1 X100.821 Y132.598 E11.2657
G1 X100.834 Y132.337 E11.27439
G1 X100.965 Y130.023 E11.35148
G1 X101.038 Y127.463 E11.43666
G1 X101.038 Y124.951 E11.52021
G1 X100.967 Y122.414 E11.60462
G1 X100.842 Y120.242 E11.67698
G1 X100.823 Y119.821 E11.691
G1 X100.813 Y119.502 E11.70162
G1 X100.801 Y118.701 E11.72826
G1 X100.799 Y102.864 E12.255
G1 X100.8 Y102.706 E12.26026
G1 X100.81 Y102.031 E12.28271
G1 X100.864 Y101.112 E12.31333
G1 X100.997 Y100.201 E12.34395
G1 X101.209 Y99.305 E12.37457
G1 X101.497 Y98.431 E12.40518
G1 X101.861 Y97.585 E12.43581
G1 X102.296 Y96.774 E12.46642
G1 X102.8 Y96.003 E12.49706
G1 X103.369 Y95.28 E12.52766
G0 F6000 X103.763 Y95.437
G1 F1200 X104.312 Y94.862 E12.5541
G1 X104.408 Y94.769 E12.55855
G1 X105.084 Y94.17 E12.58859
G1 X105.81 Y93.633 E12.61862
G1 X106.581 Y93.162 E12.64867
G1 X107.39 Y92.762 E12.67869
G1 X108.232 Y92.434 E12.70874
G1 X109.099 Y92.183 E12.73876
G1 X109.985 Y92.009 E12.76879
G1 X111.203 Y91.899 E12.80947
G1 X111.473 Y91.891 E12.81845
G1 X111.674 Y91.887 E12.82514
G1 X111.876 Y91.885 E12.83186
G1 X122.793 Y91.885 E13.19496
G1 X123.64 Y91.896 E13.22313
G1 X124.542 Y91.949 E13.25319
G1 X125.435 Y92.081 E13.28321
G1 X126.313 Y92.292 E13.31325
G1 X127.169 Y92.58 E13.34328
G1 X127.997 Y92.942 E13.37334
G1 X128.789 Y93.376 E13.40338
G1 X129.539 Y93.879 E13.43341
G1 X130.242 Y94.445 E13.46343
G1 X130.892 Y95.072 E13.49347
G1 X131.484 Y95.754 E13.52351
G1 X132.014 Y96.486 E13.55357
G1 X132.477 Y97.261 E13.58359
G1 X132.916 Y98.186 E13.61765
G1 X133.016 Y98.427 E13.62632
G1 X133.325 Y99.275 E13.65634
G1 X133.558 Y100.148 E13.6864
G1 X133.712 Y101.038 E13.71644
G1 X133.794 Y102.205 E13.75535
G1 X133.8 Y102.724 E13.77261
G1 X133.799 Y149.618 E15.33231
G1 X133.789 Y150.324 E15.3558
G1 X133.736 Y151.226 E15.38585
G1 X133.604 Y152.119 E15.41587
G1 X133.393 Y152.998 E15.44594
G1 X133.105 Y153.854 E15.47598
G1 X132.743 Y154.681 E15.506
G1 X132.309 Y155.473 E15.53604
G1 X131.807 Y156.223 E15.56606
G1 X131.24 Y156.927 E15.59612
G1 X130.841 Y157.354 E15.61556
G1 X130.747 Y157.449 E15.62001
G1 X130.084 Y158.062 E15.65004
G1 X129.369 Y158.615 E15.6801
G1 X128.608 Y159.101 E15.71013
G1 X127.807 Y159.519 E15.74018
G1 X126.973 Y159.864 E15.7702
G1 X126.111 Y160.134 E15.80025
G1 X125.229 Y160.327 E15.83028
G1 X124.333 Y160.441 E15.86032
G1 X123.838 Y160.469 E15.87681
G1 X123.472 Y160.479 E15.88899
G1 X122.938 Y160.485 E15.90675
G1 X112.062 Y160.484 E16.26849
G1 X111.36 Y160.474 E16.29184
G1 X110.458 Y160.421 E16.32189
G1 X109.565 Y160.289 E16.35191
G1 X108.687 Y160.078 E16.38195
G1 X107.831 Y159.79 E16.41199
G1 X107.003 Y159.428 E16.44204
G1 X106.211 Y158.994 E16.47208
G1 X105.461 Y158.491 E16.50212
G1 X104.758 Y157.925 E16.53213
G1 X104.293 Y157.487 E16.55338
G1 X104.198 Y157.392 E16.55785
G1 X103.588 Y156.726 E16.58789
G1 X103.039 Y156.009 E16.61792
G1 X102.557 Y155.245 E16.64797
G1 X102.143 Y154.442 E16.67802
G1 X101.803 Y153.606 E16.70803
G1 X101.537 Y152.743 E16.73807
G1 X101.349 Y151.86 E16.7681
G1 X101.217 Y150.551 E16.81185
G1 X101.211 Y150.386 E16.81735
G1 X101.204 Y150.109 E16.82656
G1 X101.2 Y149.675 E16.841
G1 X101.201 Y133.649 E17.37402
G1 X101.211 Y132.942 E17.39754
G1 X101.221 Y132.617 E17.40836
G1 X101.233 Y132.359 E17.41695
G1 X101.365 Y130.019 E17.4949
G1 X101.438 Y127.475 E17.57955
G1 X101.438 Y124.94 E17.66386
G1 X101.367 Y122.413 E17.74794
G1 X101.241 Y120.224 E17.82087
G1 X101.222 Y119.803 E17.83489
G1 X101.213 Y119.496 E17.8451
G1 X101.201 Y118.695 E17.87175
G1 X101.199 Y102.864 E18.39829
G1 X101.2 Y102.712 E18.40334
G1 X101.21 Y102.037 E18.4258
G1 X101.263 Y101.135 E18.45585
G1 X101.396 Y100.242 E18.48588
G1 X101.608 Y99.364 E18.51592
G1 X101.896 Y98.508 E18.54596
G1 X102.259 Y97.681 E18.576
G1 X102.693 Y96.889 E18.60604
G1 X103.196 Y96.139 E18.63607
G1 X103.763 Y95.437 E18.66609
G1 F2700 E13.66609
;MESH:552739cb-f075-4783-9145-aa71b1d6e2fe.stl
G0 F6000 X110.735 Y102.5
G0 X111.813 Y102.499
G0 X112.203 Y106.949
G0 X114.841 Y104.114
G0 X117.5 Y103.796
G0 X118.507 Y103.89
G0 X119.511 Y104.184
G0 X120.437 Y104.667
G0 X121.23 Y105.299
G0 X121.912 Y106.089
G0 X122.344 Y106.866
G0 X123 Y108.467
;TYPE:WALL-INNER
G1 F2700 E18.66609
G1 F1200 X122.974 Y108.274 E18.67256
G1 X122.904 Y107.924 E18.68443
G1 X122.821 Y107.608 E18.6953
G1 X122.723 Y107.313 E18.70564
G1 X122.712 Y107.276 E18.70692
G1 X122.606 Y107.017 E18.71623
G1 X122.594 Y106.989 E18.71724
G1 X122.581 Y106.947 E18.71871
G1 X122.416 Y106.61 E18.73119
G1 X122.24 Y106.298 E18.7431
G1 X122.043 Y105.997 E18.75507
G1 X121.827 Y105.711 E18.76699
G1 X121.594 Y105.438 E18.77892
G1 X121.342 Y105.182 E18.79087
G1 X121.077 Y104.942 E18.80276
G1 X120.818 Y104.737 E18.81375
G1 X120.525 Y104.532 E18.82564
G1 X120.218 Y104.347 E18.83756
G1 X119.901 Y104.181 E18.84947
G1 X119.572 Y104.036 E18.86142
G1 X119.234 Y103.913 E18.87339
G1 X118.889 Y103.812 E18.88534
G1 X118.537 Y103.733 E18.89734
G1 X118.183 Y103.678 E18.90926
G1 X117.828 Y103.646 E18.92111
G1 X117.5 Y103.636 E18.93203
G1 X117.141 Y103.647 E18.94397
G1 X116.783 Y103.682 E18.95594
G1 X116.43 Y103.739 E18.96783
G1 X116.08 Y103.82 E18.97978
G1 X115.736 Y103.923 E18.99172
G1 X115.398 Y104.049 E19.00372
G1 X115.071 Y104.195 E19.01563
G1 X114.754 Y104.362 E19.02755
G1 X114.474 Y104.534 E19.03848
G1 X114.181 Y104.738 E19.05035
G1 X113.965 Y104.911 E19.05956
G1 X113.91 Y104.95 E19.0618
G1 X113.675 Y105.167 E19.07244
G1 X113.643 Y105.194 E19.07383
G1 X113.385 Y105.462 E19.0862
G1 X113.152 Y105.736 E19.09817
G1 X112.939 Y106.024 E19.11008
G1 X112.744 Y106.325 E19.12201
G1 X112.568 Y106.638 E19.13395
G1 X112.414 Y106.964 E19.14594
G1 X112.393 Y107.016 E19.14781
G1 X112.282 Y107.296 E19.15783
G1 X112.179 Y107.609 E19.16879
G1 X112.089 Y107.954 E19.18065
G1 X112.02 Y108.306 E19.19258
G1 X111.999 Y108.47 E19.19808
G1 X111.999 Y108.306 E19.19822
G1 X111.999 Y107.954 E19.1998
G1 X111.999 Y107.609 E19.20363
G1 X111.999 Y107.296 E19.20962
G1 X111.999 Y106.994 E19.21823
G1 X111.999 Y102.685 E19.36155
G1 X123 Y102.685 E19.72744
G1 X123 Y106.996 E19.87083
G1 X123 Y107.276 E19.87887
G1 X123 Y107.313
G1 X123 Y107.608 E19.88442
G1 X123 Y107.924 E19.88799
G1 X123 Y108.274 E19.88972
G1 X123 Y108.467 E19.88993
G0 F6000 X123 Y109.905
G1 F1200 X123 Y110.064 E19.89522
G1 X123 Y110.416 E19.90693
G1 X123 Y110.761 E19.9184
G1 X123 Y111.074 E19.92881
G1 X123 Y111.379 E19.93896
G1 X123 Y140.996 E20.92402
G1 X123 Y141.276 E20.93334
G1 X123 Y141.313 E20.93457
G1 X123 Y141.608 E20.94438
G1 X123 Y141.924 E20.95489
G1 X123 Y142.274 E20.96653
G1 X123 Y142.467 E20.97295
G1 X122.974 Y142.274 E20.97319
G1 X122.904 Y141.924 E20.97514
G1 X122.821 Y141.608 E20.97904
G1 X122.723 Y141.313 E20.98511
G1 X122.712 Y141.276 E20.98603
G1 X122.606 Y141.017 E20.99406
G1 X122.594 Y140.989 E20.99508
G1 X122.581 Y140.947 E20.99654
G1 X122.416 Y140.61 E21.00902
G1 X122.24 Y140.298 E21.02093
G1 X122.043 Y139.997 E21.0329
G1 X121.827 Y139.711 E21.04482
G1 X121.594 Y139.438 E21.05676
G1 X121.342 Y139.182 E21.0687
G1 X121.077 Y138.942 E21.08059
G1 X120.818 Y138.737 E21.09158
G1 X120.525 Y138.532 E21.10347
G1 X120.218 Y138.347 E21.1154
G1 X119.901 Y138.181 E21.1273
G1 X119.572 Y138.036 E21.13926
G1 X119.234 Y137.913 E21.15122
G1 X118.889 Y137.812 E21.16317
G1 X118.537 Y137.733 E21.17517
G1 X118.183 Y137.678 E21.18709
G1 X117.828 Y137.646 E21.19894
G1 X117.5 Y137.636 E21.20986
G1 X117.141 Y137.647 E21.2218
G1 X116.783 Y137.682 E21.23377
G1 X116.43 Y137.739 E21.24566
G1 X116.08 Y137.82 E21.25761
G1 X115.736 Y137.923 E21.26955
G1 X115.398 Y138.049 E21.28155
G1 X115.071 Y138.195 E21.29346
G1 X114.754 Y138.362 E21.30538
G1 X114.474 Y138.534 E21.31631
G1 X114.181 Y138.738 E21.32818
G1 X113.965 Y138.911 E21.33739
G1 X113.91 Y138.95 E21.33963
G1 X113.675 Y139.167 E21.35027
G1 X113.643 Y139.194 E21.35166
G1 X113.385 Y139.462 E21.36403
G1 X113.152 Y139.736 E21.376
G1 X112.939 Y140.024 E21.38791
G1 X112.744 Y140.325 E21.39984
G1 X112.568 Y140.638 E21.41178
G1 X112.414 Y140.964 E21.42378
G1 X112.394 Y141.013 E21.42554
G1 X112.282 Y141.296 E21.43566
G1 X112.179 Y141.609 E21.44662
G1 X112.089 Y141.954 E21.45848
G1 X112.02 Y142.306 E21.47041
G1 X112 Y142.465 E21.47574
G1 X112 Y142.306 E21.47587
G1 X112 Y141.954 E21.47743
G1 X112 Y141.609 E21.48122
G1 X112 Y141.296 E21.48718
G1 X112 Y140.991 E21.49587
G1 X112 Y133.766 E21.73617
G1 X112 Y133.68 E21.73903
G1 X112 Y133.667 E21.73947
G1 X112.228 Y133.68 E21.74434
G1 X112.314 Y133.68 E21.74677
G1 X112.676 Y133.683 E21.75881
G1 X113.051 Y133.664 E21.7713
G1 X113.496 Y133.618 E21.78617
G1 X113.864 Y133.559 E21.79857
G1 X114.266 Y133.474 E21.81224
G1 X114.604 Y133.382 E21.82389
G1 X114.653 Y133.371 E21.82556
G1 X115.055 Y133.236 E21.83966
G1 X115.435 Y133.086 E21.85325
G1 X115.81 Y132.915 E21.86696
G1 X116.174 Y132.724 E21.88063
G1 X116.527 Y132.513 E21.89431
G1 X116.868 Y132.282 E21.90801
G1 X117.195 Y132.033 E21.92168
G1 X117.508 Y131.768 E21.93532
G1 X117.807 Y131.483 E21.94906
G1 X118.089 Y131.185 E21.9627
G1 X118.331 Y130.9 E21.97514
G1 X118.53 Y130.637 E21.98611
G1 X118.573 Y130.586 E21.98833
G1 X118.783 Y130.277 E22.00075
G1 X118.805 Y130.248 E22.00196
G1 X119.025 Y129.883 E22.01614
G1 X119.189 Y129.572 E22.02783
G1 X119.213 Y129.532 E22.02938
G1 X119.391 Y129.147 E22.04349
G1 X119.543 Y128.765 E22.05717
G1 X119.673 Y128.374 E22.07087
G1 X119.782 Y127.98 E22.08447
G1 X119.869 Y127.577 E22.09818
G1 X119.934 Y127.172 E22.11182
G1 X119.977 Y126.764 E22.12547
G1 X119.996 Y126.39 E22.13792
G1 X119.997 Y125.981 E22.15153
G1 X119.975 Y125.568 E22.16528
G1 X119.936 Y125.225 E22.17676
G1 X119.931 Y125.169 E22.17863
