;FLAVOR:Marlin
;TIME:1232
;Filament used: 0.407386m
;Layer height: 0.12
;MINX:93.379
;MINY:102.011
;MINZ:0.12
;MAXX:137.615
;MAXY:148.99
;MAXZ:5.4
;Generated with Cura_SteamEngine 4.7.1
M140 S62
M105
M190 S62
M104 S200
M105
M109 S200
M82 ;absolute extrusion mode
; Ender 3 Custom Start G-code
G92 E0 ; Reset Extruder
G28 ; Home all axes
G1 Z2.0 F3000 ; Move Z Axis up little to prevent scratching of Heat Bed
G1 X0.1 Y20 Z0.3 F5000.0 ; Move to start position
G1 X0.1 Y200.0 Z0.3 F1500.0 E15 ; Draw the first line
G1 X0.4 Y200.0 Z0.3 F5000.0 ; Move to side a little
G1 X0.4 Y20 Z0.3 F1500.0 E30 ; Draw the second line
G92 E0 ; Reset Extruder
G1 Z2.0 F3000 ; Move Z Axis up little to prevent scratching of Heat Bed
G1 X5 Y20 Z0.3 F5000.0 ; Move over to prevent blob squish
G92 E0
G92 E0
G1 F2700 E-5
;LAYER_COUNT:45
;LAYER:0
M107
G0 F6000 X98.286 Y108.156 Z0.12
;TYPE:SKIRT
G1 F2700 E0
G1 F1200 X98.511 Y107.953 E0.00605
G1 X98.751 Y107.742 E0.01242
G1 X99.026 Y107.508 E0.01963
G1 X99.247 Y107.326 E0.02534
G1 X99.506 Y107.117 E0.03199
G1 X99.791 Y106.894 E0.03921
G1 X100.157 Y106.618 E0.04835
G1 X100.375 Y106.458 E0.05375
G1 X100.604 Y106.294 E0.05937
G1 X100.882 Y106.101 E0.06613
G1 X101.219 Y105.875 E0.07422
G1 X101.501 Y105.693 E0.08092
G1 X101.772 Y105.523 E0.08731
G1 X102.049 Y105.354 E0.09378
G1 X102.4 Y105.148 E0.1019
G1 X102.597 Y105.035 E0.10643
G1 X102.824 Y104.908 E0.11163
G1 X103.191 Y104.712 E0.11993
G1 X103.655 Y104.475 E0.13033
G1 X103.917 Y104.345 E0.13616
G1 X104.164 Y104.227 E0.14163
G1 X104.49 Y104.078 E0.14878
G1 X104.814 Y103.936 E0.15584
G1 X105.013 Y103.851 E0.16016
G1 X105.278 Y103.741 E0.16588
G1 X105.65 Y103.595 E0.17386
G1 X106.111 Y103.423 E0.18368
G1 X106.449 Y103.303 E0.19083
G1 X106.754 Y103.202 E0.19725
G1 X107.479 Y102.974 E0.21241
G1 X107.885 Y102.855 E0.22086
G1 X108.293 Y102.747 E0.22928
G1 X108.744 Y102.637 E0.23854
G1 X108.983 Y102.582 E0.24344
G1 X109.287 Y102.515 E0.24965
G1 X109.644 Y102.442 E0.25692
G1 X109.999 Y102.376 E0.26413
G1 X110.317 Y102.322 E0.27056
G1 X110.683 Y102.265 E0.27796
G1 X110.987 Y102.222 E0.28408
G1 X111.364 Y102.174 E0.29167
G1 X111.677 Y102.139 E0.29795
G1 X111.972 Y102.11 E0.30387
G1 X112.315 Y102.081 E0.31074
G1 X112.779 Y102.05 E0.32002
G1 X113.077 Y102.035 E0.32597
G1 X113.38 Y102.023 E0.33202
G1 X113.694 Y102.015 E0.33829
G1 X114.057 Y102.011 E0.34554
G1 X114.398 Y102.012 E0.35234
G1 X114.748 Y102.019 E0.35933
G1 X115.032 Y102.029 E0.365
G1 X115.446 Y102.048 E0.37327
G1 X115.758 Y102.066 E0.3795
G1 X115.973 Y102.082 E0.38381
G1 X116.337 Y102.115 E0.3911
G1 X116.893 Y102.175 E0.40226
G1 X117.193 Y102.212 E0.40829
G1 X117.414 Y102.242 E0.41274
G1 X117.735 Y102.29 E0.41922
G1 X118.193 Y102.366 E0.42849
G1 X118.472 Y102.417 E0.43415
G1 X118.742 Y102.469 E0.43963
G1 X119.064 Y102.536 E0.4462
G1 X119.484 Y102.63 E0.45479
G1 X119.844 Y102.716 E0.46217
G1 X120.137 Y102.792 E0.46821
G1 X120.418 Y102.869 E0.47403
G1 X120.814 Y102.983 E0.48225
G1 X121.095 Y103.068 E0.48811
G1 X121.36 Y103.152 E0.49366
G1 X121.693 Y103.264 E0.50067
G1 X122.127 Y103.417 E0.50985
G1 X122.41 Y103.521 E0.51587
G1 X122.728 Y103.643 E0.52266
G1 X123.059 Y103.776 E0.52978
G1 X123.415 Y103.926 E0.53749
G1 X123.65 Y104.028 E0.54261
G1 X123.866 Y104.125 E0.54733
G1 X124.173 Y104.269 E0.5541
G1 X124.619 Y104.486 E0.564
G1 X124.925 Y104.641 E0.57084
G1 X125.216 Y104.794 E0.5774
G1 X125.5 Y104.949 E0.58386
G1 X125.805 Y105.121 E0.59085
G1 X126.047 Y105.261 E0.59643
G1 X126.338 Y105.435 E0.60319
G1 X126.624 Y105.612 E0.6099
G1 X126.977 Y105.838 E0.61827
G1 X127.258 Y106.024 E0.62499
G1 X127.505 Y106.193 E0.63097
G1 X127.742 Y106.36 E0.63675
G1 X128.093 Y106.614 E0.6454
G1 X128.381 Y106.829 E0.65257
G1 X128.603 Y107.001 E0.65817
G1 X128.841 Y107.191 E0.66425
G1 X129.18 Y107.469 E0.673
G1 X129.389 Y107.645 E0.67845
G1 X129.578 Y107.808 E0.68343
G1 X129.827 Y108.029 E0.69008
G1 X130.163 Y108.337 E0.69917
G1 X130.413 Y108.574 E0.70605
G1 X130.662 Y108.817 E0.71299
G1 X130.889 Y109.045 E0.71941
G1 X131.147 Y109.312 E0.72682
G1 X131.361 Y109.54 E0.73306
G1 X131.56 Y109.758 E0.73895
G1 X131.788 Y110.015 E0.74581
G1 X132.082 Y110.358 E0.75482
G1 X132.258 Y110.569 E0.76031
G1 X132.456 Y110.812 E0.76656
G1 X132.667 Y111.079 E0.77335
G1 X132.917 Y111.406 E0.78157
G1 X133.088 Y111.636 E0.78729
G1 X133.227 Y111.828 E0.79202
G1 X133.427 Y112.114 E0.79898
G1 X133.718 Y112.544 E0.80934
G1 X133.895 Y112.814 E0.81579
G1 X134.041 Y113.044 E0.82122
G1 X134.208 Y113.315 E0.82758
G1 X134.418 Y113.668 E0.83577
G1 X134.574 Y113.94 E0.84203
G1 X134.716 Y114.195 E0.84785
G1 X134.865 Y114.471 E0.85411
G1 X135.072 Y114.869 E0.86307
G1 X135.22 Y115.164 E0.86965
G1 X135.345 Y115.423 E0.87539
G1 X135.48 Y115.714 E0.88179
G1 X135.645 Y116.083 E0.88986
G1 X135.767 Y116.366 E0.89601
G1 X135.892 Y116.668 E0.90253
G1 X136.017 Y116.985 E0.90933
G1 X136.169 Y117.387 E0.91791
G1 X136.26 Y117.636 E0.9232
G1 X136.327 Y117.827 E0.92724
G1 X136.429 Y118.133 E0.93368
G1 X136.597 Y118.661 E0.94473
G1 X136.71 Y119.039 E0.95261
G1 X136.782 Y119.297 E0.95795
G1 X136.857 Y119.58 E0.96379
G1 X136.96 Y119.991 E0.97225
G1 X137.021 Y120.247 E0.9775
G1 X137.078 Y120.5 E0.98268
G1 X137.154 Y120.864 E0.9901
G1 X137.238 Y121.306 E0.99908
G1 X137.292 Y121.617 E1.00538
G1 X137.344 Y121.941 E1.01192
G1 X137.388 Y122.243 E1.01801
G1 X137.439 Y122.629 E1.02578
G1 X137.477 Y122.95 E1.03223
G1 X137.507 Y123.243 E1.03811
G1 X137.535 Y123.569 E1.04464
G1 X137.567 Y124.011 E1.05349
G1 X137.585 Y124.324 E1.05974
G1 X137.598 Y124.621 E1.06567
G1 X137.608 Y124.92 E1.07164
G1 X137.615 Y125.344 E1.08011
G1 X137.615 Y125.677 E1.08675
G1 X137.611 Y125.969 E1.09258
G1 X137.602 Y126.295 E1.09909
G1 X137.584 Y126.71 E1.10738
G1 X137.564 Y127.046 E1.1141
G1 X137.54 Y127.37 E1.12058
G1 X137.514 Y127.669 E1.12657
G1 X137.47 Y128.102 E1.13525
G1 X137.437 Y128.385 E1.14094
G1 X137.398 Y128.69 E1.14708
G1 X137.346 Y129.051 E1.15435
G1 X137.286 Y129.422 E1.16185
G1 X137.235 Y129.713 E1.16775
G1 X137.178 Y130.014 E1.17386
G1 X137.119 Y130.302 E1.17973
G1 X137.023 Y130.744 E1.18876
G1 X136.93 Y131.139 E1.19685
G1 X136.858 Y131.42 E1.20264
G1 X136.784 Y131.694 E1.20831
G1 X136.675 Y132.078 E1.21627
G1 X136.598 Y132.336 E1.22165
G1 X136.498 Y132.658 E1.22837
G1 X136.39 Y132.988 E1.2353
G1 X136.257 Y133.373 E1.24343
G1 X136.149 Y133.672 E1.24978
G1 X136.059 Y133.91 E1.25485
G1 X135.938 Y134.215 E1.2614
G1 X135.742 Y134.69 E1.27166
G1 X135.615 Y134.985 E1.27807
G1 X135.509 Y135.222 E1.28325
G1 X135.376 Y135.508 E1.28954
G1 X135.187 Y135.9 E1.29823
G1 X135.052 Y136.172 E1.30429
G1 X134.928 Y136.412 E1.30968
G1 X134.767 Y136.712 E1.31647
G1 X134.56 Y137.084 E1.32497
G1 X134.402 Y137.358 E1.33128
G1 X134.22 Y137.664 E1.33838
G1 X134.062 Y137.922 E1.34442
G1 X133.876 Y138.216 E1.35136
G1 X133.683 Y138.511 E1.3584
G1 X133.491 Y138.794 E1.36522
G1 X133.334 Y139.019 E1.3707
G1 X133.08 Y139.374 E1.37941
G1 X132.862 Y139.667 E1.3867
G1 X132.681 Y139.903 E1.39263
G1 X132.517 Y140.113 E1.39795
G1 X132.255 Y140.438 E1.40628
G1 X132.001 Y140.741 E1.41417
G1 X131.818 Y140.952 E1.41975
G1 X131.656 Y141.135 E1.42462
G1 X131.354 Y141.468 E1.43359
G1 X131.085 Y141.755 E1.44144
G1 X130.895 Y141.95 E1.44688
G1 X130.7 Y142.145 E1.45238
G1 X130.365 Y142.472 E1.46172
G1 X130.169 Y142.658 E1.46712
G1 X129.985 Y142.829 E1.47213
G1 X129.708 Y143.077 E1.47955
G1 X129.359 Y143.38 E1.48877
G1 X129.107 Y143.593 E1.49536
G1 X128.883 Y143.776 E1.50113
G1 X128.64 Y143.969 E1.50732
G1 X128.304 Y144.228 E1.51579
G1 X128.072 Y144.402 E1.52157
G1 X127.85 Y144.564 E1.52706
G1 X127.575 Y144.758 E1.53377
G1 X127.205 Y145.011 E1.54272
G1 X126.929 Y145.194 E1.54933
G1 X126.687 Y145.349 E1.55506
G1 X126.425 Y145.512 E1.56122
G1 X126.061 Y145.731 E1.5697
G1 X125.769 Y145.9 E1.57643
G1 X125.464 Y146.071 E1.58341
G1 X125.211 Y146.209 E1.58916
G1 X124.873 Y146.387 E1.59678
G1 X124.611 Y146.52 E1.60265
G1 X124.398 Y146.625 E1.60739
G1 X124.069 Y146.781 E1.61465
G1 X123.585 Y147 E1.62525
G1 X123.273 Y147.135 E1.63204
G1 X123.006 Y147.246 E1.63781
G1 X122.75 Y147.349 E1.64332
G1 X122.406 Y147.482 E1.65068
G1 X122.107 Y147.593 E1.65704
G1 X121.861 Y147.68 E1.66225
G1 X121.54 Y147.787 E1.669
G1 X121.036 Y147.948 E1.67956
G1 X120.731 Y148.041 E1.68592
G1 X120.453 Y148.121 E1.69169
G1 X120.144 Y148.205 E1.69808
G1 X119.758 Y148.304 E1.70604
G1 X119.447 Y148.379 E1.71242
G1 X119.19 Y148.437 E1.71768
G1 X118.881 Y148.502 E1.72398
G1 X118.411 Y148.594 E1.73354
G1 X118.106 Y148.649 E1.73972
G1 X117.842 Y148.693 E1.74506
G1 X117.53 Y148.741 E1.75136
G1 X117.093 Y148.801 E1.76017
G1 X116.733 Y148.844 E1.7674
G1 X116.473 Y148.871 E1.77262
G1 X116.19 Y148.897 E1.77829
G1 X115.663 Y148.938 E1.78884
G1 X115.381 Y148.956 E1.79448
G1 X115.01 Y148.974 E1.80189
G1 X114.686 Y148.985 E1.80836
G1 X114.203 Y148.99 E1.818
G1 X113.704 Y148.985 E1.82796
G1 X113.387 Y148.978 E1.83428
G1 X113.027 Y148.964 E1.84147
G1 X112.722 Y148.948 E1.84757
G1 X112.452 Y148.93 E1.85297
G1 X112.137 Y148.904 E1.85928
G1 X111.656 Y148.858 E1.86892
G1 X111.33 Y148.822 E1.87546
G1 X111.028 Y148.784 E1.88154
G1 X110.679 Y148.734 E1.88857
G1 X110.269 Y148.669 E1.89686
G1 X109.996 Y148.622 E1.90239
G1 X109.687 Y148.565 E1.90866
G1 X109.402 Y148.509 E1.91445
G1 X109.015 Y148.427 E1.92235
G1 X108.627 Y148.338 E1.93029
G1 X108.375 Y148.275 E1.93548
G1 X108.112 Y148.205 E1.94091
G1 X107.62 Y148.069 E1.95109
G1 X107.29 Y147.972 E1.95796
G1 X106.984 Y147.877 E1.96435
G1 X106.71 Y147.788 E1.9701
G1 X106.436 Y147.695 E1.97587
G1 X106.129 Y147.586 E1.98238
G1 X105.85 Y147.482 E1.98832
G1 X105.564 Y147.371 E1.99444
G1 X105.033 Y147.156 E2.00587
G1 X104.686 Y147.009 E2.01339
G1 X104.43 Y146.895 E2.01899
G1 X104.164 Y146.772 E2.02483
G1 X103.873 Y146.633 E2.03127
G1 X103.603 Y146.499 E2.03728
G1 X103.304 Y146.346 E2.04399
G1 X103.033 Y146.203 E2.0501
G1 X102.622 Y145.978 E2.05945
G1 X102.307 Y145.798 E2.06669
G1 X102.038 Y145.639 E2.07293
G1 X101.779 Y145.482 E2.07897
G1 X101.488 Y145.299 E2.08583
G1 X101.235 Y145.135 E2.09185
G1 X100.931 Y144.932 E2.09914
G1 X100.662 Y144.746 E2.10567
G1 X100.343 Y144.519 E2.11348
G1 X100.08 Y144.326 E2.11999
G1 X99.841 Y144.145 E2.12598
G1 X99.613 Y143.968 E2.13174
G1 X99.259 Y143.685 E2.14078
G1 X98.978 Y143.453 E2.14805
G1 X98.75 Y143.258 E2.15404
G1 X98.514 Y143.049 E2.16033
G1 X98.237 Y142.798 E2.16779
G1 X98.017 Y142.594 E2.17378
G1 X97.784 Y142.371 E2.18022
G1 X97.552 Y142.142 E2.18672
G1 X97.229 Y141.814 E2.19591
G1 X97.013 Y141.589 E2.20213
G1 X96.786 Y141.345 E2.20878
G1 X96.554 Y141.086 E2.21572
G1 X96.334 Y140.834 E2.2224
G1 X96.167 Y140.639 E2.22752
G1 X95.938 Y140.364 E2.23466
G1 X95.369 Y139.618 E2.25339
G1 X94.866 Y138.827 E2.27209
G1 X94.432 Y137.996 E2.2908
G1 X94.07 Y137.13 E2.30953
G1 X93.784 Y136.237 E2.32824
G1 X93.574 Y135.323 E2.34696
G1 X93.424 Y134.182 E2.36993
G1 X93.419 Y134.118 E2.37121
G1 X93.387 Y133.389 E2.38577
G1 X93.379 Y132.66 E2.40032
G1 X93.38 Y118.185 E2.68918
G1 X93.39 Y117.515 E2.70255
G1 X93.444 Y116.579 E2.72126
G1 X93.578 Y115.65 E2.73999
G1 X93.79 Y114.737 E2.7587
G1 X94.079 Y113.844 E2.77743
G1 X94.443 Y112.98 E2.79614
G1 X94.88 Y112.15 E2.81486
G1 X95.385 Y111.36 E2.83357
G1 X95.888 Y110.698 E2.85016
G1 X96.104 Y110.435 E2.85695
G1 X96.349 Y110.147 E2.8645
G1 X96.607 Y109.854 E2.87229
G1 X96.799 Y109.642 E2.878
G1 X97.043 Y109.379 E2.88516
G1 X97.278 Y109.133 E2.89195
G1 X97.505 Y108.903 E2.8984
G1 X97.731 Y108.68 E2.90473
G1 X98.052 Y108.373 E2.9136
G1 X98.286 Y108.156 E2.91996
G0 F6000 X98.554 Y108.453
G1 F1200 X98.779 Y108.25 E2.92601
G1 X99.011 Y108.047 E2.93216
G1 X99.286 Y107.813 E2.93937
G1 X99.498 Y107.637 E2.94487
G1 X99.757 Y107.428 E2.95151
G1 X100.032 Y107.214 E2.95846
G1 X100.398 Y106.938 E2.96761
G1 X100.608 Y106.783 E2.97282
G1 X100.837 Y106.619 E2.97844
G1 X101.105 Y106.433 E2.98495
G1 X101.442 Y106.207 E2.99305
G1 X101.713 Y106.032 E2.99949
G1 X101.984 Y105.862 E3.00587
G1 X102.252 Y105.699 E3.01213
G1 X102.603 Y105.493 E3.02025
G1 X102.793 Y105.384 E3.02462
G1 X103.02 Y105.257 E3.02981
G1 X103.373 Y105.068 E3.0378
G1 X103.837 Y104.831 E3.0482
G1 X104.09 Y104.706 E3.05383
G1 X104.337 Y104.588 E3.0593
G1 X104.651 Y104.444 E3.06619
G1 X104.975 Y104.302 E3.07325
G1 X105.431 Y104.111 E3.08312
G1 X105.79 Y103.97 E3.09081
G1 X106.251 Y103.798 E3.10063
G1 X106.58 Y103.681 E3.1076
G1 X106.874 Y103.583 E3.11378
G1 X107.599 Y103.355 E3.12895
G1 X107.99 Y103.241 E3.13708
G1 X108.111 Y103.208 E3.13958
G1 X108.388 Y103.136 E3.14529
G1 X108.839 Y103.026 E3.15456
G1 X109.07 Y102.972 E3.15929
G1 X109.374 Y102.905 E3.1655
G1 X109.717 Y102.836 E3.17249
G1 X110.072 Y102.77 E3.17969
G1 X110.379 Y102.717 E3.18591
G1 X110.745 Y102.66 E3.1933
G1 X111.037 Y102.619 E3.19918
G1 X111.414 Y102.571 E3.20677
G1 X111.716 Y102.537 E3.21283
G1 X112.011 Y102.508 E3.21875
G1 X112.341 Y102.481 E3.22536
G1 X112.805 Y102.45 E3.23464
G1 X113.093 Y102.434 E3.24039
G1 X113.396 Y102.422 E3.24644
G1 X113.698 Y102.415 E3.25247
G1 X114.061 Y102.411 E3.25972
G1 X114.39 Y102.412 E3.26628
G1 X114.74 Y102.419 E3.27327
G1 X115.014 Y102.428 E3.27874
G1 X115.428 Y102.447 E3.28701
G1 X115.729 Y102.465 E3.29303
G1 X115.944 Y102.481 E3.29733
G1 X116.294 Y102.513 E3.30434
G1 X116.85 Y102.573 E3.3155
G1 X117.139 Y102.608 E3.32131
G1 X117.36 Y102.638 E3.32576
G1 X117.669 Y102.685 E3.332
G1 X118.127 Y102.761 E3.34127
G1 X118.397 Y102.809 E3.34674
G1 X118.667 Y102.861 E3.35223
G1 X118.977 Y102.926 E3.35855
G1 X119.397 Y103.02 E3.36714
G1 X119.743 Y103.104 E3.37424
G1 X120.036 Y103.18 E3.38028
G1 X120.307 Y103.254 E3.38589
G1 X120.703 Y103.368 E3.39411
G1 X120.974 Y103.449 E3.39976
G1 X121.239 Y103.533 E3.4053
G1 X121.56 Y103.641 E3.41206
G1 X121.994 Y103.794 E3.42125
G1 X122.267 Y103.894 E3.42705
G1 X122.585 Y104.016 E3.43385
G1 X122.904 Y104.145 E3.44071
G1 X123.26 Y104.295 E3.44842
G1 X123.486 Y104.393 E3.45334
G1 X123.702 Y104.49 E3.45806
G1 X123.998 Y104.628 E3.46458
G1 X124.444 Y104.845 E3.47448
G1 X124.739 Y104.995 E3.48108
G1 X125.03 Y105.148 E3.48764
G1 X125.304 Y105.297 E3.49387
G1 X125.609 Y105.469 E3.50086
G1 X125.842 Y105.604 E3.50623
G1 X126.133 Y105.778 E3.513
G1 X126.408 Y105.949 E3.51946
G1 X126.761 Y106.175 E3.52782
G1 X127.032 Y106.354 E3.5343
G1 X127.279 Y106.523 E3.54028
G1 X127.507 Y106.684 E3.54585
G1 X127.858 Y106.938 E3.55449
G1 X128.136 Y107.146 E3.56142
G1 X128.358 Y107.318 E3.56703
G1 X128.588 Y107.501 E3.57289
G1 X128.927 Y107.779 E3.58164
G1 X129.128 Y107.948 E3.58688
G1 X129.317 Y108.111 E3.59186
G1 X129.557 Y108.324 E3.59826
G1 X129.893 Y108.632 E3.60736
G1 X130.133 Y108.86 E3.61397
G1 X130.382 Y109.103 E3.62091
G1 X130.602 Y109.323 E3.62712
G1 X130.86 Y109.59 E3.63453
G1 X131.066 Y109.81 E3.64054
G1 X131.265 Y110.028 E3.64643
G1 X131.484 Y110.276 E3.65304
G1 X131.778 Y110.619 E3.66205
G1 X131.947 Y110.821 E3.66731
G1 X132.145 Y111.064 E3.67356
G1 X132.349 Y111.322 E3.68013
G1 X132.599 Y111.649 E3.68834
G1 X132.764 Y111.871 E3.69386
G1 X132.903 Y112.063 E3.69859
G1 X133.096 Y112.338 E3.7053
G1 X133.387 Y112.768 E3.71566
G1 X133.557 Y113.028 E3.72186
G1 X133.703 Y113.258 E3.72729
G1 X133.864 Y113.52 E3.73343
G1 X134.074 Y113.873 E3.74163
G1 X134.225 Y114.135 E3.74766
G1 X134.367 Y114.39 E3.75349
G1 X134.51 Y114.656 E3.75951
G1 X134.717 Y115.054 E3.76846
G1 X134.859 Y115.338 E3.7748
G1 X134.984 Y115.597 E3.78054
G1 X135.115 Y115.877 E3.78671
G1 X135.28 Y116.246 E3.79478
G1 X135.397 Y116.519 E3.8007
G1 X135.522 Y116.821 E3.80723
G1 X135.643 Y117.126 E3.81377
G1 X135.795 Y117.528 E3.82235
G1 X135.882 Y117.768 E3.82744
G1 X135.949 Y117.959 E3.83148
G1 X136.048 Y118.254 E3.83769
G1 X136.216 Y118.782 E3.84875
G1 X136.325 Y119.147 E3.85635
G1 X136.397 Y119.405 E3.8617
G1 X136.469 Y119.677 E3.86731
G1 X136.572 Y120.088 E3.87577
G1 X136.631 Y120.335 E3.88084
G1 X136.688 Y120.588 E3.88601
G1 X136.761 Y120.939 E3.89317
G1 X136.845 Y121.381 E3.90214
G1 X136.897 Y121.68 E3.9082
G1 X136.949 Y122.004 E3.91475
G1 X136.992 Y122.296 E3.92064
G1 X137.043 Y122.682 E3.92841
G1 X137.079 Y122.99 E3.9346
G1 X137.109 Y123.283 E3.94048
G1 X137.136 Y123.598 E3.94679
G1 X137.168 Y124.04 E3.95563
G1 X137.186 Y124.341 E3.96165
