;FLAVOR:Marlin
;TIME:1678
;Filament used: 0.943939m
;Layer height: 0.2
;MINX:70.892
;MINY:147.126
;MINZ:0.2
;MAXX:160.108
;MAXY:183.874
;MAXZ:4
;Generated with Cura_SteamEngine 4.7.1
M140 S60
M105
M190 S60
M104 S220
M105
M109 S220
M82 ;absolute extrusion mode
; Ender 3 Custom Start G-code
G92 E0 ; Reset Extruder
G28 ; Home all axes
G1 Z2.0 F3000 ; Move Z Axis up little to prevent scratching of Heat Bed
G1 X0.1 Y20 Z0.3 F5000.0 ; Move to start position
G1 X0.1 Y200.0 Z0.3 F1500.0 E15 ; Draw the first line
G1 X0.4 Y200.0 Z0.3 F5000.0 ; Move to side a little
G1 X0.4 Y20 Z0.3 F1500.0 E30 ; Draw the second line
G92 E0 ; Reset Extruder
G1 Z2.0 F3000 ; Move Z Axis up little to prevent scratching of Heat Bed
G1 X5 Y20 Z0.3 F5000.0 ; Move over to prevent blob squish
G92 E0
G92 E0
G1 F2700 E-5
;LAYER_COUNT:20
;LAYER:0
M107
G0 F6000 X77.131 Y148.223 Z0.2
;TYPE:SKIRT
G1 F2700 E0
G1 F1200 X77.993 Y147.853 E0.0312
G1 X78.883 Y147.557 E0.0624
G1 X79.795 Y147.339 E0.09358
G1 X80.722 Y147.198 E0.12477
G1 X81.593 Y147.139 E0.15381
G1 X81.914 Y147.13 E0.16449
G1 X82.222 Y147.126 E0.17473
G1 X148.401 Y147.126 E2.37585
G1 X148.559 Y147.127 E2.38111
G1 X149.257 Y147.137 E2.40433
G1 X150.193 Y147.191 E2.43551
G1 X151.121 Y147.323 E2.46669
G1 X152.035 Y147.535 E2.49789
G1 X152.927 Y147.824 E2.52908
G1 X153.792 Y148.187 E2.56028
G1 X154.622 Y148.623 E2.59146
G1 X155.413 Y149.128 E2.62268
G1 X156.157 Y149.699 E2.65387
G1 X156.85 Y150.331 E2.68506
G1 X157.487 Y151.019 E2.71625
G1 X158.062 Y151.76 E2.74745
G1 X158.573 Y152.546 E2.77863
G1 X159.015 Y153.374 E2.80984
G1 X159.384 Y154.236 E2.84103
G1 X159.679 Y155.126 E2.87222
G1 X159.897 Y156.038 E2.9034
G1 X160.037 Y156.966 E2.93462
G1 X160.095 Y157.827 E2.96332
G1 X160.104 Y158.147 E2.97397
G1 X160.108 Y158.456 E2.98425
G1 X160.107 Y172.274 E3.44384
G1 X160.098 Y173.001 E3.46802
G1 X160.047 Y173.938 E3.49923
G1 X159.915 Y174.866 E3.5304
G1 X159.706 Y175.78 E3.56159
G1 X159.419 Y176.673 E3.59279
G1 X159.057 Y177.539 E3.624
G1 X158.623 Y178.37 E3.65519
G1 X158.119 Y179.161 E3.68638
G1 X157.55 Y179.906 E3.71756
G1 X156.919 Y180.601 E3.74878
G1 X156.232 Y181.239 E3.77997
G1 X155.493 Y181.816 E3.81115
G1 X154.707 Y182.328 E3.84235
G1 X153.881 Y182.771 E3.87352
G1 X153.019 Y183.143 E3.90475
G1 X152.13 Y183.439 E3.93591
G1 X151.218 Y183.659 E3.96712
G1 X150.291 Y183.8 E3.9983
G1 X149.407 Y183.861 E4.02778
G1 X149.086 Y183.87 E4.03846
G1 X148.778 Y183.874 E4.0487
G1 X82.599 Y183.874 E6.24982
G1 X81.759 Y183.864 E6.27777
G1 X80.823 Y183.812 E6.30894
G1 X79.894 Y183.68 E6.34015
G1 X78.98 Y183.47 E6.37135
G1 X78.087 Y183.183 E6.40254
G1 X77.222 Y182.82 E6.43374
G1 X76.391 Y182.386 E6.46493
G1 X75.6 Y181.882 E6.49612
G1 X74.855 Y181.312 E6.52732
G1 X74.161 Y180.681 E6.55852
G1 X73.524 Y179.994 E6.58968
G1 X72.947 Y179.254 E6.62089
G1 X72.435 Y178.468 E6.65209
G1 X71.992 Y177.641 E6.68329
G1 X71.621 Y176.78 E6.71447
G1 X71.325 Y175.89 E6.74567
G1 X71.106 Y174.978 E6.77687
G1 X70.965 Y174.051 E6.80805
G1 X70.905 Y173.162 E6.83769
G1 X70.896 Y172.829 E6.84877
G1 X70.892 Y172.532 E6.85865
G1 X70.893 Y158.651 E7.32033
G1 X70.902 Y157.986 E7.34245
G1 X70.955 Y157.05 E7.37363
G1 X71.087 Y156.121 E7.40484
G1 X71.298 Y155.207 E7.43604
G1 X71.586 Y154.315 E7.46722
G1 X71.949 Y153.45 E7.49842
G1 X72.384 Y152.619 E7.52961
G1 X72.888 Y151.829 E7.56078
G1 X73.458 Y151.084 E7.59198
G1 X74.09 Y150.39 E7.6232
G1 X74.778 Y149.753 E7.65439
G1 X75.518 Y149.177 E7.68557
G1 X76.304 Y148.665 E7.71677
G1 X77.131 Y148.223 E7.74796
G0 F6000 X77.503 Y148.49
G1 F1200 X78.357 Y148.145 E7.7786
G1 X79.237 Y147.875 E7.80921
G1 X80.137 Y147.683 E7.83982
G1 X81.051 Y147.569 E7.87046
G1 X81.604 Y147.539 E7.88888
G1 X81.925 Y147.53 E7.89956
G1 X82.222 Y147.526 E7.90944
G1 X148.401 Y147.526 E10.11056
G1 X149.251 Y147.537 E10.13883
G1 X150.17 Y147.59 E10.16945
G1 X151.081 Y147.723 E10.20007
G1 X151.977 Y147.934 E10.23069
G1 X152.851 Y148.222 E10.26129
G1 X153.698 Y148.585 E10.29194
G1 X154.509 Y149.02 E10.32255
G1 X155.279 Y149.524 E10.35316
G1 X156.003 Y150.093 E10.38379
G1 X156.675 Y150.723 E10.41442
G1 X157.29 Y151.408 E10.44504
G1 X157.843 Y152.144 E10.47566
G1 X158.33 Y152.925 E10.50627
G1 X158.747 Y153.746 E10.5369
G1 X159.092 Y154.6 E10.56754
G1 X159.361 Y155.48 E10.59814
G1 X159.553 Y156.381 E10.62878
G1 X159.666 Y157.294 E10.65938
G1 X159.695 Y157.838 E10.6775
G1 X159.704 Y158.158 E10.68815
G1 X159.708 Y158.456 E10.69806
G1 X159.707 Y172.269 E11.15748
G1 X159.698 Y172.996 E11.18166
G1 X159.647 Y173.915 E11.21228
G1 X159.516 Y174.827 E11.24292
G1 X159.306 Y175.723 E11.27353
G1 X159.02 Y176.598 E11.30415
G1 X158.659 Y177.445 E11.33477
G1 X158.225 Y178.257 E11.36539
G1 X157.723 Y179.029 E11.39602
G1 X157.155 Y179.754 E11.42665
G1 X156.527 Y180.427 E11.45727
G1 X155.843 Y181.043 E11.48789
G1 X155.108 Y181.597 E11.5185
G1 X154.328 Y182.086 E11.54912
G1 X153.508 Y182.505 E11.57975
G1 X152.655 Y182.851 E11.61036
G1 X151.775 Y183.122 E11.64099
G1 X150.875 Y183.315 E11.6716
G1 X149.961 Y183.43 E11.70224
G1 X149.396 Y183.461 E11.72106
G1 X149.075 Y183.47 E11.73174
G1 X148.778 Y183.474 E11.74162
G1 X82.599 Y183.474 E13.94274
G1 X81.764 Y183.464 E13.97052
G1 X80.845 Y183.412 E14.00113
G1 X79.934 Y183.281 E14.03174
G1 X79.038 Y183.071 E14.06235
G1 X78.163 Y182.784 E14.09298
G1 X77.316 Y182.422 E14.12362
G1 X76.504 Y181.988 E14.15424
G1 X75.733 Y181.486 E14.18484
G1 X75.008 Y180.918 E14.21547
G1 X74.335 Y180.289 E14.24611
G1 X73.72 Y179.605 E14.27671
G1 X73.166 Y178.87 E14.30732
G1 X72.678 Y178.089 E14.33795
G1 X72.259 Y177.269 E14.36858
G1 X71.913 Y176.416 E14.39919
G1 X71.643 Y175.536 E14.42981
G1 X71.45 Y174.635 E14.46045
G1 X71.336 Y173.722 E14.49106
G1 X71.305 Y173.151 E14.51008
G1 X71.296 Y172.818 E14.52116
G1 X71.292 Y172.532 E14.53067
G1 X71.293 Y158.657 E14.99215
G1 X71.302 Y157.992 E15.01427
G1 X71.354 Y157.072 E15.04492
G1 X71.486 Y156.161 E15.07554
G1 X71.697 Y155.265 E15.10615
G1 X71.984 Y154.39 E15.13678
G1 X72.347 Y153.544 E15.1674
G1 X72.781 Y152.732 E15.19802
G1 X73.284 Y151.961 E15.22864
G1 X73.853 Y151.237 E15.25927
G1 X74.481 Y150.565 E15.28986
G1 X75.166 Y149.949 E15.3205
G1 X75.902 Y149.396 E15.35112
G1 X76.683 Y148.908 E15.38175
G1 X77.503 Y148.49 E15.41236
G0 F6000 X77.874 Y148.764
G1 F1200 X78.719 Y148.444 E15.44242
G1 X79.588 Y148.201 E15.47243
G1 X80.476 Y148.035 E15.50247
G1 X81.615 Y147.939 E15.54049
G1 X81.936 Y147.93 E15.55117
G1 X82.222 Y147.926 E15.56069
G1 X148.401 Y147.926 E17.76181
G1 X149.245 Y147.937 E17.78988
G1 X150.147 Y147.99 E17.81994
G1 X151.04 Y148.122 E17.84996
G1 X151.918 Y148.333 E17.87999
G1 X152.774 Y148.621 E17.91003
G1 X153.601 Y148.983 E17.94006
G1 X154.393 Y149.418 E17.97011
G1 X155.144 Y149.92 E18.00016
G1 X155.847 Y150.487 E18.0302
G1 X156.497 Y151.114 E18.06023
G1 X157.089 Y151.796 E18.09027
G1 X157.619 Y152.527 E18.1203
G1 X158.081 Y153.303 E18.15034
G1 X158.474 Y154.116 E18.18037
G1 X158.792 Y154.961 E18.2104
G1 X159.035 Y155.831 E18.24045
G1 X159.2 Y156.719 E18.27049
G1 X159.295 Y157.849 E18.3082
G1 X159.304 Y158.169 E18.31885
G1 X159.308 Y158.456 E18.3284
G1 X159.307 Y172.264 E18.78765
G1 X159.298 Y172.991 E18.81184
G1 X159.247 Y173.893 E18.84188
G1 X159.116 Y174.787 E18.87194
G1 X158.907 Y175.665 E18.90195
G1 X158.621 Y176.522 E18.932
G1 X158.26 Y177.35 E18.96205
G1 X157.828 Y178.142 E18.99205
G1 X157.327 Y178.894 E19.02211
G1 X156.761 Y179.598 E19.05215
G1 X156.136 Y180.249 E19.08217
G1 X155.455 Y180.843 E19.11222
G1 X154.724 Y181.374 E19.14227
G1 X153.95 Y181.838 E19.17229
G1 X153.137 Y182.232 E19.20234
G1 X152.293 Y182.552 E19.23236
G1 X151.423 Y182.797 E19.26242
G1 X150.536 Y182.963 E19.29243
G1 X149.385 Y183.061 E19.33086
G1 X149.064 Y183.07 E19.34154
G1 X148.778 Y183.074 E19.35105
G1 X82.599 Y183.074 E21.55217
G1 X81.769 Y183.064 E21.57978
G1 X80.868 Y183.013 E21.6098
G1 X79.974 Y182.881 E21.63985
G1 X79.096 Y182.672 E21.66987
G1 X78.239 Y182.385 E21.69993
G1 X77.412 Y182.024 E21.72994
G1 X76.619 Y181.591 E21.75999
G1 X75.868 Y181.09 E21.79002
G1 X75.164 Y180.524 E21.82006
G1 X74.513 Y179.898 E21.8501
G1 X73.92 Y179.217 E21.88014
G1 X73.39 Y178.486 E21.91017
G1 X72.926 Y177.711 E21.94021
G1 X72.532 Y176.898 E21.97026
G1 X72.212 Y176.054 E22.00028
G1 X71.968 Y175.184 E22.03033
G1 X71.802 Y174.296 E22.06038
G1 X71.705 Y173.141 E22.09893
G1 X71.696 Y172.808 E22.11001
G1 X71.692 Y172.532 E22.11919
G1 X71.693 Y158.662 E22.58051
G1 X71.702 Y157.997 E22.60263
G1 X71.754 Y157.095 E22.63268
G1 X71.886 Y156.202 E22.6627
G1 X72.096 Y155.324 E22.69273
G1 X72.383 Y154.467 E22.72279
G1 X72.745 Y153.64 E22.75282
G1 X73.178 Y152.848 E22.78284
G1 X73.68 Y152.097 E22.81288
G1 X74.247 Y151.393 E22.84295
G1 X74.873 Y150.743 E22.87296
G1 X75.554 Y150.15 E22.903
G1 X76.286 Y149.62 E22.93306
G1 X77.061 Y149.157 E22.96308
G1 X77.874 Y148.764 E22.99312
G1 F2700 E17.99312
;MESH:24b52c4d-7838-4f96-9b4b-f86ee3ebdf3a.stl
G0 F6000 X87.95 Y161.618
G0 X87.111 Y160.166
G0 X92.668 Y160.525
G0 X95.346 Y165.159
G0 X92.765 Y169.959
;TYPE:WALL-INNER
G1 F2700 E22.99312
G1 F1200 X95.537 Y165.159 E23.17747
G1 X92.765 Y160.359 E23.36183
G1 X87.223 Y160.359 E23.54616
G1 X84.451 Y165.159 E23.73052
G1 X87.223 Y169.959 E23.91488
G1 X92.765 Y169.959 E24.0992
G0 F6000 X92.534 Y169.559
;TYPE:WALL-OUTER
G1 F1200 X95.075 Y165.159 E24.2682
G1 X92.534 Y160.759 E24.43719
G1 X87.454 Y160.759 E24.60616
G1 X84.913 Y165.159 E24.77515
G1 X87.454 Y169.559 E24.94415
G1 X92.534 Y169.559 E25.11311
G1 F2700 E20.11311
G0 F6000 X92.792 Y169.71
G0 X95.76 Y165.159
G0 X97.991 Y166.044
G0 X101.473 Y170.328
G0 X106.861 Y169.988
;TYPE:WALL-INNER
G1 F2700 E25.11311
G1 F1200 X109.151 Y164.995 E25.29581
G1 X105.972 Y160.516 E25.47849
G1 X100.503 Y161.029 E25.66119
G1 X98.213 Y166.022 E25.84389
G1 X101.392 Y170.502 E26.0266
G1 X106.861 Y169.988 E26.2093
G0 F6000 X106.594 Y169.611
;TYPE:WALL-OUTER
G1 F1200 X108.691 Y165.038 E26.37663
G1 X105.779 Y160.936 E26.54394
G1 X100.77 Y161.406 E26.71127
G1 X98.673 Y165.979 E26.8786
G1 X101.585 Y170.082 E27.04595
G1 X106.594 Y169.611 E27.21328
G1 F2700 E22.21328
G0 F6000 X106.865 Y169.737
G0 X109.373 Y164.973
G0 X107.703 Y165.131
G0 X113.473 Y165.389
G0 X115.455 Y168.681
G0 X119.445 Y168.682
G0 X121.223 Y165.736
G0 X125.244 Y165.916
G0 X127.127 Y168.752
G0 X131.063 Y168.584
G0 X132.364 Y166.235
G0 X137.105 Y166.448
G0 X135.447 Y166.703
G0 X139.007 Y170.838
;TYPE:WALL-INNER
G1 F2700 E27.21328
G1 F1200 X143.834 Y170.103 E27.37568
G1 X144.291 Y170.028 E27.39108
G1 X146.231 Y165.054 E27.56865
G1 X142.891 Y160.884 E27.74635
G1 X138.065 Y161.62 E27.90872
G1 X137.608 Y161.695 E27.92413
G1 X135.668 Y166.669 E28.1017
G1 X139.007 Y170.838 E28.27935
G0 F6000 X139.175 Y170.408
;TYPE:WALL-OUTER
G1 F1200 X143.771 Y169.708 E28.43398
G1 X144.001 Y169.67 E28.44173
G1 X145.774 Y165.124 E28.60403
G1 X142.723 Y161.314 E28.76637
G1 X138.128 Y162.015 E28.92097
G1 X137.898 Y162.053 E28.92872
G1 X136.125 Y166.599 E29.09102
G1 X139.175 Y170.408 E29.25331
G1 F2700 E24.25331
G0 F6000 X138.939 Y170.593
G0 X135.447 Y166.703
G0 X134.057 Y165.976
G0 X131.74 Y169.648
G0 X126.455 Y170.042
;TYPE:WALL-INNER
G1 F2700 E29.25331
G1 F1200 X131.843 Y169.81 E29.43268
G1 X134.337 Y165.027 E29.6121
G1 X131.443 Y160.477 E29.79145
G1 X126.054 Y160.709 E29.97085
G1 X123.561 Y165.491 E30.15022
G1 X126.455 Y170.042 E30.3296
G0 F6000 X126.669 Y169.632
;TYPE:WALL-OUTER
G1 F1200 X131.595 Y169.42 E30.49359
G1 X133.876 Y165.047 E30.65763
G1 X131.229 Y160.887 E30.82163
G1 X126.302 Y161.099 E30.98565
G1 X124.022 Y165.471 E31.14965
G1 X126.669 Y169.632 E31.31368
G1 F2700 E26.31368
G0 F6000 X126.415 Y169.791
G0 X124.423 Y167.237
G0 X122.586 Y166.176
G0 X120.17 Y169.941
;TYPE:WALL-INNER
G1 F2700 E31.31368
G1 F1200 X122.892 Y165.227 E31.49473
G1 X120.17 Y160.513 E31.67578
G1 X114.728 Y160.513 E31.85678
G1 X112.006 Y165.227 E32.03783
G1 X114.728 Y169.94 E32.21885
G1 X120.17 Y169.941 E32.39985
G0 F6000 X119.939 Y169.541
;TYPE:WALL-OUTER
G1 F1200 X122.43 Y165.227 E32.56554
G1 X119.939 Y160.913 E32.73122
G1 X114.959 Y160.913 E32.89686
G1 X112.468 Y165.227 E33.06255
G1 X114.959 Y169.54 E33.2282
G1 X119.939 Y169.541 E33.39384
G1 F2700 E28.39384
G0 F6000 X120.197 Y169.692
G0 X123.114 Y165.227
G0 X121.438 Y165.227
G0 X123.114 Y173.539
G0 X123.114 Y172.064
G0 X148.508 Y172.274
;TYPE:WALL-INNER
G1 F2700 E33.39384
G1 F1200 X82.492 Y172.274 E35.58954
G1 X82.492 Y158.726 E36.04015
G1 X148.508 Y158.726 E38.23585
G1 X148.508 Y172.274 E38.68646
G0 F6000 X148.908 Y172.674
;TYPE:WALL-OUTER
G1 F1200 X82.092 Y172.674 E40.90877
G1 X82.092 Y158.326 E41.38598
G1 X148.908 Y158.326 E43.60829
G1 X148.908 Y172.674 E44.08551
G0 F6000 X148.638 Y172.404
G0 X148.398 Y171.884
G0 X148.118 Y171.884
;TYPE:SKIN
G1 F1200 X82.882 Y171.884 E46.25527
G1 X82.882 Y159.116 E46.67993
G1 X148.118 Y159.116 E48.84969
G1 X148.118 Y171.884 E49.27436
G1 F2700 E44.27436
G0 F6000 X148.398 Y171.884
G0 X148.298 Y170.125
G0 X149.773 Y170.125
G0 X143.609 Y168.296
G0 X144.983 Y168.831
G0 X144.379 Y170.125
G0 X144.574 Y170.377
G1 F2700 E49.27436
G1 F1200 X146.676 Y164.986 E49.46681
G1 X143.055 Y160.465 E49.65946
G1 X138.004 Y161.234 E49.8294
G1 X137.325 Y161.346 E49.85228
G1 X135.223 Y166.737 E50.04474
G1 X138.843 Y171.257 E50.23734
G1 X143.895 Y170.489 E50.40731
G1 X144.574 Y170.377 E50.43019
G1 F2700 E45.43019
G0 F6000 X144.379 Y170.125
G0 X139.077 Y170.66
G0 X135.858 Y166.64
G0 X135.887 Y165.583
G0 X134.56 Y165.017
G0 X134.468 Y165.028
G0 X134.787 Y165.008
G1 F2700 E50.43019
G1 F1200 X131.651 Y160.077 E50.62456
G1 X125.812 Y160.329 E50.81894
G1 X123.298 Y165.151 E50.99981
G1 X120.395 Y160.123 E51.19292
G1 X114.503 Y160.123 E51.38889
G1 X111.556 Y165.227 E51.58491
G1 X114.503 Y170.33 E51.78091
G1 X120.395 Y170.331 E51.97688
G1 X123.146 Y165.566 E52.15988
G1 X126.247 Y170.442 E52.35207
G1 X132.085 Y170.19 E52.54643
G1 X134.787 Y165.008 E52.7408
G1 F2700 E47.7408
G0 F6000 X134.468 Y165.028
G0 X131.74 Y169.648
G0 X126.544 Y169.872
G0 X123.338 Y165.501
G0 X121.438 Y165.227
G0 X107.703 Y165.131
G0 X109.373 Y164.973
G0 X109.282 Y164.988
G0 X109.599 Y164.952
G1 F2700 E52.7408
G1 F1200 X106.159 Y160.107 E52.93843
G1 X100.242 Y160.662 E53.1361
G1 X97.765 Y166.065 E53.33379
G1 X101.205 Y170.911 E53.53145
G1 X107.122 Y170.355 E53.72911
G1 X109.599 Y164.952 E53.9268
G1 F2700 E48.9268
G0 F6000 X109.282 Y164.988
G0 X106.751 Y169.831
G0 X101.473 Y170.328
G0 X97.991 Y166.044
G0 X95.76 Y165.159
G0 X95.668 Y165.165
G0 X95.987 Y165.159
G1 F2700 E53.9268
G1 F1200 X92.99 Y159.969 E54.12614
G1 X86.998 Y159.969 E54.32543
G1 X84.001 Y165.159 E54.52477
G1 X86.998 Y170.349 E54.7241
G1 X92.99 Y170.349 E54.92339
G1 X95.987 Y165.159 E55.12273
G1 F2700 E50.12273
G0 F6000 X95.668 Y165.165
G0 X92.668 Y169.793
G0 X87.077 Y170.085
G0 X87.077 Y172.064
G0 X83.476 Y172.164
G0 X83.476 Y171.723
G1 F2700 E55.12273
G1 F1200 X83.041 Y171.288 E55.14319
G0 F6000 X83.041 Y170.723
G1 F1200 X84.041 Y171.723 E55.19023
G0 F6000 X84.607 Y171.723
G1 F1200 X83.041 Y170.157 E55.26389
G0 F6000 X83.041 Y169.591
G1 F1200 X85.173 Y171.723 E55.36417
G0 F6000 X85.738 Y171.723
G1 F1200 X83.041 Y169.026 E55.49103
G0 F6000 X83.041 Y168.46
G1 F1200 X86.304 Y171.723 E55.64451
G0 F6000 X86.87 Y171.723
G1 F1200 X83.041 Y167.894 E55.82461
G0 F6000 X83.041 Y167.329
G1 F1200 X87.435 Y171.723 E56.03129
G0 F6000 X88.001 Y171.723
G1 F1200 X83.041 Y166.763 E56.2646
G0 F6000 X83.041 Y166.197
G1 F1200 X86.295 Y169.451 E56.41766
G0 F6000 X86.676 Y169.232
G0 X87.352 Y170.069
G0 X87.352 Y170.508
G1 F1200 X88.567 Y171.723 E56.47481
G0 F6000 X89.132 Y171.723
G1 F1200 X87.918 Y170.508 E56.53193
G0 F6000 X88.483 Y170.508
G1 F1200 X89.698 Y171.723 E56.58908
G0 F6000 X90.264 Y171.723
G1 F1200 X89.049 Y170.508 E56.64623
G0 F6000 X89.615 Y170.508
G1 F1200 X90.829 Y171.723 E56.70336
G0 F6000 X91.395 Y171.723
G1 F1200 X90.18 Y170.508 E56.76051
G0 F6000 X90.746 Y170.508
G1 F1200 X91.961 Y171.723 E56.81766
G0 F6000 X92.527 Y171.723
G1 F1200 X91.312 Y170.508 E56.87481
G0 F6000 X91.877 Y170.508
G1 F1200 X93.092 Y171.723 E56.93196
G0 F6000 X93.658 Y171.723
G1 F1200 X92.443 Y170.508 E56.98911
G0 F6000 X93.009 Y170.508
G1 F1200 X94.224 Y171.723 E57.04626
G0 F6000 X94.789 Y171.723
