;FLAVOR:Marlin
;TIME:3423
;Filament used: 2.16661m
;Layer height: 0.2
;MINX:99.162
;MINY:90.4
;MINZ:0.2
;MAXX:139.362
;MAXY:160.6
;MAXZ:24
;Generated with Cura_SteamEngine 4.7.1
M140 S60
M105
M190 S60
M104 S220
M105
M109 S220
M82 ;absolute extrusion mode
; Ender 3 Custom Start G-code
G92 E0 ; Reset Extruder
G28 ; Home all axes
G1 Z2.0 F3000 ; Move Z Axis up little to prevent scratching of Heat Bed
G1 X0.1 Y20 Z0.3 F5000.0 ; Move to start position
G1 X0.1 Y200.0 Z0.3 F1500.0 E15 ; Draw the first line
G1 X0.4 Y200.0 Z0.3 F5000.0 ; Move to side a little
G1 X0.4 Y20 Z0.3 F1500.0 E30 ; Draw the second line
G92 E0 ; Reset Extruder
G1 Z2.0 F3000 ; Move Z Axis up little to prevent scratching of Heat Bed
G1 X5 Y20 Z0.3 F5000.0 ; Move over to prevent blob squish
G92 E0
G92 E0
G1 F2700 E-5
;LAYER_COUNT:120
;LAYER:0
M107
G0 F6000 X102.435 Y93.685 Z0.2
;TYPE:SKIRT
G1 F2700 E0
G1 F1200 X102.53 Y93.591 E0.00445
G1 X103.224 Y92.96 E0.03564
G1 X103.97 Y92.391 E0.06685
G1 X104.761 Y91.887 E0.09804
G1 X105.592 Y91.453 E0.12922
G1 X106.457 Y91.091 E0.16041
G1 X107.35 Y90.804 E0.19161
G1 X108.264 Y90.594 E0.2228
G1 X109.193 Y90.463 E0.25401
G1 X109.896 Y90.416 E0.27744
G1 X110.044 Y90.411 E0.28237
G1 X110.281 Y90.406 E0.29025
G1 X110.824 Y90.4 E0.30831
G1 X127.712 Y90.401 E0.87001
G1 X128.414 Y90.411 E0.89336
G1 X129.35 Y90.464 E0.92454
G1 X130.278 Y90.597 E0.95572
G1 X131.192 Y90.809 E0.98693
G1 X132.085 Y91.097 E1.01814
G1 X132.949 Y91.461 E1.04932
G1 X133.78 Y91.897 E1.08053
G1 X134.57 Y92.402 E1.11172
G1 X135.314 Y92.972 E1.14289
G1 X136.035 Y93.632 E1.1754
G1 X136.13 Y93.727 E1.17987
G1 X136.764 Y94.418 E1.21106
G1 X137.338 Y95.16 E1.24226
G1 X137.845 Y95.949 E1.27345
G1 X138.284 Y96.777 E1.30463
G1 X138.651 Y97.641 E1.33585
G1 X138.943 Y98.532 E1.36703
G1 X139.157 Y99.445 E1.39822
G1 X139.294 Y100.373 E1.42942
G1 X139.346 Y101.134 E1.45479
G1 X139.351 Y101.282 E1.45972
G1 X139.356 Y101.509 E1.46727
G1 X139.362 Y102.035 E1.48477
G1 X139.361 Y148.945 E3.045
G1 X139.351 Y149.651 E3.06848
G1 X139.298 Y150.587 E3.09966
G1 X139.165 Y151.516 E3.13088
G1 X138.953 Y152.429 E3.16205
G1 X138.665 Y153.322 E3.19326
G1 X138.301 Y154.186 E3.22444
G1 X137.866 Y155.017 E3.25564
G1 X137.361 Y155.807 E3.28682
G1 X136.79 Y156.552 E3.31804
G1 X136.171 Y157.232 E3.34863
G1 X136.077 Y157.327 E3.35307
G1 X135.39 Y157.965 E3.38426
G1 X134.65 Y158.542 E3.41547
G1 X133.865 Y159.054 E3.44664
G1 X133.038 Y159.497 E3.47784
G1 X132.177 Y159.868 E3.50902
G1 X131.287 Y160.165 E3.54023
G1 X130.375 Y160.384 E3.57143
G1 X129.448 Y160.525 E3.60261
G1 X128.627 Y160.584 E3.62999
G1 X128.478 Y160.589 E3.63495
G1 X128.243 Y160.594 E3.64277
G1 X127.7 Y160.6 E3.66083
G1 X110.812 Y160.599 E4.22253
G1 X110.11 Y160.589 E4.24588
G1 X109.174 Y160.536 E4.27706
G1 X108.246 Y160.403 E4.30824
G1 X107.332 Y160.191 E4.33945
G1 X106.439 Y159.903 E4.37065
G1 X105.575 Y159.539 E4.40184
G1 X104.744 Y159.103 E4.43305
G1 X103.954 Y158.598 E4.46423
G1 X103.21 Y158.028 E4.49541
G1 X102.489 Y157.368 E4.52792
G1 X102.394 Y157.273 E4.53239
G1 X101.76 Y156.582 E4.56358
G1 X101.186 Y155.84 E4.59478
G1 X100.679 Y155.051 E4.62597
G1 X100.24 Y154.223 E4.65714
G1 X99.873 Y153.359 E4.68836
G1 X99.581 Y152.468 E4.71955
G1 X99.367 Y151.555 E4.75074
G1 X99.23 Y150.627 E4.78194
G1 X99.179 Y149.895 E4.80634
G1 X99.173 Y149.73 E4.81184
G1 X99.166 Y149.431 E4.82178
G1 X99.162 Y148.997 E4.83622
G1 X99.163 Y102.01 E6.39901
G1 X99.173 Y101.34 E6.4213
G1 X99.227 Y100.404 E6.45248
G1 X99.361 Y99.475 E6.4837
G1 X99.573 Y98.562 E6.51488
G1 X99.862 Y97.669 E6.54609
G1 X100.226 Y96.805 E6.57728
G1 X100.663 Y95.975 E6.60848
G1 X101.168 Y95.185 E6.63966
G1 X101.739 Y94.441 E6.67085
G1 X102.435 Y93.685 E6.70503
G0 F6000 X102.716 Y93.969
G1 F1200 X102.811 Y93.875 E6.70948
G1 X103.493 Y93.257 E6.74009
G1 X104.226 Y92.7 E6.77071
G1 X105.005 Y92.208 E6.80135
G1 X105.823 Y91.786 E6.83197
G1 X106.675 Y91.437 E6.86259
G1 X107.554 Y91.163 E6.89321
G1 X108.453 Y90.966 E6.92382
G1 X109.366 Y90.848 E6.95444
G1 X109.909 Y90.816 E6.97253
G1 X110.057 Y90.811 E6.97746
G1 X110.285 Y90.806 E6.98504
G1 X110.824 Y90.8 E7.00297
G1 X127.555 Y90.8 E7.55945
G1 X128.408 Y90.811 E7.58782
G1 X129.327 Y90.864 E7.61844
G1 X130.238 Y90.997 E7.64906
G1 X131.134 Y91.208 E7.67967
G1 X132.009 Y91.496 E7.71031
G1 X132.855 Y91.859 E7.74093
G1 X133.666 Y92.294 E7.77154
G1 X134.437 Y92.798 E7.80218
G1 X135.161 Y93.366 E7.83278
G1 X135.752 Y93.915 E7.85961
G1 X135.847 Y94.01 E7.86408
G1 X136.469 Y94.688 E7.89468
G1 X137.03 Y95.418 E7.92531
G1 X137.526 Y96.194 E7.95594
G1 X137.952 Y97.01 E7.98655
G1 X138.306 Y97.86 E8.01718
G1 X138.584 Y98.738 E8.04781
G1 X138.786 Y99.636 E8.07842
G1 X138.909 Y100.549 E8.10906
G1 X138.946 Y101.147 E8.12899
G1 X138.956 Y101.514 E8.1412
G1 X138.962 Y102.035 E8.15853
G1 X138.961 Y148.939 E9.71857
G1 X138.951 Y149.645 E9.74205
G1 X138.898 Y150.564 E9.77267
G1 X138.765 Y151.475 E9.80329
G1 X138.554 Y152.371 E9.8339
G1 X138.266 Y153.246 E9.86454
G1 X137.903 Y154.092 E9.89516
G1 X137.468 Y154.903 E9.92577
G1 X136.965 Y155.674 E9.95639
G1 X136.396 Y156.398 E9.98702
G1 X135.887 Y156.951 E10.01201
G1 X135.793 Y157.046 E10.01646
G1 X135.118 Y157.671 E10.04706
G1 X134.39 Y158.236 E10.07771
G1 X133.617 Y158.736 E10.10833
G1 X132.803 Y159.166 E10.13895
G1 X131.955 Y159.524 E10.16956
G1 X131.079 Y159.808 E10.20019
G1 X130.182 Y160.014 E10.2308
G1 X129.27 Y160.142 E10.26143
G1 X128.614 Y160.184 E10.28329
G1 X128.465 Y160.189 E10.28825
G1 X128.239 Y160.194 E10.29577
G1 X127.7 Y160.2 E10.3137
G1 X110.818 Y160.199 E10.8752
G1 X110.116 Y160.189 E10.89855
G1 X109.197 Y160.136 E10.92916
G1 X108.286 Y160.003 E10.95979
G1 X107.39 Y159.792 E10.9904
G1 X106.515 Y159.504 E11.02104
G1 X105.669 Y159.141 E11.05166
G1 X104.858 Y158.706 E11.08227
G1 X104.087 Y158.202 E11.11291
G1 X103.363 Y157.634 E11.14351
G1 X102.772 Y157.085 E11.17034
G1 X102.677 Y156.99 E11.17481
G1 X102.055 Y156.312 E11.20541
G1 X101.494 Y155.582 E11.23603
G1 X100.998 Y154.806 E11.26667
G1 X100.572 Y153.99 E11.29728
G1 X100.218 Y153.14 E11.32791
G1 X99.94 Y152.262 E11.35854
G1 X99.738 Y151.364 E11.38915
G1 X99.615 Y150.451 E11.41979
G1 X99.579 Y149.88 E11.43882
G1 X99.573 Y149.715 E11.44431
G1 X99.566 Y149.428 E11.45386
G1 X99.562 Y148.994 E11.4683
G1 X99.563 Y102.016 E13.03079
G1 X99.573 Y101.346 E13.05308
G1 X99.627 Y100.427 E13.0837
G1 X99.76 Y99.516 E13.11432
G1 X99.972 Y98.62 E13.14494
G1 X100.261 Y97.746 E13.17556
G1 X100.624 Y96.9 E13.20618
G1 X101.06 Y96.089 E13.2368
G1 X101.564 Y95.318 E13.26744
G1 X102.133 Y94.595 E13.29804
G1 X102.716 Y93.969 E13.32649
G0 F6000 X102.998 Y94.253
G1 F1200 X103.093 Y94.159 E13.33094
G1 X103.762 Y93.553 E13.36096
G1 X104.483 Y93.009 E13.391
G1 X105.248 Y92.53 E13.42102
G1 X106.054 Y92.121 E13.45108
G1 X106.892 Y91.785 E13.48111
G1 X107.756 Y91.524 E13.51113
G1 X108.641 Y91.34 E13.5412
G1 X109.923 Y91.216 E13.58403
G1 X110.29 Y91.206 E13.59625
G1 X110.824 Y91.2 E13.61401
G1 X127.555 Y91.2 E14.17048
G1 X128.402 Y91.211 E14.19866
G1 X129.304 Y91.264 E14.22871
G1 X130.197 Y91.396 E14.25873
G1 X131.075 Y91.607 E14.28877
G1 X131.931 Y91.895 E14.31881
G1 X132.759 Y92.257 E14.34886
G1 X133.551 Y92.691 E14.3789
G1 X134.301 Y93.194 E14.40894
G1 X135.004 Y93.76 E14.43895
G1 X135.469 Y94.198 E14.4602
G1 X135.564 Y94.293 E14.46467
G1 X136.174 Y94.959 E14.49471
G1 X136.723 Y95.676 E14.52474
G1 X137.205 Y96.44 E14.55479
G1 X137.619 Y97.243 E14.58484
G1 X137.959 Y98.079 E14.61485
G1 X138.225 Y98.942 E14.64489
G1 X138.413 Y99.825 E14.67492
G1 X138.546 Y101.161 E14.71957
G1 X138.556 Y101.52 E14.73152
G1 X138.562 Y102.035 E14.74865
G1 X138.561 Y148.933 E16.30848
G1 X138.551 Y149.639 E16.33196
G1 X138.498 Y150.541 E16.36202
G1 X138.366 Y151.434 E16.39204
G1 X138.155 Y152.313 E16.42211
G1 X137.867 Y153.169 E16.45215
G1 X137.505 Y153.996 E16.48217
G1 X137.071 Y154.788 E16.51221
G1 X136.569 Y155.538 E16.54223
G1 X136.002 Y156.242 E16.57229
G1 X135.603 Y156.669 E16.59173
G1 X135.509 Y156.764 E16.59617
G1 X134.846 Y157.377 E16.62621
G1 X134.131 Y157.93 E16.65627
G1 X133.37 Y158.416 E16.6863
G1 X132.569 Y158.834 E16.71635
G1 X131.735 Y159.179 E16.74637
G1 X130.873 Y159.449 E16.77642
G1 X129.991 Y159.642 E16.80645
G1 X129.095 Y159.756 E16.83649
G1 X128.6 Y159.784 E16.85298
G1 X128.234 Y159.794 E16.86516
G1 X127.7 Y159.8 E16.88292
G1 X110.824 Y159.799 E17.44422
G1 X110.122 Y159.789 E17.46757
G1 X109.22 Y159.736 E17.49762
G1 X108.327 Y159.604 E17.52764
G1 X107.449 Y159.393 E17.55768
G1 X106.593 Y159.105 E17.58772
G1 X105.765 Y158.743 E17.61777
G1 X104.973 Y158.309 E17.64781
G1 X104.223 Y157.806 E17.67785
G1 X103.52 Y157.24 E17.70786
G1 X103.055 Y156.802 E17.72911
G1 X102.96 Y156.707 E17.73358
G1 X102.35 Y156.041 E17.76362
G1 X101.801 Y155.324 E17.79365
G1 X101.319 Y154.56 E17.8237
G1 X100.905 Y153.757 E17.85375
G1 X100.565 Y152.921 E17.88376
G1 X100.299 Y152.058 E17.9138
G1 X100.111 Y151.175 E17.94383
G1 X99.979 Y149.866 E17.98758
G1 X99.973 Y149.701 E17.99308
G1 X99.966 Y149.424 E18.00229
G1 X99.962 Y148.99 E18.01673
G1 X99.963 Y102.022 E19.57889
G1 X99.973 Y101.352 E19.60118
G1 X100.027 Y100.45 E19.63123
G1 X100.16 Y99.557 E19.66126
G1 X100.371 Y98.679 E19.69129
G1 X100.659 Y97.823 E19.72133
G1 X101.022 Y96.996 E19.75137
G1 X101.457 Y96.204 E19.78143
G1 X101.96 Y95.454 E19.81146
G1 X102.527 Y94.752 E19.84147
G1 X102.998 Y94.253 E19.8643
G1 F2700 E14.8643
;MESH:07678fa8-fbff-48cf-9452-60f0533f1c9e.stl
G0 F6000 X109.742 Y100.98
G0 X110.582 Y101.82
G0 X110.762 Y149
;TYPE:WALL-INNER
G1 F2700 E19.8643
G1 F1200 X110.762 Y102 E21.42752
G1 X127.762 Y102 E21.99295
G1 X127.762 Y149 E23.55617
G1 X110.762 Y149 E24.12159
G0 F6000 X110.362 Y149.4
;TYPE:WALL-OUTER
G1 F1200 X110.362 Y101.6 E25.71143
G1 X128.162 Y101.6 E26.30346
G1 X128.162 Y149.4 E27.89329
G1 X110.362 Y149.4 E28.48532
G0 F6000 X110.632 Y149.13
G0 X110.872 Y148.61
G0 X111.152 Y148.61
;TYPE:SKIN
G1 F1200 X111.152 Y102.39 E30.02261
G1 X127.372 Y102.39 E30.56209
G1 X127.372 Y148.61 E32.09937
G1 X111.152 Y148.61 E32.63885
G0 F6000 X111.679 Y148.449
G1 F1200 X111.311 Y148.08 E32.65618
G0 F6000 X111.311 Y147.515
G1 F1200 X112.245 Y148.449 E32.70012
G0 F6000 X112.811 Y148.449
G1 F1200 X111.311 Y146.949 E32.77067
G0 F6000 X111.311 Y146.383
G1 F1200 X113.376 Y148.449 E32.86783
G0 F6000 X113.942 Y148.449
G1 F1200 X111.311 Y145.818 E32.99158
G0 F6000 X111.311 Y145.252
G1 F1200 X114.508 Y148.449 E33.14196
G0 F6000 X115.073 Y148.449
G1 F1200 X111.311 Y144.686 E33.31893
G0 F6000 X111.311 Y144.121
G1 F1200 X115.639 Y148.449 E33.52251
G0 F6000 X116.205 Y148.449
G1 F1200 X111.311 Y143.555 E33.75271
G0 F6000 X111.311 Y142.989
G1 F1200 X116.77 Y148.449 E34.00951
G0 F6000 X117.336 Y148.449
G1 F1200 X111.311 Y142.424 E34.2929
G0 F6000 X111.311 Y141.858
G1 F1200 X117.902 Y148.449 E34.60292
G0 F6000 X118.467 Y148.449
G1 F1200 X111.311 Y141.292 E34.93954
G0 F6000 X111.311 Y140.726
G1 F1200 X119.033 Y148.449 E35.30279
G0 F6000 X119.599 Y148.449
G1 F1200 X111.311 Y140.161 E35.69263
G0 F6000 X111.311 Y139.595
G1 F1200 X120.165 Y148.449 E36.10909
G0 F6000 X120.73 Y148.449
G1 F1200 X111.311 Y139.029 E36.55216
G0 F6000 X111.311 Y138.464
G1 F1200 X121.296 Y148.449 E37.02182
G0 F6000 X121.862 Y148.449
G1 F1200 X111.311 Y137.898 E37.51811
G0 F6000 X111.311 Y137.332
G1 F1200 X122.427 Y148.449 E38.04099
G0 F6000 X122.993 Y148.449
G1 F1200 X111.311 Y136.767 E38.59048
G0 F6000 X111.311 Y136.201
G1 F1200 X123.559 Y148.449 E39.16659
G0 F6000 X124.124 Y148.449
G1 F1200 X111.311 Y135.635 E39.7693
G0 F6000 X111.311 Y135.07
G1 F1200 X124.69 Y148.449 E40.3986
G0 F6000 X125.256 Y148.449
G1 F1200 X111.311 Y134.504 E41.05453
G0 F6000 X111.311 Y133.938
G1 F1200 X125.821 Y148.449 E41.73706
G0 F6000 X126.387 Y148.449
G1 F1200 X111.311 Y133.373 E42.44619
G0 F6000 X111.311 Y132.807
G1 F1200 X126.953 Y148.449 E43.18194
G0 F6000 X127.212 Y148.142
G1 F1200 X111.311 Y132.241 E43.92988
G0 F6000 X111.311 Y131.676
G1 F1200 X127.212 Y147.576 E44.67779
G0 F6000 X127.212 Y147.011
G1 F1200 X111.311 Y131.11 E45.42572
G0 F6000 X111.311 Y130.544
G1 F1200 X127.212 Y146.445 E46.17366
G0 F6000 X127.212 Y145.879
G1 F1200 X111.311 Y129.978 E46.92159
G0 F6000 X111.311 Y129.413
G1 F1200 X127.212 Y145.313 E47.6695
G0 F6000 X127.212 Y144.748
G1 F1200 X111.311 Y128.847 E48.41744
G0 F6000 X111.311 Y128.281
G1 F1200 X127.212 Y144.182 E49.16537
G0 F6000 X127.212 Y143.616
G1 F1200 X111.311 Y127.716 E49.91328
G0 F6000 X111.311 Y127.15
G1 F1200 X127.212 Y143.051 E50.66122
G0 F6000 X127.212 Y142.485
G1 F1200 X111.311 Y126.584 E51.40915
G0 F6000 X111.311 Y126.019
G1 F1200 X127.212 Y141.919 E52.15706
G0 F6000 X127.212 Y141.354
G1 F1200 X111.311 Y125.453 E52.905
G0 F6000 X111.311 Y124.887
G1 F1200 X127.212 Y140.788 E53.65293
G0 F6000 X127.212 Y140.222
G1 F1200 X111.311 Y124.322 E54.40084
G0 F6000 X111.311 Y123.756
G1 F1200 X127.212 Y139.657 E55.14877
G0 F6000 X127.212 Y139.091
G1 F1200 X111.311 Y123.19 E55.89671
G0 F6000 X111.311 Y122.625
G1 F1200 X127.212 Y138.525 E56.64462
G0 F6000 X127.212 Y137.96
G1 F1200 X111.311 Y122.059 E57.39255
G0 F6000 X111.311 Y121.493
G1 F1200 X127.212 Y137.394 E58.14049
G0 F6000 X127.212 Y136.828
G1 F1200 X111.311 Y120.927 E58.88842
G0 F6000 X111.311 Y120.362
G1 F1200 X127.212 Y136.263 E59.63636
G0 F6000 X127.212 Y135.697
G1 F1200 X111.311 Y119.796 E60.38429
G0 F6000 X111.311 Y119.23
G1 F1200 X127.212 Y135.131 E61.13223
G0 F6000 X127.212 Y134.565
G1 F1200 X111.311 Y118.665 E61.88014
G0 F6000 X111.311 Y118.099
G1 F1200 X127.212 Y134 E62.62807
G0 F6000 X127.212 Y133.434
G1 F1200 X111.311 Y117.533 E63.376
G0 F6000 X111.311 Y116.968
G1 F1200 X127.212 Y132.868 E64.12392
G0 F6000 X127.212 Y132.303
G1 F1200 X111.311 Y116.402 E64.87185
G0 F6000 X111.311 Y115.836
G1 F1200 X127.212 Y131.737 E65.61978
G0 F6000 X127.212 Y131.171
G1 F1200 X111.311 Y115.271 E66.36769
G0 F6000 X111.311 Y114.705
G1 F1200 X127.212 Y130.606 E67.11563
G0 F6000 X127.212 Y130.04
G1 F1200 X111.311 Y114.139 E67.86356
G0 F6000 X111.311 Y113.574
G1 F1200 X127.212 Y129.474 E68.61147
G0 F6000 X127.212 Y128.909
G1 F1200 X111.311 Y113.008 E69.35941
G0 F6000 X111.311 Y112.442
G1 F1200 X127.212 Y128.343 E70.10734
G0 F6000 X127.212 Y127.777
G1 F1200 X111.311 Y111.877 E70.85525
G0 F6000 X111.311 Y111.311
G1 F1200 X127.212 Y127.212 E71.60319
G0 F6000 X127.212 Y126.646
G1 F1200 X111.311 Y110.745 E72.35112
G0 F6000 X111.311 Y110.179
G1 F1200 X127.212 Y126.08 E73.09906
G0 F6000 X127.212 Y125.514
G1 F1200 X111.311 Y109.614 E73.84697
G0 F6000 X111.311 Y109.048
G1 F1200 X127.212 Y124.949 E74.5949
G0 F6000 X127.212 Y124.383
G1 F1200 X111.311 Y108.482 E75.34284
G0 F6000 X111.311 Y107.917
G1 F1200 X127.212 Y123.817 E76.09075
G0 F6000 X127.212 Y123.252
G1 F1200 X111.311 Y107.351 E76.83868
G0 F6000 X111.311 Y106.785
G1 F1200 X127.212 Y122.686 E77.58662
G0 F6000 X127.212 Y122.12
G1 F1200 X111.311 Y106.22 E78.33453
G0 F6000 X111.311 Y105.654
G1 F1200 X127.212 Y121.555 E79.08246
G0 F6000 X127.212 Y120.989
G1 F1200 X111.311 Y105.088 E79.83039
G0 F6000 X111.311 Y104.523
G1 F1200 X127.212 Y120.423 E80.57831
G0 F6000 X127.212 Y119.858
G1 F1200 X111.311 Y103.957 E81.32624
G0 F6000 X111.311 Y103.391
G1 F1200 X127.212 Y119.292 E82.07417
G0 F6000 X127.212 Y118.726
G1 F1200 X111.311 Y102.826 E82.82208
G0 F6000 X111.601 Y102.55
G1 F1200 X127.212 Y118.161 E83.55638
G0 F6000 X127.212 Y117.595
G1 F1200 X112.166 Y102.55 E84.26407
G0 F6000 X112.732 Y102.55
G1 F1200 X127.212 Y117.029 E84.94514
G0 F6000 X127.212 Y116.464
G1 F1200 X113.298 Y102.55 E85.59962
G0 F6000 X113.863 Y102.55
G1 F1200 X127.212 Y115.898 E86.22749
G0 F6000 X127.212 Y115.332
G1 F1200 X114.429 Y102.55 E86.82874
G0 F6000 X114.995 Y102.55
G1 F1200 X127.212 Y114.766 E87.40336
G0 F6000 X127.212 Y114.201
G1 F1200 X115.561 Y102.55 E87.95139
G0 F6000 X116.126 Y102.55
G1 F1200 X127.212 Y113.635 E88.47282
G0 F6000 X127.212 Y113.069
G1 F1200 X116.692 Y102.55 E88.96762
G0 F6000 X117.258 Y102.55
G1 F1200 X127.212 Y112.504 E89.43583
G0 F6000 X127.212 Y111.938
G1 F1200 X117.823 Y102.55 E89.87744
G0 F6000 X118.389 Y102.55
G1 F1200 X127.212 Y111.372 E90.29242
G0 F6000 X127.212 Y110.807
G1 F1200 X118.955 Y102.55 E90.6808
G0 F6000 X119.52 Y102.55
