;FLAVOR:Marlin
;TIME:1328
;Filament used: 0.691084m
;Layer height: 0.2
;MINX:59
;MINY:150.5
;MINZ:0.2
;MAXX:156
;MAXY:188.5
;MAXZ:2
;Generated with Cura_SteamEngine 4.7.1
M140 S60
M105
M190 S60
M104 S220
M105
M109 S220
M82 ;absolute extrusion mode
; Ender 3 Custom Start G-code
G92 E0 ; Reset Extruder
G28 ; Home all axes
G1 Z2.0 F3000 ; Move Z Axis up little to prevent scratching of Heat Bed
G1 X0.1 Y20 Z0.3 F5000.0 ; Move to start position
G1 X0.1 Y200.0 Z0.3 F1500.0 E15 ; Draw the first line
G1 X0.4 Y200.0 Z0.3 F5000.0 ; Move to side a little
G1 X0.4 Y20 Z0.3 F1500.0 E30 ; Draw the second line
G92 E0 ; Reset Extruder
G1 Z2.0 F3000 ; Move Z Axis up little to prevent scratching of Heat Bed
G1 X5 Y20 Z0.3 F5000.0 ; Move over to prevent blob squish
G92 E0
G92 E0
G1 F2700 E-5
;LAYER_COUNT:10
;LAYER:0
M107
G0 F6000 X65.239 Y151.597 Z0.2
;TYPE:SKIRT
G1 F2700 E0
G1 F1200 X66.101 Y151.227 E0.0312
G1 X66.991 Y150.931 E0.0624
G1 X67.903 Y150.713 E0.09358
G1 X68.83 Y150.572 E0.12477
G1 X69.701 Y150.513 E0.15381
G1 X70.022 Y150.504 E0.16449
G1 X70.33 Y150.5 E0.17473
G1 X144.293 Y150.5 E2.63475
G1 X144.451 Y150.501 E2.64001
G1 X145.149 Y150.511 E2.66322
G1 X146.085 Y150.565 E2.69441
G1 X147.013 Y150.697 E2.72558
G1 X147.927 Y150.909 E2.75679
G1 X148.819 Y151.198 E2.78798
G1 X149.684 Y151.561 E2.81918
G1 X150.514 Y151.997 E2.85036
G1 X151.305 Y152.502 E2.88157
G1 X152.049 Y153.073 E2.91277
G1 X152.742 Y153.705 E2.94396
G1 X153.379 Y154.393 E2.97515
G1 X153.954 Y155.134 E3.00634
G1 X154.465 Y155.92 E3.03752
G1 X154.907 Y156.748 E3.06874
G1 X155.276 Y157.61 E3.09993
G1 X155.571 Y158.5 E3.13111
G1 X155.789 Y159.412 E3.1623
G1 X155.929 Y160.34 E3.19352
G1 X155.987 Y161.201 E3.22222
G1 X155.996 Y161.521 E3.23287
G1 X156 Y161.83 E3.24314
G1 X155.999 Y176.9 E3.74437
G1 X155.99 Y177.627 E3.76856
G1 X155.939 Y178.564 E3.79977
G1 X155.807 Y179.492 E3.83094
G1 X155.598 Y180.406 E3.86213
G1 X155.311 Y181.299 E3.89332
G1 X154.949 Y182.165 E3.92454
G1 X154.515 Y182.996 E3.95572
G1 X154.011 Y183.787 E3.98692
G1 X153.442 Y184.532 E4.0181
G1 X152.811 Y185.227 E4.04932
G1 X152.124 Y185.865 E4.0805
G1 X151.385 Y186.442 E4.11169
G1 X150.599 Y186.954 E4.14289
G1 X149.773 Y187.397 E4.17406
G1 X148.911 Y187.769 E4.20529
G1 X148.022 Y188.065 E4.23645
G1 X147.11 Y188.285 E4.26766
G1 X146.183 Y188.426 E4.29884
G1 X145.299 Y188.487 E4.32831
G1 X144.978 Y188.496 E4.339
G1 X144.67 Y188.5 E4.34924
G1 X70.707 Y188.5 E6.80926
G1 X69.867 Y188.49 E6.8372
G1 X68.931 Y188.438 E6.86838
G1 X68.002 Y188.306 E6.89959
G1 X67.088 Y188.096 E6.93078
G1 X66.195 Y187.809 E6.96198
G1 X65.33 Y187.446 E6.99318
G1 X64.499 Y187.012 E7.02436
G1 X63.708 Y186.508 E7.05556
G1 X62.963 Y185.938 E7.08676
G1 X62.269 Y185.307 E7.11795
G1 X61.632 Y184.62 E7.14911
G1 X61.055 Y183.88 E7.18032
G1 X60.543 Y183.094 E7.21152
G1 X60.1 Y182.267 E7.24273
G1 X59.729 Y181.406 E7.27391
G1 X59.433 Y180.516 E7.30511
G1 X59.214 Y179.604 E7.3363
G1 X59.073 Y178.677 E7.36749
G1 X59.013 Y177.788 E7.39712
G1 X59.004 Y177.455 E7.4082
G1 X59 Y177.158 E7.41808
G1 X59.001 Y162.025 E7.92141
G1 X59.01 Y161.36 E7.94353
G1 X59.063 Y160.424 E7.97471
G1 X59.195 Y159.495 E8.00592
G1 X59.406 Y158.581 E8.03712
G1 X59.694 Y157.689 E8.06829
G1 X60.057 Y156.824 E8.09949
G1 X60.492 Y155.993 E8.13069
G1 X60.996 Y155.203 E8.16186
G1 X61.566 Y154.458 E8.19306
G1 X62.198 Y153.764 E8.22428
G1 X62.886 Y153.127 E8.25546
G1 X63.626 Y152.551 E8.28665
G1 X64.412 Y152.039 E8.31785
G1 X65.239 Y151.597 E8.34904
G0 F6000 X65.611 Y151.864
G1 F1200 X66.465 Y151.519 E8.37967
G1 X67.345 Y151.249 E8.41029
G1 X68.245 Y151.057 E8.4409
G1 X69.159 Y150.943 E8.47153
G1 X69.712 Y150.913 E8.48995
G1 X70.033 Y150.904 E8.50063
G1 X70.33 Y150.9 E8.51051
G1 X144.293 Y150.9 E10.97053
G1 X145.143 Y150.911 E10.99881
G1 X146.062 Y150.964 E11.02942
G1 X146.973 Y151.097 E11.06004
G1 X147.869 Y151.308 E11.09066
G1 X148.743 Y151.596 E11.12127
G1 X149.59 Y151.959 E11.15192
G1 X150.401 Y152.394 E11.18253
G1 X151.171 Y152.898 E11.21313
G1 X151.895 Y153.467 E11.24376
G1 X152.567 Y154.097 E11.2744
G1 X153.182 Y154.782 E11.30502
G1 X153.735 Y155.518 E11.33564
G1 X154.222 Y156.299 E11.36625
G1 X154.639 Y157.12 E11.39688
G1 X154.984 Y157.974 E11.42751
G1 X155.253 Y158.854 E11.45812
G1 X155.445 Y159.755 E11.48876
G1 X155.558 Y160.668 E11.51935
G1 X155.587 Y161.212 E11.53747
G1 X155.596 Y161.532 E11.54812
G1 X155.6 Y161.83 E11.55803
G1 X155.599 Y176.895 E12.0591
G1 X155.59 Y177.622 E12.08328
G1 X155.539 Y178.541 E12.11389
G1 X155.408 Y179.453 E12.14454
G1 X155.198 Y180.349 E12.17515
G1 X154.912 Y181.224 E12.20576
G1 X154.551 Y182.071 E12.23639
G1 X154.117 Y182.883 E12.26701
G1 X153.615 Y183.655 E12.29764
G1 X153.047 Y184.38 E12.32827
G1 X152.419 Y185.053 E12.35889
G1 X151.735 Y185.669 E12.3895
G1 X151 Y186.223 E12.42011
G1 X150.22 Y186.712 E12.45073
G1 X149.4 Y187.131 E12.48136
G1 X148.547 Y187.477 E12.51198
G1 X147.667 Y187.748 E12.5426
G1 X146.767 Y187.941 E12.57322
G1 X145.853 Y188.056 E12.60386
G1 X145.288 Y188.087 E12.62268
G1 X144.967 Y188.096 E12.63336
G1 X144.67 Y188.1 E12.64324
G1 X70.707 Y188.1 E15.10326
G1 X69.872 Y188.09 E15.13103
G1 X68.953 Y188.038 E15.16165
G1 X68.042 Y187.907 E15.19226
G1 X67.146 Y187.697 E15.22287
G1 X66.271 Y187.41 E15.25349
G1 X65.424 Y187.048 E15.28413
G1 X64.612 Y186.614 E15.31475
G1 X63.841 Y186.112 E15.34535
G1 X63.116 Y185.544 E15.37599
G1 X62.443 Y184.915 E15.40662
G1 X61.828 Y184.231 E15.43722
G1 X61.274 Y183.496 E15.46783
G1 X60.786 Y182.715 E15.49846
G1 X60.367 Y181.895 E15.52909
G1 X60.021 Y181.042 E15.5597
G1 X59.751 Y180.162 E15.59032
G1 X59.558 Y179.261 E15.62097
G1 X59.444 Y178.348 E15.65157
G1 X59.413 Y177.777 E15.67059
G1 X59.404 Y177.444 E15.68167
G1 X59.4 Y177.158 E15.69118
G1 X59.401 Y162.031 E16.19431
G1 X59.41 Y161.366 E16.21643
G1 X59.462 Y160.446 E16.24708
G1 X59.594 Y159.535 E16.27769
G1 X59.805 Y158.639 E16.30831
G1 X60.092 Y157.764 E16.33894
G1 X60.455 Y156.918 E16.36956
G1 X60.889 Y156.106 E16.40018
G1 X61.392 Y155.335 E16.4308
G1 X61.961 Y154.611 E16.46142
G1 X62.589 Y153.939 E16.49202
G1 X63.274 Y153.323 E16.52266
G1 X64.01 Y152.77 E16.55328
G1 X64.791 Y152.282 E16.58391
G1 X65.611 Y151.864 E16.61452
G0 F6000 X65.982 Y152.138
G1 F1200 X66.827 Y151.818 E16.64457
G1 X67.696 Y151.575 E16.67458
G1 X68.584 Y151.409 E16.70463
G1 X69.723 Y151.313 E16.74265
G1 X70.044 Y151.304 E16.75333
G1 X70.33 Y151.3 E16.76284
G1 X144.293 Y151.3 E19.22286
G1 X145.137 Y151.311 E19.25093
G1 X146.039 Y151.364 E19.28099
G1 X146.932 Y151.496 E19.31101
G1 X147.81 Y151.707 E19.34104
G1 X148.666 Y151.995 E19.37108
G1 X149.493 Y152.357 E19.40111
G1 X150.285 Y152.792 E19.43116
G1 X151.036 Y153.294 E19.46121
G1 X151.739 Y153.861 E19.49125
G1 X152.389 Y154.488 E19.52128
G1 X152.981 Y155.17 E19.55132
G1 X153.511 Y155.901 E19.58135
G1 X153.973 Y156.677 E19.61139
G1 X154.366 Y157.49 E19.64143
G1 X154.684 Y158.335 E19.67145
G1 X154.927 Y159.205 E19.7015
G1 X155.092 Y160.093 E19.73154
G1 X155.187 Y161.223 E19.76926
G1 X155.196 Y161.543 E19.7799
G1 X155.2 Y161.83 E19.78945
G1 X155.199 Y176.89 E20.29035
G1 X155.19 Y177.617 E20.31453
G1 X155.139 Y178.519 E20.34458
G1 X155.008 Y179.413 E20.37463
G1 X154.799 Y180.291 E20.40465
G1 X154.513 Y181.148 E20.4347
G1 X154.152 Y181.976 E20.46474
G1 X153.72 Y182.768 E20.49475
G1 X153.219 Y183.52 E20.5248
G1 X152.653 Y184.224 E20.55484
G1 X152.028 Y184.875 E20.58486
G1 X151.347 Y185.469 E20.61492
G1 X150.616 Y186 E20.64497
G1 X149.842 Y186.464 E20.67498
G1 X149.029 Y186.858 E20.70503
G1 X148.185 Y187.178 E20.73505
G1 X147.315 Y187.423 E20.76511
G1 X146.428 Y187.589 E20.79513
G1 X145.277 Y187.687 E20.83355
G1 X144.956 Y187.696 E20.84423
G1 X144.67 Y187.7 E20.85374
G1 X70.707 Y187.7 E23.31376
G1 X69.877 Y187.69 E23.34137
G1 X68.976 Y187.639 E23.37138
G1 X68.082 Y187.507 E23.40144
G1 X67.204 Y187.298 E23.43146
G1 X66.347 Y187.011 E23.46152
G1 X65.52 Y186.65 E23.49153
G1 X64.727 Y186.217 E23.52158
G1 X63.976 Y185.716 E23.55161
G1 X63.272 Y185.15 E23.58165
G1 X62.621 Y184.524 E23.61169
G1 X62.028 Y183.843 E23.64173
G1 X61.498 Y183.112 E23.67176
G1 X61.034 Y182.337 E23.7018
G1 X60.64 Y181.524 E23.73185
G1 X60.32 Y180.68 E23.76187
G1 X60.076 Y179.81 E23.79192
G1 X59.91 Y178.922 E23.82197
G1 X59.813 Y177.767 E23.86052
G1 X59.804 Y177.434 E23.8716
G1 X59.8 Y177.158 E23.88078
G1 X59.801 Y162.036 E24.38374
G1 X59.81 Y161.371 E24.40586
G1 X59.862 Y160.469 E24.43591
G1 X59.994 Y159.576 E24.46594
G1 X60.204 Y158.698 E24.49596
G1 X60.491 Y157.841 E24.52602
G1 X60.853 Y157.014 E24.55605
G1 X61.286 Y156.222 E24.58607
G1 X61.788 Y155.471 E24.61611
G1 X62.355 Y154.767 E24.64618
G1 X62.981 Y154.117 E24.67619
G1 X63.662 Y153.524 E24.70623
G1 X64.394 Y152.994 E24.73629
G1 X65.169 Y152.531 E24.76631
G1 X65.982 Y152.138 E24.79635
G1 F2700 E19.79635
;MESH:7000e26c-5b97-4d24-8be8-fbc67b1b10fd.stl
G0 F6000 X122.706 Y166.226
G0 X123.293 Y165.261
G0 X127.279 Y165.091
G0 X129.08 Y167.809
G0 X134.732 Y169.214
G0 X133.074 Y169.469
G0 X136.635 Y173.605
;TYPE:WALL-INNER
G1 F2700 E24.79635
G1 F1200 X141.916 Y172.799 E24.97403
G1 X143.859 Y167.821 E25.15176
G1 X140.519 Y163.651 E25.32946
G1 X135.237 Y164.457 E25.50717
G1 X133.295 Y169.435 E25.6849
G1 X136.635 Y173.605 E25.8626
G0 F6000 X136.803 Y173.175
;TYPE:WALL-OUTER
G1 F1200 X141.627 Y172.438 E26.0249
G1 X143.402 Y167.891 E26.18725
G1 X140.351 Y164.081 E26.3496
G1 X135.526 Y164.818 E26.51194
G1 X133.752 Y169.365 E26.67428
G1 X136.803 Y173.175 E26.83662
G1 F2700 E21.83662
G0 F6000 X136.567 Y173.36
G0 X133.074 Y169.469
G0 X134.732 Y169.214
G0 X129.141 Y169.137
G0 X127.573 Y171.995
G0 X123.587 Y172.165
G0 X121.516 Y169.033
G0 X115.137 Y168.946
G0 X113.273 Y172.039
G0 X109.335 Y172.039
G0 X107.408 Y168.841
G0 X99.195 Y168.729
G0 X99.233 Y168.478
G0 X91.294 Y164.851
G0 X89.504 Y168.598
G0 X82.612 Y168.505
G0 X84.308 Y168.506
G0 X80.794 Y174.172
;TYPE:WALL-INNER
G1 F2700 E26.83662
G1 F1200 X84.066 Y168.506 E27.05424
G1 X80.794 Y162.839 E27.27188
G1 X74.252 Y162.839 E27.48947
G1 X70.997 Y168.476 E27.70597
G1 X70.98 Y168.506 E27.70712
G1 X70.997 Y168.536 E27.70827
G1 X74.252 Y174.172 E27.92474
G1 X80.794 Y174.172 E28.14232
G0 F6000 X80.563 Y173.772
;TYPE:WALL-OUTER
G1 F1200 X83.604 Y168.506 E28.34458
G1 X80.563 Y163.239 E28.54686
G1 X74.483 Y163.239 E28.74908
G1 X71.442 Y168.506 E28.95137
G1 X74.483 Y173.772 E29.15362
G1 X80.563 Y173.772 E29.35584
G1 F2700 E24.35584
G0 F6000 X80.821 Y173.923
G0 X84.308 Y168.506
G0 X82.612 Y168.505
G0 X89.2 Y169.435
G0 X87.531 Y169.594
G0 X91.598 Y174.688
G0 X97.982 Y174.246
;TYPE:WALL-INNER
G1 F2700 E29.35584
G1 F1200 X100.68 Y168.341 E29.57177
G1 X96.915 Y163.051 E29.78773
G1 X90.451 Y163.667 E30.0037
G1 X87.753 Y169.572 E30.21963
G1 X91.518 Y174.862 E30.43559
G1 X97.982 Y174.246 E30.65156
G0 F6000 X97.714 Y173.87
;TYPE:WALL-OUTER
G1 F1200 X100.22 Y168.385 E30.85213
G1 X96.723 Y163.471 E31.05273
G1 X90.719 Y164.043 E31.25333
G1 X88.213 Y169.528 E31.4539
G1 X91.71 Y174.442 E31.6545
G1 X97.714 Y173.87 E31.8551
G1 F2700 E26.8551
G0 F6000 X97.985 Y173.996
G0 X100.902 Y168.319
G0 X99.233 Y168.478
G0 X107.366 Y168.628
G0 X105.688 Y168.628
G0 X108.705 Y173.132
G0 X114 Y173.298
;TYPE:WALL-INNER
G1 F2700 E31.8551
G1 F1200 X116.697 Y168.628 E32.03446
G1 X114 Y163.958 E32.21383
G1 X108.608 Y163.958 E32.39317
G1 X105.911 Y168.628 E32.57253
G1 X108.608 Y173.298 E32.7519
G1 X114 Y173.298 E32.93124
G0 F6000 X113.769 Y172.898
;TYPE:WALL-OUTER
G1 F1200 X116.235 Y168.628 E33.09524
G1 X113.769 Y164.358 E33.25925
G1 X108.839 Y164.358 E33.42322
G1 X106.373 Y168.628 E33.58722
G1 X108.839 Y172.898 E33.75123
G1 X113.769 Y172.898 E33.9152
G1 F2700 E28.9152
G0 F6000 X114.027 Y173.049
G0 X116.345 Y169.658
G0 X115.242 Y168.628
G0 X121.447 Y168.799
G0 X119.772 Y168.87
G0 X122.914 Y173.453
;TYPE:WALL-INNER
G1 F2700 E33.9152
G1 F1200 X128.353 Y173.222 E34.09626
G1 X130.871 Y168.396 E34.27731
G1 X127.952 Y163.803 E34.45832
G1 X122.513 Y164.034 E34.63938
G1 X119.995 Y168.86 E34.82043
G1 X122.914 Y173.453 E35.00143
G0 F6000 X123.128 Y173.044
;TYPE:WALL-OUTER
G1 F1200 X128.105 Y172.832 E35.16712
G1 X130.41 Y168.416 E35.3328
G1 X127.738 Y164.212 E35.49848
G1 X122.761 Y164.424 E35.66416
G1 X120.456 Y168.84 E35.82985
G1 X123.128 Y173.044 E35.99552
G1 F2700 E30.99552
G0 F6000 X122.874 Y173.203
G0 X122.978 Y173.267
G0 X128.473 Y173.411
G0 X127.573 Y171.995
G0 X128.473 Y178.165
G0 X128.473 Y176.69
G0 X144.4 Y176.9
;TYPE:WALL-INNER
G1 F2700 E35.99552
G1 F1200 X70.6 Y176.9 E38.45012
G1 X70.6 Y168.541 E38.72814
G1 X70.6 Y168.506 E38.72928
G1 X70.6 Y168.471 E38.73042
G1 X70.6 Y162.1 E38.94232
G1 X144.4 Y162.1 E41.39692
G1 X144.4 Y176.9 E41.88917
G0 F6000 X144.8 Y177.3
;TYPE:WALL-OUTER
G1 F1200 X70.2 Y177.3 E44.37037
G1 X70.2 Y161.7 E44.88923
G1 X144.8 Y161.7 E47.37044
G1 X144.8 Y177.3 E47.88929
G0 F6000 X144.53 Y177.03
G0 X144.29 Y176.51
G0 X144.01 Y176.51
;TYPE:SKIN
G1 F1200 X70.99 Y176.51 E50.31795
G1 X70.99 Y169.304 E50.55762
G1 X74.027 Y174.562 E50.75958
G1 X81.019 Y174.562 E50.99213
G1 X84.516 Y168.506 E51.22473
G1 X81.043 Y162.49 E51.45577
G1 X144.01 Y162.49 E53.55006
G1 X144.01 Y167.386 E53.7129
G1 X140.683 Y163.232 E53.88992
G1 X134.956 Y164.106 E54.0826
G1 X132.85 Y169.503 E54.27529
G1 X136.471 Y174.024 E54.46794
G1 X142.197 Y173.15 E54.6606
G1 X144.01 Y168.506 E54.82641
G1 X144.01 Y176.51 E55.09262
G1 F2700 E50.09262
G0 F6000 X144.29 Y176.51
G0 X144.218 Y176.718
G0 X131.002 Y176.69
G0 X131.002 Y178.165
G0 X127.573 Y171.995
G0 X128.473 Y173.411
G0 X131.002 Y168.397
G0 X131.321 Y168.377
G1 F2700 E55.09262
G1 F1200 X128.161 Y163.404 E55.28859
G1 X122.271 Y163.654 E55.48467
G1 X119.545 Y168.879 E55.68069
G1 X122.705 Y173.852 E55.87666
G1 X128.595 Y173.602 E56.07274
G1 X131.321 Y168.377 E56.26875
G1 F2700 E51.26875
G0 F6000 X131.002 Y168.397
G0 X128.25 Y173.06
G0 X123.003 Y173.284
G0 X119.772 Y168.87
G0 X116.92 Y168.628
G0 X116.828 Y168.634
G0 X117.147 Y168.628
G1 F2700 E56.26875
G1 F1200 X114.225 Y163.568 E56.46309
G1 X108.383 Y163.568 E56.6574
G1 X105.461 Y168.628 E56.85174
G1 X108.383 Y173.688 E57.04608
G1 X114.225 Y173.688 E57.24039
G1 X117.147 Y168.628 E57.43473
G1 F2700 E52.43473
G0 F6000 X116.828 Y168.634
G0 X113.903 Y173.132
G0 X108.705 Y173.132
G0 X105.688 Y168.628
G0 X107.366 Y168.628
G0 X99.233 Y168.478
G0 X100.902 Y168.319
G0 X100.81 Y168.334
G0 X101.128 Y168.298
G1 F2700 E57.43473
G1 F1200 X97.102 Y162.641 E57.66567
G1 X90.19 Y163.3 E57.8966
G1 X87.305 Y169.615 E58.12752
G1 X91.331 Y175.272 E58.35846
G1 X98.243 Y174.613 E58.5894
G1 X101.128 Y168.298 E58.82031
G1 F2700 E53.82031
G0 F6000 X100.81 Y168.334
G0 X96.835 Y163.225
G0 X90.562 Y163.823
G0 X87.989 Y168.599
G0 X89.312 Y169.202
G0 X82.612 Y168.505
G0 X84.308 Y168.506
G0 X80.895 Y162.663
G0 X74.654 Y162.607
G0 X74.003 Y162.21
G0 X74.003 Y162.49
G1 F2700 E58.82031
G1 F1200 X70.99 Y167.708 E59.02072
G1 X70.99 Y162.49 E59.19427
G1 X74.003 Y162.49 E59.29448
G0 F6000 X74.003 Y162.21
G0 X70.782 Y162.282
G0 X70.782 Y176.718
G0 X71.697 Y176.79
G0 X71.697 Y176.348
G1 F1200 X71.149 Y175.801 E59.32024
G0 F6000 X71.149 Y175.235
G1 F1200 X72.262 Y176.348 E59.37259
G0 F6000 X72.828 Y176.348
G1 F1200 X71.149 Y174.67 E59.45154
G0 F6000 X71.149 Y174.104
G1 F1200 X73.394 Y176.348 E59.55711
G0 F6000 X73.959 Y176.348
G1 F1200 X71.149 Y173.538 E59.68929
G0 F6000 X71.149 Y172.973
G1 F1200 X74.525 Y176.348 E59.84806
G0 F6000 X75.091 Y176.348
G1 F1200 X71.149 Y172.407 E60.03346
G0 F6000 X71.149 Y171.841
G1 F1200 X73.805 Y174.497 E60.15839
G0 F6000 X74.029 Y174.721
G1 F1200 X75.656 Y176.348 E60.23492
G0 F6000 X76.222 Y176.348
G1 F1200 X74.595 Y174.721 E60.31145
G0 F6000 X75.161 Y174.721
G1 F1200 X76.788 Y176.348 E60.38798
G0 F6000 X77.353 Y176.348
G1 F1200 X75.726 Y174.721 E60.4645
G0 F6000 X76.292 Y174.721
G1 F1200 X77.919 Y176.348 E60.54103
G0 F6000 X78.485 Y176.348
G1 F1200 X76.858 Y174.721 E60.61756
G0 F6000 X77.423 Y174.721
G1 F1200 X79.051 Y176.348 E60.69411
G0 F6000 X79.616 Y176.348
G1 F1200 X77.989 Y174.721 E60.77064
G0 F6000 X78.555 Y174.721
G1 F1200 X80.182 Y176.348 E60.84717
G0 F6000 X80.748 Y176.348
G1 F1200 X79.121 Y174.721 E60.9237
G0 F6000 X79.686 Y174.721
G1 F1200 X81.313 Y176.348 E61.00023
G0 F6000 X81.879 Y176.348
