;FLAVOR:Marlin
;TIME:18646
;Filament used: 17.1431m
;Layer height: 0.2
;MINX:40.645
;MINY:64.746
;MINZ:0.2
;MAXX:174.173
;MAXY:150.217
;MAXZ:50
;Generated with Cura_SteamEngine 4.7.1
M140 S60
M105
M190 S60
M104 S220
M105
M109 S220
M82 ;absolute extrusion mode
; Ender 3 Custom Start G-code
G92 E0 ; Reset Extruder
G28 ; Home all axes
G1 Z2.0 F3000 ; Move Z Axis up little to prevent scratching of Heat Bed
G1 X0.1 Y20 Z0.3 F5000.0 ; Move to start position
G1 X0.1 Y200.0 Z0.3 F1500.0 E15 ; Draw the first line
G1 X0.4 Y200.0 Z0.3 F5000.0 ; Move to side a little
G1 X0.4 Y20 Z0.3 F1500.0 E30 ; Draw the second line
G92 E0 ; Reset Extruder
G1 Z2.0 F3000 ; Move Z Axis up little to prevent scratching of Heat Bed
G1 X5 Y20 Z0.3 F5000.0 ; Move over to prevent blob squish
G92 E0
G92 E0
G1 F2700 E-5
;LAYER_COUNT:250
;LAYER:0
M107
G0 F6000 X47.358 Y67.292 Z0.2
;TYPE:SKIRT
G1 F2700 E0
G1 F1200 X47.541 Y67.171 E0.0073
G1 X48.195 Y66.771 E0.03279
G1 X48.264 Y66.732 E0.03543
G1 X48.654 Y66.522 E0.05016
G1 X49.104 Y66.291 E0.06699
G1 X49.914 Y65.916 E0.09668
G1 X50.239 Y65.785 E0.10833
G1 X50.477 Y65.694 E0.1168
G1 X51.365 Y65.398 E0.14794
G1 X51.737 Y65.291 E0.16081
G1 X52.621 Y65.076 E0.19107
G1 X52.956 Y65.009 E0.20243
G1 X53.623 Y64.896 E0.22493
G1 X53.762 Y64.877 E0.2296
G1 X54.421 Y64.807 E0.25164
G1 X54.804 Y64.778 E0.26442
G1 X55.455 Y64.748 E0.28609
G1 X55.577 Y64.746 E0.29015
G1 X56.191 Y64.754 E0.31057
G1 X56.495 Y64.766 E0.32069
G1 X57.047 Y64.801 E0.33909
G1 X57.247 Y64.819 E0.34577
G1 X58.061 Y64.923 E0.37306
G1 X58.284 Y64.96 E0.38058
G1 X58.674 Y65.032 E0.39377
G1 X58.93 Y65.084 E0.40246
G1 X59.782 Y65.293 E0.43164
G1 X59.921 Y65.333 E0.43645
G1 X60.682 Y65.582 E0.46308
G1 X61.005 Y65.701 E0.47453
G1 X61.492 Y65.894 E0.49195
G1 X61.832 Y66.038 E0.50423
G1 X62.92 Y66.571 E0.54453
G1 X63.35 Y66.812 E0.56092
G1 X63.976 Y67.191 E0.58526
G1 X64.151 Y67.305 E0.59221
G1 X64.893 Y67.833 E0.6225
G1 X65.13 Y68.017 E0.63248
G1 X65.655 Y68.452 E0.65516
G1 X65.697 Y68.489 E0.65702
G1 X66.174 Y68.935 E0.67874
G1 X66.694 Y69.451 E0.7031
G1 X66.92 Y69.682 E0.71385
G1 X67.189 Y69.966 E0.72686
G1 X68.671 Y71.558 E0.7992
G1 X70.495 Y73.464 E0.88695
G1 X72.286 Y75.232 E0.97065
G1 X74.122 Y76.946 E1.05419
G1 X76.017 Y78.615 E1.13818
G1 X77.932 Y80.209 E1.22105
G1 X79.929 Y81.777 E1.3055
G1 X81.958 Y83.281 E1.3895
G1 X83.978 Y84.69 E1.47142
G1 X86.115 Y86.094 E1.55646
G1 X88.228 Y87.398 E1.63905
G1 X90.461 Y88.689 E1.72484
G1 X92.635 Y89.866 E1.80706
G1 X94.916 Y91.019 E1.89207
G1 X97.172 Y92.08 E1.97499
G1 X99.487 Y93.089 E2.05898
G1 X101.812 Y94.026 E2.14235
G1 X104.177 Y94.903 E2.22625
G1 X106.571 Y95.713 E2.31031
G1 X108.954 Y96.446 E2.39323
G1 X111.4 Y97.122 E2.47763
G1 X113.795 Y97.713 E2.55968
G1 X116.288 Y98.253 E2.64452
G1 X118.796 Y98.723 E2.72939
G1 X121.224 Y99.106 E2.81115
G1 X123.764 Y99.434 E2.89633
G1 X126.257 Y99.685 E2.97966
G1 X128.8 Y99.868 E3.06446
G1 X131.263 Y99.976 E3.14646
G1 X134 Y100.016 E3.2375
G1 X162.211 Y100.018 E4.17581
G1 X162.945 Y100.029 E4.20022
G1 X163.881 Y100.083 E4.2314
G1 X164.8 Y100.215 E4.26228
G1 X165.073 Y100.266 E4.27152
G1 X165.987 Y100.477 E4.30272
G1 X167.251 Y100.911 E4.34717
G1 X167.36 Y100.956 E4.35109
G1 X168.21 Y101.351 E4.38227
G1 X169.025 Y101.817 E4.41349
G1 X169.796 Y102.35 E4.44467
G1 X170.519 Y102.947 E4.47585
G1 X171.189 Y103.603 E4.50704
G1 X171.801 Y104.314 E4.53824
G1 X172.349 Y105.075 E4.56943
G1 X172.831 Y105.88 E4.60064
G1 X173.243 Y106.722 E4.63182
G1 X173.581 Y107.597 E4.66302
G1 X173.844 Y108.497 E4.6942
G1 X174.029 Y109.417 E4.72541
G1 X174.135 Y110.349 E4.75661
G1 X174.161 Y110.951 E4.77665
G1 X174.172 Y111.651 E4.79994
G1 X174.173 Y138.381 E5.68898
G1 X174.162 Y139.259 E5.71819
G1 X174.109 Y140.195 E5.74937
G1 X173.977 Y141.123 E5.78054
G1 X173.766 Y142.037 E5.81174
G1 X173.477 Y142.93 E5.84296
G1 X173.114 Y143.794 E5.87413
G1 X172.679 Y144.625 E5.90533
G1 X172.174 Y145.416 E5.93654
G1 X171.604 Y146.16 E5.96771
G1 X170.973 Y146.854 E5.99891
G1 X170.284 Y147.491 E6.03012
G1 X169.544 Y148.067 E6.06131
G1 X168.758 Y148.578 E6.09249
G1 X167.715 Y149.121 E6.1316
G1 X167.671 Y149.141 E6.13321
G1 X166.801 Y149.492 E6.16441
G1 X166.082 Y149.72 E6.1895
G1 X165.821 Y149.793 E6.19851
G1 X164.908 Y150.007 E6.2297
G1 X163.615 Y150.174 E6.27307
G1 X163.557 Y150.178 E6.275
G1 X162.981 Y150.203 E6.29418
G1 X162.129 Y150.217 E6.32252
G1 X93.624 Y150.217 E8.601
G1 X93.466 Y150.216 E8.60626
G1 X92.768 Y150.206 E8.62948
G1 X92.446 Y150.197 E8.64019
G1 X92.217 Y150.187 E8.64781
G1 X91.945 Y150.171 E8.65688
G1 X91.726 Y150.156 E8.66418
G1 X90.755 Y150.046 E8.69668
G1 X90.446 Y149.997 E8.70709
G1 X90.119 Y149.94 E8.71813
G1 X89.945 Y149.907 E8.72402
G1 X88.953 Y149.671 E8.75793
G1 X88.609 Y149.572 E8.76984
G1 X87.726 Y149.277 E8.8008
G1 X87.349 Y149.133 E8.81422
G1 X86.85 Y148.928 E8.83217
G1 X86.743 Y148.881 E8.83605
G1 X85.808 Y148.416 E8.87079
G1 X85.376 Y148.175 E8.88724
G1 X84.292 Y147.485 E8.92998
G1 X83.899 Y147.201 E8.9461
G1 X83.382 Y146.803 E8.9678
G1 X83.3 Y146.736 E8.97133
G1 X82.522 Y146.036 E9.00613
G1 X81.933 Y145.453 E9.0337
G1 X81.704 Y145.22 E9.04456
G1 X81.458 Y144.96 E9.05647
G1 X45.187 Y105.97 E10.82765
G1 X44.498 Y105.209 E10.86179
G1 X44.13 Y104.781 E10.88057
G1 X43.95 Y104.56 E10.89005
G1 X43.551 Y104.039 E10.91187
G1 X43.456 Y103.907 E10.91728
G1 X43.166 Y103.483 E10.93437
G1 X43.026 Y103.268 E10.9429
G1 X42.731 Y102.789 E10.96161
G1 X42.659 Y102.665 E10.96638
G1 X42.362 Y102.118 E10.98708
G1 X42.221 Y101.84 E10.99745
G1 X41.929 Y101.217 E11.02033
G1 X41.876 Y101.094 E11.02479
G1 X41.722 Y100.718 E11.0383
G1 X41.62 Y100.455 E11.04768
G1 X41.29 Y99.469 E11.08227
G1 X41.188 Y99.108 E11.09474
G1 X41.031 Y98.482 E11.11621
G1 X40.983 Y98.264 E11.12363
G1 X40.85 Y97.544 E11.14799
G1 X40.809 Y97.273 E11.1571
G1 X40.742 Y96.742 E11.1749
G1 X40.725 Y96.575 E11.18049
G1 X40.678 Y95.922 E11.20226
G1 X40.667 Y95.66 E11.21098
G1 X40.658 Y95.359 E11.221
G1 X40.648 Y94.673 E11.24382
G1 X40.645 Y81.353 E11.68684
G1 X40.647 Y80.393 E11.71877
G1 X40.658 Y79.591 E11.74545
G1 X40.672 Y79.156 E11.75993
G1 X40.686 Y78.917 E11.76789
G1 X40.706 Y78.629 E11.77749
G1 X40.807 Y77.721 E11.80788
G1 X40.85 Y77.441 E11.8173
G1 X40.912 Y77.081 E11.82945
G1 X40.949 Y76.884 E11.83612
G1 X41.139 Y76.052 E11.8645
G1 X41.191 Y75.859 E11.87115
G1 X41.282 Y75.54 E11.88218
G1 X41.353 Y75.305 E11.89035
G1 X41.67 Y74.401 E11.92221
G1 X41.768 Y74.156 E11.93099
G1 X41.927 Y73.778 E11.94462
G1 X42.018 Y73.573 E11.95208
G1 X42.401 Y72.794 E11.98096
G1 X42.53 Y72.556 E11.98996
G1 X42.634 Y72.368 E11.99711
G1 X42.718 Y72.22 E12.00277
G1 X43.289 Y71.32 E12.03822
G1 X43.479 Y71.05 E12.0492
G1 X44.054 Y70.302 E12.08058
G1 X44.328 Y69.976 E12.09474
G1 X44.654 Y69.606 E12.11114
G1 X44.7 Y69.556 E12.1134
G1 X45.017 Y69.226 E12.12862
G1 X45.161 Y69.082 E12.1354
G1 X45.441 Y68.812 E12.14833
G1 X46.117 Y68.226 E12.17809
G1 X46.57 Y67.865 E12.19735
G1 X47.358 Y67.292 E12.22976
G0 F6000 X47.579 Y67.626
G1 F1200 X47.762 Y67.505 E12.23706
G1 X48.392 Y67.119 E12.26163
G1 X48.461 Y67.08 E12.26427
G1 X48.836 Y66.878 E12.27843
G1 X49.286 Y66.647 E12.29526
G1 X50.067 Y66.285 E12.32389
G1 X50.382 Y66.159 E12.33517
G1 X50.62 Y66.068 E12.34365
G1 X51.476 Y65.782 E12.37367
G1 X51.848 Y65.675 E12.38654
G1 X52.699 Y65.468 E12.41567
G1 X53.034 Y65.401 E12.42703
G1 X53.677 Y65.293 E12.44872
G1 X53.816 Y65.274 E12.45338
G1 X54.452 Y65.206 E12.47466
G1 X54.835 Y65.177 E12.48743
G1 X55.461 Y65.148 E12.50828
G1 X55.583 Y65.146 E12.51234
G1 X56.175 Y65.153 E12.53203
G1 X56.479 Y65.165 E12.54215
G1 X57.011 Y65.2 E12.55988
G1 X57.211 Y65.218 E12.56656
G1 X57.996 Y65.318 E12.59288
G1 X58.219 Y65.355 E12.6004
G1 X58.594 Y65.424 E12.61308
G1 X58.85 Y65.476 E12.62177
G1 X59.671 Y65.677 E12.64988
G1 X59.81 Y65.717 E12.65469
G1 X60.543 Y65.958 E12.68035
G1 X60.866 Y66.077 E12.6918
G1 X61.336 Y66.262 E12.7086
G1 X61.676 Y66.406 E12.72088
G1 X62.724 Y66.92 E12.75971
G1 X63.154 Y67.161 E12.7761
G1 X63.758 Y67.526 E12.79957
G1 X63.933 Y67.64 E12.80652
G1 X64.647 Y68.149 E12.83568
G1 X64.884 Y68.333 E12.84566
G1 X65.391 Y68.752 E12.86754
G1 X65.433 Y68.789 E12.8694
G1 X65.892 Y69.219 E12.89032
G1 X66.412 Y69.735 E12.91469
G1 X66.63 Y69.957 E12.92503
G1 X66.896 Y70.238 E12.9379
G1 X68.372 Y71.824 E13.00996
G1 X70.226 Y73.76 E13.09912
G1 X71.997 Y75.508 E13.18188
G1 X73.867 Y77.255 E13.267
G1 X75.725 Y78.891 E13.34934
G1 X77.692 Y80.529 E13.43447
G1 X79.69 Y82.097 E13.51895
G1 X81.721 Y83.603 E13.60304
G1 X83.794 Y85.048 E13.68709
G1 X85.866 Y86.41 E13.76956
G1 X88.049 Y87.758 E13.8549
G1 X90.223 Y89.014 E13.9384
G1 X92.471 Y90.231 E14.02343
G1 X94.745 Y91.38 E14.10817
G1 X96.992 Y92.438 E14.19077
G1 X99.345 Y93.463 E14.27614
G1 X101.672 Y94.401 E14.35958
G1 X104.047 Y95.281 E14.44382
G1 X106.43 Y96.088 E14.5275
G1 X108.868 Y96.837 E14.61233
G1 X111.279 Y97.504 E14.69554
G1 X113.72 Y98.106 E14.77916
G1 X116.195 Y98.642 E14.86338
G1 X118.732 Y99.118 E14.94924
G1 X121.182 Y99.505 E15.03173
G1 X123.709 Y99.831 E15.11648
G1 X126.222 Y100.083 E15.20048
G1 X128.755 Y100.266 E15.28495
G1 X131.274 Y100.376 E15.36881
G1 X133.994 Y100.416 E15.45929
G1 X162.205 Y100.418 E16.39759
G1 X162.939 Y100.429 E16.422
G1 X163.858 Y100.483 E16.45262
G1 X164.727 Y100.608 E16.48182
G1 X165 Y100.659 E16.49106
G1 X165.896 Y100.867 E16.52165
G1 X167.098 Y101.281 E16.56394
G1 X167.207 Y101.326 E16.56786
G1 X168.042 Y101.714 E16.59848
G1 X168.84 Y102.173 E16.6291
G1 X169.595 Y102.699 E16.65971
G1 X170.302 Y103.289 E16.69034
G1 X170.955 Y103.939 E16.72098
G1 X171.549 Y104.642 E16.75159
G1 X172.08 Y105.394 E16.78221
G1 X172.543 Y106.19 E16.81284
G1 X172.936 Y107.022 E16.84344
G1 X173.255 Y107.886 E16.87407
G1 X173.498 Y108.774 E16.9047
G1 X173.663 Y109.68 E16.93533
G1 X173.761 Y110.957 E16.97792
G1 X173.772 Y111.657 E17.00121
G1 X173.773 Y138.381 E17.89005
G1 X173.762 Y139.253 E17.91906
G1 X173.709 Y140.172 E17.94967
G1 X173.577 Y141.083 E17.98029
G1 X173.366 Y141.979 E18.01091
G1 X173.079 Y142.854 E18.04153
G1 X172.716 Y143.7 E18.07215
G1 X172.282 Y144.512 E18.10278
G1 X171.778 Y145.283 E18.13341
G1 X171.21 Y146.007 E18.16402
G1 X170.581 Y146.679 E18.19463
G1 X169.896 Y147.294 E18.22525
G1 X169.16 Y147.848 E18.25589
G1 X168.379 Y148.335 E18.2865
G1 X167.549 Y148.757 E18.31747
G1 X167.505 Y148.777 E18.31908
G1 X166.651 Y149.121 E18.3497
G1 X165.974 Y149.335 E18.37332
G1 X165.713 Y149.408 E18.38233
G1 X164.817 Y149.617 E18.41293
G1 X163.587 Y149.775 E18.45418
G1 X163.529 Y149.779 E18.45611
G1 X162.974 Y149.803 E18.47459
G1 X162.122 Y149.817 E18.50293
G1 X93.624 Y149.817 E20.78118
G1 X92.774 Y149.806 E20.80946
G1 X92.464 Y149.797 E20.81977
G1 X92.235 Y149.787 E20.8274
G1 X91.973 Y149.772 E20.83612
G1 X91.754 Y149.757 E20.84343
G1 X90.818 Y149.651 E20.87476
G1 X90.509 Y149.602 E20.88516
G1 X90.194 Y149.547 E20.8958
G1 X90.02 Y149.514 E20.90169
G1 X89.063 Y149.287 E20.9344
G1 X88.719 Y149.188 E20.94631
G1 X87.869 Y148.903 E20.97612
G1 X87.492 Y148.759 E20.98955
G1 X87.011 Y148.562 E21.00683
G1 X86.904 Y148.515 E21.01072
G1 X86.003 Y148.067 E21.04419
G1 X85.571 Y147.826 E21.06064
G1 X84.526 Y147.16 E21.10186
G1 X84.133 Y146.876 E21.11798
G1 X83.635 Y146.493 E21.13888
G1 X83.553 Y146.426 E21.1424
G1 X82.803 Y145.752 E21.17594
G1 X82.214 Y145.169 E21.2035
G1 X81.994 Y144.944 E21.21397
G1 X81.751 Y144.688 E21.22571
G1 X45.48 Y105.698 E22.99689
G1 X44.795 Y104.941 E23.03084
G1 X44.44 Y104.528 E23.04896
G1 X44.26 Y104.307 E23.05844
G1 X43.875 Y103.805 E23.07948
G1 X43.78 Y103.673 E23.08489
G1 X43.501 Y103.265 E23.10133
G1 X43.361 Y103.05 E23.10986
G1 X43.077 Y102.589 E23.12787
G1 X43.005 Y102.465 E23.13264
G1 X42.718 Y101.937 E23.15263
G1 X42.577 Y101.659 E23.163
G1 X42.296 Y101.059 E23.18503
G1 X42.243 Y100.936 E23.18949
G1 X42.095 Y100.574 E23.20249
G1 X41.993 Y100.311 E23.21188
G1 X41.675 Y99.36 E23.24523
G1 X41.573 Y98.999 E23.25771
G1 X41.422 Y98.396 E23.27838
G1 X41.374 Y98.178 E23.2858
G1 X41.245 Y97.485 E23.30925
G1 X41.204 Y97.214 E23.31837
G1 X41.139 Y96.701 E23.33556
G1 X41.122 Y96.534 E23.34115
G1 X41.077 Y95.906 E23.36209
G1 X41.066 Y95.644 E23.37081
G1 X41.058 Y95.354 E23.38046
G1 X41.048 Y94.668 E23.40328
G1 X41.045 Y81.353 E23.84614
G1 X41.047 Y80.399 E23.87787
G1 X41.058 Y79.597 E23.90454
G1 X41.072 Y79.175 E23.91859
G1 X41.085 Y78.945 E23.92625
G1 X41.105 Y78.657 E23.93585
G1 X41.203 Y77.782 E23.96514
G1 X41.246 Y77.502 E23.97456
G1 X41.305 Y77.154 E23.9863
G1 X41.342 Y76.957 E23.99297
G1 X41.525 Y76.156 E24.02029
G1 X41.577 Y75.963 E24.02694
G1 X41.665 Y75.655 E24.0376
G1 X41.736 Y75.42 E24.04576
G1 X42.041 Y74.549 E24.07645
G1 X42.139 Y74.304 E24.08523
G1 X42.293 Y73.94 E24.09838
G1 X42.384 Y73.735 E24.10584
G1 X42.753 Y72.985 E24.13364
G1 X42.982 Y72.566 E24.14952
G1 X43.066 Y72.418 E24.15518
G1 X43.616 Y71.55 E24.18936
G1 X43.806 Y71.28 E24.20034
G1 X44.36 Y70.56 E24.23055
G1 X44.634 Y70.234 E24.24472
G1 X44.948 Y69.877 E24.26053
G1 X44.994 Y69.827 E24.26279
G1 X45.3 Y69.509 E24.27747
G1 X45.444 Y69.365 E24.28424
G1 X45.714 Y69.103 E24.29676
G1 X46.366 Y68.539 E24.32543
G1 X46.819 Y68.178 E24.34469
G1 X47.579 Y67.626 E24.37594
G0 F6000 X47.799 Y67.96
G1 F1200 X47.982 Y67.839 E24.38323
G1 X48.589 Y67.467 E24.40691
G1 X48.658 Y67.428 E24.40955
G1 X49.019 Y67.234 E24.42318
G1 X49.469 Y67.003 E24.44
G1 X50.22 Y66.655 E24.46753
G1 X50.525 Y66.533 E24.47846
G1 X50.763 Y66.442 E24.48693
G1 X51.586 Y66.166 E24.5158
G1 X51.958 Y66.059 E24.52868
G1 X52.778 Y65.86 E24.55674
G1 X53.113 Y65.793 E24.56811
G1 X53.732 Y65.689 E24.58898
G1 X53.871 Y65.67 E24.59365
G1 X54.482 Y65.605 E24.61409
G1 X54.865 Y65.576 E24.62686
G1 X55.468 Y65.548 E24.64694
G1 X55.59 Y65.546 E24.651
G1 X56.159 Y65.553 E24.66992
G1 X56.463 Y65.565 E24.68004
G1 X56.975 Y65.598 E24.69711
G1 X57.175 Y65.616 E24.70379
G1 X57.931 Y65.713 E24.72914
G1 X58.154 Y65.75 E24.73665
G1 X58.514 Y65.816 E24.74883
G1 X58.77 Y65.868 E24.75752
G1 X59.561 Y66.062 E24.7846
G1 X59.7 Y66.102 E24.78942
G1 X60.405 Y66.333 E24.81409
G1 X60.728 Y66.452 E24.82554
G1 X61.18 Y66.631 E24.84171
G1 X61.52 Y66.775 E24.85399
G1 X62.529 Y67.269 E24.89136
G1 X62.959 Y67.51 E24.90775
G1 X63.539 Y67.861 E24.9303
G1 X63.714 Y67.975 E24.93725
G1 X64.402 Y68.465 E24.96534
G1 X64.639 Y68.649 E24.97532
G1 X65.127 Y69.052 E24.99637
G1 X65.169 Y69.089 E24.99823
G1 X65.611 Y69.503 E25.01837
G1 X66.131 Y70.019 E25.04274
G1 X66.34 Y70.233 E25.05269
G1 X66.604 Y70.511 E25.06544
G1 X68.109 Y72.128 E25.13891
G1 X69.938 Y74.039 E25.22689
G1 X71.726 Y75.803 E25.31043
G1 X73.577 Y77.531 E25.39465
G1 X75.489 Y79.215 E25.47939
G1 X77.435 Y80.835 E25.56361
G1 X79.45 Y82.418 E25.64884
G1 X81.477 Y83.92 E25.73275
G1 X83.567 Y85.378 E25.8175
G1 X85.641 Y86.742 E25.90007
G1 X87.86 Y88.11 E25.98677
G1 X90.038 Y89.369 E26.07044
G1 X92.279 Y90.582 E26.1552
G1 X94.572 Y91.742 E26.24067
G1 X96.814 Y92.796 E26.32306
G1 X99.197 Y93.835 E26.40953
G1 X101.52 Y94.771 E26.49283
G1 X103.916 Y95.659 E26.57782
G1 X106.3 Y96.466 E26.66153
G1 X108.749 Y97.219 E26.74675
G1 X111.181 Y97.892 E26.83068
G1 X113.645 Y98.499 E26.91508
G1 X116.142 Y99.04 E27.00006
G1 X118.633 Y99.507 E27.08435
G1 X121.135 Y99.902 E27.1686
G1 X123.655 Y100.227 E27.25311
G1 X126.189 Y100.482 E27.33781
G1 X128.745 Y100.666 E27.42305
G1 X131.25 Y100.776 E27.50644
G1 X133.988 Y100.816 E27.59752
G1 X162.199 Y100.818 E28.53582
G1 X162.933 Y100.829 E28.56024
G1 X163.834 Y100.883 E28.59026
G1 X164.653 Y101.001 E28.61778
G1 X164.926 Y101.052 E28.62702
G1 X165.806 Y101.257 E28.65707
G1 X166.945 Y101.651 E28.69716
G1 X167.054 Y101.696 E28.70108
G1 X167.873 Y102.077 E28.73112
G1 X168.655 Y102.529 E28.76116
G1 X169.393 Y103.049 E28.79119
G1 X170.083 Y103.632 E28.82123
G1 X170.719 Y104.273 E28.85127
G1 X171.295 Y104.969 E28.88132
G1 X171.808 Y105.712 E28.91135
G1 X172.253 Y106.498 E28.94139
G1 X172.626 Y107.32 E28.97141
G1 X172.926 Y108.172 E29.00145
G1 X173.148 Y109.048 E29.03151
G1 X173.293 Y109.939 E29.06154
G1 X173.361 Y110.964 E29.0957
G1 X173.372 Y111.664 E29.11899
G1 X173.373 Y138.381 E30.0076
G1 X173.362 Y139.247 E30.0364
G1 X173.31 Y140.149 E30.06645
G1 X173.178 Y141.042 E30.09648
