;FLAVOR:Marlin
;TIME:628
;Filament used: 0.250644m
;Layer height: 0.2
;MINX:96.217
;MINY:115.415
;MINZ:0.2
;MAXX:128.217
;MAXY:147.415
;MAXZ:10
;Generated with Cura_SteamEngine 4.7.1
M140 S50
M105
M190 S50
M104 S200
M105
M109 S200
M82 ;absolute extrusion mode
; Ender 3 Custom Start G-code
G92 E0 ; Reset Extruder
G28 ; Home all axes
G1 Z2.0 F3000 ; Move Z Axis up little to prevent scratching of Heat Bed
G1 X0.1 Y20 Z0.3 F5000.0 ; Move to start position
G1 X0.1 Y200.0 Z0.3 F1500.0 E15 ; Draw the first line
G1 X0.4 Y200.0 Z0.3 F5000.0 ; Move to side a little
G1 X0.4 Y20 Z0.3 F1500.0 E30 ; Draw the second line
G92 E0 ; Reset Extruder
G1 Z2.0 F3000 ; Move Z Axis up little to prevent scratching of Heat Bed
G1 X5 Y20 Z0.3 F5000.0 ; Move over to prevent blob squish
G92 E0
G92 E0
G1 F2700 E-5
;LAYER_COUNT:50
;LAYER:0
M107
G0 F6000 X100.103 Y118.042 Z0.2
;TYPE:SKIRT
G1 F2700 E0
G1 F1200 X100.843 Y117.466 E0.03119
G1 X101.629 Y116.954 E0.06239
G1 X102.456 Y116.512 E0.09358
G1 X103.318 Y116.142 E0.12478
G1 X104.208 Y115.846 E0.15597
G1 X105.12 Y115.628 E0.18716
G1 X106.047 Y115.487 E0.21835
G1 X106.918 Y115.428 E0.24738
G1 X107.239 Y115.419 E0.25806
G1 X107.547 Y115.415 E0.26831
G1 X116.668 Y115.416 E0.57168
G1 X117.366 Y115.426 E0.59489
G1 X118.302 Y115.48 E0.62608
G1 X119.23 Y115.612 E0.65725
G1 X120.144 Y115.824 E0.68846
G1 X121.036 Y116.113 E0.71965
G1 X121.901 Y116.476 E0.75085
G1 X122.731 Y116.912 E0.78203
G1 X123.522 Y117.417 E0.81324
G1 X124.266 Y117.988 E0.84444
G1 X124.959 Y118.62 E0.87563
G1 X125.596 Y119.308 E0.90682
G1 X126.171 Y120.049 E0.93801
G1 X126.682 Y120.835 E0.96919
G1 X127.124 Y121.663 E1.00041
G1 X127.493 Y122.525 E1.0316
G1 X127.788 Y123.415 E1.06278
G1 X128.006 Y124.327 E1.09397
G1 X128.146 Y125.255 E1.12518
G1 X128.204 Y126.116 E1.15389
G1 X128.213 Y126.436 E1.16453
G1 X128.217 Y126.745 E1.17481
G1 X128.216 Y135.815 E1.47648
G1 X128.207 Y136.542 E1.50066
G1 X128.156 Y137.479 E1.53187
G1 X128.024 Y138.407 E1.56305
G1 X127.815 Y139.321 E1.59424
G1 X127.528 Y140.214 E1.62543
G1 X127.166 Y141.08 E1.65665
G1 X126.732 Y141.911 E1.68783
G1 X126.228 Y142.702 E1.71903
G1 X125.659 Y143.447 E1.75021
G1 X125.028 Y144.142 E1.78143
G1 X124.341 Y144.78 E1.81261
G1 X123.602 Y145.357 E1.8438
G1 X122.816 Y145.869 E1.875
G1 X121.99 Y146.312 E1.90617
G1 X121.128 Y146.684 E1.9374
G1 X120.239 Y146.98 E1.96856
G1 X119.327 Y147.2 E1.99976
G1 X118.4 Y147.341 E2.03095
G1 X117.516 Y147.402 E2.06042
G1 X117.195 Y147.411 E2.0711
G1 X116.887 Y147.415 E2.08135
G1 X107.782 Y147.414 E2.38418
G1 X107.084 Y147.405 E2.4074
G1 X106.148 Y147.353 E2.43858
G1 X105.219 Y147.221 E2.46979
G1 X104.305 Y147.011 E2.50098
G1 X103.412 Y146.724 E2.53218
G1 X102.547 Y146.361 E2.56338
G1 X101.716 Y145.927 E2.59456
G1 X100.925 Y145.423 E2.62576
G1 X100.18 Y144.853 E2.65695
G1 X99.486 Y144.222 E2.68815
G1 X98.849 Y143.535 E2.71931
G1 X98.272 Y142.795 E2.75052
G1 X97.76 Y142.009 E2.78172
G1 X97.317 Y141.182 E2.81293
G1 X96.946 Y140.321 E2.84411
G1 X96.65 Y139.431 E2.8753
G1 X96.431 Y138.519 E2.9065
G1 X96.29 Y137.592 E2.93769
G1 X96.23 Y136.703 E2.96732
G1 X96.221 Y136.37 E2.9784
G1 X96.217 Y136.073 E2.98828
G1 X96.218 Y126.94 E3.29205
G1 X96.227 Y126.275 E3.31417
G1 X96.28 Y125.339 E3.34535
G1 X96.412 Y124.41 E3.37656
G1 X96.623 Y123.496 E3.40776
G1 X96.911 Y122.604 E3.43893
G1 X97.274 Y121.739 E3.47013
G1 X97.709 Y120.908 E3.50133
G1 X98.213 Y120.118 E3.5325
G1 X98.783 Y119.373 E3.5637
G1 X99.415 Y118.679 E3.59492
G1 X100.103 Y118.042 E3.6261
G0 F6000 X100.491 Y118.238
G1 F1200 X101.227 Y117.685 E3.65672
G1 X102.008 Y117.197 E3.68735
G1 X102.828 Y116.779 E3.71796
G1 X103.682 Y116.434 E3.7486
G1 X104.562 Y116.164 E3.77921
G1 X105.462 Y115.972 E3.80982
G1 X106.376 Y115.858 E3.84046
G1 X106.929 Y115.828 E3.85888
G1 X107.25 Y115.819 E3.86956
G1 X107.547 Y115.815 E3.87944
G1 X116.51 Y115.815 E4.17755
G1 X117.36 Y115.826 E4.20582
G1 X118.279 Y115.879 E4.23644
G1 X119.19 Y116.012 E4.26706
G1 X120.086 Y116.223 E4.29767
G1 X120.96 Y116.511 E4.32828
G1 X121.807 Y116.874 E4.35893
G1 X122.618 Y117.309 E4.38954
G1 X123.388 Y117.813 E4.42015
G1 X124.112 Y118.382 E4.45077
G1 X124.784 Y119.012 E4.48141
G1 X125.399 Y119.697 E4.51203
G1 X125.952 Y120.433 E4.54265
G1 X126.439 Y121.214 E4.57326
G1 X126.856 Y122.035 E4.60389
G1 X127.201 Y122.889 E4.63452
G1 X127.47 Y123.769 E4.66513
G1 X127.662 Y124.67 E4.69577
G1 X127.775 Y125.583 E4.72637
G1 X127.804 Y126.127 E4.74449
G1 X127.813 Y126.447 E4.75513
G1 X127.817 Y126.745 E4.76505
G1 X127.816 Y135.81 E5.06655
G1 X127.807 Y136.537 E5.09073
G1 X127.756 Y137.456 E5.12134
G1 X127.625 Y138.368 E5.15199
G1 X127.415 Y139.264 E5.1826
G1 X127.129 Y140.139 E5.21322
G1 X126.768 Y140.986 E5.24384
G1 X126.334 Y141.798 E5.27446
G1 X125.832 Y142.57 E5.30509
G1 X125.264 Y143.295 E5.33572
G1 X124.636 Y143.968 E5.36634
G1 X123.952 Y144.584 E5.39695
G1 X123.217 Y145.138 E5.42757
G1 X122.437 Y145.627 E5.45819
G1 X121.617 Y146.046 E5.48881
G1 X120.764 Y146.392 E5.51943
G1 X119.884 Y146.663 E5.55006
G1 X118.984 Y146.856 E5.58067
G1 X118.07 Y146.971 E5.61131
G1 X117.505 Y147.002 E5.63013
G1 X117.184 Y147.011 E5.64081
G1 X116.887 Y147.015 E5.65069
G1 X107.787 Y147.014 E5.95336
G1 X107.089 Y147.005 E5.97657
G1 X106.17 Y146.953 E6.00719
G1 X105.259 Y146.822 E6.0378
G1 X104.363 Y146.612 E6.06841
G1 X103.488 Y146.325 E6.09904
G1 X102.641 Y145.963 E6.12967
G1 X101.829 Y145.529 E6.1603
G1 X101.058 Y145.027 E6.1909
G1 X100.333 Y144.459 E6.22153
G1 X99.66 Y143.83 E6.25217
G1 X99.045 Y143.146 E6.28276
G1 X98.491 Y142.411 E6.31337
G1 X98.003 Y141.63 E6.344
G1 X97.584 Y140.81 E6.37463
G1 X97.238 Y139.957 E6.40525
G1 X96.968 Y139.077 E6.43586
G1 X96.775 Y138.176 E6.46651
G1 X96.661 Y137.263 E6.49711
G1 X96.63 Y136.692 E6.51613
G1 X96.621 Y136.359 E6.52721
G1 X96.617 Y136.073 E6.53673
G1 X96.618 Y126.946 E6.84029
G1 X96.627 Y126.281 E6.86241
G1 X96.679 Y125.361 E6.89306
G1 X96.811 Y124.45 E6.92368
G1 X97.022 Y123.554 E6.95429
G1 X97.309 Y122.679 E6.98492
G1 X97.672 Y121.833 E7.01554
G1 X98.106 Y121.021 E7.04616
G1 X98.609 Y120.25 E7.07678
G1 X99.178 Y119.526 E7.10741
G1 X99.806 Y118.854 E7.138
G1 X100.491 Y118.238 E7.16864
G0 F6000 X100.879 Y118.439
G1 F1200 X101.611 Y117.909 E7.1987
G1 X102.386 Y117.446 E7.22872
G1 X103.199 Y117.053 E7.25876
G1 X104.044 Y116.733 E7.28881
G1 X104.913 Y116.49 E7.31882
G1 X105.801 Y116.324 E7.34887
G1 X106.94 Y116.228 E7.38689
G1 X107.261 Y116.219 E7.39757
G1 X107.547 Y116.215 E7.40708
G1 X116.51 Y116.215 E7.70519
G1 X117.354 Y116.226 E7.73327
G1 X118.256 Y116.279 E7.76332
G1 X119.149 Y116.411 E7.79334
G1 X120.027 Y116.622 E7.82338
G1 X120.883 Y116.91 E7.85341
G1 X121.71 Y117.272 E7.88344
G1 X122.502 Y117.707 E7.91349
G1 X123.253 Y118.209 E7.94354
G1 X123.956 Y118.776 E7.97358
G1 X124.606 Y119.403 E8.00362
G1 X125.198 Y120.085 E8.03365
G1 X125.728 Y120.816 E8.06368
G1 X126.19 Y121.592 E8.09372
G1 X126.583 Y122.405 E8.12376
G1 X126.901 Y123.25 E8.15379
G1 X127.144 Y124.12 E8.18383
G1 X127.309 Y125.008 E8.21387
G1 X127.404 Y126.138 E8.25159
G1 X127.413 Y126.458 E8.26223
G1 X127.417 Y126.745 E8.27178
G1 X127.416 Y135.805 E8.57312
G1 X127.407 Y136.532 E8.5973
G1 X127.356 Y137.434 E8.62735
G1 X127.225 Y138.328 E8.6574
G1 X127.016 Y139.206 E8.68742
G1 X126.73 Y140.063 E8.71747
G1 X126.369 Y140.891 E8.74751
G1 X125.937 Y141.683 E8.77752
G1 X125.436 Y142.435 E8.80757
G1 X124.87 Y143.139 E8.83761
G1 X124.245 Y143.79 E8.86763
G1 X123.564 Y144.384 E8.89769
G1 X122.833 Y144.915 E8.92774
G1 X122.059 Y145.379 E8.95775
G1 X121.246 Y145.773 E8.9878
G1 X120.402 Y146.093 E9.01782
G1 X119.532 Y146.338 E9.04788
G1 X118.645 Y146.504 E9.0779
G1 X117.494 Y146.602 E9.11632
G1 X117.173 Y146.611 E9.127
G1 X116.887 Y146.615 E9.13651
G1 X107.792 Y146.614 E9.43901
G1 X107.094 Y146.605 E9.46223
G1 X106.193 Y146.554 E9.49225
G1 X105.299 Y146.422 E9.5223
G1 X104.421 Y146.213 E9.55232
G1 X103.564 Y145.926 E9.58238
G1 X102.737 Y145.565 E9.61239
G1 X101.944 Y145.132 E9.64244
G1 X101.193 Y144.631 E9.67247
G1 X100.489 Y144.065 E9.70252
G1 X99.838 Y143.439 E9.73255
G1 X99.245 Y142.758 E9.76259
G1 X98.715 Y142.027 E9.79262
G1 X98.251 Y141.252 E9.82266
G1 X97.857 Y140.439 E9.85271
G1 X97.537 Y139.595 E9.88273
G1 X97.293 Y138.725 E9.91279
G1 X97.127 Y137.837 E9.94283
G1 X97.03 Y136.682 E9.98138
G1 X97.021 Y136.349 E9.99246
G1 X97.017 Y136.073 E10.00164
G1 X97.018 Y126.951 E10.30504
G1 X97.027 Y126.286 E10.32716
G1 X97.079 Y125.384 E10.35721
G1 X97.211 Y124.491 E10.38724
G1 X97.421 Y123.613 E10.41726
G1 X97.708 Y122.756 E10.44732
G1 X98.07 Y121.929 E10.47735
G1 X98.503 Y121.137 E10.50737
G1 X99.005 Y120.386 E10.53742
G1 X99.572 Y119.682 E10.56748
G1 X100.198 Y119.032 E10.5975
G1 X100.879 Y118.439 E10.62753
G1 F2700 E5.62753
;MESH:xyzCalibration_cube.stl
G0 F6000 X107.631 Y125.75
G0 X107.631 Y126.829
G0 X116.435 Y127.197
G0 X116.617 Y135.815
;TYPE:WALL-INNER
G1 F2700 E10.62753
G1 F1200 X107.817 Y135.815 E10.92022
G1 X107.817 Y127.015 E11.21291
G1 X116.617 Y127.015 E11.5056
G1 X116.617 Y135.815 E11.79829
G0 F6000 X117.017 Y136.215
;TYPE:WALL-OUTER
G1 F1200 X107.417 Y136.215 E12.11758
G1 X107.417 Y126.615 E12.43688
G1 X117.017 Y126.615 E12.75618
G1 X117.017 Y136.215 E13.07548
G0 F6000 X116.747 Y135.945
G0 X116.507 Y135.425
G0 X116.227 Y135.425
;TYPE:SKIN
G1 F1200 X108.207 Y135.425 E13.34222
G1 X108.207 Y127.405 E13.60897
G1 X116.227 Y127.405 E13.87571
G1 X116.227 Y135.425 E14.14246
G0 F6000 X116.507 Y135.425
G0 X116.507 Y127.946
G0 X116.066 Y127.946
G1 F1200 X115.685 Y127.564 E14.16041
G0 F6000 X115.119 Y127.564
G1 F1200 X116.066 Y128.511 E14.20495
G0 F6000 X116.066 Y129.077
G1 F1200 X114.554 Y127.564 E14.27609
G0 F6000 X113.988 Y127.564
G1 F1200 X116.066 Y129.643 E14.37386
G0 F6000 X116.066 Y130.208
G1 F1200 X113.422 Y127.564 E14.49822
G0 F6000 X112.857 Y127.564
G1 F1200 X116.066 Y130.774 E14.64919
G0 F6000 X116.066 Y131.34
G1 F1200 X112.291 Y127.564 E14.82678
G0 F6000 X111.725 Y127.564
G1 F1200 X116.066 Y131.905 E15.03096
G0 F6000 X116.066 Y132.471
G1 F1200 X111.16 Y127.564 E15.26175
G0 F6000 X110.594 Y127.564
G1 F1200 X116.066 Y133.037 E15.51916
G0 F6000 X116.066 Y133.602
G1 F1200 X110.028 Y127.564 E15.80317
G0 F6000 X109.462 Y127.564
G1 F1200 X116.066 Y134.168 E16.1138
G0 F6000 X116.066 Y134.734
G1 F1200 X108.897 Y127.564 E16.45103
G0 F6000 X108.366 Y127.6
G1 F1200 X116.03 Y135.263 E16.8115
G0 F6000 X115.464 Y135.263
G1 F1200 X108.366 Y128.165 E17.14537
G0 F6000 X108.366 Y128.731
G1 F1200 X114.899 Y135.263 E17.45264
G0 F6000 X114.333 Y135.263
G1 F1200 X108.366 Y129.297 E17.73328
G0 F6000 X108.366 Y129.862
G1 F1200 X113.767 Y135.263 E17.98733
G0 F6000 X113.202 Y135.263
G1 F1200 X108.366 Y130.428 E18.21478
G0 F6000 X108.366 Y130.994
G1 F1200 X112.636 Y135.263 E18.4156
G0 F6000 X112.07 Y135.263
G1 F1200 X108.366 Y131.56 E18.5898
G0 F6000 X108.366 Y132.125
G1 F1200 X111.505 Y135.263 E18.73743
G0 F6000 X110.939 Y135.263
G1 F1200 X108.366 Y132.691 E18.85843
G0 F6000 X108.366 Y133.257
G1 F1200 X110.373 Y135.263 E18.95281
G0 F6000 X109.808 Y135.263
G1 F1200 X108.366 Y133.822 E19.02061
G0 F6000 X108.366 Y134.388
G1 F1200 X109.242 Y135.263 E19.06179
G0 F6000 X108.676 Y135.263
G1 F1200 X108.366 Y134.954 E19.07635
G0 F6000 X108.017 Y134.954
;MESH:NONMESH
G0 F300 X108.017 Y134.954 Z0.4
G0 F6000 X107.927 Y134.954
G0 X107.999 Y135.633
G0 X116.617 Y135.815
;TIME_ELAPSED:37.268315
;LAYER:1
M106 S85
;TYPE:WALL-INNER
;MESH:xyzCalibration_cube.stl
G1 F1350 X107.817 Y135.815 E19.36904
G1 X107.817 Y127.015 E19.66173
G1 X116.617 Y127.015 E19.95442
G1 X116.617 Y135.815 E20.24711
G0 F7500 X117.017 Y136.215
;TYPE:WALL-OUTER
G1 F1350 X107.417 Y136.215 E20.56641
G1 X107.417 Y126.615 E20.8857
G1 X117.017 Y126.615 E21.205
G1 X117.017 Y136.215 E21.5243
G0 F7500 X116.747 Y135.945
G0 X116.507 Y135.425
G0 X116.227 Y135.425
;TYPE:SKIN
G1 F1350 X108.207 Y135.425 E21.79104
G1 X108.207 Y127.405 E22.05779
G1 X116.227 Y127.405 E22.32454
G1 X116.227 Y135.425 E22.59128
G0 F7500 X115.899 Y135.264
G1 F1350 X116.066 Y135.097 E22.59914
G0 F7500 X116.066 Y134.532
G1 F1350 X115.334 Y135.264 E22.63357
G0 F7500 X114.768 Y135.264
G1 F1350 X116.066 Y133.966 E22.69462
G0 F7500 X116.066 Y133.4
G1 F1350 X114.202 Y135.264 E22.7823
G0 F7500 X113.637 Y135.264
G1 F1350 X116.066 Y132.834 E22.89658
G0 F7500 X116.066 Y132.269
G1 F1350 X113.071 Y135.264 E23.03745
G0 F7500 X112.505 Y135.264
G1 F1350 X116.066 Y131.703 E23.20495
G0 F7500 X116.066 Y131.137
G1 F1350 X111.939 Y135.264 E23.39907
G0 F7500 X111.374 Y135.264
G1 F1350 X116.066 Y130.572 E23.61977
G0 F7500 X116.066 Y130.006
G1 F1350 X110.808 Y135.264 E23.86709
G0 F7500 X110.242 Y135.264
G1 F1350 X116.066 Y129.44 E24.14103
G0 F7500 X116.066 Y128.875
G1 F1350 X109.677 Y135.264 E24.44155
G0 F7500 X109.111 Y135.264
G1 F1350 X116.066 Y128.309 E24.76869
G0 F7500 X116.066 Y127.743
G1 F1350 X108.545 Y135.264 E25.12246
G0 F7500 X108.366 Y134.877
G1 F1350 X115.68 Y127.564 E25.46646
G0 F7500 X115.114 Y127.564
G1 F1350 X108.366 Y134.312 E25.78387
G0 F7500 X108.366 Y133.746
G1 F1350 X114.549 Y127.564 E26.07467
G0 F7500 X113.983 Y127.564
G1 F1350 X108.366 Y133.18 E26.33886
G0 F7500 X108.366 Y132.615
G1 F1350 X113.417 Y127.564 E26.57644
G0 F7500 X112.852 Y127.564
G1 F1350 X108.366 Y132.049 E26.78743
G0 F7500 X108.366 Y131.483
G1 F1350 X112.286 Y127.564 E26.97179
G0 F7500 X111.72 Y127.564
G1 F1350 X108.366 Y130.917 E27.12952
G0 F7500 X108.366 Y130.352
G1 F1350 X111.155 Y127.564 E27.26069
G0 F7500 X110.589 Y127.564
G1 F1350 X108.366 Y129.786 E27.36523
G0 F7500 X108.366 Y129.22
G1 F1350 X110.023 Y127.564 E27.44314
G0 F7500 X109.458 Y127.564
G1 F1350 X108.366 Y128.655 E27.49448
G0 F7500 X108.366 Y128.089
G1 F1350 X108.892 Y127.564 E27.5192
G0 F7500 X108.892 Y127.215
;MESH:NONMESH
G0 F300 X108.892 Y127.215 Z0.6
G0 F7500 X108.892 Y127.125
G0 X116.435 Y127.197
G0 X116.617 Y135.815
;TIME_ELAPSED:51.541921
;LAYER:2
M106 S170
;TYPE:WALL-INNER
;MESH:xyzCalibration_cube.stl
G1 F1500 X107.817 Y135.815 E27.81189
G1 X107.817 Y127.015 E28.10458
G1 X116.617 Y127.015 E28.39727
G1 X116.617 Y135.815 E28.68996
G0 F9000 X117.017 Y136.215
;TYPE:WALL-OUTER
G1 F1500 X107.417 Y136.215 E29.00926
G1 X107.417 Y126.615 E29.32855
G1 X117.017 Y126.615 E29.64785
G1 X117.017 Y136.215 E29.96715
G0 F9000 X116.747 Y135.945
G0 X116.507 Y135.425
G0 X116.227 Y135.425
;TYPE:SKIN
G1 F1500 X108.207 Y135.425 E30.23389
G1 X108.207 Y127.405 E30.50064
G1 X116.227 Y127.405 E30.76739
G1 X116.227 Y135.425 E31.03413
G0 F9000 X116.507 Y135.425
G0 X116.507 Y127.946
G0 X116.066 Y127.946
G1 F1500 X115.685 Y127.564 E31.05208
G0 F9000 X115.119 Y127.564
G1 F1500 X116.066 Y128.511 E31.09662
G0 F9000 X116.066 Y129.077
G1 F1500 X114.554 Y127.564 E31.16777
G0 F9000 X113.988 Y127.564
G1 F1500 X116.066 Y129.643 E31.26553
G0 F9000 X116.066 Y130.208
G1 F1500 X113.422 Y127.564 E31.3899
G0 F9000 X112.857 Y127.564
G1 F1500 X116.066 Y130.774 E31.54086
G0 F9000 X116.066 Y131.34
G1 F1500 X112.291 Y127.564 E31.71845
G0 F9000 X111.725 Y127.564
G1 F1500 X116.066 Y131.905 E31.92264
G0 F9000 X116.066 Y132.471
G1 F1500 X111.16 Y127.564 E32.15342
G0 F9000 X110.594 Y127.564
G1 F1500 X116.066 Y133.037 E32.41083
G0 F9000 X116.066 Y133.602
G1 F1500 X110.028 Y127.564 E32.69484
G0 F9000 X109.462 Y127.564
G1 F1500 X116.066 Y134.168 E33.00547
G0 F9000 X116.066 Y134.734
G1 F1500 X108.897 Y127.564 E33.34271
G0 F9000 X108.366 Y127.6
G1 F1500 X116.03 Y135.263 E33.70317
G0 F9000 X115.464 Y135.263
G1 F1500 X108.366 Y128.165 E34.03704
G0 F9000 X108.366 Y128.731
G1 F1500 X114.899 Y135.263 E34.34431
G0 F9000 X114.333 Y135.263
G1 F1500 X108.366 Y129.297 E34.62496
G0 F9000 X108.366 Y129.862
G1 F1500 X113.767 Y135.263 E34.879
G0 F9000 X113.202 Y135.263
G1 F1500 X108.366 Y130.428 E35.10645
G0 F9000 X108.366 Y130.994
G1 F1500 X112.636 Y135.263 E35.30727
G0 F9000 X112.07 Y135.263
G1 F1500 X108.366 Y131.56 E35.48148
G0 F9000 X108.366 Y132.125
G1 F1500 X111.505 Y135.263 E35.6291
G0 F9000 X110.939 Y135.263
G1 F1500 X108.366 Y132.691 E35.7501
G0 F9000 X108.366 Y133.257
G1 F1500 X110.373 Y135.263 E35.84448
G0 F9000 X109.808 Y135.263
G1 F1500 X108.366 Y133.822 E35.91229
G0 F9000 X108.366 Y134.388
G1 F1500 X109.242 Y135.263 E35.95347
G0 F9000 X108.676 Y135.263
