;FLAVOR:Marlin
;TIME:10388
;Filament used: 7.98222m
;Layer height: 0.2
;MINX:34.5
;MINY:60.521
;MINZ:0.2
;MAXX:198.5
;MAXY:196.5
;MAXZ:2
;Generated with Cura_SteamEngine 4.7.1
M140 S50
M105
M190 S50
M104 S200
M105
M109 S200
M82 ;absolute extrusion mode
; Ender 3 Custom Start G-code
G92 E0 ; Reset Extruder
G28 ; Home all axes
G1 Z2.0 F3000 ; Move Z Axis up little to prevent scratching of Heat Bed
G1 X0.1 Y20 Z0.3 F5000.0 ; Move to start position
G1 X0.1 Y200.0 Z0.3 F1500.0 E15 ; Draw the first line
G1 X0.4 Y200.0 Z0.3 F5000.0 ; Move to side a little
G1 X0.4 Y20 Z0.3 F1500.0 E30 ; Draw the second line
G92 E0 ; Reset Extruder
G1 Z2.0 F3000 ; Move Z Axis up little to prevent scratching of Heat Bed
G1 X5 Y20 Z0.3 F5000.0 ; Move over to prevent blob squish
G92 E0
G92 E0
G1 F2700 E-5
;LAYER_COUNT:10
;LAYER:0
M107
G0 F6000 X41.126 Y62.572 Z0.2
;TYPE:SKIRT
G1 F2700 E0
G1 F1200 X41.912 Y62.06 E0.0312
G1 X42.739 Y61.618 E0.06239
G1 X43.601 Y61.248 E0.09359
G1 X44.491 Y60.952 E0.12478
G1 X45.403 Y60.734 E0.15597
G1 X46.33 Y60.593 E0.18716
G1 X47.201 Y60.534 E0.21619
G1 X47.522 Y60.525 E0.22687
G1 X47.83 Y60.521 E0.23712
G1 X186.793 Y60.521 E4.85905
G1 X186.951 Y60.522 E4.8643
G1 X187.649 Y60.532 E4.88752
G1 X188.585 Y60.586 E4.9187
G1 X189.513 Y60.718 E4.94988
G1 X190.427 Y60.93 E4.98109
G1 X191.319 Y61.219 E5.01227
G1 X192.184 Y61.582 E5.04347
G1 X193.014 Y62.018 E5.07466
G1 X193.805 Y62.523 E5.10587
G1 X194.549 Y63.094 E5.13706
G1 X195.242 Y63.726 E5.16826
G1 X195.879 Y64.414 E5.19944
G1 X196.454 Y65.155 E5.23064
G1 X196.965 Y65.941 E5.26182
G1 X197.407 Y66.769 E5.29304
G1 X197.776 Y67.631 E5.32423
G1 X198.071 Y68.521 E5.35541
G1 X198.289 Y69.433 E5.3866
G1 X198.429 Y70.361 E5.41781
G1 X198.487 Y71.222 E5.44651
G1 X198.496 Y71.542 E5.45716
G1 X198.5 Y71.851 E5.46744
G1 X198.499 Y110.948 E6.76781
G1 X198.489 Y111.668 E6.79176
G1 X198.436 Y112.604 E6.82294
G1 X198.245 Y113.822 E6.86395
G1 X197.975 Y115.078 E6.90668
G1 X197.837 Y115.682 E6.92728
G1 X197.337 Y118.192 E7.01241
G1 X196.922 Y120.63 E7.09466
G1 X196.571 Y123.117 E7.1782
G1 X196.289 Y125.638 E7.26257
G1 X196.077 Y128.167 E7.34698
G1 X195.94 Y130.649 E7.42966
G1 X195.871 Y133.179 E7.51384
G1 X195.875 Y135.698 E7.59762
G1 X195.949 Y138.194 E7.68067
G1 X196.093 Y140.681 E7.76353
G1 X196.411 Y144.107 E7.87797
G1 X196.45 Y144.563 E7.89319
G1 X196.485 Y145.167 E7.91331
G1 X196.495 Y145.497 E7.9243
G1 X196.5 Y145.83 E7.93537
G1 X196.499 Y184.915 E9.23535
G1 X196.489 Y185.642 E9.25953
G1 X196.436 Y186.579 E9.29074
G1 X196.304 Y187.507 E9.32192
G1 X196.093 Y188.421 E9.35312
G1 X195.804 Y189.313 E9.3843
G1 X195.441 Y190.178 E9.4155
G1 X195.006 Y191.009 E9.4467
G1 X194.501 Y191.799 E9.47789
G1 X193.931 Y192.544 E9.50909
G1 X193.3 Y193.238 E9.54028
G1 X192.611 Y193.875 E9.57149
G1 X191.871 Y194.451 E9.60268
G1 X191.085 Y194.962 E9.63386
G1 X190.258 Y195.404 E9.66505
G1 X189.396 Y195.774 E9.69625
G1 X188.506 Y196.069 E9.72744
G1 X187.594 Y196.288 E9.75863
G1 X186.667 Y196.428 E9.78981
G1 X185.799 Y196.487 E9.81875
G1 X185.479 Y196.496 E9.8294
G1 X185.17 Y196.5 E9.83968
G1 X46.207 Y196.5 E14.4616
G1 X45.367 Y196.49 E14.48955
G1 X44.431 Y196.438 E14.52072
G1 X43.502 Y196.306 E14.55193
G1 X42.588 Y196.096 E14.58313
G1 X41.695 Y195.809 E14.61432
G1 X40.83 Y195.446 E14.64552
G1 X39.999 Y195.012 E14.67671
G1 X39.208 Y194.508 E14.7079
G1 X38.463 Y193.938 E14.7391
G1 X37.769 Y193.307 E14.7703
G1 X37.132 Y192.62 E14.80146
G1 X36.555 Y191.88 E14.83267
G1 X36.043 Y191.094 E14.86387
G1 X35.6 Y190.267 E14.89507
G1 X35.229 Y189.406 E14.92625
G1 X34.933 Y188.516 E14.95745
G1 X34.714 Y187.604 E14.98865
G1 X34.573 Y186.677 E15.01983
G1 X34.513 Y185.788 E15.04947
G1 X34.504 Y185.455 E15.06055
G1 X34.5 Y185.158 E15.07043
G1 X34.501 Y146.036 E16.37163
G1 X34.512 Y145.33 E16.39511
G1 X34.567 Y144.393 E16.42633
G1 X34.756 Y143.193 E16.46674
G1 X35.025 Y141.943 E16.50926
G1 X35.163 Y141.339 E16.52987
G1 X35.663 Y138.829 E16.61499
G1 X36.078 Y136.391 E16.69725
G1 X36.429 Y133.904 E16.78079
G1 X36.711 Y131.383 E16.86516
G1 X36.923 Y128.854 E16.94957
G1 X37.06 Y126.372 E17.03225
G1 X37.129 Y123.842 E17.11642
G1 X37.125 Y121.323 E17.20021
G1 X37.051 Y118.827 E17.28326
G1 X36.908 Y116.341 E17.36608
G1 X36.589 Y112.916 E17.48049
G1 X36.549 Y112.449 E17.49608
G1 X36.513 Y111.82 E17.51704
G1 X36.504 Y111.501 E17.52765
G1 X36.5 Y111.191 E17.53796
G1 X36.501 Y72.046 E18.83993
G1 X36.51 Y71.381 E18.86205
G1 X36.563 Y70.445 E18.89323
G1 X36.695 Y69.516 E18.92444
G1 X36.906 Y68.602 E18.95564
G1 X37.194 Y67.71 E18.98681
G1 X37.557 Y66.845 E19.01802
G1 X37.992 Y66.014 E19.04921
G1 X38.496 Y65.224 E19.08038
G1 X39.066 Y64.479 E19.11158
G1 X39.698 Y63.785 E19.1428
G1 X40.386 Y63.148 E19.17398
G1 X41.126 Y62.572 E19.20517
G0 F6000 X41.51 Y62.791
G1 F1200 X42.291 Y62.303 E19.2358
G1 X43.111 Y61.885 E19.26642
G1 X43.965 Y61.54 E19.29705
G1 X44.845 Y61.27 E19.32767
G1 X45.745 Y61.078 E19.35827
G1 X46.659 Y60.964 E19.38891
G1 X47.212 Y60.934 E19.40733
G1 X47.533 Y60.925 E19.41801
G1 X47.83 Y60.921 E19.42789
G1 X186.793 Y60.921 E24.04982
G1 X187.643 Y60.932 E24.07809
G1 X188.562 Y60.985 E24.10871
G1 X189.473 Y61.118 E24.13933
G1 X190.369 Y61.329 E24.16994
G1 X191.243 Y61.617 E24.20055
G1 X192.09 Y61.98 E24.2312
G1 X192.901 Y62.415 E24.26181
G1 X193.671 Y62.919 E24.29242
G1 X194.395 Y63.488 E24.32305
G1 X195.067 Y64.118 E24.35368
G1 X195.682 Y64.803 E24.3843
G1 X196.235 Y65.539 E24.41492
G1 X196.722 Y66.32 E24.44553
G1 X197.139 Y67.141 E24.47616
G1 X197.484 Y67.995 E24.50679
G1 X197.753 Y68.875 E24.5374
G1 X197.945 Y69.776 E24.56804
G1 X198.058 Y70.689 E24.59864
G1 X198.087 Y71.233 E24.61676
G1 X198.096 Y71.553 E24.62741
G1 X198.1 Y71.851 E24.63732
G1 X198.099 Y110.942 E25.93749
G1 X198.089 Y111.662 E25.96144
G1 X198.036 Y112.581 E25.99206
G1 X197.854 Y113.739 E26.03104
G1 X197.585 Y114.989 E26.07357
G1 X197.439 Y115.627 E26.09534
G1 X196.951 Y118.077 E26.17843
G1 X196.526 Y120.578 E26.2628
G1 X196.172 Y123.088 E26.34711
G1 X195.891 Y125.593 E26.43095
G1 X195.68 Y128.115 E26.51513
G1 X195.54 Y130.65 E26.59957
G1 X195.471 Y133.168 E26.68335
G1 X195.475 Y135.711 E26.76793
G1 X195.55 Y138.229 E26.85172
G1 X195.693 Y140.713 E26.93447
G1 X196.012 Y144.141 E27.04898
G1 X196.051 Y144.597 E27.0642
G1 X196.085 Y145.179 E27.08359
G1 X196.095 Y145.509 E27.09457
G1 X196.1 Y145.83 E27.10525
G1 X196.099 Y184.91 E28.40506
G1 X196.089 Y185.637 E28.42924
G1 X196.036 Y186.556 E28.45986
G1 X195.904 Y187.467 E28.49047
G1 X195.693 Y188.363 E28.52109
G1 X195.406 Y189.238 E28.55172
G1 X195.043 Y190.084 E28.58234
G1 X194.609 Y190.896 E28.61296
G1 X194.105 Y191.667 E28.6436
G1 X193.537 Y192.391 E28.6742
G1 X192.908 Y193.063 E28.70482
G1 X192.223 Y193.678 E28.73544
G1 X191.487 Y194.231 E28.76605
G1 X190.706 Y194.719 E28.79668
G1 X189.886 Y195.137 E28.8273
G1 X189.032 Y195.482 E28.85793
G1 X188.152 Y195.751 E28.88854
G1 X187.251 Y195.944 E28.91918
G1 X186.338 Y196.057 E28.94978
G1 X185.788 Y196.087 E28.9681
G1 X185.468 Y196.096 E28.97875
G1 X185.17 Y196.1 E28.98866
G1 X46.207 Y196.1 E33.61059
G1 X45.372 Y196.09 E33.63837
G1 X44.453 Y196.038 E33.66898
G1 X43.542 Y195.907 E33.69959
G1 X42.646 Y195.697 E33.7302
G1 X41.771 Y195.41 E33.76083
G1 X40.924 Y195.048 E33.79147
G1 X40.112 Y194.614 E33.82209
G1 X39.341 Y194.112 E33.85269
G1 X38.616 Y193.544 E33.88332
G1 X37.943 Y192.915 E33.91396
G1 X37.328 Y192.231 E33.94455
G1 X36.774 Y191.496 E33.97517
G1 X36.286 Y190.715 E34.0058
G1 X35.867 Y189.895 E34.03642
G1 X35.521 Y189.042 E34.06704
G1 X35.251 Y188.162 E34.09765
G1 X35.058 Y187.261 E34.1283
G1 X34.944 Y186.348 E34.1589
G1 X34.913 Y185.777 E34.17792
G1 X34.904 Y185.444 E34.189
G1 X34.9 Y185.158 E34.19852
G1 X34.901 Y146.042 E35.49952
G1 X34.912 Y145.336 E35.523
G1 X34.967 Y144.417 E35.55363
G1 X35.147 Y143.277 E35.59201
G1 X35.415 Y142.032 E35.63437
G1 X35.561 Y141.394 E35.65614
G1 X36.049 Y138.944 E35.73923
G1 X36.474 Y136.443 E35.8236
G1 X36.828 Y133.933 E35.90791
G1 X37.109 Y131.428 E35.99175
G1 X37.32 Y128.906 E36.07593
G1 X37.46 Y126.371 E36.16037
G1 X37.529 Y123.853 E36.24415
G1 X37.525 Y121.31 E36.32873
G1 X37.45 Y118.792 E36.41252
G1 X37.307 Y116.307 E36.4953
G1 X36.988 Y112.882 E36.60971
G1 X36.948 Y112.415 E36.6253
G1 X36.913 Y111.809 E36.64549
G1 X36.904 Y111.49 E36.65611
G1 X36.9 Y111.191 E36.66605
G1 X36.901 Y72.052 E37.96782
G1 X36.91 Y71.387 E37.98994
G1 X36.962 Y70.467 E38.02059
G1 X37.094 Y69.556 E38.0512
G1 X37.305 Y68.66 E38.08182
G1 X37.592 Y67.785 E38.11245
G1 X37.955 Y66.939 E38.14307
G1 X38.389 Y66.127 E38.17369
G1 X38.892 Y65.356 E38.20431
G1 X39.461 Y64.632 E38.23494
G1 X40.089 Y63.96 E38.26553
G1 X40.774 Y63.344 E38.29617
G1 X41.51 Y62.791 E38.32679
G0 F6000 X41.894 Y63.015
G1 F1200 X42.669 Y62.552 E38.35681
G1 X43.482 Y62.159 E38.38685
G1 X44.327 Y61.839 E38.4169
G1 X45.196 Y61.596 E38.44691
G1 X46.084 Y61.43 E38.47696
G1 X47.223 Y61.334 E38.51498
G1 X47.544 Y61.325 E38.52566
G1 X47.83 Y61.321 E38.53517
G1 X186.793 Y61.321 E43.1571
G1 X187.637 Y61.332 E43.18517
G1 X188.539 Y61.385 E43.21522
G1 X189.432 Y61.517 E43.24525
G1 X190.31 Y61.728 E43.27528
G1 X191.166 Y62.016 E43.30532
G1 X191.993 Y62.378 E43.33535
G1 X192.785 Y62.813 E43.3654
G1 X193.536 Y63.315 E43.39545
G1 X194.239 Y63.882 E43.42548
G1 X194.889 Y64.509 E43.45552
G1 X195.481 Y65.191 E43.48556
G1 X196.011 Y65.922 E43.51559
G1 X196.473 Y66.698 E43.54563
G1 X196.866 Y67.511 E43.57566
G1 X197.184 Y68.356 E43.60569
G1 X197.427 Y69.226 E43.63574
G1 X197.592 Y70.114 E43.66578
G1 X197.687 Y71.244 E43.70349
G1 X197.696 Y71.564 E43.71414
G1 X197.7 Y71.851 E43.72369
G1 X197.699 Y110.937 E45.02369
G1 X197.689 Y111.657 E45.04764
G1 X197.637 Y112.558 E45.07766
G1 X197.463 Y113.655 E45.1146
G1 X197.195 Y114.9 E45.15696
G1 X197.051 Y115.532 E45.17852
G1 X196.558 Y118.004 E45.26236
G1 X196.129 Y120.527 E45.34748
G1 X195.777 Y123.02 E45.43122
G1 X195.489 Y125.59 E45.51723
G1 X195.28 Y128.092 E45.60074
G1 X195.14 Y130.618 E45.68488
G1 X195.071 Y133.158 E45.76939
G1 X195.075 Y135.723 E45.85471
G1 X195.149 Y138.228 E45.93806
G1 X195.295 Y140.745 E46.02191
G1 X195.614 Y144.175 E46.13649
G1 X195.653 Y144.631 E46.15171
G1 X195.685 Y145.191 E46.17037
G1 X195.695 Y145.521 E46.18135
G1 X195.7 Y145.83 E46.19163
G1 X195.699 Y184.904 E47.49123
G1 X195.689 Y185.631 E47.51542
G1 X195.637 Y186.533 E47.54547
G1 X195.505 Y187.426 E47.57549
G1 X195.294 Y188.305 E47.60556
G1 X195.007 Y189.161 E47.63558
G1 X194.645 Y189.988 E47.66561
G1 X194.211 Y190.78 E47.69565
G1 X193.709 Y191.531 E47.72569
G1 X193.143 Y192.234 E47.75571
G1 X192.516 Y192.885 E47.78577
G1 X191.835 Y193.477 E47.81579
G1 X191.104 Y194.007 E47.84582
G1 X190.328 Y194.47 E47.87587
G1 X189.515 Y194.863 E47.90591
G1 X188.67 Y195.183 E47.93596
G1 X187.801 Y195.426 E47.96597
G1 X186.913 Y195.591 E47.99601
G1 X185.777 Y195.687 E48.03393
G1 X185.457 Y195.696 E48.04458
G1 X185.17 Y195.7 E48.05412
G1 X46.207 Y195.7 E52.67605
G1 X45.377 Y195.69 E52.70366
G1 X44.476 Y195.639 E52.73367
G1 X43.582 Y195.507 E52.76373
G1 X42.704 Y195.298 E52.79375
G1 X41.847 Y195.011 E52.82381
G1 X41.02 Y194.65 E52.85382
G1 X40.227 Y194.217 E52.88387
G1 X39.476 Y193.716 E52.9139
G1 X38.772 Y193.15 E52.94394
G1 X38.121 Y192.524 E52.97398
G1 X37.528 Y191.843 E53.00402
G1 X36.998 Y191.112 E53.03405
G1 X36.534 Y190.337 E53.06409
G1 X36.14 Y189.524 E53.09414
G1 X35.82 Y188.68 E53.12416
G1 X35.576 Y187.81 E53.15421
G1 X35.41 Y186.922 E53.18426
G1 X35.313 Y185.767 E53.22281
G1 X35.304 Y185.434 E53.23389
G1 X35.3 Y185.158 E53.24307
G1 X35.301 Y146.048 E54.54388
G1 X35.312 Y145.342 E54.56736
G1 X35.366 Y144.441 E54.59738
G1 X35.538 Y143.361 E54.63375
G1 X35.805 Y142.121 E54.67594
G1 X35.949 Y141.489 E54.6975
G1 X36.442 Y139.017 E54.78134
G1 X36.871 Y136.494 E54.86646
G1 X37.223 Y134.001 E54.9502
G1 X37.511 Y131.431 E55.03621
G1 X37.72 Y128.929 E55.11972
G1 X37.86 Y126.403 E55.20386
G1 X37.929 Y123.863 E55.28838
G1 X37.925 Y121.298 E55.37369
G1 X37.851 Y118.793 E55.45704
G1 X37.705 Y116.275 E55.54093
G1 X37.386 Y112.847 E55.65544
G1 X37.346 Y112.38 E55.67103
G1 X37.313 Y111.798 E55.69042
G1 X37.304 Y111.479 E55.70103
G1 X37.3 Y111.191 E55.71061
G1 X37.301 Y72.057 E57.01221
G1 X37.31 Y71.392 E57.03433
G1 X37.362 Y70.49 E57.06438
G1 X37.494 Y69.597 E57.09441
G1 X37.704 Y68.719 E57.12443
G1 X37.991 Y67.862 E57.15449
G1 X38.353 Y67.035 E57.18452
G1 X38.786 Y66.243 E57.21454
G1 X39.288 Y65.492 E57.24459
G1 X39.855 Y64.788 E57.27465
G1 X40.481 Y64.138 E57.30467
G1 X41.162 Y63.545 E57.3347
G1 X41.894 Y63.015 E57.36476
G1 F2700 E52.36476
;MESH:7a38fad5-7976-4689-b291-daf4d674d4c5.stl
G0 F6000 X48.31 Y70.856
G0 X48.31 Y72.331
G0 X48.282 Y110.739
G0 X186.9 Y110.921
;TYPE:WALL-INNER
G1 F2700 E57.36476
G1 F1200 X48.1 Y110.921 E61.98126
G1 X48.1 Y72.121 E63.27176
G1 X186.9 Y72.121 E67.88826
G1 X186.9 Y110.921 E69.17876
G0 F6000 X187.3 Y111.321
;TYPE:WALL-OUTER
G1 F1200 X47.7 Y111.321 E73.82187
G1 X47.7 Y71.721 E75.13897
G1 X187.3 Y71.721 E79.78209
G1 X187.3 Y111.321 E81.09919
G0 F6000 X187.03 Y111.051
G0 X186.79 Y110.531
G0 X186.51 Y110.531
;TYPE:SKIN
G1 F1200 X48.49 Y110.531 E85.68975
G1 X48.49 Y72.511 E86.9543
G1 X186.51 Y72.511 E91.54487
G1 X186.51 Y110.531 E92.80942
G1 F2700 E87.80942
G0 F6000 X186.79 Y110.531
G0 X186.79 Y73.212
G0 X186.349 Y73.212
G1 F2700 E92.80942
G1 F1200 X185.807 Y72.67 E92.83491
G0 F6000 X185.242 Y72.67
G1 F1200 X186.349 Y73.778 E92.88701
G0 F6000 X186.349 Y74.343
G1 F1200 X184.676 Y72.67 E92.9657
G0 F6000 X184.11 Y72.67
G1 F1200 X186.349 Y74.909 E93.07101
G0 F6000 X186.349 Y75.475
G1 F1200 X183.545 Y72.67 E93.20293
G0 F6000 X182.979 Y72.67
G1 F1200 X186.349 Y76.04 E93.36144
G0 F6000 X186.349 Y76.606
G1 F1200 X182.413 Y72.67 E93.54658
G0 F6000 X181.848 Y72.67
G1 F1200 X186.349 Y77.172 E93.75832
G0 F6000 X186.349 Y77.737
G1 F1200 X181.282 Y72.67 E93.99665
G0 F6000 X180.716 Y72.67
G1 F1200 X186.349 Y78.303 E94.26161
G0 F6000 X186.349 Y78.869
G1 F1200 X180.151 Y72.67 E94.55317
G0 F6000 X179.585 Y72.67
G1 F1200 X186.349 Y79.434 E94.87133
G0 F6000 X186.349 Y80
G1 F1200 X179.019 Y72.67 E95.21611
G0 F6000 X178.453 Y72.67
G1 F1200 X186.349 Y80.566 E95.58751
G0 F6000 X186.349 Y81.132
G1 F1200 X177.888 Y72.67 E95.98552
G0 F6000 X177.322 Y72.67
G1 F1200 X186.349 Y81.697 E96.41012
G0 F6000 X186.349 Y82.263
G1 F1200 X176.756 Y72.67 E96.86135
G0 F6000 X176.191 Y72.67
G1 F1200 X186.349 Y82.829 E97.33917
G0 F6000 X186.349 Y83.394
G1 F1200 X175.625 Y72.67 E97.84359
G0 F6000 X175.059 Y72.67
G1 F1200 X186.349 Y83.96 E98.37464
G0 F6000 X186.349 Y84.526
G1 F1200 X174.494 Y72.67 E98.93229
G0 F6000 X173.928 Y72.67
G1 F1200 X186.349 Y85.091 E99.51653
G0 F6000 X186.349 Y85.657
G1 F1200 X173.362 Y72.67 E100.1274
G0 F6000 X172.797 Y72.67
G1 F1200 X186.349 Y86.223 E100.76487
G0 F6000 X186.349 Y86.788
G1 F1200 X172.231 Y72.67 E101.42894
G0 F6000 X171.665 Y72.67
G1 F1200 X186.349 Y87.354 E102.11963
G0 F6000 X186.349 Y87.92
G1 F1200 X171.1 Y72.67 E102.83692
G0 F6000 X170.534 Y72.67
G1 F1200 X186.349 Y88.485 E103.58081
G0 F6000 X186.349 Y89.051
G1 F1200 X169.968 Y72.67 E104.35132
G0 F6000 X169.402 Y72.67
G1 F1200 X186.349 Y89.617 E105.14845
G0 F6000 X186.349 Y90.182
G1 F1200 X168.837 Y72.67 E105.97216
G0 F6000 X168.271 Y72.67
G1 F1200 X186.349 Y90.748 E106.8225
G0 F6000 X186.349 Y91.314
G1 F1200 X167.705 Y72.67 E107.69945
G0 F6000 X167.14 Y72.67
G1 F1200 X186.349 Y91.88 E108.60301
G0 F6000 X186.349 Y92.445
G1 F1200 X166.574 Y72.67 E109.53317
G0 F6000 X166.008 Y72.67
G1 F1200 X186.349 Y93.011 E110.48994
G0 F6000 X186.349 Y93.577
G1 F1200 X165.443 Y72.67 E111.47332
G0 F6000 X164.877 Y72.67
G1 F1200 X186.349 Y94.142 E112.4833
G0 F6000 X186.349 Y94.708
G1 F1200 X164.311 Y72.67 E113.5199
G0 F6000 X163.746 Y72.67
G1 F1200 X186.349 Y95.274 E114.5831
G0 F6000 X186.349 Y95.839
G1 F1200 X163.18 Y72.67 E115.6729
G0 F6000 X162.614 Y72.67
G1 F1200 X186.349 Y96.405 E116.78932
G0 F6000 X186.349 Y96.971
G1 F1200 X162.049 Y72.67 E117.93234
G0 F6000 X161.483 Y72.67
G1 F1200 X186.349 Y97.536 E119.10196
G0 F6000 X186.349 Y98.102
G1 F1200 X160.917 Y72.67 E120.2982
G0 F6000 X160.352 Y72.67
G1 F1200 X186.349 Y98.668 E121.52105
G0 F6000 X186.349 Y99.233
G1 F1200 X159.786 Y72.67 E122.77049
