;FLAVOR:Marlin
;TIME:764
;Filament used: 0.373196m
;Layer height: 0.2
;MINX:95.661
;MINY:102.01
;MINZ:0.4
;MAXX:139.331
;MAXY:132.99
;MAXZ:8.4
;Generated with Cura_SteamEngine 4.7.1
M140 S50
M105
M190 S50
M104 S200
M105
M109 S200
M82 ;absolute extrusion mode
; Ender 3 Custom Start G-code
G92 E0 ; Reset Extruder
G28 ; Home all axes
G1 Z2.0 F3000 ; Move Z Axis up little to prevent scratching of Heat Bed
G1 X0.1 Y20 Z0.3 F5000.0 ; Move to start position
G1 X0.1 Y200.0 Z0.3 F1500.0 E15 ; Draw the first line
G1 X0.4 Y200.0 Z0.3 F5000.0 ; Move to side a little
G1 X0.4 Y20 Z0.3 F1500.0 E30 ; Draw the second line
G92 E0 ; Reset Extruder
G1 Z2.0 F3000 ; Move Z Axis up little to prevent scratching of Heat Bed
G1 X5 Y20 Z0.3 F5000.0 ; Move over to prevent blob squish
G92 E0
G92 E0
G1 F2700 E-5
;LAYER_COUNT:41
;LAYER:0
M107
G0 F6000 X100.559 Y106.196 Z0.4
;TYPE:SKIRT
G1 F2700 E0
G1 F1200 X100.882 Y105.902 E0.02905
G1 X101.037 Y105.766 E0.04277
G1 X101.996 Y105.014 E0.12384
G1 X102.569 Y104.614 E0.17032
G1 X103.306 Y104.142 E0.22854
G1 X103.417 Y104.077 E0.2371
G1 X103.957 Y103.781 E0.27806
G1 X104.152 Y103.681 E0.29264
G1 X104.546 Y103.489 E0.32179
G1 X104.628 Y103.451 E0.32781
G1 X105.195 Y103.207 E0.36887
G1 X105.714 Y103.001 E0.40601
G1 X106.922 Y102.601 E0.49066
G1 X107.242 Y102.519 E0.51263
G1 X107.837 Y102.376 E0.55334
G1 X108.852 Y102.182 E0.62208
G1 X109.386 Y102.117 E0.65786
G1 X109.97 Y102.061 E0.69689
G1 X110.923 Y102.011 E0.76037
G1 X111.036 Y102.01 E0.76789
G1 X111.585 Y102.019 E0.80441
G1 X112.241 Y102.046 E0.84809
G1 X113.66 Y102.126 E0.94263
G1 X116.209 Y102.198 E1.11226
G1 X118.686 Y102.198 E1.27703
G1 X122.167 Y102.083 E1.50871
G1 X123.134 Y102.033 E1.57312
G1 X123.835 Y102.019 E1.61976
G1 X124.258 Y102.024 E1.6479
G1 X125.205 Y102.076 E1.71099
G1 X125.632 Y102.118 E1.73953
G1 X126.449 Y102.229 E1.79438
G1 X126.655 Y102.265 E1.80829
G1 X127.56 Y102.463 E1.86991
G1 X127.954 Y102.572 E1.89711
G1 X128.576 Y102.757 E1.94027
G1 X129.454 Y103.059 E2.00204
G1 X129.602 Y103.117 E2.01261
G1 X130.124 Y103.338 E2.05032
G1 X130.314 Y103.424 E2.06419
G1 X130.737 Y103.626 E2.09537
G1 X130.937 Y103.727 E2.11028
G1 X131.907 Y104.281 E2.18458
G1 X132.468 Y104.64 E2.22889
G1 X133.243 Y105.184 E2.29188
G1 X133.377 Y105.287 E2.30312
G1 X133.8 Y105.629 E2.3393
G1 X133.954 Y105.76 E2.35275
G1 X134.312 Y106.078 E2.3846
G1 X134.466 Y106.221 E2.39858
G1 X134.858 Y106.604 E2.43504
G1 X135.013 Y106.763 E2.44981
G1 X135.296 Y107.064 E2.47729
G1 X135.428 Y107.21 E2.49039
G1 X135.807 Y107.652 E2.52912
G1 X135.941 Y107.817 E2.54326
G1 X136.353 Y108.358 E2.58849
G1 X136.383 Y108.4 E2.59193
G1 X136.658 Y108.805 E2.62449
G1 X137.004 Y109.338 E2.66676
G1 X137.473 Y110.131 E2.72805
G1 X137.555 Y110.284 E2.73959
G1 X137.753 Y110.67 E2.76845
G1 X137.841 Y110.851 E2.78184
G1 X138.128 Y111.493 E2.82862
G1 X138.223 Y111.725 E2.84529
G1 X138.557 Y112.661 E2.9114
G1 X138.735 Y113.24 E2.9517
G1 X138.929 Y113.953 E3.00085
G1 X138.941 Y114.004 E3.00434
G1 X139.097 Y114.798 E3.05816
G1 X139.184 Y115.346 E3.09507
G1 X139.294 Y116.317 E3.16008
G1 X139.31 Y116.55 E3.17561
G1 X139.331 Y117.642 E3.24827
G1 X139.311 Y118.293 E3.29159
G1 X139.23 Y119.325 E3.36045
G1 X139.2 Y119.564 E3.37647
G1 X139.016 Y120.618 E3.44765
G1 X138.908 Y121.096 E3.48024
G1 X138.657 Y122.016 E3.54368
G1 X138.5 Y122.508 E3.57803
G1 X138.153 Y123.446 E3.64456
G1 X138.082 Y123.614 E3.65669
G1 X137.891 Y124.041 E3.68781
G1 X137.801 Y124.231 E3.7018
G1 X137.547 Y124.734 E3.73928
G1 X137.441 Y124.931 E3.75416
G1 X137.207 Y125.344 E3.78574
G1 X137.11 Y125.507 E3.79835
G1 X136.848 Y125.926 E3.83123
G1 X136.727 Y126.11 E3.84588
G1 X136.389 Y126.595 E3.8852
G1 X136.257 Y126.774 E3.89999
G1 X136.006 Y127.101 E3.92742
G1 X135.896 Y127.239 E3.93916
G1 X135.516 Y127.691 E3.97844
G1 X135.356 Y127.871 E3.99446
G1 X134.912 Y128.341 E4.03747
G1 X134.536 Y128.703 E4.07219
G1 X134.163 Y129.045 E4.10585
G1 X133.362 Y129.712 E4.17519
G1 X132.932 Y130.037 E4.21104
G1 X132.288 Y130.489 E4.26338
G1 X132.231 Y130.526 E4.2679
G1 X131.591 Y130.911 E4.31758
G1 X131.14 Y131.162 E4.35191
G1 X130.302 Y131.582 E4.41427
G1 X129.756 Y131.811 E4.45365
G1 X129.109 Y132.061 E4.49979
G1 X128.11 Y132.393 E4.56982
G1 X128.06 Y132.407 E4.57327
G1 X127.593 Y132.526 E4.60533
G1 X127.1 Y132.641 E4.63901
G1 X126.128 Y132.822 E4.70478
G1 X125.914 Y132.852 E4.71915
G1 X125.374 Y132.915 E4.75532
G1 X125.152 Y132.935 E4.77014
G1 X124.678 Y132.967 E4.80174
G1 X124.464 Y132.977 E4.816
G1 X124.009 Y132.989 E4.84627
G1 X123.819 Y132.99 E4.85891
G1 X123.241 Y132.978 E4.89737
G1 X121.748 Y132.907 E4.9968
G1 X121.595 Y132.906 E5.00697
G1 X120.982 Y132.872 E5.04781
G1 X118.481 Y132.805 E5.21424
G1 X115.963 Y132.809 E5.38174
G1 X113.436 Y132.885 E5.54991
G1 X111.712 Y132.976 E5.66475
G1 X110.933 Y132.989 E5.71658
G1 X110.822 Y132.987 E5.72396
G1 X109.969 Y132.939 E5.78079
G1 X109.375 Y132.882 E5.82049
G1 X108.453 Y132.754 E5.88241
G1 X108.272 Y132.721 E5.89465
G1 X107.795 Y132.623 E5.92704
G1 X107.598 Y132.578 E5.94048
G1 X107.02 Y132.429 E5.98019
G1 X106.772 Y132.358 E5.99735
G1 X105.77 Y132.018 E6.06773
G1 X105.196 Y131.792 E6.10877
G1 X104.395 Y131.439 E6.167
G1 X104.305 Y131.395 E6.17366
G1 X103.693 Y131.072 E6.21969
G1 X103.275 Y130.834 E6.25169
G1 X102.802 Y130.549 E6.28842
G1 X102.467 Y130.328 E6.31512
G1 X102.292 Y130.208 E6.32924
G1 X101.827 Y129.871 E6.36744
G1 X101.682 Y129.76 E6.37958
G1 X101.322 Y129.472 E6.41025
G1 X101.135 Y129.316 E6.42645
G1 X100.767 Y128.995 E6.45894
G1 X100.63 Y128.87 E6.47127
G1 X100.211 Y128.467 E6.50994
G1 X100.07 Y128.324 E6.5233
G1 X99.77 Y128.007 E6.55234
G1 X99.607 Y127.828 E6.56844
G1 X99.213 Y127.372 E6.60853
G1 X99.094 Y127.226 E6.62106
G1 X98.815 Y126.868 E6.65125
G1 X98.69 Y126.701 E6.66512
G1 X98.401 Y126.296 E6.69822
G1 X98.267 Y126.099 E6.71407
G1 X97.934 Y125.579 E6.75515
G1 X97.818 Y125.386 E6.77012
G1 X97.467 Y124.756 E6.8181
G1 X97.296 Y124.424 E6.84294
G1 X96.985 Y123.768 E6.89123
G1 X96.896 Y123.563 E6.9061
G1 X96.686 Y123.044 E6.94334
G1 X96.641 Y122.924 E6.95187
G1 X96.449 Y122.366 E6.99112
G1 X96.312 Y121.931 E7.02146
G1 X96.089 Y121.115 E7.07773
G1 X96.027 Y120.848 E7.09596
G1 X95.898 Y120.206 E7.13952
G1 X95.866 Y120.018 E7.15221
G1 X95.802 Y119.595 E7.18067
G1 X95.775 Y119.388 E7.19455
G1 X95.717 Y118.829 E7.23194
G1 X95.701 Y118.626 E7.24548
G1 X95.672 Y118.092 E7.28106
G1 X95.665 Y117.859 E7.29656
G1 X95.661 Y117.363 E7.32956
G1 X95.664 Y117.164 E7.3428
G1 X95.68 Y116.711 E7.37295
G1 X95.692 Y116.498 E7.38714
G1 X95.744 Y115.883 E7.4282
G1 X95.751 Y115.821 E7.43235
G1 X95.826 Y115.281 E7.46861
G1 X95.919 Y114.712 E7.50697
G1 X96.11 Y113.793 E7.5694
G1 X96.278 Y113.199 E7.61047
G1 X96.474 Y112.573 E7.6541
G1 X96.766 Y111.753 E7.712
G1 X96.832 Y111.589 E7.72376
G1 X97.076 Y111.03 E7.76434
G1 X97.165 Y110.84 E7.77829
G1 X97.382 Y110.402 E7.81081
G1 X97.47 Y110.234 E7.82342
G1 X97.709 Y109.801 E7.85632
G1 X97.829 Y109.595 E7.87218
G1 X98.107 Y109.143 E7.90748
G1 X98.218 Y108.972 E7.92104
G1 X98.526 Y108.523 E7.95726
G1 X98.635 Y108.372 E7.96965
G1 X98.92 Y107.994 E8.00114
G1 X99.07 Y107.804 E8.01724
G1 X99.442 Y107.358 E8.05588
G1 X99.58 Y107.201 E8.06978
G1 X99.895 Y106.857 E8.10081
G1 X100.029 Y106.717 E8.1137
G1 X100.398 Y106.349 E8.14837
G1 X100.559 Y106.196 E8.16314
G0 F6000 X100.835 Y106.486
G1 F1200 X101.146 Y106.202 E8.19116
G1 X101.301 Y106.066 E8.20487
G1 X102.225 Y105.342 E8.28296
G1 X102.798 Y104.942 E8.32944
G1 X103.509 Y104.487 E8.3856
G1 X103.62 Y104.422 E8.39415
G1 X104.139 Y104.137 E8.43354
G1 X104.334 Y104.037 E8.44812
G1 X104.714 Y103.852 E8.47623
G1 X104.796 Y103.814 E8.48224
G1 X105.342 Y103.579 E8.52178
G1 X105.861 Y103.373 E8.55893
G1 X107.025 Y102.987 E8.6405
G1 X107.336 Y102.907 E8.66187
G1 X107.931 Y102.764 E8.70257
G1 X108.909 Y102.578 E8.76879
G1 X109.424 Y102.515 E8.80331
G1 X110.008 Y102.459 E8.84233
G1 X110.926 Y102.411 E8.90348
G1 X111.039 Y102.41 E8.911
G1 X111.569 Y102.419 E8.94626
G1 X112.392 Y102.454 E9.00106
G1 X113.66 Y102.526 E9.08554
G1 X116.198 Y102.598 E9.25444
G1 X118.699 Y102.598 E9.4208
G1 X122.149 Y102.484 E9.65042
G1 X123.155 Y102.432 E9.71743
G1 X123.83 Y102.419 E9.76234
G1 X124.253 Y102.424 E9.79048
G1 X125.166 Y102.474 E9.85131
G1 X125.593 Y102.516 E9.87985
G1 X126.38 Y102.623 E9.93268
G1 X126.586 Y102.659 E9.94659
G1 X127.459 Y102.85 E10.00604
G1 X127.84 Y102.956 E10.03234
G1 X128.462 Y103.141 E10.07551
G1 X129.308 Y103.432 E10.13502
G1 X129.456 Y103.49 E10.1456
G1 X129.959 Y103.702 E10.18191
G1 X130.149 Y103.788 E10.19578
G1 X130.556 Y103.983 E10.2258
G1 X130.756 Y104.084 E10.24071
G1 X131.692 Y104.618 E10.31239
G1 X132.253 Y104.977 E10.35669
G1 X132.999 Y105.501 E10.41734
G1 X133.133 Y105.604 E10.42858
G1 X133.541 Y105.934 E10.46349
G1 X133.695 Y106.065 E10.47694
G1 X134.04 Y106.371 E10.50761
G1 X134.194 Y106.514 E10.52159
G1 X134.571 Y106.883 E10.55668
G1 X134.726 Y107.042 E10.57145
G1 X134.999 Y107.332 E10.59795
G1 X135.131 Y107.478 E10.61104
G1 X135.496 Y107.905 E10.64841
G1 X135.63 Y108.07 E10.66255
G1 X136.028 Y108.591 E10.70616
G1 X136.058 Y108.633 E10.70959
G1 X136.323 Y109.022 E10.7409
G1 X136.669 Y109.555 E10.78317
G1 X137.121 Y110.32 E10.84228
G1 X137.203 Y110.473 E10.85383
G1 X137.393 Y110.845 E10.88161
G1 X137.481 Y111.026 E10.895
G1 X137.757 Y111.644 E10.94002
G1 X137.852 Y111.876 E10.9567
G1 X138.175 Y112.778 E11.02043
G1 X138.353 Y113.357 E11.06073
G1 X138.539 Y114.044 E11.10807
G1 X138.551 Y114.095 E11.11156
G1 X138.702 Y114.861 E11.16349
G1 X138.789 Y115.409 E11.2004
G1 X138.895 Y116.345 E11.26306
G1 X138.911 Y116.578 E11.2786
G1 X138.931 Y117.629 E11.34852
G1 X138.911 Y118.28 E11.39185
G1 X138.833 Y119.275 E11.45824
G1 X138.803 Y119.514 E11.47426
G1 X138.625 Y120.53 E11.54288
G1 X138.517 Y121.008 E11.57548
G1 X138.276 Y121.894 E11.63655
G1 X138.119 Y122.386 E11.67091
G1 X137.785 Y123.29 E11.73501
G1 X137.714 Y123.458 E11.74715
G1 X137.53 Y123.87 E11.77716
G1 X137.44 Y124.06 E11.79115
G1 X137.195 Y124.545 E11.82729
G1 X137.089 Y124.742 E11.84217
G1 X136.863 Y125.14 E11.87262
G1 X136.766 Y125.303 E11.88524
G1 X136.514 Y125.706 E11.91685
G1 X136.393 Y125.89 E11.9315
G1 X136.067 Y126.357 E11.96939
G1 X135.935 Y126.536 E11.98418
G1 X135.693 Y126.852 E12.01066
G1 X135.583 Y126.99 E12.0224
G1 X135.217 Y127.425 E12.06022
G1 X135.057 Y127.605 E12.07624
G1 X134.629 Y128.058 E12.11769
G1 X134.266 Y128.408 E12.15123
G1 X133.893 Y128.75 E12.1849
G1 X133.12 Y129.393 E12.25178
G1 X132.69 Y129.718 E12.28764
G1 X132.07 Y130.153 E12.33802
G1 X132.013 Y130.19 E12.34254
G1 X131.397 Y130.561 E12.39037
G1 X130.946 Y130.812 E12.42471
G1 X130.123 Y131.225 E12.48596
G1 X129.612 Y131.438 E12.52279
G1 X128.965 Y131.688 E12.56893
G1 X128.002 Y132.007 E12.63641
G1 X127.502 Y132.137 E12.67077
G1 X127.009 Y132.252 E12.70445
G1 X126.073 Y132.426 E12.76778
G1 X125.859 Y132.456 E12.78215
G1 X125.338 Y132.516 E12.81704
G1 X125.116 Y132.536 E12.83187
G1 X124.66 Y132.567 E12.86227
G1 X124.446 Y132.577 E12.87652
G1 X124.007 Y132.589 E12.90573
G1 X123.817 Y132.59 E12.91837
G1 X123.26 Y132.578 E12.95543
G1 X121.867 Y132.512 E13.0482
G1 X121.617 Y132.506 E13.06483
G1 X121.015 Y132.473 E13.10494
G1 X118.491 Y132.405 E13.2729
G1 X115.951 Y132.409 E13.44186
G1 X113.403 Y132.485 E13.61143
G1 X111.691 Y132.576 E13.72547
G1 X110.94 Y132.589 E13.77544
G1 X110.829 Y132.587 E13.78282
G1 X110.007 Y132.541 E13.83759
G1 X109.413 Y132.484 E13.87728
G1 X108.525 Y132.36 E13.93692
G1 X108.344 Y132.327 E13.94916
G1 X107.884 Y132.233 E13.98039
G1 X107.687 Y132.188 E13.99384
G1 X107.131 Y132.045 E14.03203
G1 X106.883 Y131.974 E14.04919
G1 X105.917 Y131.646 E14.11705
G1 X105.343 Y131.42 E14.15808
G1 X104.57 Y131.08 E14.21426
G1 X104.48 Y131.036 E14.22092
G1 X103.891 Y130.725 E14.26523
G1 X103.473 Y130.487 E14.29722
G1 X103.016 Y130.211 E14.33274
G1 X102.693 Y129.998 E14.35848
G1 X102.518 Y129.878 E14.37259
G1 X102.07 Y129.553 E14.40941
G1 X101.925 Y129.442 E14.42155
G1 X101.578 Y129.165 E14.45109
G1 X101.391 Y129.009 E14.46729
G1 X101.036 Y128.699 E14.49864
G1 X100.899 Y128.574 E14.51098
G1 X100.496 Y128.186 E14.54819
G1 X100.355 Y128.043 E14.56155
G1 X100.066 Y127.738 E14.5895
G1 X99.903 Y127.559 E14.6056
G1 X99.524 Y127.119 E14.64423
G1 X99.405 Y126.973 E14.65676
G1 X99.135 Y126.628 E14.6859
G1 X99.01 Y126.461 E14.69978
G1 X98.731 Y126.071 E14.73168
G1 X98.597 Y125.874 E14.74753
G1 X98.277 Y125.373 E14.78707
G1 X98.161 Y125.18 E14.80205
G1 X97.823 Y124.573 E14.84827
G1 X97.652 Y124.241 E14.87311
G1 X97.352 Y123.608 E14.91971
G1 X97.263 Y123.403 E14.93457
G1 X97.061 Y122.904 E14.97038
G1 X97.016 Y122.784 E14.97891
G1 X96.831 Y122.246 E15.01675
G1 X96.694 Y121.811 E15.04709
G1 X96.479 Y121.025 E15.10129
G1 X96.417 Y120.758 E15.11953
G1 X96.292 Y120.139 E15.16154
G1 X96.26 Y119.951 E15.17422
G1 X96.199 Y119.543 E15.20166
G1 X96.172 Y119.336 E15.21555
G1 X96.116 Y118.798 E15.25153
G1 X96.1 Y118.595 E15.26508
G1 X96.072 Y118.08 E15.29938
G1 X96.065 Y117.847 E15.31489
G1 X96.061 Y117.369 E15.34669
G1 X96.064 Y117.17 E15.35993
G1 X96.08 Y116.734 E15.38895
G1 X96.092 Y116.521 E15.40314
G1 X96.142 Y115.928 E15.44273
G1 X96.149 Y115.866 E15.44688
G1 X96.221 Y115.345 E15.48186
G1 X96.314 Y114.776 E15.52022
G1 X96.502 Y113.875 E15.58144
G1 X96.659 Y113.319 E15.61987
G1 X96.855 Y112.693 E15.66351
G1 X97.137 Y111.903 E15.71931
G1 X97.203 Y111.739 E15.73107
G1 X97.438 Y111.2 E15.77018
G1 X97.527 Y111.01 E15.78414
G1 X97.736 Y110.588 E15.81546
G1 X97.824 Y110.42 E15.82808
G1 X98.055 Y110.002 E15.85985
G1 X98.175 Y109.796 E15.87571
G1 X98.443 Y109.361 E15.90969
G1 X98.554 Y109.19 E15.92326
G1 X98.85 Y108.757 E15.95815
G1 X98.959 Y108.606 E15.97053
G1 X99.234 Y108.242 E16.00088
G1 X99.384 Y108.052 E16.01698
G1 X99.742 Y107.622 E16.0542
G1 X99.88 Y107.465 E16.06811
G1 X100.184 Y107.134 E16.098
G1 X100.318 Y106.994 E16.11089
G1 X100.674 Y106.639 E16.14434
G1 X100.835 Y106.486 E16.15911
G0 F6000 X101.111 Y106.776
G1 F1200 X101.41 Y106.503 E16.18605
G1 X101.565 Y106.367 E16.19976
G1 X102.453 Y105.67 E16.27485
G1 X103.026 Y105.27 E16.32134
G1 X103.711 Y104.832 E16.37542
G1 X103.822 Y104.767 E16.38398
G1 X104.322 Y104.493 E16.42191
G1 X104.517 Y104.393 E16.43649
G1 X104.882 Y104.214 E16.46353
G1 X104.964 Y104.176 E16.46954
G1 X105.49 Y103.95 E16.50762
G1 X106.009 Y103.744 E16.54477
G1 X107.129 Y103.373 E16.62325
G1 X107.429 Y103.296 E16.64385
G1 X108.024 Y103.153 E16.68456
G1 X108.966 Y102.974 E16.74834
G1 X109.462 Y102.914 E16.78158
G1 X110.046 Y102.858 E16.8206
G1 X110.93 Y102.811 E16.87949
G1 X111.043 Y102.81 E16.88701
G1 X111.552 Y102.819 E16.92087
G1 X112.208 Y102.846 E16.96455
G1 X112.369 Y102.854 E16.97527
G1 X113.626 Y102.926 E17.05902
G1 X116.186 Y102.998 E17.22938
G1 X118.712 Y102.998 E17.39741
G1 X122.184 Y102.884 E17.62849
G1 X123.176 Y102.832 E17.69457
G1 X123.826 Y102.819 E17.73782
G1 X124.249 Y102.824 E17.76596
G1 X125.126 Y102.872 E17.82439
G1 X125.553 Y102.914 E17.85293
G1 X126.311 Y103.017 E17.90381
G1 X126.517 Y103.053 E17.91772
G1 X127.357 Y103.237 E17.97493
G1 X127.726 Y103.339 E18.00039
G1 X128.348 Y103.524 E18.04356
G1 X129.162 Y103.804 E18.10082
G1 X129.31 Y103.862 E18.11139
G1 X129.794 Y104.067 E18.14636
G1 X129.984 Y104.153 E18.16023
G1 X130.376 Y104.34 E18.18912
G1 X130.576 Y104.441 E18.20403
G1 X131.476 Y104.955 E18.27297
G1 X132.037 Y105.314 E18.31728
G1 X132.755 Y105.818 E18.37563
G1 X132.889 Y105.921 E18.38687
G1 X133.282 Y106.239 E18.4205
G1 X133.436 Y106.37 E18.43395
G1 X133.768 Y106.665 E18.46349
G1 X133.922 Y106.808 E18.47747
G1 X134.285 Y107.162 E18.5112
G1 X134.44 Y107.321 E18.52597
G1 X134.702 Y107.6 E18.55143
G1 X134.834 Y107.746 E18.56453
G1 X135.186 Y108.157 E18.60052
G1 X135.32 Y108.322 E18.61466
G1 X135.702 Y108.823 E18.65657
G1 X135.732 Y108.865 E18.66
G1 X135.987 Y109.24 E18.69017
G1 X136.333 Y109.773 E18.73244
G1 X136.768 Y110.509 E18.78931
G1 X136.85 Y110.662 E18.80086
G1 X137.033 Y111.02 E18.8276
G1 X137.121 Y111.201 E18.84099
G1 X137.387 Y111.796 E18.88435
G1 X137.482 Y112.028 E18.90102
G1 X137.793 Y112.896 E18.96236
G1 X137.971 Y113.475 E19.00265
G1 X138.15 Y114.136 E19.0482
G1 X138.162 Y114.187 E19.05169
