;FLAVOR:Marlin
;TIME:546
;Filament used: 0.252141m
;Layer height: 0.2
;MINX:109.752
;MINY:98.011
;MINZ:0.2
;MAXX:149.242
;MAXY:144.989
;MAXZ:5
;Generated with Cura_SteamEngine 4.7.1
M140 S50
M105
M190 S50
M104 S200
M105
M109 S200
M82 ;absolute extrusion mode
; Ender 3 Custom Start G-code
G92 E0 ; Reset Extruder
G28 ; Home all axes
G1 Z2.0 F3000 ; Move Z Axis up little to prevent scratching of Heat Bed
G1 X0.1 Y20 Z0.3 F5000.0 ; Move to start position
G1 X0.1 Y200.0 Z0.3 F1500.0 E15 ; Draw the first line
G1 X0.4 Y200.0 Z0.3 F5000.0 ; Move to side a little
G1 X0.4 Y20 Z0.3 F1500.0 E30 ; Draw the second line
G92 E0 ; Reset Extruder
G1 Z2.0 F3000 ; Move Z Axis up little to prevent scratching of Heat Bed
G1 X5 Y20 Z0.3 F5000.0 ; Move over to prevent blob squish
G92 E0
G92 E0
G1 F2700 E-5
;LAYER_COUNT:25
;LAYER:0
M107
G0 F6000 X112.327 Y102.99 Z0.2
;TYPE:SKIRT
G1 F2700 E0
G1 F1200 X112.959 Y102.297 E0.03119
G1 X113.648 Y101.661 E0.06238
G1 X114.389 Y101.085 E0.0936
G1 X115.176 Y100.575 E0.12479
G1 X116.24 Y100.024 E0.16464
G1 X116.558 Y99.884 E0.1762
G1 X116.794 Y99.785 E0.18471
G1 X117.056 Y99.679 E0.19411
G1 X117.364 Y99.559 E0.2051
G1 X117.668 Y99.446 E0.21589
G1 X118.081 Y99.299 E0.23047
G1 X118.409 Y99.188 E0.24199
G1 X118.73 Y99.085 E0.2532
G1 X118.998 Y99.003 E0.26252
G1 X119.312 Y98.911 E0.27341
G1 X119.607 Y98.829 E0.28359
G1 X119.972 Y98.733 E0.29614
G1 X120.281 Y98.656 E0.30673
G1 X120.578 Y98.587 E0.31688
G1 X120.86 Y98.526 E0.32647
G1 X121.275 Y98.441 E0.34056
G1 X121.582 Y98.382 E0.35096
G1 X121.793 Y98.345 E0.35808
G1 X122.074 Y98.3 E0.36755
G1 X122.457 Y98.243 E0.38043
G1 X122.789 Y98.199 E0.39157
G1 X123.188 Y98.152 E0.40493
G1 X123.497 Y98.12 E0.41526
G1 X123.878 Y98.086 E0.42798
G1 X124.2 Y98.062 E0.43872
G1 X124.468 Y98.046 E0.44765
G1 X124.762 Y98.032 E0.45744
G1 X125.157 Y98.019 E0.47059
G1 X125.456 Y98.013 E0.48054
G1 X125.805 Y98.011 E0.49214
G1 X126.133 Y98.014 E0.50305
G1 X126.506 Y98.023 E0.51546
G1 X126.79 Y98.034 E0.52492
G1 X127.07 Y98.048 E0.53424
G1 X127.344 Y98.065 E0.54337
G1 X127.717 Y98.093 E0.55581
G1 X128.072 Y98.125 E0.56767
G1 X128.397 Y98.16 E0.57854
G1 X128.669 Y98.193 E0.58765
G1 X129.09 Y98.249 E0.60178
G1 X129.436 Y98.301 E0.61342
G1 X129.714 Y98.347 E0.62279
G1 X129.991 Y98.396 E0.63214
G1 X130.335 Y98.462 E0.64379
G1 X130.618 Y98.52 E0.6534
G1 X130.992 Y98.602 E0.66614
G1 X131.341 Y98.685 E0.67807
G1 X131.751 Y98.789 E0.69214
G1 X132.032 Y98.864 E0.70181
G1 X132.188 Y98.908 E0.7072
G1 X132.452 Y98.986 E0.71636
G1 X132.882 Y99.119 E0.73133
G1 X133.184 Y99.217 E0.74189
G1 X133.48 Y99.318 E0.75229
G1 X133.778 Y99.425 E0.76282
G1 X134.142 Y99.561 E0.77574
G1 X134.394 Y99.658 E0.78473
G1 X134.715 Y99.787 E0.79623
G1 X135.049 Y99.928 E0.80829
G1 X135.403 Y100.084 E0.82116
G1 X135.678 Y100.21 E0.83122
G1 X135.927 Y100.328 E0.84038
G1 X136.191 Y100.458 E0.85017
G1 X136.54 Y100.635 E0.86319
G1 X136.776 Y100.758 E0.87204
G1 X137.053 Y100.907 E0.8825
G1 X137.36 Y101.078 E0.89419
G1 X137.629 Y101.234 E0.90453
G1 X137.886 Y101.388 E0.91449
G1 X138.254 Y101.615 E0.92887
G1 X138.52 Y101.784 E0.93936
G1 X138.835 Y101.991 E0.95189
G1 X139.102 Y102.172 E0.96262
G1 X139.312 Y102.319 E0.97115
G1 X139.54 Y102.483 E0.98049
G1 X139.915 Y102.76 E0.996
G1 X140.136 Y102.928 E1.00523
G1 X140.294 Y103.051 E1.01189
G1 X140.576 Y103.278 E1.02393
G1 X140.887 Y103.537 E1.03739
G1 X141.124 Y103.74 E1.04777
G1 X141.395 Y103.979 E1.05979
G1 X141.586 Y104.151 E1.06834
G1 X141.89 Y104.432 E1.0821
G1 X142.14 Y104.671 E1.09361
G1 X142.334 Y104.862 E1.10266
G1 X142.521 Y105.051 E1.11151
G1 X142.762 Y105.3 E1.12303
G1 X142.989 Y105.542 E1.13407
G1 X143.245 Y105.823 E1.14671
G1 X143.455 Y106.06 E1.15724
G1 X143.694 Y106.338 E1.16944
G1 X143.867 Y106.543 E1.17836
G1 X144.038 Y106.752 E1.18734
G1 X144.264 Y107.038 E1.19946
G1 X144.491 Y107.335 E1.2119
G1 X144.655 Y107.555 E1.22102
G1 X144.877 Y107.861 E1.2336
G1 X145.051 Y108.108 E1.24365
G1 X145.231 Y108.371 E1.25425
G1 X145.397 Y108.621 E1.26423
G1 X145.586 Y108.914 E1.27582
G1 X145.761 Y109.195 E1.28683
G1 X145.948 Y109.505 E1.29888
G1 X146.107 Y109.778 E1.30938
G1 X146.286 Y110.095 E1.32149
G1 X146.428 Y110.353 E1.33129
G1 X146.614 Y110.704 E1.3445
G1 X146.733 Y110.936 E1.35317
G1 X146.849 Y111.168 E1.3618
G1 X147.005 Y111.493 E1.37379
G1 X147.17 Y111.852 E1.38693
G1 X147.297 Y112.14 E1.3974
G1 X147.414 Y112.415 E1.40734
G1 X147.514 Y112.657 E1.41605
G1 X147.648 Y112.994 E1.42811
G1 X147.759 Y113.287 E1.43853
G1 X147.886 Y113.635 E1.45085
G1 X147.996 Y113.949 E1.46192
G1 X148.094 Y114.245 E1.47229
G1 X148.184 Y114.529 E1.4822
G1 X148.306 Y114.934 E1.49627
G1 X148.395 Y115.247 E1.50709
G1 X148.493 Y115.611 E1.51963
G1 X148.582 Y115.965 E1.53177
G1 X148.633 Y116.183 E1.53921
G1 X148.678 Y116.386 E1.54613
G1 X148.766 Y116.797 E1.56011
G1 X148.829 Y117.112 E1.57079
G1 X148.881 Y117.395 E1.58036
G1 X148.933 Y117.704 E1.59079
G1 X148.99 Y118.073 E1.6032
G1 X149.032 Y118.37 E1.61318
G1 X149.081 Y118.757 E1.62616
G1 X149.118 Y119.095 E1.63746
G1 X149.153 Y119.462 E1.64973
G1 X149.175 Y119.722 E1.6584
G1 X149.195 Y120.002 E1.66774
G1 X149.214 Y120.339 E1.67897
G1 X149.231 Y120.757 E1.69288
G1 X149.239 Y121.085 E1.70379
G1 X149.242 Y121.362 E1.71301
G1 X149.242 Y121.641 E1.72229
G1 X149.236 Y122.053 E1.73599
G1 X149.228 Y122.339 E1.74551
G1 X149.216 Y122.635 E1.75536
G1 X149.198 Y122.955 E1.76602
G1 X149.174 Y123.299 E1.77749
G1 X149.145 Y123.639 E1.78884
G1 X149.108 Y124.005 E1.80108
G1 X149.077 Y124.283 E1.81038
G1 X149.034 Y124.622 E1.82174
G1 X148.99 Y124.933 E1.83219
G1 X148.934 Y125.292 E1.84428
G1 X148.881 Y125.601 E1.8547
G1 X148.803 Y126.022 E1.86894
G1 X148.754 Y126.269 E1.87732
G1 X148.717 Y126.446 E1.88333
G1 X148.633 Y126.816 E1.89595
G1 X148.528 Y127.244 E1.91061
G1 X148.468 Y127.478 E1.91865
G1 X148.382 Y127.798 E1.92967
G1 X148.289 Y128.125 E1.94097
G1 X148.192 Y128.446 E1.95213
G1 X148.092 Y128.76 E1.96309
G1 X147.972 Y129.118 E1.97565
G1 X147.882 Y129.376 E1.98473
G1 X147.76 Y129.712 E1.99662
G1 X147.638 Y130.032 E2.00801
G1 X147.518 Y130.333 E2.01879
G1 X147.407 Y130.601 E2.02844
G1 X147.227 Y131.02 E2.04361
G1 X147.092 Y131.321 E2.05458
G1 X147.031 Y131.452 E2.05939
G1 X146.922 Y131.679 E2.06776
G1 X146.724 Y132.08 E2.08264
G1 X146.571 Y132.379 E2.09381
G1 X146.39 Y132.719 E2.10662
G1 X146.233 Y133.003 E2.11741
G1 X146.088 Y133.257 E2.12714
G1 X145.93 Y133.526 E2.13752
G1 X145.729 Y133.856 E2.15037
G1 X145.577 Y134.099 E2.1599
G1 X145.335 Y134.474 E2.17474
G1 X145.166 Y134.727 E2.18486
G1 X145.068 Y134.87 E2.19063
G1 X144.892 Y135.12 E2.2008
G1 X144.695 Y135.391 E2.21194
G1 X144.519 Y135.625 E2.22168
G1 X144.227 Y136.005 E2.23762
G1 X144.016 Y136.272 E2.24894
G1 X143.808 Y136.526 E2.25986
G1 X143.617 Y136.752 E2.2697
G1 X143.406 Y136.996 E2.28043
G1 X143.207 Y137.22 E2.29039
G1 X142.985 Y137.463 E2.30134
G1 X142.757 Y137.706 E2.31242
G1 X142.492 Y137.979 E2.32508
G1 X142.278 Y138.193 E2.33514
G1 X141.999 Y138.465 E2.3481
G1 X141.8 Y138.655 E2.35725
G1 X141.621 Y138.821 E2.36537
G1 X141.365 Y139.051 E2.37682
G1 X141.071 Y139.307 E2.38979
G1 X140.853 Y139.491 E2.39928
G1 X140.571 Y139.724 E2.41144
G1 X140.324 Y139.922 E2.42197
G1 X140.012 Y140.165 E2.43512
G1 X139.774 Y140.346 E2.44507
G1 X139.577 Y140.491 E2.4532
G1 X139.347 Y140.655 E2.4626
G1 X139.02 Y140.883 E2.47586
G1 X138.772 Y141.052 E2.48584
G1 X138.483 Y141.242 E2.49734
G1 X138.187 Y141.429 E2.50899
G1 X137.89 Y141.611 E2.52057
G1 X137.614 Y141.775 E2.53125
G1 X137.307 Y141.951 E2.54302
G1 X137.099 Y142.067 E2.55094
G1 X136.776 Y142.243 E2.56318
G1 X136.448 Y142.415 E2.5755
G1 X136.193 Y142.543 E2.58499
G1 X135.935 Y142.668 E2.59452
G1 X135.605 Y142.823 E2.60665
G1 X135.322 Y142.951 E2.61698
G1 X134.98 Y143.1 E2.62939
G1 X134.696 Y143.219 E2.63963
G1 X134.346 Y143.36 E2.65218
G1 X134.087 Y143.461 E2.66142
G1 X133.798 Y143.569 E2.67169
G1 X133.464 Y143.688 E2.68348
G1 X133.061 Y143.824 E2.69762
G1 X132.814 Y143.904 E2.70626
G1 X132.602 Y143.97 E2.71365
G1 X132.281 Y144.064 E2.72477
G1 X131.839 Y144.187 E2.74003
G1 X131.539 Y144.266 E2.75035
G1 X131.269 Y144.333 E2.7596
G1 X130.991 Y144.398 E2.7691
G1 X130.692 Y144.464 E2.77928
G1 X130.371 Y144.53 E2.79018
G1 X129.944 Y144.611 E2.80464
G1 X129.661 Y144.661 E2.81419
G1 X129.317 Y144.717 E2.82579
G1 X128.967 Y144.768 E2.83755
G1 X128.636 Y144.811 E2.84865
G1 X128.365 Y144.843 E2.85773
G1 X128.031 Y144.878 E2.8689
G1 X127.714 Y144.907 E2.87948
G1 X127.37 Y144.933 E2.89096
G1 X127.07 Y144.951 E2.90096
G1 X126.634 Y144.972 E2.91547
G1 X126.311 Y144.983 E2.92622
G1 X126.097 Y144.987 E2.93334
G1 X125.814 Y144.989 E2.94275
G1 X125.387 Y144.986 E2.95696
G1 X125.09 Y144.98 E2.96684
G1 X124.767 Y144.969 E2.97759
G1 X124.449 Y144.953 E2.98818
G1 X124.084 Y144.93 E3.00034
G1 X123.771 Y144.906 E3.01078
G1 X123.455 Y144.877 E3.02134
G1 X123.169 Y144.847 E3.0309
G1 X122.822 Y144.806 E3.04252
G1 X122.469 Y144.758 E3.05437
G1 X122.092 Y144.701 E3.06705
G1 X121.807 Y144.654 E3.07666
G1 X121.386 Y144.579 E3.09088
G1 X121.106 Y144.526 E3.10036
G1 X120.906 Y144.485 E3.10715
G1 X120.604 Y144.419 E3.11743
G1 X120.267 Y144.34 E3.12895
G1 X119.976 Y144.267 E3.13892
G1 X119.547 Y144.154 E3.15368
G1 X119.221 Y144.063 E3.16494
G1 X118.894 Y143.966 E3.17628
G1 X118.621 Y143.881 E3.18579
G1 X118.338 Y143.789 E3.19569
G1 X118.05 Y143.691 E3.20581
G1 X117.696 Y143.565 E3.2183
G1 X117.383 Y143.448 E3.22942
G1 X117.086 Y143.332 E3.24002
G1 X116.826 Y143.227 E3.24935
G1 X116.5 Y143.09 E3.26111
G1 X115.652 Y142.69 E3.2923
G1 X114.841 Y142.219 E3.32349
G1 X114.073 Y141.681 E3.35468
G1 X113.353 Y141.08 E3.38587
G1 X112.687 Y140.419 E3.41708
G1 X112.08 Y139.704 E3.44827
G1 X111.537 Y138.94 E3.47945
G1 X111.06 Y138.132 E3.51066
G1 X110.654 Y137.287 E3.54184
G1 X110.321 Y136.41 E3.57304
G1 X110.064 Y135.508 E3.60423
G1 X109.885 Y134.588 E3.63541
G1 X109.786 Y133.681 E3.66575
G1 X109.761 Y133.063 E3.68632
G1 X109.752 Y132.308 E3.71144
G1 X109.753 Y110.572 E4.43438
G1 X109.763 Y109.89 E4.45707
G1 X109.817 Y108.953 E4.48828
G1 X109.95 Y108.025 E4.51946
G1 X110.162 Y107.111 E4.55067
G1 X110.451 Y106.219 E4.58186
G1 X110.815 Y105.355 E4.61304
G1 X111.251 Y104.525 E4.64422
G1 X111.756 Y103.734 E4.67544
G1 X112.327 Y102.99 E4.70663
G0 F6000 X112.721 Y103.144
G1 F1200 X113.351 Y102.472 E4.73727
G1 X114.037 Y101.858 E4.76789
G1 X114.773 Y101.305 E4.79851
G1 X115.554 Y100.818 E4.82912
G1 X116.404 Y100.388 E4.8608
G1 X116.713 Y100.253 E4.87202
G1 X116.949 Y100.154 E4.88053
G1 X117.201 Y100.052 E4.88957
G1 X117.509 Y99.932 E4.90056
G1 X117.803 Y99.823 E4.91099
G1 X118.216 Y99.676 E4.92557
G1 X118.531 Y99.569 E4.93664
G1 X118.852 Y99.466 E4.94785
G1 X119.111 Y99.387 E4.95686
G1 X119.425 Y99.295 E4.96774
G1 X119.709 Y99.216 E4.97754
G1 X120.074 Y99.12 E4.9901
G1 X120.371 Y99.046 E5.00028
G1 X120.668 Y98.977 E5.01042
G1 X120.94 Y98.918 E5.01968
G1 X121.355 Y98.833 E5.03377
G1 X121.651 Y98.776 E5.04379
G1 X121.862 Y98.739 E5.05092
G1 X122.133 Y98.695 E5.06005
G1 X122.516 Y98.638 E5.07293
G1 X122.836 Y98.596 E5.08366
G1 X123.235 Y98.549 E5.09702
G1 X123.533 Y98.518 E5.10699
G1 X123.914 Y98.484 E5.11971
G1 X124.224 Y98.461 E5.13005
G1 X124.492 Y98.445 E5.13898
G1 X124.775 Y98.432 E5.1484
G1 X125.17 Y98.419 E5.16155
G1 X125.458 Y98.413 E5.17113
G1 X125.807 Y98.411 E5.18274
G1 X126.124 Y98.414 E5.19328
G1 X126.497 Y98.423 E5.20569
G1 X126.77 Y98.433 E5.21478
G1 X127.05 Y98.447 E5.2241
G1 X127.314 Y98.464 E5.2329
G1 X127.687 Y98.492 E5.24534
G1 X128.029 Y98.523 E5.25676
G1 X128.354 Y98.558 E5.26763
G1 X128.617 Y98.59 E5.27645
G1 X129.038 Y98.646 E5.29057
G1 X129.37 Y98.695 E5.30173
G1 X129.648 Y98.741 E5.31111
G1 X129.915 Y98.789 E5.32013
G1 X130.259 Y98.855 E5.33178
G1 X130.532 Y98.911 E5.34105
G1 X130.906 Y98.993 E5.35378
G1 X131.242 Y99.072 E5.36526
G1 X131.652 Y99.176 E5.37933
G1 X131.923 Y99.249 E5.38867
G1 X132.079 Y99.293 E5.39406
G1 X132.334 Y99.368 E5.4029
G1 X132.764 Y99.501 E5.41787
G1 X133.055 Y99.596 E5.42805
G1 X133.351 Y99.697 E5.43845
G1 X133.638 Y99.799 E5.44858
G1 X134.002 Y99.935 E5.46151
G1 X134.245 Y100.029 E5.47017
G1 X134.566 Y100.158 E5.48168
G1 X134.888 Y100.294 E5.4933
G1 X135.242 Y100.45 E5.50617
G1 X135.506 Y100.571 E5.51583
G1 X135.755 Y100.689 E5.525
G1 X136.011 Y100.814 E5.53447
G1 X136.36 Y100.991 E5.54749
G1 X136.586 Y101.11 E5.55598
G1 X136.863 Y101.259 E5.56644
G1 X137.16 Y101.424 E5.57774
G1 X137.429 Y101.58 E5.58809
G1 X137.676 Y101.728 E5.59766
G1 X138.044 Y101.955 E5.61204
G1 X138.3 Y102.119 E5.62216
G1 X138.615 Y102.326 E5.63469
G1 X138.873 Y102.5 E5.64504
G1 X139.083 Y102.647 E5.65357
G1 X139.302 Y102.805 E5.66255
G1 X139.677 Y103.082 E5.67806
G1 X139.89 Y103.244 E5.68696
G1 X140.048 Y103.367 E5.69362
G1 X140.32 Y103.586 E5.70523
G1 X140.631 Y103.845 E5.71869
G1 X140.859 Y104.04 E5.72867
G1 X141.13 Y104.279 E5.74069
G1 X141.314 Y104.445 E5.74893
G1 X141.618 Y104.726 E5.7627
G1 X141.86 Y104.956 E5.7738
G1 X142.054 Y105.147 E5.78286
G1 X142.234 Y105.329 E5.79137
G1 X142.475 Y105.578 E5.8029
G1 X142.694 Y105.811 E5.81353
G1 X142.95 Y106.092 E5.82618
G1 X143.152 Y106.321 E5.83633
G1 X143.391 Y106.599 E5.84853
G1 X143.557 Y106.797 E5.85712
G1 X143.728 Y107.006 E5.8661
G1 X143.946 Y107.281 E5.87777
G1 X144.173 Y107.578 E5.89021
G1 X144.331 Y107.79 E5.899
G1 X144.553 Y108.096 E5.91158
G1 X144.72 Y108.334 E5.92125
G1 X144.9 Y108.597 E5.93185
G1 X145.061 Y108.838 E5.94149
G1 X145.25 Y109.131 E5.95308
G1 X145.418 Y109.402 E5.96369
G1 X145.605 Y109.712 E5.97573
G1 X145.759 Y109.975 E5.98587
G1 X145.938 Y110.292 E5.99797
G1 X146.074 Y110.541 E6.00741
G1 X146.26 Y110.892 E6.02062
G1 X146.375 Y111.115 E6.02897
G1 X146.491 Y111.347 E6.03759
G1 X146.641 Y111.66 E6.04914
G1 X146.806 Y112.019 E6.06228
G1 X146.929 Y112.296 E6.07236
G1 X147.046 Y112.571 E6.0823
G1 X147.142 Y112.804 E6.09068
G1 X147.276 Y113.141 E6.10274
G1 X147.384 Y113.424 E6.11282
G1 X147.511 Y113.772 E6.12514
G1 X147.616 Y114.074 E6.13577
G1 X147.714 Y114.37 E6.14615
G1 X147.801 Y114.645 E6.15574
G1 X147.923 Y115.05 E6.16981
G1 X148.009 Y115.351 E6.18022
G1 X148.107 Y115.715 E6.19276
G1 X148.192 Y116.056 E6.20445
G1 X148.287 Y116.47 E6.21857
G1 X148.375 Y116.881 E6.23255
G1 X148.435 Y117.184 E6.24283
G1 X148.487 Y117.467 E6.2524
G1 X148.538 Y117.765 E6.26245
G1 X148.595 Y118.134 E6.27487
G1 X148.635 Y118.421 E6.28451
G1 X148.684 Y118.808 E6.29748
G1 X148.72 Y119.133 E6.30836
G1 X148.755 Y119.5 E6.32062
G1 X148.776 Y119.751 E6.329
G1 X148.796 Y120.031 E6.33833
G1 X148.814 Y120.355 E6.34913
G1 X148.831 Y120.773 E6.36304
G1 X148.839 Y121.089 E6.37356
G1 X148.842 Y121.366 E6.38277
G1 X148.842 Y121.635 E6.39172
G1 X148.836 Y122.047 E6.40542
G1 X148.828 Y122.322 E6.41457
G1 X148.816 Y122.618 E6.42442
G1 X148.799 Y122.927 E6.43472
G1 X148.775 Y123.271 E6.44619
G1 X148.747 Y123.599 E6.45714
G1 X148.71 Y123.965 E6.46937
G1 X148.68 Y124.233 E6.47834
G1 X148.637 Y124.572 E6.48971
G1 X148.594 Y124.872 E6.49979
G1 X148.538 Y125.231 E6.51187
G1 X148.488 Y125.528 E6.52189
G1 X148.41 Y125.949 E6.53613
G1 X148.363 Y126.187 E6.5442
G1 X148.326 Y126.364 E6.55021
G1 X148.245 Y126.721 E6.56239
G1 X148.14 Y127.149 E6.57704
G1 X148.082 Y127.374 E6.58477
G1 X147.996 Y127.694 E6.59579
G1 X147.906 Y128.009 E6.60669
G1 X147.809 Y128.33 E6.61784
G1 X147.712 Y128.633 E6.62842
G1 X147.592 Y128.991 E6.64098
G1 X147.506 Y129.24 E6.64974
G1 X147.384 Y129.576 E6.66163
G1 X147.266 Y129.883 E6.67257
G1 X147.146 Y130.184 E6.68335
G1 X147.039 Y130.443 E6.69267
G1 X146.859 Y130.862 E6.70784
G1 X146.729 Y131.153 E6.71844
G1 X146.564 Y131.502 E6.73128
G1 X146.366 Y131.903 E6.74615
G1 X146.218 Y132.191 E6.75692
G1 X146.037 Y132.531 E6.76973
G1 X145.886 Y132.805 E6.78014
G1 X145.741 Y133.059 E6.78987
G1 X145.588 Y133.318 E6.79987
G1 X145.387 Y133.648 E6.81272
G1 X145.24 Y133.882 E6.82192
G1 X144.998 Y134.257 E6.83676
G1 X144.836 Y134.501 E6.8465
G1 X144.738 Y134.644 E6.85227
G1 X144.568 Y134.885 E6.86208
G1 X144.371 Y135.156 E6.87322
G1 X144.202 Y135.382 E6.88261
G1 X143.91 Y135.762 E6.89854
G1 X143.706 Y136.019 E6.90946
G1 X143.498 Y136.273 E6.92038
G1 X143.315 Y136.491 E6.92984
G1 X143.104 Y136.735 E6.94057
