;FLAVOR:Marlin
;TIME:16107
;Filament used: 13.9307m
;Layer height: 0.2
;MINX:47.5
;MINY:58.794
;MINZ:0.2
;MAXX:176.3
;MAXY:130.794
;MAXZ:75.8
;Generated with Cura_SteamEngine 4.7.1
M140 S60
M105
M190 S60
M104 S220
M105
M109 S220
M82 ;absolute extrusion mode
; Ender 3 Custom Start G-code
G92 E0 ; Reset Extruder
G28 ; Home all axes
G1 Z2.0 F3000 ; Move Z Axis up little to prevent scratching of Heat Bed
G1 X0.1 Y20 Z0.3 F5000.0 ; Move to start position
G1 X0.1 Y200.0 Z0.3 F1500.0 E15 ; Draw the first line
G1 X0.4 Y200.0 Z0.3 F5000.0 ; Move to side a little
G1 X0.4 Y20 Z0.3 F1500.0 E30 ; Draw the second line
G92 E0 ; Reset Extruder
G1 Z2.0 F3000 ; Move Z Axis up little to prevent scratching of Heat Bed
G1 X5 Y20 Z0.3 F5000.0 ; Move over to prevent blob squish
G92 E0
G92 E0
G1 F2700 E-5
;LAYER_COUNT:379
;LAYER:0
M107
G0 F6000 X51.399 Y61.41 Z0.2
;TYPE:SKIRT
G1 F2700 E0
G1 F1200 X52.14 Y60.835 E0.0312
G1 X52.927 Y60.325 E0.06239
G1 X53.755 Y59.884 E0.09359
G1 X54.617 Y59.515 E0.12478
G1 X55.508 Y59.221 E0.15598
G1 X56.42 Y59.003 E0.18717
G1 X57.347 Y58.865 E0.21834
G1 X58.201 Y58.807 E0.24681
G1 X58.521 Y58.798 E0.25746
G1 X58.83 Y58.794 E0.26774
G1 X64.09 Y58.795 E0.44269
G1 X64.767 Y58.805 E0.4652
G1 X65.355 Y58.83 E0.48478
G1 X65.516 Y58.841 E0.49015
G1 X66.448 Y58.944 E0.52133
G1 X67.482 Y59.156 E0.55644
G1 X67.741 Y59.222 E0.56533
G1 X68.347 Y59.395 E0.58629
G1 X69.069 Y59.624 E0.61148
G1 X71.562 Y60.376 E0.69809
G1 X74 Y61.036 E0.7821
G1 X76.452 Y61.628 E0.866
G1 X78.855 Y62.136 E0.94769
G1 X81.378 Y62.595 E1.03298
G1 X83.883 Y62.977 E1.11726
G1 X86.34 Y63.282 E1.19961
G1 X88.906 Y63.526 E1.28534
G1 X91.37 Y63.691 E1.36747
G1 X93.916 Y63.789 E1.45222
G1 X96.412 Y63.814 E1.53524
G1 X98.935 Y63.769 E1.61917
G1 X101.454 Y63.652 E1.70304
G1 X103.937 Y63.466 E1.78585
G1 X106.49 Y63.202 E1.87122
G1 X108.939 Y62.879 E1.95338
G1 X111.431 Y62.478 E2.03733
G1 X113.927 Y62.003 E2.12184
G1 X116.393 Y61.462 E2.20581
G1 X118.791 Y60.865 E2.288
G1 X121.255 Y60.175 E2.37311
G1 X122.926 Y59.666 E2.4312
G1 X123.827 Y59.381 E2.46264
G1 X124.138 Y59.288 E2.47343
G1 X124.279 Y59.248 E2.47831
G1 X125.191 Y59.03 E2.50949
G1 X126.182 Y58.885 E2.54281
G1 X126.451 Y58.858 E2.5518
G1 X127.402 Y58.804 E2.58348
G1 X128.217 Y58.794 E2.61059
G1 X129.578 Y58.795 E2.65586
G1 X130.263 Y58.805 E2.67864
G1 X131.199 Y58.859 E2.70982
G1 X132.127 Y58.992 E2.74101
G1 X133.041 Y59.204 E2.77221
G1 X133.933 Y59.493 E2.8034
G1 X134.798 Y59.857 E2.83461
G1 X135.628 Y60.293 E2.8658
G1 X136.418 Y60.798 E2.89698
G1 X137.162 Y61.369 E2.92817
G1 X137.855 Y62.001 E2.95937
G1 X138.492 Y62.69 E2.99058
G1 X139.067 Y63.43 E3.02175
G1 X139.578 Y64.217 E3.05296
G1 X140.019 Y65.044 E3.08413
G1 X140.388 Y65.907 E3.11535
G1 X140.683 Y66.797 E3.14653
G1 X140.901 Y67.709 E3.17772
G1 X141.04 Y68.637 E3.20893
G1 X141.099 Y69.549 E3.23933
G1 X141.122 Y70.54 E3.2723
G1 X141.125 Y70.767 E3.27985
G1 X141.126 Y71.224 E3.29505
G1 X141.097 Y81.763 E3.64558
G1 X141.096 Y93.128 E4.02358
G1 X141.127 Y103.017 E4.35249
G1 X141.124 Y104.278 E4.39443
G1 X141.113 Y104.961 E4.41715
G1 X141.058 Y105.897 E4.44833
G1 X140.923 Y106.826 E4.47956
G1 X140.71 Y107.739 E4.51074
G1 X140.419 Y108.631 E4.54195
G1 X140.054 Y109.495 E4.57314
G1 X139.617 Y110.324 E4.60431
G1 X139.11 Y111.114 E4.63553
G1 X138.539 Y111.857 E4.6667
G1 X137.905 Y112.549 E4.69792
G1 X137.216 Y113.184 E4.72908
G1 X136.474 Y113.759 E4.7603
G1 X135.687 Y114.268 E4.79147
G1 X134.859 Y114.708 E4.82266
G1 X133.996 Y115.076 E4.85387
G1 X133.105 Y115.37 E4.88507
G1 X132.193 Y115.586 E4.91624
G1 X131.656 Y115.675 E4.93435
G1 X131.172 Y115.743 E4.9506
G1 X129.181 Y115.995 E5.01735
G1 X126.742 Y116.376 E5.09946
G1 X124.252 Y116.837 E5.18368
G1 X121.78 Y117.367 E5.26777
G1 X119.358 Y117.958 E5.35069
G1 X116.929 Y118.625 E5.43447
G1 X114.501 Y119.365 E5.51889
G1 X112.115 Y120.168 E5.60263
G1 X109.752 Y121.038 E5.68638
G1 X107.425 Y121.97 E5.76975
G1 X105.114 Y122.973 E5.85354
G1 X102.84 Y124.037 E5.93704
G1 X100.562 Y125.182 E6.02184
G1 X98.352 Y126.373 E6.10534
G1 X96.186 Y127.62 E6.18847
G1 X95.156 Y128.25 E6.22863
G1 X95.001 Y128.343 E6.23464
G1 X94.558 Y128.604 E6.25174
G1 X94.309 Y128.747 E6.26129
G1 X94.19 Y128.813 E6.26582
G1 X93.684 Y129.076 E6.28479
G1 X93.377 Y129.226 E6.29615
G1 X92.889 Y129.45 E6.31401
G1 X92.733 Y129.517 E6.31966
G1 X92.196 Y129.731 E6.33888
G1 X91.846 Y129.86 E6.35129
G1 X91.219 Y130.07 E6.37328
G1 X91.04 Y130.124 E6.3795
G1 X90.515 Y130.269 E6.39762
G1 X90.201 Y130.347 E6.40838
G1 X89.695 Y130.46 E6.42562
G1 X89.514 Y130.496 E6.43176
G1 X88.924 Y130.596 E6.45166
G1 X88.574 Y130.646 E6.46342
G1 X87.964 Y130.716 E6.48384
G1 X87.825 Y130.728 E6.48848
G1 X87.312 Y130.76 E6.50558
G1 X86.855 Y130.778 E6.52079
G1 X86.559 Y130.786 E6.53064
G1 X85.86 Y130.794 E6.55389
G1 X64.039 Y130.793 E7.27966
G1 X63.295 Y130.782 E7.30441
G1 X63.027 Y130.775 E7.31332
G1 X62.823 Y130.767 E7.32012
G1 X62.476 Y130.747 E7.33168
G1 X62.194 Y130.727 E7.34108
G1 X61.575 Y130.666 E7.36177
G1 X61.411 Y130.645 E7.36727
G1 X60.95 Y130.576 E7.38277
G1 X60.594 Y130.515 E7.39478
G1 X59.933 Y130.381 E7.41721
G1 X59.78 Y130.345 E7.42244
G1 X59.281 Y130.215 E7.43959
G1 X58.955 Y130.122 E7.45087
G1 X58.369 Y129.937 E7.47131
G1 X58.196 Y129.877 E7.4774
G1 X57.725 Y129.701 E7.49412
G1 X57.384 Y129.565 E7.50633
G1 X56.702 Y129.266 E7.5311
G1 X56.579 Y129.207 E7.53564
G1 X56.188 Y129.01 E7.5502
G1 X55.833 Y128.822 E7.56356
G1 X55.31 Y128.526 E7.58355
G1 X55.192 Y128.455 E7.58813
G1 X54.732 Y128.163 E7.60625
G1 X54.44 Y127.967 E7.61795
G1 X53.877 Y127.563 E7.64099
G1 X53.744 Y127.461 E7.64657
G1 X53.362 Y127.154 E7.66287
G1 X53.068 Y126.907 E7.67564
G1 X52.696 Y126.58 E7.69211
G1 X52.596 Y126.488 E7.69663
G1 X52.129 Y126.032 E7.71834
G1 X51.853 Y125.746 E7.73156
G1 X51.362 Y125.203 E7.75591
G1 X51.297 Y125.126 E7.75926
G1 X51.074 Y124.852 E7.77101
G1 X50.821 Y124.532 E7.78458
G1 X50.403 Y123.967 E7.80796
G1 X50.329 Y123.86 E7.81228
G1 X50.073 Y123.474 E7.82769
G1 X49.878 Y123.165 E7.83984
G1 X49.55 Y122.608 E7.86134
G1 X49.47 Y122.463 E7.86685
G1 X49.215 Y121.972 E7.88525
G1 X49.055 Y121.644 E7.89739
G1 X48.799 Y121.081 E7.91796
G1 X48.736 Y120.931 E7.92337
G1 X48.56 Y120.484 E7.93935
G1 X48.434 Y120.143 E7.95144
G1 X48.205 Y119.453 E7.97562
G1 X48.16 Y119.301 E7.98089
G1 X48.037 Y118.853 E7.99634
G1 X47.946 Y118.49 E8.00879
G1 X47.83 Y117.972 E8.02645
G1 X47.802 Y117.832 E8.03119
G1 X47.699 Y117.231 E8.05148
G1 X47.647 Y116.867 E8.06371
G1 X47.575 Y116.237 E8.0848
G1 X47.563 Y116.095 E8.08954
G1 X47.532 Y115.588 E8.10643
G1 X47.513 Y115.089 E8.12304
G1 X47.506 Y114.8 E8.13265
G1 X47.5 Y114.246 E8.15108
G1 X47.501 Y70.303 E9.61263
G1 X47.511 Y69.638 E9.63475
G1 X47.565 Y68.701 E9.66597
G1 X47.699 Y67.773 E9.69715
G1 X47.911 Y66.859 E9.72836
G1 X48.2 Y65.967 E9.75955
G1 X48.565 Y65.103 E9.79074
G1 X49.001 Y64.273 E9.82193
G1 X49.507 Y63.483 E9.85313
G1 X50.078 Y62.739 E9.88432
G1 X50.71 Y62.046 E9.91552
G1 X51.399 Y61.41 E9.9467
G0 F6000 X51.788 Y61.607
G1 F1200 X52.524 Y61.055 E9.9773
G1 X53.306 Y60.568 E10.00794
G1 X54.127 Y60.152 E10.03856
G1 X54.981 Y59.808 E10.06918
G1 X55.861 Y59.539 E10.09978
G1 X56.762 Y59.348 E10.13042
G1 X57.676 Y59.236 E10.16104
G1 X58.212 Y59.207 E10.1789
G1 X58.532 Y59.198 E10.18954
G1 X58.83 Y59.194 E10.19946
G1 X64.085 Y59.195 E10.37424
G1 X64.762 Y59.205 E10.39676
G1 X65.328 Y59.229 E10.4156
G1 X65.489 Y59.24 E10.42097
G1 X66.403 Y59.342 E10.45156
G1 X67.384 Y59.543 E10.48486
G1 X67.643 Y59.609 E10.49375
G1 X68.226 Y59.776 E10.51392
G1 X68.96 Y60.009 E10.53954
G1 X71.456 Y60.762 E10.62625
G1 X73.906 Y61.426 E10.71068
G1 X76.34 Y62.013 E10.79395
G1 X78.78 Y62.528 E10.87689
G1 X81.311 Y62.989 E10.96246
G1 X83.845 Y63.376 E11.04772
G1 X86.324 Y63.683 E11.1308
G1 X88.842 Y63.923 E11.21493
G1 X91.362 Y64.092 E11.29893
G1 X93.897 Y64.189 E11.38331
G1 X96.415 Y64.214 E11.46706
G1 X98.925 Y64.169 E11.55056
G1 X101.504 Y64.05 E11.63643
G1 X103.972 Y63.865 E11.71874
G1 X106.512 Y63.602 E11.80368
G1 X109.023 Y63.271 E11.88792
G1 X111.498 Y62.872 E11.9713
G1 X114.016 Y62.393 E12.05655
G1 X116.47 Y61.854 E12.14011
G1 X118.882 Y61.254 E12.22278
G1 X121.404 Y60.548 E12.30989
G1 X122.976 Y60.069 E12.36455
G1 X123.948 Y59.762 E12.39845
G1 X124.247 Y59.672 E12.40884
G1 X124.388 Y59.632 E12.41371
G1 X125.284 Y59.42 E12.44434
G1 X126.222 Y59.283 E12.47586
G1 X126.491 Y59.256 E12.48486
G1 X127.407 Y59.204 E12.51537
G1 X128.217 Y59.194 E12.54231
G1 X129.572 Y59.195 E12.58738
G1 X130.257 Y59.205 E12.61017
G1 X131.176 Y59.259 E12.64079
G1 X132.087 Y59.391 E12.6714
G1 X132.983 Y59.603 E12.70203
G1 X133.857 Y59.891 E12.73263
G1 X134.703 Y60.255 E12.76327
G1 X135.514 Y60.69 E12.79387
G1 X136.285 Y61.194 E12.82451
G1 X137.009 Y61.763 E12.85514
G1 X137.68 Y62.393 E12.88575
G1 X138.295 Y63.078 E12.91637
G1 X138.848 Y63.814 E12.94699
G1 X139.334 Y64.596 E12.97761
G1 X139.751 Y65.417 E13.00824
G1 X140.096 Y66.27 E13.03884
G1 X140.365 Y67.151 E13.06948
G1 X140.556 Y68.051 E13.10008
G1 X140.669 Y68.965 E13.13071
G1 X140.699 Y69.558 E13.15046
G1 X140.722 Y70.549 E13.18343
G1 X140.725 Y70.768 E13.19071
G1 X140.726 Y71.223 E13.20585
G1 X140.697 Y81.762 E13.55638
G1 X140.696 Y93.128 E13.93441
G1 X140.727 Y103.016 E14.26329
G1 X140.724 Y104.272 E14.30507
G1 X140.713 Y104.955 E14.32778
G1 X140.658 Y105.874 E14.35841
G1 X140.524 Y106.785 E14.38903
G1 X140.311 Y107.68 E14.41963
G1 X140.021 Y108.554 E14.45026
G1 X139.656 Y109.4 E14.4809
G1 X139.22 Y110.21 E14.5115
G1 X138.715 Y110.98 E14.54213
G1 X138.145 Y111.703 E14.57275
G1 X137.514 Y112.373 E14.60336
G1 X136.828 Y112.987 E14.63398
G1 X136.09 Y113.539 E14.66463
G1 X135.308 Y114.024 E14.69524
G1 X134.487 Y114.44 E14.72585
G1 X133.633 Y114.783 E14.75646
G1 X132.752 Y115.051 E14.78709
G1 X131.6 Y115.279 E14.82615
G1 X131.122 Y115.346 E14.8422
G1 X129.136 Y115.598 E14.90878
G1 X126.679 Y115.981 E14.99149
G1 X124.167 Y116.447 E15.07647
G1 X121.673 Y116.981 E15.1613
G1 X119.263 Y117.569 E15.24381
G1 X116.811 Y118.242 E15.32838
G1 X114.394 Y118.98 E15.41243
G1 X111.965 Y119.797 E15.49767
G1 X109.632 Y120.655 E15.58034
G1 X107.253 Y121.609 E15.66559
G1 X104.934 Y122.615 E15.74967
G1 X102.669 Y123.674 E15.83283
G1 X100.399 Y124.815 E15.91733
G1 X98.185 Y126.009 E16.001
G1 X95.956 Y127.292 E16.08654
G1 X94.798 Y127.999 E16.13166
G1 X94.355 Y128.26 E16.14876
G1 X94.115 Y128.397 E16.15796
G1 X93.996 Y128.463 E16.16248
G1 X93.508 Y128.717 E16.18078
G1 X93.201 Y128.867 E16.19214
G1 X92.731 Y129.083 E16.20935
G1 X92.575 Y129.15 E16.21499
G1 X92.058 Y129.356 E16.23351
G1 X91.708 Y129.485 E16.24591
G1 X91.103 Y129.687 E16.26713
G1 X90.924 Y129.741 E16.27334
G1 X90.418 Y129.88 E16.2908
G1 X90.104 Y129.958 E16.30156
G1 X89.617 Y130.067 E16.31816
G1 X89.436 Y130.103 E16.3243
G1 X88.867 Y130.2 E16.34349
G1 X88.517 Y130.25 E16.35525
G1 X87.93 Y130.318 E16.37491
G1 X87.791 Y130.33 E16.37955
G1 X87.296 Y130.361 E16.39604
G1 X86.839 Y130.379 E16.41125
G1 X86.554 Y130.386 E16.42074
G1 X85.86 Y130.394 E16.44382
G1 X64.045 Y130.393 E17.16939
G1 X63.301 Y130.382 E17.19414
G1 X63.043 Y130.375 E17.20272
G1 X62.839 Y130.367 E17.20951
G1 X62.504 Y130.348 E17.22067
G1 X62.222 Y130.328 E17.23008
G1 X61.626 Y130.269 E17.25
G1 X61.462 Y130.248 E17.2555
G1 X61.018 Y130.182 E17.27043
G1 X60.662 Y130.121 E17.28244
G1 X60.024 Y129.991 E17.30409
G1 X59.871 Y129.955 E17.30932
G1 X59.391 Y129.83 E17.32582
G1 X59.065 Y129.737 E17.3371
G1 X58.5 Y129.559 E17.3568
G1 X58.327 Y129.499 E17.36289
G1 X57.873 Y129.33 E17.379
G1 X57.532 Y129.194 E17.39121
G1 X56.875 Y128.905 E17.41508
G1 X56.752 Y128.846 E17.41962
G1 X56.375 Y128.657 E17.43365
G1 X56.02 Y128.469 E17.44701
G1 X55.516 Y128.184 E17.46627
G1 X55.398 Y128.113 E17.47085
G1 X54.955 Y127.831 E17.48831
G1 X54.663 Y127.635 E17.50001
G1 X54.12 Y127.245 E17.52224
G1 X53.987 Y127.143 E17.52782
G1 X53.62 Y126.848 E17.54348
G1 X53.326 Y126.601 E17.55625
G1 X52.967 Y126.286 E17.57214
G1 X52.867 Y126.194 E17.57666
G1 X52.417 Y125.754 E17.59759
G1 X52.141 Y125.468 E17.61081
G1 X51.668 Y124.945 E17.63426
G1 X51.603 Y124.868 E17.63761
G1 X51.388 Y124.604 E17.64894
G1 X51.135 Y124.284 E17.66251
G1 X50.732 Y123.739 E17.68505
G1 X50.658 Y123.632 E17.68938
G1 X50.412 Y123.26 E17.70421
G1 X50.217 Y122.951 E17.71636
G1 X49.9 Y122.415 E17.73708
G1 X49.82 Y122.27 E17.74258
G1 X49.574 Y121.796 E17.76035
G1 X49.414 Y121.468 E17.77248
G1 X49.168 Y120.926 E17.79228
G1 X49.105 Y120.776 E17.79769
G1 X48.935 Y120.345 E17.8131
G1 X48.809 Y120.004 E17.82519
G1 X48.588 Y119.339 E17.8485
G1 X48.543 Y119.187 E17.85377
G1 X48.425 Y118.756 E17.86864
G1 X48.334 Y118.393 E17.88108
G1 X48.222 Y117.894 E17.89809
G1 X48.194 Y117.754 E17.90284
G1 X48.095 Y117.174 E17.92241
G1 X48.043 Y116.81 E17.93464
G1 X47.974 Y116.204 E17.95493
G1 X47.962 Y116.062 E17.95967
G1 X47.932 Y115.572 E17.97599
G1 X47.913 Y115.073 E17.9926
G1 X47.906 Y114.795 E18.00185
G1 X47.9 Y114.246 E18.02011
G1 X47.901 Y70.309 E19.48146
G1 X47.911 Y69.644 E19.50358
G1 X47.965 Y68.725 E19.5342
G1 X48.098 Y67.814 E19.56482
G1 X48.31 Y66.918 E19.59545
G1 X48.599 Y66.043 E19.6261
G1 X48.963 Y65.198 E19.6567
G1 X49.398 Y64.387 E19.68731
G1 X49.903 Y63.616 E19.71796
G1 X50.472 Y62.893 E19.74856
G1 X51.102 Y62.221 E19.7792
G1 X51.788 Y61.607 E19.80982
G0 F6000 X52.175 Y61.808
G1 F1200 X52.907 Y61.279 E19.83986
G1 X53.683 Y60.817 E19.8699
G1 X54.497 Y60.426 E19.89993
G1 X55.342 Y60.107 E19.92997
G1 X56.212 Y59.865 E19.96001
G1 X57.1 Y59.701 E19.99004
G1 X58.223 Y59.607 E20.02752
G1 X58.543 Y59.598 E20.03817
G1 X58.83 Y59.594 E20.04772
G1 X64.079 Y59.595 E20.2223
G1 X64.756 Y59.605 E20.24482
G1 X65.3 Y59.628 E20.26293
G1 X65.461 Y59.639 E20.2683
G1 X66.359 Y59.74 E20.29835
G1 X67.285 Y59.931 E20.3298
G1 X67.544 Y59.997 E20.33869
G1 X68.105 Y60.157 E20.35809
G1 X68.872 Y60.4 E20.38485
G1 X71.332 Y61.142 E20.47031
G1 X73.822 Y61.817 E20.55612
G1 X76.235 Y62.399 E20.63868
G1 X78.724 Y62.925 E20.72329
G1 X81.257 Y63.386 E20.80892
G1 X83.771 Y63.77 E20.89351
G1 X86.269 Y64.08 E20.97723
G1 X88.811 Y64.322 E21.06216
G1 X91.322 Y64.49 E21.14586
G1 X93.914 Y64.589 E21.23214
G1 X96.418 Y64.614 E21.31542
G1 X98.951 Y64.569 E21.39969
G1 X101.482 Y64.452 E21.48396
G1 X104.042 Y64.26 E21.56934
G1 X106.574 Y63.998 E21.65401
G1 X109.068 Y63.669 E21.73768
G1 X111.559 Y63.268 E21.82159
G1 X114.105 Y62.784 E21.90779
G1 X116.546 Y62.247 E21.99092
G1 X118.989 Y61.639 E22.07465
G1 X121.49 Y60.939 E22.16103
G1 X123.174 Y60.426 E22.21958
G1 X124.068 Y60.144 E22.25076
G1 X124.356 Y60.057 E22.26077
G1 X124.497 Y60.017 E22.26564
G1 X125.376 Y59.809 E22.29569
G1 X126.262 Y59.681 E22.32546
G1 X126.531 Y59.654 E22.33445
G1 X127.412 Y59.604 E22.3638
G1 X128.217 Y59.594 E22.39058
G1 X129.566 Y59.595 E22.43545
G1 X130.251 Y59.605 E22.45823
G1 X131.152 Y59.658 E22.48825
G1 X132.046 Y59.791 E22.51831
G1 X132.924 Y60.002 E22.54835
G1 X133.78 Y60.29 E22.57839
G1 X134.607 Y60.653 E22.60843
G1 X135.399 Y61.087 E22.63846
G1 X136.149 Y61.59 E22.6685
G1 X136.852 Y62.157 E22.69854
G1 X137.502 Y62.784 E22.72858
G1 X138.094 Y63.466 E22.75861
G1 X138.623 Y64.198 E22.78865
G1 X139.086 Y64.973 E22.81868
G1 X139.478 Y65.787 E22.84873
G1 X139.796 Y66.632 E22.87876
G1 X140.039 Y67.502 E22.9088
G1 X140.203 Y68.39 E22.93884
G1 X140.299 Y69.567 E22.97811
G1 X140.322 Y70.558 E23.01108
G1 X140.325 Y70.769 E23.0181
G1 X140.326 Y71.222 E23.03317
G1 X140.297 Y81.761 E23.3837
G1 X140.296 Y93.128 E23.76177
G1 X140.327 Y103.015 E24.09061
G1 X140.324 Y104.265 E24.13219
G1 X140.313 Y104.948 E24.15491
G1 X140.258 Y105.85 E24.18496
G1 X140.124 Y106.743 E24.215
G1 X139.912 Y107.621 E24.24504
G1 X139.622 Y108.476 E24.27507
G1 X139.258 Y109.303 E24.30512
G1 X138.823 Y110.094 E24.33514
G1 X138.319 Y110.843 E24.36517
G1 X137.751 Y111.545 E24.3952
G1 X137.123 Y112.194 E24.42524
G1 X136.44 Y112.785 E24.45528
G1 X135.708 Y113.313 E24.4853
G1 X134.931 Y113.775 E24.51537
G1 X134.117 Y114.166 E24.5454
G1 X133.272 Y114.483 E24.57542
G1 X132.401 Y114.724 E24.60548
G1 X131.543 Y114.883 E24.6345
G1 X131.072 Y114.949 E24.65032
G1 X129.095 Y115.2 E24.7166
G1 X126.576 Y115.593 E24.8014
G1 X124.116 Y116.048 E24.88461
G1 X121.6 Y116.588 E24.97019
