;FLAVOR:Marlin
;TIME:2286
;Filament used: 1.52329m
;Layer height: 0.2
;MINX:71.5
;MINY:81.5
;MINZ:0.2
;MAXX:163.5
;MAXY:153.5
;MAXZ:5
;Generated with Cura_SteamEngine 4.7.1
M140 S60
M105
M190 S60
M104 S220
M105
M109 S220
M82 ;absolute extrusion mode
; Ender 3 Custom Start G-code
G92 E0 ; Reset Extruder
G28 ; Home all axes
G1 Z2.0 F3000 ; Move Z Axis up little to prevent scratching of Heat Bed
G1 X0.1 Y20 Z0.3 F5000.0 ; Move to start position
G1 X0.1 Y200.0 Z0.3 F1500.0 E15 ; Draw the first line
G1 X0.4 Y200.0 Z0.3 F5000.0 ; Move to side a little
G1 X0.4 Y20 Z0.3 F1500.0 E30 ; Draw the second line
G92 E0 ; Reset Extruder
G1 Z2.0 F3000 ; Move Z Axis up little to prevent scratching of Heat Bed
G1 X5 Y20 Z0.3 F5000.0 ; Move over to prevent blob squish
G92 E0
G92 E0
G1 F2700 E-5
;LAYER_COUNT:25
;LAYER:0
M107
G0 F6000 X75.386 Y84.127 Z0.2
;TYPE:SKIRT
G1 F2700 E0
G1 F1200 X76.126 Y83.551 E0.03119
G1 X76.912 Y83.039 E0.06239
G1 X77.739 Y82.597 E0.09358
G1 X78.601 Y82.227 E0.12478
G1 X79.491 Y81.931 E0.15597
G1 X80.403 Y81.713 E0.18716
G1 X81.33 Y81.572 E0.21835
G1 X82.198 Y81.513 E0.24728
G1 X82.516 Y81.504 E0.25787
G1 X82.831 Y81.5 E0.26834
G1 X85.978 Y81.502 E0.37301
G1 X86.644 Y81.511 E0.39517
G1 X87.395 Y81.547 E0.42017
G1 X87.529 Y81.558 E0.42464
G1 X88.46 Y81.674 E0.45585
G1 X89.297 Y81.849 E0.48429
G1 X89.561 Y81.915 E0.49334
G1 X90.182 Y82.09 E0.5148
G1 X90.834 Y82.294 E0.53752
G1 X93.283 Y83.024 E0.62252
G1 X95.688 Y83.668 E0.70533
G1 X98.187 Y84.262 E0.79076
G1 X100.553 Y84.754 E0.87114
G1 X103.108 Y85.21 E0.95746
G1 X105.608 Y85.585 E1.04154
G1 X108.104 Y85.885 E1.12515
G1 X110.582 Y86.114 E1.20792
G1 X113.116 Y86.275 E1.29238
G1 X115.613 Y86.363 E1.37548
G1 X118.135 Y86.38 E1.45936
G1 X120.66 Y86.326 E1.54336
G1 X123.179 Y86.202 E1.62725
G1 X125.693 Y86.005 E1.71112
G1 X128.183 Y85.74 E1.7944
G1 X130.694 Y85.4 E1.87868
G1 X133.157 Y84.995 E1.9617
G1 X135.629 Y84.517 E2.04544
G1 X138.088 Y83.969 E2.12924
G1 X140.527 Y83.354 E2.2129
G1 X142.986 Y82.657 E2.29791
G1 X144.771 Y82.105 E2.36005
G1 X144.98 Y82.042 E2.36731
G1 X145.286 Y81.954 E2.3779
G1 X146.197 Y81.734 E2.40907
G1 X147.335 Y81.571 E2.44731
G1 X147.523 Y81.554 E2.45359
G1 X148.151 Y81.515 E2.47451
G1 X148.363 Y81.508 E2.48157
G1 X148.635 Y81.502 E2.49062
G1 X148.878 Y81.5 E2.4987
G1 X151.952 Y81.501 E2.60094
G1 X152.649 Y81.511 E2.62413
G1 X153.585 Y81.565 E2.65531
G1 X154.514 Y81.698 E2.68652
G1 X155.427 Y81.909 E2.71769
G1 X156.32 Y82.198 E2.74891
G1 X157.184 Y82.561 E2.78008
G1 X158.014 Y82.997 E2.81126
G1 X158.805 Y83.502 E2.84247
G1 X159.549 Y84.073 E2.87367
G1 X160.242 Y84.705 E2.90486
G1 X160.879 Y85.394 E2.93607
G1 X161.455 Y86.134 E2.96726
G1 X161.965 Y86.921 E2.99845
G1 X162.407 Y87.748 E3.02964
G1 X162.776 Y88.61 E3.06083
G1 X163.071 Y89.5 E3.09201
G1 X163.289 Y90.412 E3.1232
G1 X163.429 Y91.34 E3.15442
G1 X163.486 Y92.192 E3.18282
G1 X163.495 Y92.503 E3.19316
G1 X163.5 Y92.821 E3.20374
G1 X163.499 Y141.9 E4.83612
G1 X163.49 Y142.627 E4.8603
G1 X163.439 Y143.564 E4.89151
G1 X163.307 Y144.492 E4.92269
G1 X163.098 Y145.406 E4.95387
G1 X162.811 Y146.299 E4.98507
G1 X162.449 Y147.165 E5.01629
G1 X162.015 Y147.996 E5.04747
G1 X161.511 Y148.787 E5.07866
G1 X160.942 Y149.532 E5.10984
G1 X160.311 Y150.227 E5.14106
G1 X159.624 Y150.865 E5.17225
G1 X158.885 Y151.442 E5.20343
G1 X158.099 Y151.954 E5.23463
G1 X157.273 Y152.397 E5.26581
G1 X156.411 Y152.769 E5.29703
G1 X155.522 Y153.065 E5.3282
G1 X154.61 Y153.285 E5.3594
G1 X153.683 Y153.426 E5.39059
G1 X152.799 Y153.487 E5.42006
G1 X152.478 Y153.496 E5.43074
G1 X152.17 Y153.5 E5.44098
G1 X123.05 Y153.499 E6.40952
G1 X122.348 Y153.489 E6.43287
G1 X121.412 Y153.436 E6.46405
G1 X120.484 Y153.303 E6.49523
G1 X119.57 Y153.091 E6.52644
G1 X118.677 Y152.803 E6.55765
G1 X117.813 Y152.439 E6.58883
G1 X116.982 Y152.003 E6.62004
G1 X116.192 Y151.498 E6.65123
G1 X115.448 Y150.928 E6.6824
G1 X114.755 Y150.296 E6.7136
G1 X114.361 Y149.885 E6.73253
G1 X113.78 Y149.245 E6.76128
G1 X112.02 Y147.358 E6.84711
G1 X110.262 Y145.575 E6.93039
G1 X108.445 Y143.835 E7.01406
G1 X106.564 Y142.132 E7.09846
G1 X104.658 Y140.503 E7.18185
G1 X102.696 Y138.919 E7.26572
G1 X100.699 Y137.4 E7.34917
G1 X100.073 Y136.948 E7.37485
G1 X99.251 Y136.341 E7.40884
G1 X98.521 Y135.752 E7.44003
G1 X97.843 Y135.103 E7.47125
G1 X97.466 Y134.683 E7.49002
G1 X97.464 Y134.684 E7.4901
G1 X95.674 Y132.653 E7.58014
G1 X93.991 Y130.846 E7.66227
G1 X92.217 Y129.05 E7.74623
G1 X90.39 Y127.3 E7.83038
G1 X88.524 Y125.613 E7.91404
G1 X86.653 Y124.013 E7.99592
G1 X84.648 Y122.394 E8.08164
G1 X82.648 Y120.873 E8.16521
G1 X80.596 Y119.4 E8.24922
G1 X78.528 Y118.004 E8.33221
G1 X76.932 Y116.99 E8.3951
G1 X76.482 Y116.696 E8.41298
G1 X75.72 Y116.149 E8.44418
G1 X75.007 Y115.539 E8.47539
G1 X74.349 Y114.871 E8.50657
G1 X73.751 Y114.149 E8.53775
G1 X73.216 Y113.379 E8.56894
G1 X72.748 Y112.566 E8.60014
G1 X72.352 Y111.716 E8.63133
G1 X72.029 Y110.835 E8.66254
G1 X71.783 Y109.93 E8.69373
G1 X71.614 Y109.007 E8.72494
G1 X71.515 Y107.833 E8.76413
G1 X71.505 Y107.508 E8.77494
G1 X71.5 Y107.17 E8.78618
G1 X71.501 Y93.025 E9.25665
G1 X71.51 Y92.36 E9.27877
G1 X71.563 Y91.424 E9.30995
G1 X71.695 Y90.495 E9.34116
G1 X71.906 Y89.581 E9.37236
G1 X72.194 Y88.689 E9.40353
G1 X72.557 Y87.824 E9.43473
G1 X72.992 Y86.993 E9.46593
G1 X73.496 Y86.203 E9.4971
G1 X74.066 Y85.458 E9.5283
G1 X74.698 Y84.764 E9.55952
G1 X75.386 Y84.127 E9.5907
G0 F6000 X75.774 Y84.323
G1 F1200 X76.51 Y83.77 E9.62132
G1 X77.291 Y83.282 E9.65195
G1 X78.111 Y82.864 E9.68256
G1 X78.965 Y82.519 E9.7132
G1 X79.845 Y82.249 E9.74381
G1 X80.745 Y82.057 E9.77442
G1 X81.659 Y81.943 E9.80506
G1 X82.209 Y81.913 E9.82338
G1 X82.527 Y81.904 E9.83396
G1 X82.831 Y81.9 E9.84407
G1 X85.972 Y81.902 E9.94854
G1 X86.638 Y81.911 E9.97069
G1 X87.362 Y81.946 E9.9948
G1 X87.496 Y81.957 E9.99927
G1 X88.41 Y82.072 E10.02991
G1 X89.2 Y82.237 E10.05676
G1 X89.464 Y82.303 E10.06581
G1 X90.062 Y82.472 E10.08648
G1 X90.662 Y82.66 E10.10739
G1 X93.171 Y83.408 E10.19447
G1 X95.598 Y84.057 E10.27803
G1 X98.086 Y84.649 E10.36309
G1 X100.513 Y85.154 E10.44554
G1 X103.044 Y85.605 E10.53105
G1 X105.538 Y85.979 E10.61492
G1 X108.052 Y86.282 E10.69915
G1 X110.557 Y86.513 E10.78282
G1 X113.113 Y86.675 E10.868
G1 X115.596 Y86.763 E10.95064
G1 X118.141 Y86.78 E11.03529
G1 X120.689 Y86.726 E11.12005
G1 X123.196 Y86.602 E11.20354
G1 X125.732 Y86.404 E11.28814
G1 X128.238 Y86.137 E11.37196
G1 X130.746 Y85.797 E11.45614
G1 X133.227 Y85.389 E11.53977
G1 X135.721 Y84.907 E11.62425
G1 X138.167 Y84.362 E11.7076
G1 X140.638 Y83.739 E11.79236
G1 X143.076 Y83.048 E11.87664
G1 X144.889 Y82.487 E11.93976
G1 X145.09 Y82.427 E11.94674
G1 X145.396 Y82.339 E11.95733
G1 X146.291 Y82.123 E11.98795
G1 X147.371 Y81.969 E12.02424
G1 X147.559 Y81.952 E12.03052
G1 X148.164 Y81.915 E12.05068
G1 X148.376 Y81.908 E12.05773
G1 X148.639 Y81.902 E12.06648
G1 X148.882 Y81.9 E12.07456
G1 X151.794 Y81.9 E12.17142
G1 X152.643 Y81.911 E12.19966
G1 X153.562 Y81.964 E12.23027
G1 X154.473 Y82.097 E12.2609
G1 X155.369 Y82.308 E12.29151
G1 X156.244 Y82.596 E12.32215
G1 X157.09 Y82.96 E12.35278
G1 X157.901 Y83.395 E12.38339
G1 X158.672 Y83.898 E12.41401
G1 X159.396 Y84.467 E12.44464
G1 X160.067 Y85.097 E12.47525
G1 X160.682 Y85.782 E12.50587
G1 X161.235 Y86.518 E12.53649
G1 X161.722 Y87.3 E12.56713
G1 X162.139 Y88.12 E12.59773
G1 X162.484 Y88.974 E12.62836
G1 X162.753 Y89.854 E12.65897
G1 X162.945 Y90.755 E12.68961
G1 X163.058 Y91.669 E12.72024
G1 X163.087 Y92.203 E12.73802
G1 X163.096 Y92.514 E12.74837
G1 X163.1 Y92.821 E12.75858
G1 X163.099 Y141.895 E14.39079
G1 X163.09 Y142.622 E14.41497
G1 X163.039 Y143.541 E14.44559
G1 X162.908 Y144.453 E14.47623
G1 X162.698 Y145.349 E14.50684
G1 X162.412 Y146.224 E14.53746
G1 X162.051 Y147.071 E14.56808
G1 X161.617 Y147.883 E14.5987
G1 X161.115 Y148.655 E14.62933
G1 X160.547 Y149.38 E14.65997
G1 X159.919 Y150.053 E14.69058
G1 X159.235 Y150.669 E14.7212
G1 X158.5 Y151.223 E14.75181
G1 X157.72 Y151.712 E14.78243
G1 X156.9 Y152.131 E14.81306
G1 X156.047 Y152.477 E14.84367
G1 X155.167 Y152.748 E14.8743
G1 X154.267 Y152.941 E14.90491
G1 X153.353 Y153.056 E14.93555
G1 X152.788 Y153.087 E14.95437
G1 X152.467 Y153.096 E14.96505
G1 X152.17 Y153.1 E14.97493
G1 X123.056 Y153.099 E15.94327
G1 X122.354 Y153.089 E15.96662
G1 X121.435 Y153.036 E15.99724
G1 X120.524 Y152.903 E16.02786
G1 X119.628 Y152.692 E16.05847
G1 X118.753 Y152.404 E16.08911
G1 X117.907 Y152.041 E16.11973
G1 X117.096 Y151.606 E16.15034
G1 X116.325 Y151.102 E16.18098
G1 X115.601 Y150.534 E16.21158
G1 X114.657 Y149.616 E16.25538
G1 X114.045 Y148.942 E16.28566
G1 X112.333 Y147.105 E16.36918
G1 X110.54 Y145.288 E16.45408
G1 X108.689 Y143.515 E16.53933
G1 X106.847 Y141.847 E16.62198
G1 X104.924 Y140.204 E16.70611
G1 X102.944 Y138.606 E16.79073
G1 X100.911 Y137.059 E16.8757
G1 X100.31 Y136.626 E16.90034
G1 X99.488 Y136.019 E16.93433
G1 X98.772 Y135.441 E16.96493
G1 X98.109 Y134.802 E16.99556
G1 X97.766 Y134.418 E17.01268
G1 X97.764 Y134.419 E17.01276
G1 X96 Y132.417 E17.1015
G1 X94.251 Y130.54 E17.18684
G1 X92.496 Y128.763 E17.2699
G1 X90.671 Y127.015 E17.35396
G1 X88.805 Y125.327 E17.43765
G1 X86.88 Y123.681 E17.52189
G1 X84.901 Y122.084 E17.60647
G1 X82.895 Y120.558 E17.6903
G1 X80.807 Y119.059 E17.77579
G1 X78.745 Y117.667 E17.85853
G1 X77.147 Y116.652 E17.9215
G1 X76.701 Y116.361 E17.93921
G1 X75.953 Y115.824 E17.96984
G1 X75.255 Y115.224 E18.00045
G1 X74.612 Y114.565 E18.03107
G1 X74.029 Y113.853 E18.06168
G1 X73.509 Y113.093 E18.09231
G1 X73.057 Y112.291 E18.12293
G1 X72.677 Y111.453 E18.15353
G1 X72.37 Y110.584 E18.18419
G1 X72.14 Y109.693 E18.21479
G1 X71.989 Y108.785 E18.24541
G1 X71.915 Y107.821 E18.27756
G1 X71.905 Y107.496 E18.28838
G1 X71.9 Y107.17 E18.29922
G1 X71.901 Y93.031 E18.76949
G1 X71.91 Y92.366 E18.79161
G1 X71.962 Y91.446 E18.82226
G1 X72.094 Y90.535 E18.85287
G1 X72.305 Y89.639 E18.88349
G1 X72.592 Y88.764 E18.91412
G1 X72.955 Y87.918 E18.94474
G1 X73.389 Y87.106 E18.97536
G1 X73.892 Y86.335 E19.00598
G1 X74.461 Y85.611 E19.0366
G1 X75.089 Y84.939 E19.0672
G1 X75.774 Y84.323 E19.09784
G0 F6000 X76.162 Y84.524
G1 F1200 X76.894 Y83.994 E19.1279
G1 X77.669 Y83.531 E19.15792
G1 X78.482 Y83.138 E19.18796
G1 X79.327 Y82.818 E19.21801
G1 X80.196 Y82.575 E19.24802
G1 X81.084 Y82.409 E19.27807
G1 X82.22 Y82.313 E19.31598
G1 X82.538 Y82.304 E19.32657
G1 X82.83 Y82.3 E19.33628
G1 X85.967 Y82.302 E19.44062
G1 X86.633 Y82.311 E19.46277
G1 X87.33 Y82.344 E19.48598
G1 X87.464 Y82.355 E19.49045
G1 X88.359 Y82.469 E19.52046
G1 X89.103 Y82.626 E19.54575
G1 X89.367 Y82.692 E19.5548
G1 X89.943 Y82.854 E19.5747
G1 X90.53 Y83.038 E19.59516
G1 X93.049 Y83.789 E19.68259
G1 X95.549 Y84.458 E19.76866
G1 X97.983 Y85.036 E19.85187
G1 X100.427 Y85.545 E19.9349
G1 X102.951 Y85.995 E20.02017
G1 X105.502 Y86.377 E20.10597
G1 X108.004 Y86.679 E20.18979
G1 X110.53 Y86.912 E20.27416
G1 X113.072 Y87.073 E20.35888
G1 X115.614 Y87.163 E20.44348
G1 X118.146 Y87.18 E20.52769
G1 X120.681 Y87.126 E20.61203
G1 X123.248 Y86.999 E20.69751
G1 X125.769 Y86.802 E20.78161
G1 X128.267 Y86.536 E20.86517
G1 X130.794 Y86.194 E20.94998
G1 X133.324 Y85.778 E21.03526
G1 X135.785 Y85.302 E21.11863
G1 X138.281 Y84.746 E21.20368
G1 X140.739 Y84.126 E21.288
G1 X143.176 Y83.435 E21.37225
G1 X145.007 Y82.869 E21.43599
G1 X145.201 Y82.811 E21.44272
G1 X145.507 Y82.723 E21.45331
G1 X146.385 Y82.512 E21.48335
G1 X147.407 Y82.367 E21.51768
G1 X147.595 Y82.35 E21.52396
G1 X148.177 Y82.315 E21.54335
G1 X148.389 Y82.308 E21.55041
G1 X148.642 Y82.302 E21.55882
G1 X148.885 Y82.3 E21.56691
G1 X151.794 Y82.3 E21.66366
G1 X152.637 Y82.311 E21.6917
G1 X153.539 Y82.364 E21.72175
G1 X154.432 Y82.496 E21.75178
G1 X155.31 Y82.707 E21.78181
G1 X156.166 Y82.995 E21.81185
G1 X156.994 Y83.358 E21.84192
G1 X157.785 Y83.792 E21.87193
G1 X158.536 Y84.294 E21.90197
G1 X159.239 Y84.861 E21.93201
G1 X159.889 Y85.488 E21.96205
G1 X160.481 Y86.17 E21.99209
G1 X161.011 Y86.901 E22.02212
G1 X161.473 Y87.677 E22.05216
G1 X161.866 Y88.49 E22.08219
G1 X162.184 Y89.335 E22.11222
G1 X162.427 Y90.205 E22.14226
G1 X162.592 Y91.093 E22.1723
G1 X162.687 Y92.215 E22.20975
G1 X162.696 Y92.526 E22.2201
G1 X162.7 Y92.821 E22.22991
G1 X162.699 Y141.89 E23.86196
G1 X162.69 Y142.617 E23.88614
G1 X162.639 Y143.519 E23.91619
G1 X162.508 Y144.413 E23.94624
G1 X162.299 Y145.291 E23.97626
G1 X162.013 Y146.148 E24.00631
G1 X161.652 Y146.976 E24.03635
G1 X161.22 Y147.768 E24.06636
G1 X160.719 Y148.52 E24.09641
G1 X160.153 Y149.224 E24.12645
G1 X159.528 Y149.875 E24.15647
G1 X158.847 Y150.469 E24.18653
G1 X158.116 Y151 E24.21658
G1 X157.342 Y151.464 E24.24659
G1 X156.529 Y151.858 E24.27664
G1 X155.685 Y152.178 E24.30666
G1 X154.815 Y152.423 E24.33672
G1 X153.928 Y152.589 E24.36674
G1 X152.777 Y152.687 E24.40516
G1 X152.456 Y152.696 E24.41584
G1 X152.17 Y152.7 E24.42535
G1 X123.062 Y152.699 E25.39349
G1 X122.36 Y152.689 E25.41684
G1 X121.458 Y152.636 E25.44689
G1 X120.565 Y152.504 E25.47692
G1 X119.687 Y152.293 E25.50695
G1 X118.831 Y152.005 E25.53699
G1 X118.003 Y151.643 E25.56704
G1 X117.211 Y151.209 E25.59708
G1 X116.461 Y150.706 E25.62712
G1 X115.758 Y150.14 E25.65714
G1 X114.954 Y149.347 E25.6947
G1 X114.391 Y148.726 E25.72258
G1 X112.61 Y146.817 E25.80941
G1 X110.819 Y145.001 E25.89424
G1 X108.988 Y143.247 E25.97858
G1 X107.092 Y141.531 E26.06363
G1 X105.151 Y139.872 E26.14856
G1 X103.193 Y138.291 E26.23226
G1 X101.183 Y136.762 E26.31626
G1 X100.548 Y136.304 E26.3423
G1 X99.726 Y135.697 E26.37628
G1 X99.024 Y135.129 E26.40632
G1 X98.375 Y134.501 E26.43635
G1 X98.065 Y134.154 E26.45183
G1 X98.064 Y134.155 E26.45188
G1 X96.276 Y132.126 E26.54183
G1 X94.541 Y130.264 E26.62648
G1 X92.792 Y128.494 E26.70924
G1 X90.933 Y126.712 E26.79489
G1 X89.069 Y125.027 E26.87846
G1 X87.129 Y123.368 E26.96336
G1 X85.144 Y121.766 E27.0482
G1 X83.131 Y120.235 E27.13232
G1 X81.074 Y118.758 E27.21655
G1 X78.961 Y117.331 E27.30135
G1 X77.361 Y116.315 E27.36439
G1 X76.92 Y116.027 E27.38191
G1 X76.187 Y115.499 E27.41195
G1 X75.504 Y114.908 E27.44199
G1 X74.876 Y114.26 E27.47201
G1 X74.307 Y113.558 E27.50206
G1 X73.803 Y112.809 E27.53209
G1 X73.367 Y112.018 E27.56213
G1 X73.003 Y111.191 E27.59218
G1 X72.714 Y110.336 E27.6222
G1 X72.501 Y109.458 E27.65225
G1 X72.366 Y108.565 E27.68229
G1 X72.315 Y107.809 E27.70749
G1 X72.305 Y107.484 E27.7183
G1 X72.3 Y107.17 E27.72875
G1 X72.301 Y93.036 E28.19885
G1 X72.31 Y92.371 E28.22097
G1 X72.362 Y91.469 E28.25102
G1 X72.494 Y90.576 E28.28104
G1 X72.704 Y89.698 E28.31107
G1 X72.991 Y88.841 E28.34113
G1 X73.353 Y88.014 E28.37115
G1 X73.786 Y87.222 E28.40118
G1 X74.288 Y86.471 E28.43122
G1 X74.855 Y85.767 E28.46129
G1 X75.481 Y85.117 E28.4913
G1 X76.162 Y84.524 E28.52134
G1 F2700 E23.52134
;MESH:b59de2c4-a940-45bd-a027-37eeeedf1ecd.stl
G0 F6000 X82.92 Y91.835
G0 X82.92 Y92.92
G0 X83.282 Y106.718
G0 X106.207 Y107.072
G0 X106.561 Y126.718
G0 X122.928 Y127.072
G0 X123.1 Y141.9
;TYPE:WALL-INNER
G1 F2700 E28.52134
G1 F1200 X123.1 Y126.9 E29.02024
G1 X106.379 Y126.9 E29.57638
G1 X106.379 Y106.9 E30.24158
G1 X83.1 Y106.9 E31.01585
G1 X83.1 Y93.299 E31.46822
G1 X83.1 Y93.1 E31.47484
G1 X83.299 Y93.1 E31.47912
G1 X86.482 Y93.101 E31.58498
G1 X86.573 Y93.108 E31.58802
G1 X86.632 Y93.124 E31.59005
G1 X86.698 Y93.155 E31.59248
G1 X86.759 Y93.198 E31.59496
G1 X86.798 Y93.237 E31.5968
G1 X86.852 Y93.315 E31.59995
G1 X86.874 Y93.362 E31.60168
G1 X86.891 Y93.426 E31.60388
G1 X86.9 Y93.543 E31.60778
G1 X86.9 Y103.1 E31.92565
G1 X92.1 Y103.1 E32.0986
G1 X92.101 Y98.414 E32.25446
G1 X92.108 Y98.327 E32.25736
G1 X92.124 Y98.268 E32.2594
G1 X92.155 Y98.202 E32.26182
G1 X92.198 Y98.141 E32.2643
G1 X92.237 Y98.102 E32.26614
G1 X92.315 Y98.048 E32.26929
G1 X92.362 Y98.026 E32.27102
G1 X92.426 Y98.009 E32.27322
G1 X92.543 Y98 E32.27712
G1 X109.082 Y98.001 E32.82721
G1 X109.173 Y98.008 E32.83025
G1 X109.232 Y98.024 E32.83228
G1 X109.298 Y98.055 E32.83471
G1 X109.359 Y98.098 E32.83719
G1 X109.398 Y98.137 E32.83902
G1 X109.452 Y98.215 E32.84218
G1 X109.474 Y98.262 E32.84391
G1 X109.491 Y98.326 E32.84611
G1 X109.5 Y98.443 E32.85001
G1 X109.5 Y102.8 E32.99493
