;FLAVOR:Marlin
;TIME:2618
;Filament used: 1.71895m
;Layer height: 0.2
;MINX:98.557
;MINY:75.067
;MINZ:0.2
;MAXX:137.757
;MAXY:144.267
;MAXZ:12
;Generated with Cura_SteamEngine 4.7.1
M140 S60
M105
M190 S60
M104 S220
M105
M109 S220
M82 ;absolute extrusion mode
; Ender 3 Custom Start G-code
G92 E0 ; Reset Extruder
G28 ; Home all axes
G1 Z2.0 F3000 ; Move Z Axis up little to prevent scratching of Heat Bed
G1 X0.1 Y20 Z0.3 F5000.0 ; Move to start position
G1 X0.1 Y200.0 Z0.3 F1500.0 E15 ; Draw the first line
G1 X0.4 Y200.0 Z0.3 F5000.0 ; Move to side a little
G1 X0.4 Y20 Z0.3 F1500.0 E30 ; Draw the second line
G92 E0 ; Reset Extruder
G1 Z2.0 F3000 ; Move Z Axis up little to prevent scratching of Heat Bed
G1 X5 Y20 Z0.3 F5000.0 ; Move over to prevent blob squish
G92 E0
G92 E0
G1 F2700 E-5
;LAYER_COUNT:60
;LAYER:0
M107
G0 F6000 X101.134 Y79.108 Z0.2
;TYPE:SKIRT
G1 F2700 E0
G1 F1200 X101.83 Y78.352 E0.03418
G1 X101.925 Y78.258 E0.03862
G1 X102.619 Y77.627 E0.06982
G1 X103.365 Y77.058 E0.10103
G1 X104.156 Y76.554 E0.13222
G1 X104.987 Y76.12 E0.1634
G1 X105.852 Y75.758 E0.19459
G1 X106.745 Y75.471 E0.22579
G1 X107.659 Y75.261 E0.25698
G1 X108.588 Y75.13 E0.28818
G1 X109.291 Y75.083 E0.31162
G1 X109.439 Y75.078 E0.31654
G1 X109.676 Y75.073 E0.32443
G1 X110.219 Y75.067 E0.34249
G1 X126.107 Y75.068 E0.87093
G1 X126.809 Y75.078 E0.89428
G1 X127.745 Y75.131 E0.92546
G1 X128.673 Y75.264 E0.95664
G1 X129.587 Y75.476 E0.98785
G1 X130.48 Y75.764 E1.01905
G1 X131.344 Y76.128 E1.05024
G1 X132.175 Y76.564 E1.08145
G1 X132.965 Y77.069 E1.11263
G1 X133.709 Y77.639 E1.14381
G1 X134.43 Y78.299 E1.17632
G1 X134.525 Y78.394 E1.18079
G1 X135.159 Y79.085 E1.21198
G1 X135.733 Y79.827 E1.24318
G1 X136.24 Y80.616 E1.27437
G1 X136.679 Y81.444 E1.30554
G1 X137.046 Y82.308 E1.33676
G1 X137.338 Y83.199 E1.36795
G1 X137.552 Y84.112 E1.39914
G1 X137.689 Y85.04 E1.43034
G1 X137.741 Y85.801 E1.45571
G1 X137.746 Y85.949 E1.46064
G1 X137.751 Y86.176 E1.46819
G1 X137.757 Y86.702 E1.48568
G1 X137.756 Y132.612 E3.01266
G1 X137.746 Y133.318 E3.03614
G1 X137.693 Y134.254 E3.06732
G1 X137.56 Y135.183 E3.09853
G1 X137.348 Y136.096 E3.12971
G1 X137.06 Y136.989 E3.16092
G1 X136.696 Y137.853 E3.1921
G1 X136.261 Y138.684 E3.2233
G1 X135.756 Y139.474 E3.25448
G1 X135.185 Y140.219 E3.2857
G1 X134.566 Y140.899 E3.31629
G1 X134.472 Y140.994 E3.32073
G1 X133.785 Y141.632 E3.35191
G1 X133.045 Y142.209 E3.38312
G1 X132.26 Y142.721 E3.4143
G1 X131.433 Y143.164 E3.4455
G1 X130.572 Y143.535 E3.47668
G1 X129.682 Y143.832 E3.50789
G1 X128.77 Y144.051 E3.53908
G1 X127.843 Y144.192 E3.57027
G1 X127.022 Y144.251 E3.59765
G1 X126.873 Y144.256 E3.60261
G1 X126.638 Y144.261 E3.61042
G1 X126.095 Y144.267 E3.62849
G1 X110.207 Y144.266 E4.15692
G1 X109.505 Y144.256 E4.18027
G1 X108.569 Y144.203 E4.21146
G1 X107.641 Y144.07 E4.24264
G1 X106.727 Y143.858 E4.27384
G1 X105.834 Y143.57 E4.30505
G1 X104.97 Y143.206 E4.33623
G1 X104.139 Y142.77 E4.36745
G1 X103.349 Y142.265 E4.39863
G1 X102.605 Y141.695 E4.4298
G1 X101.884 Y141.035 E4.46232
G1 X101.789 Y140.94 E4.46678
G1 X101.155 Y140.249 E4.49797
G1 X100.581 Y139.507 E4.52918
G1 X100.074 Y138.718 E4.56037
G1 X99.635 Y137.89 E4.59154
G1 X99.268 Y137.026 E4.62276
G1 X98.976 Y136.135 E4.65395
G1 X98.762 Y135.222 E4.68514
G1 X98.625 Y134.294 E4.71634
G1 X98.574 Y133.562 E4.74074
G1 X98.568 Y133.397 E4.74623
G1 X98.561 Y133.098 E4.75618
G1 X98.557 Y132.664 E4.77062
G1 X98.558 Y86.677 E6.30015
G1 X98.568 Y86.007 E6.32244
G1 X98.622 Y85.071 E6.35362
G1 X98.756 Y84.142 E6.38484
G1 X98.968 Y83.229 E6.41601
G1 X99.257 Y82.336 E6.44723
G1 X99.621 Y81.472 E6.47841
G1 X100.058 Y80.642 E6.50961
G1 X100.563 Y79.852 E6.5408
G1 X101.134 Y79.108 E6.57199
G0 F6000 X101.528 Y79.262
G1 F1200 X102.111 Y78.636 E6.60044
G1 X102.206 Y78.542 E6.60489
G1 X102.888 Y77.924 E6.6355
G1 X103.621 Y77.367 E6.66612
G1 X104.4 Y76.875 E6.69676
G1 X105.218 Y76.453 E6.72738
G1 X106.07 Y76.104 E6.758
G1 X106.949 Y75.83 E6.78862
G1 X107.848 Y75.633 E6.81923
G1 X108.761 Y75.515 E6.84985
G1 X109.304 Y75.483 E6.86794
G1 X109.452 Y75.478 E6.87287
G1 X109.68 Y75.473 E6.88045
G1 X110.219 Y75.467 E6.89838
G1 X125.95 Y75.467 E7.4216
G1 X126.803 Y75.478 E7.44997
G1 X127.722 Y75.531 E7.48059
G1 X128.633 Y75.664 E7.51121
G1 X129.529 Y75.875 E7.54183
G1 X130.404 Y76.163 E7.57246
G1 X131.25 Y76.526 E7.60308
G1 X132.061 Y76.961 E7.63369
G1 X132.832 Y77.465 E7.66433
G1 X133.556 Y78.033 E7.69494
G1 X134.147 Y78.582 E7.72176
G1 X134.242 Y78.677 E7.72623
G1 X134.864 Y79.355 E7.75684
G1 X135.425 Y80.085 E7.78746
G1 X135.921 Y80.861 E7.81809
G1 X136.347 Y81.677 E7.8487
G1 X136.701 Y82.527 E7.87933
G1 X136.979 Y83.405 E7.90996
G1 X137.181 Y84.303 E7.94057
G1 X137.304 Y85.216 E7.97122
G1 X137.341 Y85.814 E7.99114
G1 X137.351 Y86.181 E8.00335
G1 X137.357 Y86.702 E8.02068
G1 X137.356 Y132.606 E9.54746
G1 X137.346 Y133.312 E9.57094
G1 X137.293 Y134.231 E9.60156
G1 X137.16 Y135.142 E9.63218
G1 X136.949 Y136.038 E9.6628
G1 X136.661 Y136.913 E9.69343
G1 X136.298 Y137.759 E9.72405
G1 X135.863 Y138.57 E9.75466
G1 X135.36 Y139.341 E9.78528
G1 X134.791 Y140.065 E9.81591
G1 X134.282 Y140.618 E9.84091
G1 X134.188 Y140.713 E9.84535
G1 X133.513 Y141.338 E9.87595
G1 X132.785 Y141.903 E9.9066
G1 X132.012 Y142.403 E9.93722
G1 X131.198 Y142.833 E9.96784
G1 X130.35 Y143.191 E9.99845
G1 X129.474 Y143.475 E10.02908
G1 X128.577 Y143.681 E10.05969
G1 X127.665 Y143.809 E10.09032
G1 X127.009 Y143.851 E10.11218
G1 X126.86 Y143.856 E10.11714
G1 X126.634 Y143.861 E10.12466
G1 X126.095 Y143.867 E10.14259
G1 X110.213 Y143.866 E10.67083
G1 X109.511 Y143.856 E10.69418
G1 X108.592 Y143.803 E10.7248
G1 X107.681 Y143.67 E10.75542
G1 X106.785 Y143.459 E10.78603
G1 X105.91 Y143.171 E10.81667
G1 X105.064 Y142.808 E10.84729
G1 X104.253 Y142.373 E10.8779
G1 X103.482 Y141.869 E10.90854
G1 X102.758 Y141.301 E10.93914
G1 X102.167 Y140.752 E10.96597
G1 X102.072 Y140.657 E10.97044
G1 X101.45 Y139.979 E11.00104
G1 X100.889 Y139.249 E11.03166
G1 X100.393 Y138.473 E11.0623
G1 X99.967 Y137.657 E11.09291
G1 X99.613 Y136.807 E11.12354
G1 X99.335 Y135.929 E11.15417
G1 X99.133 Y135.031 E11.18478
G1 X99.01 Y134.118 E11.21542
G1 X98.974 Y133.547 E11.23445
G1 X98.968 Y133.382 E11.23994
G1 X98.961 Y133.095 E11.24949
G1 X98.957 Y132.661 E11.26393
G1 X98.958 Y86.683 E12.79316
G1 X98.968 Y86.013 E12.81545
G1 X99.022 Y85.094 E12.84607
G1 X99.155 Y84.183 E12.87669
G1 X99.367 Y83.287 E12.90731
G1 X99.656 Y82.413 E12.93793
G1 X100.019 Y81.567 E12.96855
G1 X100.455 Y80.756 E12.99917
G1 X100.959 Y79.985 E13.02981
G1 X101.528 Y79.262 E13.06041
G0 F6000 X101.922 Y79.419
G1 F1200 X102.393 Y78.92 E13.08323
G1 X102.488 Y78.826 E13.08768
G1 X103.157 Y78.22 E13.1177
G1 X103.878 Y77.676 E13.14774
G1 X104.643 Y77.197 E13.17776
G1 X105.449 Y76.788 E13.20782
G1 X106.287 Y76.452 E13.23785
G1 X107.151 Y76.191 E13.26787
G1 X108.036 Y76.007 E13.29794
G1 X109.318 Y75.883 E13.34078
G1 X109.685 Y75.873 E13.35299
G1 X110.219 Y75.867 E13.37075
G1 X125.95 Y75.867 E13.89396
G1 X126.797 Y75.878 E13.92214
G1 X127.699 Y75.931 E13.95219
G1 X128.592 Y76.063 E13.98221
G1 X129.47 Y76.274 E14.01225
G1 X130.326 Y76.562 E14.04229
G1 X131.154 Y76.924 E14.07234
G1 X131.946 Y77.358 E14.10238
G1 X132.696 Y77.861 E14.13242
G1 X133.399 Y78.427 E14.16244
G1 X133.864 Y78.865 E14.18368
G1 X133.959 Y78.96 E14.18815
G1 X134.569 Y79.626 E14.21819
G1 X135.118 Y80.343 E14.24822
G1 X135.6 Y81.107 E14.27827
G1 X136.014 Y81.91 E14.30832
G1 X136.354 Y82.746 E14.33833
G1 X136.62 Y83.609 E14.36837
G1 X136.808 Y84.492 E14.3984
G1 X136.941 Y85.828 E14.44305
G1 X136.951 Y86.187 E14.455
G1 X136.957 Y86.702 E14.47213
G1 X136.956 Y132.6 E15.9987
G1 X136.946 Y133.306 E16.02219
G1 X136.893 Y134.208 E16.05224
G1 X136.761 Y135.101 E16.08226
G1 X136.55 Y135.98 E16.11233
G1 X136.262 Y136.836 E16.14237
G1 X135.9 Y137.663 E16.17239
G1 X135.466 Y138.455 E16.20243
G1 X134.964 Y139.205 E16.23245
G1 X134.397 Y139.909 E16.26251
G1 X133.998 Y140.336 E16.28195
G1 X133.904 Y140.431 E16.2864
G1 X133.241 Y141.044 E16.31643
G1 X132.526 Y141.597 E16.34649
G1 X131.765 Y142.083 E16.37652
G1 X130.964 Y142.501 E16.40658
G1 X130.13 Y142.846 E16.43659
G1 X129.268 Y143.116 E16.46664
G1 X128.386 Y143.309 E16.49667
G1 X127.49 Y143.423 E16.52671
G1 X126.995 Y143.451 E16.5432
G1 X126.629 Y143.461 E16.55538
G1 X126.095 Y143.467 E16.57314
G1 X110.219 Y143.466 E17.10118
G1 X109.517 Y143.456 E17.12453
G1 X108.615 Y143.403 E17.15458
G1 X107.722 Y143.271 E17.1846
G1 X106.844 Y143.06 E17.21464
G1 X105.988 Y142.772 E17.24468
G1 X105.16 Y142.41 E17.27473
G1 X104.368 Y141.976 E17.30477
G1 X103.618 Y141.473 E17.33481
G1 X102.915 Y140.907 E17.36482
G1 X102.45 Y140.469 E17.38607
G1 X102.355 Y140.374 E17.39054
G1 X101.745 Y139.708 E17.42058
G1 X101.196 Y138.991 E17.45061
G1 X100.714 Y138.227 E17.48066
G1 X100.3 Y137.424 E17.51071
G1 X99.96 Y136.588 E17.54072
G1 X99.694 Y135.725 E17.57076
G1 X99.506 Y134.842 E17.60079
G1 X99.374 Y133.533 E17.64455
G1 X99.368 Y133.368 E17.65004
G1 X99.361 Y133.091 E17.65925
G1 X99.357 Y132.657 E17.67369
G1 X99.358 Y86.689 E19.20259
G1 X99.368 Y86.019 E19.22488
G1 X99.422 Y85.117 E19.25493
G1 X99.555 Y84.224 E19.28496
G1 X99.766 Y83.346 E19.31499
G1 X100.054 Y82.49 E19.34503
G1 X100.417 Y81.663 E19.37507
G1 X100.852 Y80.871 E19.40513
G1 X101.355 Y80.121 E19.43516
G1 X101.922 Y79.419 E19.46518
G1 F2700 E14.46518
;MESH:e2a2ab11-323d-4216-8c63-dbfcd0aed2ce.stl
G0 F6000 X108.892 Y86.487
G0 X109.977 Y86.487
G0 X110.157 Y132.667
;TYPE:WALL-INNER
G1 F2700 E19.46518
G1 F1200 X110.157 Y86.667 E20.99514
G1 X126.157 Y86.667 E21.5273
G1 X126.157 Y132.667 E23.05727
G1 X110.157 Y132.667 E23.58943
G0 F6000 X109.757 Y133.067
;TYPE:WALL-OUTER
G1 F1200 X109.757 Y86.267 E25.14601
G1 X126.557 Y86.267 E25.70478
G1 X126.557 Y133.067 E27.26135
G1 X109.757 Y133.067 E27.82012
G0 F6000 X110.027 Y132.797
G0 X110.267 Y132.277
G0 X110.547 Y132.277
;TYPE:SKIN
G1 F1200 X110.547 Y87.057 E29.32414
G1 X125.767 Y87.057 E29.83036
G1 X125.767 Y132.277 E31.33439
G1 X110.547 Y132.277 E31.84061
G0 F6000 X111.186 Y132.116
G1 F1200 X110.706 Y131.636 E31.86318
G0 F6000 X110.706 Y131.07
G1 F1200 X111.751 Y132.116 E31.91236
G0 F6000 X112.317 Y132.116
G1 F1200 X110.706 Y130.505 E31.98814
G0 F6000 X110.706 Y129.939
G1 F1200 X112.883 Y132.116 E32.09054
G0 F6000 X113.448 Y132.116
G1 F1200 X110.706 Y129.373 E32.21954
G0 F6000 X110.706 Y128.807
G1 F1200 X114.014 Y132.116 E32.37516
G0 F6000 X114.58 Y132.116
G1 F1200 X110.706 Y128.242 E32.55738
G0 F6000 X110.706 Y127.676
G1 F1200 X115.145 Y132.116 E32.7662
G0 F6000 X115.711 Y132.116
G1 F1200 X110.706 Y127.11 E33.00164
G0 F6000 X110.706 Y126.545
G1 F1200 X116.277 Y132.116 E33.26369
G0 F6000 X116.843 Y132.116
G1 F1200 X110.706 Y125.979 E33.55235
G0 F6000 X110.706 Y125.413
G1 F1200 X117.408 Y132.116 E33.86762
G0 F6000 X117.974 Y132.116
G1 F1200 X110.706 Y124.848 E34.20948
G0 F6000 X110.706 Y124.282
G1 F1200 X118.54 Y132.116 E34.57797
G0 F6000 X119.105 Y132.116
G1 F1200 X110.706 Y123.716 E34.97305
G0 F6000 X110.706 Y123.151
G1 F1200 X119.671 Y132.116 E35.39474
G0 F6000 X120.237 Y132.116
G1 F1200 X110.706 Y122.585 E35.84305
G0 F6000 X110.706 Y122.019
G1 F1200 X120.802 Y132.116 E36.31796
G0 F6000 X121.368 Y132.116
G1 F1200 X110.706 Y121.454 E36.81947
G0 F6000 X110.706 Y120.888
G1 F1200 X121.934 Y132.116 E37.3476
G0 F6000 X122.499 Y132.116
G1 F1200 X110.706 Y120.322 E37.90233
G0 F6000 X110.706 Y119.757
G1 F1200 X123.065 Y132.116 E38.48366
G0 F6000 X123.631 Y132.116
G1 F1200 X110.706 Y119.191 E39.09161
G0 F6000 X110.706 Y118.625
G1 F1200 X124.196 Y132.116 E39.72616
G0 F6000 X124.762 Y132.116
G1 F1200 X110.706 Y118.059 E40.38734
G0 F6000 X110.706 Y117.494
G1 F1200 X125.328 Y132.116 E41.07511
G0 F6000 X125.606 Y131.829
G1 F1200 X110.706 Y116.928 E41.77598
G0 F6000 X110.706 Y116.362
G1 F1200 X125.606 Y131.263 E42.47686
G0 F6000 X125.606 Y130.698
G1 F1200 X110.706 Y115.797 E43.17773
G0 F6000 X110.706 Y115.231
G1 F1200 X125.606 Y130.132 E43.8786
G0 F6000 X125.606 Y129.566
G1 F1200 X110.706 Y114.665 E44.57948
G0 F6000 X110.706 Y114.1
G1 F1200 X125.606 Y129.001 E45.28035
G0 F6000 X125.606 Y128.435
G1 F1200 X110.706 Y113.534 E45.98123
G0 F6000 X110.706 Y112.968
G1 F1200 X125.606 Y127.869 E46.6821
G0 F6000 X125.606 Y127.303
G1 F1200 X110.706 Y112.403 E47.38295
G0 F6000 X110.706 Y111.837
G1 F1200 X125.606 Y126.738 E48.08382
G0 F6000 X125.606 Y126.172
G1 F1200 X110.706 Y111.271 E48.7847
G0 F6000 X110.706 Y110.706
G1 F1200 X125.606 Y125.606 E49.48555
G0 F6000 X125.606 Y125.041
G1 F1200 X110.706 Y110.14 E50.18642
G0 F6000 X110.706 Y109.574
G1 F1200 X125.606 Y124.475 E50.8873
G0 F6000 X125.606 Y123.909
G1 F1200 X110.706 Y109.008 E51.58817
G0 F6000 X110.706 Y108.443
G1 F1200 X125.606 Y123.344 E52.28904
G0 F6000 X125.606 Y122.778
G1 F1200 X110.706 Y107.877 E52.98992
G0 F6000 X110.706 Y107.311
G1 F1200 X125.606 Y122.212 E53.69079
G0 F6000 X125.606 Y121.647
G1 F1200 X110.706 Y106.746 E54.39167
G0 F6000 X110.706 Y106.18
G1 F1200 X125.606 Y121.081 E55.09254
G0 F6000 X125.606 Y120.515
G1 F1200 X110.706 Y105.614 E55.79341
G0 F6000 X110.706 Y105.049
G1 F1200 X125.606 Y119.95 E56.49429
G0 F6000 X125.606 Y119.384
G1 F1200 X110.706 Y104.483 E57.19516
G0 F6000 X110.706 Y103.917
G1 F1200 X125.606 Y118.818 E57.89603
G0 F6000 X125.606 Y118.253
G1 F1200 X110.706 Y103.352 E58.59691
G0 F6000 X110.706 Y102.786
G1 F1200 X125.606 Y117.687 E59.29778
G0 F6000 X125.606 Y117.121
G1 F1200 X110.706 Y102.22 E59.99866
G0 F6000 X110.706 Y101.655
G1 F1200 X125.606 Y116.555 E60.69951
G0 F6000 X125.606 Y115.99
G1 F1200 X110.706 Y101.089 E61.40038
G0 F6000 X110.706 Y100.523
G1 F1200 X125.606 Y115.424 E62.10125
G0 F6000 X125.606 Y114.858
G1 F1200 X110.706 Y99.958 E62.8021
G0 F6000 X110.706 Y99.392
G1 F1200 X125.606 Y114.293 E63.50298
G0 F6000 X125.606 Y113.727
G1 F1200 X110.706 Y98.826 E64.20385
G0 F6000 X110.706 Y98.26
G1 F1200 X125.606 Y113.161 E64.90473
G0 F6000 X125.606 Y112.596
G1 F1200 X110.706 Y97.695 E65.6056
G0 F6000 X110.706 Y97.129
G1 F1200 X125.606 Y112.03 E66.30647
G0 F6000 X125.606 Y111.464
G1 F1200 X110.706 Y96.563 E67.00735
G0 F6000 X110.706 Y95.998
G1 F1200 X125.606 Y110.899 E67.70822
G0 F6000 X125.606 Y110.333
G1 F1200 X110.706 Y95.432 E68.40909
G0 F6000 X110.706 Y94.866
G1 F1200 X125.606 Y109.767 E69.10997
G0 F6000 X125.606 Y109.202
G1 F1200 X110.706 Y94.301 E69.81084
G0 F6000 X110.706 Y93.735
G1 F1200 X125.606 Y108.636 E70.51172
G0 F6000 X125.606 Y108.07
G1 F1200 X110.706 Y93.169 E71.21259
G0 F6000 X110.706 Y92.604
G1 F1200 X125.606 Y107.504 E71.91344
G0 F6000 X125.606 Y106.939
G1 F1200 X110.706 Y92.038 E72.61431
G0 F6000 X110.706 Y91.472
G1 F1200 X125.606 Y106.373 E73.31519
G0 F6000 X125.606 Y105.807
G1 F1200 X110.706 Y90.907 E74.01604
G0 F6000 X110.706 Y90.341
G1 F1200 X125.606 Y105.242 E74.71691
G0 F6000 X125.606 Y104.676
G1 F1200 X110.706 Y89.775 E75.41779
G0 F6000 X110.706 Y89.21
G1 F1200 X125.606 Y104.11 E76.11864
G0 F6000 X125.606 Y103.545
G1 F1200 X110.706 Y88.644 E76.81951
G0 F6000 X110.706 Y88.078
G1 F1200 X125.606 Y102.979 E77.52038
G0 F6000 X125.606 Y102.413
G1 F1200 X110.706 Y87.512 E78.22126
G0 F6000 X110.976 Y87.217
G1 F1200 X125.606 Y101.848 E78.90943
G0 F6000 X125.606 Y101.282
G1 F1200 X111.541 Y87.217 E79.57101
G0 F6000 X112.107 Y87.217
G1 F1200 X125.606 Y100.716 E80.20596
G0 F6000 X125.606 Y100.151
G1 F1200 X112.673 Y87.217 E80.81431
G0 F6000 X113.238 Y87.217
G1 F1200 X125.606 Y99.585 E81.39606
G0 F6000 X125.606 Y99.019
G1 F1200 X113.804 Y87.217 E81.95119
G0 F6000 X114.37 Y87.217
G1 F1200 X125.606 Y98.454 E82.47972
G0 F6000 X125.606 Y97.888
G1 F1200 X114.935 Y87.217 E82.98165
G0 F6000 X115.501 Y87.217
G1 F1200 X125.606 Y97.322 E83.45696
G0 F6000 X125.606 Y96.756
G1 F1200 X116.067 Y87.217 E83.90565
G0 F6000 X116.633 Y87.217
G1 F1200 X125.606 Y96.191 E84.32773
G0 F6000 X125.606 Y95.625
G1 F1200 X117.198 Y87.217 E84.72322
G0 F6000 X117.764 Y87.217
G1 F1200 X125.606 Y95.059 E85.09208
G0 F6000 X125.606 Y94.494
G1 F1200 X118.33 Y87.217 E85.43435
G0 F6000 X118.895 Y87.217
G1 F1200 X125.606 Y93.928 E85.75001
G0 F6000 X125.606 Y93.362
G1 F1200 X119.461 Y87.217 E86.03906
G0 F6000 X120.027 Y87.217
G1 F1200 X125.606 Y92.797 E86.3015
