;FLAVOR:Marlin
;TIME:979
;Filament used: 0.624593m
;Layer height: 0.2
;MINX:96.916
;MINY:96.916
;MINZ:0.2
;MAXX:138.089
;MAXY:138.084
;MAXZ:8
;Generated with Cura_SteamEngine 4.13.1
M140 S60
M105
M190 S60
M104 S222
M105
M109 S222
M82 ;absolute extrusion mode
; Ender 3 Custom Start G-code
M420 S1 ; enable bed levelling
G92 E0 ; Reset Extruder
G28 ; Home all axes
G1 Z2.0 F3000 ; Move Z Axis up little to prevent scratching of Heat Bed
G1 X0.1 Y20 Z0.3 F5000.0 ; Move to start position
G1 X0.1 Y200.0 Z0.3 F1500.0 E15 ; Draw the first line
G1 X0.4 Y200.0 Z0.3 F5000.0 ; Move to side a little
G1 X0.4 Y20 Z0.3 F1500.0 E30 ; Draw the second line
G92 E0 ; Reset Extruder
G1 Z2.0 F3000 ; Move Z Axis up little to prevent scratching of Heat Bed
G1 X5 Y20 Z0.3 F5000.0 ; Move over to prevent blob squish
G92 E0
G92 E0
G1 F2700 E-5
;LAYER_COUNT:40
;LAYER:0
M107
G0 F2100 X103.033 Y102.857 Z0.2
;TYPE:SKIRT
G1 F2700 E0
G1 F1200 X103.505 Y102.406 E0.02388
G1 X103.855 Y102.085 E0.04126
G1 X104.046 Y101.918 E0.05054
G1 X104.32 Y101.685 E0.0637
G1 X104.619 Y101.44 E0.07784
G1 X104.744 Y101.341 E0.08368
G1 X104.991 Y101.151 E0.09508
G1 X105.375 Y100.864 E0.11262
G1 X105.756 Y100.591 E0.12977
G1 X106.003 Y100.425 E0.14065
G1 X106.426 Y100.147 E0.15917
G1 X106.751 Y99.941 E0.17325
G1 X107.099 Y99.734 E0.18807
G1 X107.478 Y99.517 E0.20404
G1 X107.871 Y99.302 E0.22043
G1 X108.157 Y99.157 E0.23216
G1 X108.652 Y98.914 E0.25234
G1 X108.918 Y98.787 E0.26312
G1 X109.038 Y98.732 E0.26795
G1 X109.374 Y98.585 E0.28137
G1 X109.744 Y98.43 E0.29605
G1 X110.165 Y98.263 E0.31262
G1 X110.457 Y98.157 E0.32398
G1 X111.021 Y97.96 E0.34584
G1 X111.695 Y97.748 E0.37169
G1 X112.182 Y97.612 E0.39019
G1 X112.605 Y97.502 E0.40618
G1 X112.89 Y97.436 E0.41688
G1 X113.304 Y97.345 E0.43239
G1 X113.759 Y97.254 E0.44937
G1 X114.107 Y97.195 E0.46228
G1 X114.637 Y97.114 E0.4819
G1 X115.004 Y97.065 E0.49544
G1 X115.435 Y97.017 E0.51131
G1 X115.835 Y96.98 E0.52601
G1 X116.199 Y96.952 E0.53936
G1 X116.607 Y96.932 E0.55431
G1 X117.131 Y96.916 E0.57349
G1 X117.822 Y96.917 E0.59877
G1 X118.453 Y96.937 E0.62187
G1 X118.886 Y96.958 E0.63773
G1 X119.219 Y96.983 E0.64994
G1 X119.517 Y97.01 E0.66089
G1 X119.965 Y97.059 E0.67738
G1 X120.334 Y97.11 E0.69101
G1 X120.946 Y97.204 E0.71366
G1 X121.618 Y97.328 E0.73866
G1 X122.115 Y97.436 E0.75727
G1 X122.476 Y97.521 E0.77084
G1 X122.848 Y97.619 E0.78491
G1 X123.374 Y97.768 E0.80492
G1 X124.01 Y97.969 E0.82932
G1 X124.531 Y98.151 E0.84951
G1 X124.915 Y98.292 E0.86448
G1 X125.307 Y98.449 E0.87993
G1 X125.668 Y98.601 E0.89426
G1 X125.992 Y98.743 E0.9072
G1 X126.114 Y98.799 E0.91211
G1 X126.386 Y98.929 E0.92314
G1 X126.847 Y99.156 E0.94194
G1 X127.453 Y99.478 E0.96705
G1 X127.955 Y99.765 E0.9882
G1 X128.352 Y100.002 E1.00512
G1 X128.57 Y100.141 E1.01458
G1 X128.949 Y100.388 E1.03113
G1 X129.515 Y100.782 E1.05636
G1 X130.027 Y101.163 E1.07971
G1 X130.302 Y101.375 E1.09241
G1 X130.433 Y101.479 E1.09853
G1 X130.698 Y101.695 E1.11104
G1 X130.918 Y101.881 E1.12158
G1 X131.261 Y102.184 E1.13832
G1 X131.482 Y102.388 E1.14933
G1 X131.931 Y102.816 E1.17202
G1 X132.4 Y103.292 E1.19647
G1 X132.759 Y103.678 E1.21576
G1 X133.214 Y104.199 E1.24106
G1 X133.592 Y104.66 E1.26288
G1 X133.834 Y104.964 E1.27709
G1 X134.062 Y105.269 E1.29102
G1 X134.293 Y105.588 E1.30543
G1 X134.541 Y105.944 E1.32131
G1 X134.733 Y106.236 E1.33409
G1 X135.043 Y106.725 E1.35527
G1 X135.347 Y107.234 E1.37697
G1 X135.589 Y107.665 E1.39505
G1 X135.93 Y108.323 E1.42216
G1 X136.216 Y108.923 E1.44648
G1 X136.418 Y109.373 E1.46453
G1 X136.519 Y109.614 E1.47409
G1 X136.673 Y109.996 E1.48916
G1 X136.796 Y110.314 E1.50163
G1 X136.963 Y110.784 E1.51988
G1 X137.147 Y111.343 E1.54141
G1 X137.331 Y111.965 E1.56514
G1 X137.468 Y112.481 E1.58468
G1 X137.62 Y113.129 E1.60903
G1 X137.728 Y113.663 E1.62896
G1 X137.783 Y113.954 E1.63979
G1 X137.856 Y114.415 E1.65687
G1 X137.933 Y114.976 E1.67759
G1 X137.984 Y115.403 E1.69332
G1 X138.022 Y115.813 E1.70839
G1 X138.043 Y116.098 E1.71884
G1 X138.068 Y116.541 E1.73508
G1 X138.079 Y116.873 E1.74723
G1 X138.089 Y117.411 E1.76692
G1 X138.079 Y118.132 E1.7933
G1 X138.05 Y118.756 E1.81615
G1 X138.022 Y119.183 E1.83181
G1 X137.992 Y119.515 E1.844
G1 X137.953 Y119.879 E1.8574
G1 X137.907 Y120.253 E1.87118
G1 X137.85 Y120.63 E1.88513
G1 X137.757 Y121.182 E1.90561
G1 X137.688 Y121.555 E1.91949
G1 X137.597 Y121.983 E1.9355
G1 X137.501 Y122.393 E1.95091
G1 X137.378 Y122.871 E1.96896
G1 X137.308 Y123.115 E1.97825
G1 X137.153 Y123.636 E1.99814
G1 X136.939 Y124.282 E2.02304
G1 X136.727 Y124.862 E2.04563
G1 X136.574 Y125.259 E2.06119
G1 X136.443 Y125.57 E2.07354
G1 X136.3 Y125.898 E2.08663
G1 X136.149 Y126.23 E2.09998
G1 X135.962 Y126.612 E2.11554
G1 X135.718 Y127.09 E2.13517
G1 X135.574 Y127.364 E2.1465
G1 X135.509 Y127.483 E2.15146
G1 X135.314 Y127.824 E2.16583
G1 X135.126 Y128.141 E2.17931
G1 X134.88 Y128.538 E2.1964
G1 X134.711 Y128.798 E2.20775
G1 X134.439 Y129.202 E2.22556
G1 X134.223 Y129.511 E2.23936
G1 X133.963 Y129.863 E2.25537
G1 X133.68 Y130.232 E2.27238
G1 X133.446 Y130.527 E2.28616
G1 X133.174 Y130.851 E2.30163
G1 X132.907 Y131.158 E2.31652
G1 X132.635 Y131.461 E2.33142
G1 X132.357 Y131.753 E2.34617
G1 X131.991 Y132.125 E2.36526
G1 X131.494 Y132.6 E2.39041
G1 X131.035 Y133.012 E2.41298
G1 X130.689 Y133.311 E2.42971
G1 X130.437 Y133.518 E2.44164
G1 X130.172 Y133.729 E2.45403
G1 X129.811 Y134.005 E2.47066
G1 X129.553 Y134.19 E2.48227
G1 X128.976 Y134.592 E2.508
G1 X128.409 Y134.961 E2.53275
G1 X128.058 Y135.175 E2.54779
G1 X127.75 Y135.356 E2.56086
G1 X127.382 Y135.561 E2.57628
G1 X126.931 Y135.801 E2.59497
G1 X126.304 Y136.11 E2.62054
G1 X125.751 Y136.361 E2.64276
G1 X125.363 Y136.528 E2.65821
G1 X125.073 Y136.645 E2.66966
G1 X124.692 Y136.792 E2.6846
G1 X124.283 Y136.941 E2.70052
G1 X123.969 Y137.045 E2.71262
G1 X123.449 Y137.209 E2.73257
G1 X122.829 Y137.385 E2.75615
G1 X122.259 Y137.529 E2.77766
G1 X121.781 Y137.639 E2.79561
G1 X121.455 Y137.704 E2.80777
G1 X120.993 Y137.789 E2.82495
G1 X120.347 Y137.888 E2.84887
G1 X119.708 Y137.967 E2.87242
G1 X119.221 Y138.017 E2.89033
G1 X118.936 Y138.038 E2.90079
G1 X118.573 Y138.06 E2.91409
G1 X118.128 Y138.078 E2.93039
G1 X117.776 Y138.084 E2.94327
G1 X117.207 Y138.084 E2.96409
G1 X116.534 Y138.064 E2.98872
G1 X115.991 Y138.031 E3.00862
G1 X115.566 Y137.997 E3.02422
G1 X115.159 Y137.954 E3.03919
G1 X114.712 Y137.898 E3.05568
G1 X114.076 Y137.799 E3.07922
G1 X113.3 Y137.655 E3.1081
G1 X112.703 Y137.522 E3.13048
G1 X112.279 Y137.415 E3.14648
G1 X111.874 Y137.305 E3.16183
G1 X111.539 Y137.205 E3.17462
G1 X111.055 Y137.052 E3.19319
G1 X110.423 Y136.831 E3.21769
G1 X109.863 Y136.616 E3.23963
G1 X109.53 Y136.482 E3.25277
G1 X109.139 Y136.313 E3.26835
G1 X108.83 Y136.173 E3.28076
G1 X108.42 Y135.977 E3.29739
G1 X108.111 Y135.82 E3.31007
G1 X107.624 Y135.562 E3.33023
G1 X107.241 Y135.349 E3.34627
G1 X106.921 Y135.159 E3.35988
G1 X106.472 Y134.883 E3.37917
G1 X105.915 Y134.518 E3.40353
G1 X105.474 Y134.209 E3.42323
G1 X104.936 Y133.806 E3.44782
G1 X104.482 Y133.445 E3.46904
G1 X104.229 Y133.238 E3.481
G1 X104.107 Y133.135 E3.48685
G1 X103.854 Y132.915 E3.49911
G1 X103.62 Y132.705 E3.51062
G1 X103.312 Y132.418 E3.52602
G1 X103.055 Y132.165 E3.53921
G1 X102.587 Y131.689 E3.56363
G1 X102.111 Y131.173 E3.58932
G1 X101.801 Y130.815 E3.60664
G1 X101.569 Y130.539 E3.61984
G1 X101.34 Y130.252 E3.63327
G1 X101.041 Y129.863 E3.65122
G1 X100.783 Y129.514 E3.6671
G1 X100.582 Y129.227 E3.67992
G1 X100.331 Y128.857 E3.69628
G1 X100.092 Y128.491 E3.71227
G1 X99.92 Y128.209 E3.72435
G1 X99.655 Y127.761 E3.7434
G1 X99.475 Y127.446 E3.75667
G1 X99.277 Y127.076 E3.77202
G1 X99.066 Y126.663 E3.78899
G1 X98.87 Y126.26 E3.80539
G1 X98.745 Y125.982 E3.81654
G1 X98.498 Y125.415 E3.83917
G1 X98.222 Y124.719 E3.86656
G1 X98.04 Y124.21 E3.88634
G1 X97.856 Y123.647 E3.90801
G1 X97.705 Y123.141 E3.92733
G1 X97.602 Y122.775 E3.94124
G1 X97.493 Y122.345 E3.95747
G1 X97.408 Y121.982 E3.97111
G1 X97.311 Y121.524 E3.98823
G1 X97.257 Y121.228 E3.99924
G1 X97.16 Y120.655 E4.0205
G1 X97.094 Y120.217 E4.03671
G1 X97.051 Y119.868 E4.04957
G1 X97.013 Y119.513 E4.06264
G1 X96.982 Y119.178 E4.07495
G1 X96.97 Y119.021 E4.08071
G1 X96.949 Y118.668 E4.09364
G1 X96.925 Y118.128 E4.11342
G1 X96.916 Y117.443 E4.13848
G1 X96.926 Y116.865 E4.15963
G1 X96.958 Y116.191 E4.18432
G1 X97.007 Y115.565 E4.20729
G1 X97.081 Y114.887 E4.23225
G1 X97.148 Y114.41 E4.24987
G1 X97.257 Y113.77 E4.27362
G1 X97.382 Y113.147 E4.29687
G1 X97.484 Y112.687 E4.31411
G1 X97.569 Y112.351 E4.32679
G1 X97.725 Y111.778 E4.34851
G1 X97.758 Y111.665 E4.35282
G1 X97.884 Y111.261 E4.3683
G1 X98.074 Y110.692 E4.39025
G1 X98.297 Y110.086 E4.41388
G1 X98.483 Y109.621 E4.4322
G1 X98.633 Y109.263 E4.4464
G1 X98.796 Y108.903 E4.46086
G1 X98.99 Y108.492 E4.47749
G1 X99.28 Y107.921 E4.50092
G1 X99.567 Y107.394 E4.52287
G1 X99.929 Y106.778 E4.54901
G1 X100.256 Y106.26 E4.57142
G1 X100.495 Y105.897 E4.58733
G1 X100.686 Y105.622 E4.59958
G1 X100.931 Y105.282 E4.61491
G1 X101.202 Y104.921 E4.63142
G1 X101.405 Y104.666 E4.64335
G1 X101.745 Y104.251 E4.66298
G1 X102.056 Y103.887 E4.68049
G1 X102.244 Y103.678 E4.69078
G1 X102.549 Y103.348 E4.70722
G1 X103.033 Y102.857 E4.73244
G0 F2100 X103.337 Y103.175
G1 F1200 X103.809 Y102.724 E4.75633
G1 X104.147 Y102.413 E4.77313
G1 X104.331 Y102.253 E4.78205
G1 X104.605 Y102.02 E4.79521
G1 X104.893 Y101.784 E4.80883
G1 X105.254 Y101.503 E4.82557
G1 X105.638 Y101.216 E4.84311
G1 X106.004 Y100.954 E4.85958
G1 X106.244 Y100.793 E4.87015
G1 X106.667 Y100.515 E4.88867
G1 X106.979 Y100.317 E4.90219
G1 X107.317 Y100.116 E4.91658
G1 X107.696 Y99.899 E4.93255
G1 X108.076 Y99.691 E4.9484
G1 X108.35 Y99.552 E4.95964
G1 X108.845 Y99.309 E4.97982
G1 X109.221 Y99.132 E4.99502
G1 X109.544 Y98.991 E5.00792
G1 X109.914 Y98.836 E5.02259
G1 X110.322 Y98.674 E5.03866
G1 X110.602 Y98.572 E5.04956
G1 X111.166 Y98.375 E5.07142
G1 X111.814 Y98.172 E5.09626
G1 X112.301 Y98.036 E5.11476
G1 X112.711 Y97.93 E5.13025
G1 X112.984 Y97.866 E5.14051
G1 X113.398 Y97.775 E5.15602
G1 X113.839 Y97.687 E5.17247
G1 X114.174 Y97.63 E5.1849
G1 X114.704 Y97.549 E5.20452
G1 X115.056 Y97.502 E5.21751
G1 X115.475 Y97.455 E5.23294
G1 X115.875 Y97.418 E5.24764
G1 X116.229 Y97.391 E5.26062
G1 X116.621 Y97.372 E5.27498
G1 X117.145 Y97.356 E5.29416
G1 X117.808 Y97.356 E5.31842
G1 X118.439 Y97.376 E5.34152
G1 X118.859 Y97.397 E5.3569
G1 X119.179 Y97.421 E5.36864
G1 X119.477 Y97.448 E5.37959
G1 X119.913 Y97.496 E5.39564
G1 X120.267 Y97.545 E5.40871
G1 X120.879 Y97.639 E5.43137
G1 X121.525 Y97.758 E5.4554
G1 X122.022 Y97.866 E5.47401
G1 X122.371 Y97.948 E5.48712
G1 X122.728 Y98.043 E5.50064
G1 X123.254 Y98.192 E5.52064
G1 X123.865 Y98.384 E5.54407
G1 X124.386 Y98.566 E5.56426
G1 X124.76 Y98.704 E5.57885
G1 X125.137 Y98.854 E5.59369
G1 X125.498 Y99.006 E5.60802
G1 X125.93 Y99.199 E5.62533
G1 X126.192 Y99.324 E5.63595
G1 X126.653 Y99.551 E5.65475
G1 X127.235 Y99.86 E5.67886
G1 X127.737 Y100.147 E5.70002
G1 X128.12 Y100.376 E5.71634
G1 X128.329 Y100.509 E5.72541
G1 X128.708 Y100.756 E5.74196
G1 X129.252 Y101.135 E5.76622
G1 X129.764 Y101.516 E5.78957
G1 X130.028 Y101.719 E5.80175
G1 X130.159 Y101.823 E5.80787
G1 X130.413 Y102.031 E5.81988
G1 X130.633 Y102.217 E5.83042
G1 X130.966 Y102.51 E5.84665
G1 X131.178 Y102.707 E5.85724
G1 X131.627 Y103.135 E5.87993
G1 X132.078 Y103.591 E5.9034
G1 X132.437 Y103.977 E5.92268
G1 X132.874 Y104.478 E5.947
G1 X133.252 Y104.939 E5.96882
G1 X133.486 Y105.234 E5.98259
G1 X133.706 Y105.527 E5.996
G1 X133.937 Y105.846 E6.01041
G1 X134.177 Y106.191 E6.02578
G1 X134.361 Y106.471 E6.03804
G1 X134.671 Y106.96 E6.05922
G1 X134.963 Y107.449 E6.08006
G1 X135.205 Y107.88 E6.09815
G1 X135.533 Y108.512 E6.1242
G1 X135.819 Y109.112 E6.14851
G1 X136.014 Y109.547 E6.16596
G1 X136.111 Y109.778 E6.17512
G1 X136.265 Y110.16 E6.19019
G1 X136.385 Y110.471 E6.20239
G1 X136.545 Y110.921 E6.21986
G1 X136.729 Y111.48 E6.24139
G1 X136.906 Y112.078 E6.26421
G1 X137.043 Y112.594 E6.28374
G1 X137.188 Y113.216 E6.30711
G1 X137.339 Y113.971 E6.33528
G1 X137.42 Y114.474 E6.35392
G1 X137.497 Y115.035 E6.37463
G1 X137.547 Y115.452 E6.39
G1 X137.583 Y115.846 E6.40447
G1 X137.604 Y116.131 E6.41493
G1 X137.628 Y116.563 E6.43076
G1 X137.639 Y116.881 E6.4424
G1 X137.649 Y117.419 E6.46209
G1 X137.64 Y118.112 E6.48744
G1 X137.611 Y118.736 E6.5103
G1 X137.584 Y119.15 E6.52548
G1 X137.554 Y119.468 E6.53716
G1 X137.515 Y119.832 E6.55056
G1 X137.47 Y120.195 E6.56394
G1 X137.416 Y120.557 E6.57733
G1 X137.323 Y121.109 E6.59781
G1 X137.256 Y121.472 E6.61132
G1 X137.168 Y121.882 E6.62666
G1 X137.072 Y122.292 E6.64206
G1 X136.953 Y122.755 E6.65955
G1 X136.886 Y122.99 E6.66849
G1 X136.731 Y123.511 E6.68838
G1 X136.526 Y124.131 E6.71227
G1 X136.314 Y124.711 E6.73486
G1 X136.132 Y125.175 E6.7531
G1 X136.04 Y125.394 E6.76179
G1 X135.897 Y125.722 E6.77488
G1 X135.702 Y126.144 E6.79189
G1 X135.571 Y126.412 E6.8028
G1 X135.327 Y126.89 E6.82244
G1 X135.122 Y127.272 E6.8383
G1 X134.936 Y127.6 E6.85209
G1 X134.748 Y127.917 E6.86558
G1 X134.585 Y128.183 E6.87699
G1 X134.509 Y128.303 E6.88219
G1 X134.346 Y128.552 E6.89308
G1 X134.074 Y128.956 E6.9109
G1 X133.866 Y129.253 E6.92416
G1 X133.614 Y129.595 E6.9397
G1 X133.331 Y129.964 E6.95672
G1 X133.106 Y130.247 E6.96995
G1 X132.842 Y130.563 E6.98501
G1 X132.575 Y130.87 E6.9999
G1 X132.31 Y131.164 E7.01438
G1 X132.044 Y131.444 E7.02851
G1 X131.678 Y131.816 E7.0476
G1 X131.2 Y132.273 E7.07179
G1 X130.741 Y132.685 E7.09436
G1 X130.405 Y132.975 E7.1106
G1 X130.163 Y133.173 E7.12204
G1 X129.898 Y133.384 E7.13443
G1 X129.549 Y133.651 E7.15051
G1 X129.302 Y133.829 E7.16165
G1 X128.725 Y134.231 E7.18738
G1 X128.18 Y134.586 E7.21117
G1 X127.829 Y134.8 E7.22621
G1 X127.533 Y134.974 E7.23877
G1 X127.175 Y135.172 E7.25374
G1 X126.724 Y135.412 E7.27243
G1 X126.122 Y135.709 E7.29699
G1 X125.569 Y135.96 E7.31921
G1 X125.193 Y136.122 E7.33419
G1 X124.914 Y136.234 E7.34519
G1 X124.533 Y136.381 E7.36013
G1 X124.138 Y136.525 E7.37551
G1 X123.836 Y136.625 E7.38715
G1 X123.316 Y136.789 E7.4071
G1 X122.721 Y136.958 E7.42973
G1 X122.151 Y137.102 E7.45124
G1 X121.781 Y137.189 E7.46515
G1 X121.376 Y137.271 E7.48026
G1 X120.914 Y137.356 E7.49745
G1 X120.293 Y137.451 E7.52043
G1 X119.654 Y137.53 E7.54399
G1 X119.183 Y137.578 E7.56131
G1 X118.91 Y137.598 E7.57133
G1 X118.547 Y137.62 E7.58463
G1 X118.24 Y137.635 E7.59588
G1 X118.114 Y137.639 E7.60049
G1 X117.776 Y137.644 E7.61286
G1 X117.207 Y137.644 E7.63367
G1 X116.56 Y137.624 E7.65736
G1 X116.017 Y137.591 E7.67726
G1 X115.605 Y137.559 E7.69238
G1 X115.214 Y137.517 E7.70677
G1 X114.767 Y137.461 E7.72325
G1 X114.156 Y137.367 E7.74587
G1 X113.384 Y137.223 E7.7746
G1 X112.811 Y137.095 E7.79608
G1 X112.387 Y136.988 E7.81208
G1 X111.993 Y136.881 E7.82701
G1 X111.672 Y136.785 E7.83927
G1 X111.188 Y136.632 E7.85784
G1 X110.58 Y136.42 E7.8814
G1 X110.02 Y136.205 E7.90335
G1 X109.58 Y136.025 E7.92074
G1 X109.321 Y135.912 E7.93108
G1 X109.012 Y135.772 E7.94349
G1 X108.613 Y135.582 E7.95966
G1 X108.317 Y135.431 E7.97182
G1 X107.83 Y135.173 E7.99198
G1 X107.462 Y134.969 E8.00737
G1 X107.152 Y134.784 E8.02058
G1 X106.703 Y134.508 E8.03986
G1 X106.168 Y134.157 E8.06327
G1 X105.727 Y133.848 E8.08297
G1 X105.209 Y133.462 E8.10661
G1 X104.755 Y133.101 E8.12783
G1 X104.391 Y132.799 E8.14513
G1 X104.148 Y132.588 E8.15691
G1 X103.914 Y132.378 E8.16841
G1 X103.615 Y132.099 E8.18337
G1 X103.369 Y131.857 E8.196
G1 X102.901 Y131.381 E8.22042
G1 X102.443 Y130.885 E8.24512
G1 X102.133 Y130.527 E8.26245
G1 X101.908 Y130.259 E8.27525
G1 X101.689 Y129.983 E8.28814
G1 X101.39 Y129.594 E8.30609
G1 X101.14 Y129.256 E8.32147
G1 X100.946 Y128.98 E8.33381
G1 X100.695 Y128.61 E8.35017
G1 X100.464 Y128.255 E8.36567
G1 X100.299 Y127.985 E8.37724
G1 X100.034 Y127.537 E8.39629
G1 X99.859 Y127.231 E8.40918
G1 X99.669 Y126.876 E8.42392
G1 X99.458 Y126.463 E8.44088
G1 X99.269 Y126.073 E8.45674
G1 X99.148 Y125.806 E8.46746
G1 X98.901 Y125.239 E8.49009
G1 X98.636 Y124.571 E8.51638
G1 X98.454 Y124.062 E8.53616
G1 X98.277 Y123.521 E8.55699
G1 X98.126 Y123.015 E8.57631
G1 X98.028 Y122.663 E8.58967
