;FLAVOR:Marlin
;TIME:6978
;Filament used: 3.84305m
;Layer height: 0.2
;MINX:96.225
;MINY:73.699
;MINZ:0.2
;MAXX:138.759
;MAXY:169.6
;MAXZ:19.6
;Generated with Cura_SteamEngine 5.0.0
M140 S60
M105
M190 S60
M104 S222
M105
M109 S222
M82 ;absolute extrusion mode
; Ender 3 Custom Start G-code
G92 E0 ; Reset Extruder
M140 S60 ; Start heating the heated bed
M190 S60 ; Wait until the heated bed reaches the desired temperature
G28 ; Auto Home
G29 A; Activate Bed Leveling
G29 L0; Loads the saved mesh in slot 0
G29  J3; 9 point autotilt

G92 E0 ; Reset extruder origin
G1 Z2.0 F3000 ; Move Z Axis up little to prevent scratching of Heat Bed
G1 X0.1 Y20 Z0.3 F5000.0 ; Move to start position
G1 X0.1 Y200.0 Z0.3 F1500.0 E15 ; Draw the first line
G1 X0.4 Y200.0 Z0.3 F5000.0 ; Move to side a little
G1 X0.4 Y20 Z0.3 F1500.0 E30 ; Draw the second line
G92 E0 ; Reset Extruder
G1 Z2.0 F3000 ; Move Z Axis up little to prevent scratching of Heat Bed
G1 X5 Y20 Z0.3 F5000.0 ; Move over to prevent blob squish

; End of Ender 3 Custom Start G-code
G92 E0
G92 E0
G1 F2700 E-5
;LAYER_COUNT:98
;LAYER:0
M107
G0 F2100 X102.549 Y78.205 Z0.2
G0 X100.108 Y86.668
;TYPE:SKIRT
G1 F2700 E0
G1 F1200 X100.127 Y85.816 E0.03118
G1 X100.17 Y84.967 E0.06228
G1 X100.245 Y84.127 E0.09314
G1 X100.301 Y83.687 E0.10936
G1 X100.459 Y82.758 E0.14384
G1 X100.696 Y81.846 E0.17831
G1 X101.009 Y80.957 E0.2128
G1 X101.44 Y80.012 E0.2508
G1 X101.549 Y79.8 E0.25952
G1 X102.015 Y78.982 E0.29396
G1 X102.549 Y78.205 E0.32845
G1 X103.147 Y77.477 E0.36292
G1 X103.804 Y76.802 E0.39739
G1 X104.516 Y76.185 E0.43186
G1 X105.278 Y75.631 E0.46632
G1 X106.084 Y75.143 E0.5008
G1 X106.929 Y74.726 E0.53527
G1 X107.896 Y74.35 E0.57323
G1 X108.114 Y74.277 E0.58164
G1 X109.02 Y74.016 E0.61614
G1 X109.944 Y73.833 E0.6506
G1 X110.88 Y73.729 E0.68505
G1 X111.635 Y73.703 E0.71269
G1 X122.789 Y73.699 E1.12077
G1 X123.654 Y73.71 E1.15242
G1 X124.594 Y73.763 E1.18687
G1 X125.527 Y73.896 E1.22135
G1 X126.445 Y74.108 E1.25582
G1 X127.342 Y74.397 E1.2903
G1 X128.211 Y74.76 E1.32475
G1 X129.046 Y75.196 E1.35922
G1 X129.841 Y75.702 E1.39369
G1 X130.591 Y76.273 E1.42818
G1 X131.528 Y77.147 E1.47506
G1 X131.673 Y77.299 E1.48275
G1 X132.293 Y78.008 E1.51721
G1 X132.852 Y78.767 E1.55169
G1 X133.344 Y79.57 E1.58615
G1 X133.766 Y80.412 E1.62061
G1 X134.1 Y81.243 E1.65337
G1 X134.385 Y82.141 E1.68784
G1 X134.645 Y83.374 E1.73394
G1 X134.707 Y83.781 E1.74901
G1 X134.795 Y84.52 E1.77624
G1 X134.829 Y84.923 E1.79103
G1 X134.866 Y85.631 E1.81697
G1 X134.893 Y87.09 E1.87036
G1 X134.895 Y110.498 E2.72677
G1 X134.932 Y113.129 E2.82303
G1 X135.039 Y115.645 E2.91517
G1 X135.216 Y118.144 E3.00683
G1 X135.462 Y120.617 E3.09775
G1 X135.786 Y123.148 E3.19111
G1 X136.176 Y125.633 E3.28314
G1 X136.635 Y128.104 E3.37509
G1 X137.157 Y130.531 E3.46591
G1 X137.761 Y132.989 E3.55852
G1 X138.367 Y135.205 E3.64257
G1 X138.577 Y136.123 E3.67702
G1 X138.708 Y137.056 E3.71149
G1 X138.759 Y137.997 E3.74597
G1 X138.729 Y138.963 E3.78133
G1 X138.694 Y139.43 E3.79846
G1 X138.529 Y140.676 E3.84445
G1 X134.944 Y159.496 E4.54538
G1 X134.786 Y160.245 E4.57338
G1 X134.553 Y161.158 E4.60786
G1 X134.243 Y162.048 E4.64234
G1 X133.826 Y162.973 E4.67946
G1 X133.716 Y163.19 E4.68836
G1 X133.254 Y164.011 E4.72283
G1 X132.725 Y164.791 E4.75731
G1 X132.132 Y165.522 E4.79175
G1 X131.643 Y166.041 E4.81784
G1 X131.458 Y166.225 E4.82738
G1 X130.762 Y166.861 E4.86188
G1 X130.015 Y167.435 E4.89634
G1 X128.835 Y168.159 E4.94699
G1 X128.641 Y168.262 E4.95503
G1 X127.791 Y168.668 E4.98949
G1 X126.91 Y169.001 E5.02395
G1 X126.003 Y169.257 E5.05843
G1 X124.659 Y169.49 E5.10834
G1 X124.28 Y169.532 E5.12229
G1 X122.992 Y169.6 E5.16948
G1 X122.43 Y169.59 E5.19004
G1 X121.437 Y169.549 E5.2264
G1 X121.282 Y169.549 E5.23207
G1 X120.139 Y169.499 E5.27393
G1 X117.576 Y169.458 E5.36771
G1 X115.044 Y169.491 E5.46036
G1 X112.28 Y169.587 E5.56154
G1 X111.821 Y169.589 E5.57833
G1 X110.88 Y169.553 E5.61279
G1 X109.945 Y169.437 E5.64726
G1 X109.128 Y169.273 E5.67774
G1 X108.218 Y169.031 E5.71219
G1 X107.331 Y168.714 E5.74666
G1 X106.474 Y168.322 E5.78114
G1 X105.495 Y167.759 E5.82245
G1 X105.261 Y167.608 E5.83264
G1 X104.492 Y167.064 E5.86711
G1 X103.772 Y166.457 E5.90156
G1 X103.106 Y165.79 E5.93605
G1 X102.498 Y165.07 E5.97052
G1 X101.918 Y164.244 E6.00745
G1 X101.718 Y163.93 E6.02107
G1 X101.246 Y163.115 E6.05553
G1 X100.845 Y162.262 E6.09001
G1 X100.517 Y161.379 E6.12447
G1 X100.213 Y160.228 E6.16803
G1 X99.975 Y159.076 E6.21107
G1 X96.507 Y140.843 E6.8901
G1 X96.389 Y140.165 E6.91528
G1 X96.267 Y139.231 E6.94974
G1 X96.225 Y138.29 E6.9842
G1 X96.246 Y137.568 E7.01063
G1 X96.337 Y136.63 E7.04511
G1 X96.508 Y135.703 E7.07959
G1 X96.642 Y135.174 E7.09956
G1 X96.777 Y134.694 E7.1178
G1 X97.443 Y132.18 E7.21295
G1 X98.016 Y129.746 E7.30444
G1 X98.535 Y127.222 E7.39871
G1 X98.958 Y124.825 E7.48777
G1 X99.329 Y122.301 E7.5811
G1 X99.626 Y119.797 E7.67336
G1 X99.851 Y117.303 E7.76497
G1 X100.004 Y114.809 E7.85639
G1 X100.09 Y112.23 E7.9508
G1 X100.105 Y110.603 E8.01033
G1 X100.108 Y86.668 E8.88602
G0 F2100 X100.548 Y86.674
G1 F1200 X100.567 Y85.838 E8.91661
G1 X100.61 Y84.989 E8.94771
G1 X100.681 Y84.182 E8.97735
G1 X100.737 Y83.742 E8.99358
G1 X100.893 Y82.832 E9.02736
G1 X101.128 Y81.939 E9.06114
G1 X101.438 Y81.07 E9.0949
G1 X101.832 Y80.214 E9.12937
G1 X101.941 Y80.002 E9.13809
G1 X102.398 Y79.2 E9.17186
G1 X102.923 Y78.44 E9.20566
G1 X103.512 Y77.729 E9.23944
G1 X104.16 Y77.071 E9.27323
G1 X104.862 Y76.472 E9.30699
G1 X105.614 Y75.936 E9.34078
G1 X106.409 Y75.468 E9.37453
G1 X107.242 Y75.069 E9.40832
G1 X108.036 Y74.768 E9.43939
G1 X108.254 Y74.695 E9.4478
G1 X109.141 Y74.44 E9.48156
G1 X110.048 Y74.262 E9.51538
G1 X110.966 Y74.164 E9.54916
G1 X111.635 Y74.143 E9.57364
G1 X122.789 Y74.139 E9.98173
G1 X123.648 Y74.15 E10.01316
G1 X124.569 Y74.203 E10.04691
G1 X125.483 Y74.336 E10.0807
G1 X126.382 Y74.547 E10.11448
G1 X127.259 Y74.835 E10.14826
G1 X128.108 Y75.198 E10.18204
G1 X128.922 Y75.633 E10.21581
G1 X129.696 Y76.137 E10.2496
G1 X130.423 Y76.706 E10.28337
G1 X131.209 Y77.451 E10.323
G1 X131.354 Y77.603 E10.33068
G1 X131.962 Y78.298 E10.36446
G1 X132.507 Y79.043 E10.39824
G1 X132.986 Y79.832 E10.43201
G1 X133.395 Y80.66 E10.46579
G1 X133.687 Y81.394 E10.49469
G1 X133.965 Y82.274 E10.52846
G1 X134.21 Y83.441 E10.57209
G1 X134.272 Y83.848 E10.58715
G1 X134.356 Y84.557 E10.61327
G1 X134.39 Y84.96 E10.62807
G1 X134.426 Y85.64 E10.65298
G1 X134.453 Y87.09 E10.70604
G1 X134.455 Y110.502 E11.56259
G1 X134.492 Y113.155 E11.65967
G1 X134.598 Y115.659 E11.75136
G1 X134.776 Y118.159 E11.84306
G1 X135.03 Y120.715 E11.93703
G1 X135.349 Y123.2 E12.02869
G1 X135.737 Y125.674 E12.12031
G1 X136.207 Y128.204 E12.21446
G1 X136.728 Y130.629 E12.30521
G1 X137.343 Y133.13 E12.39943
G1 X137.942 Y135.321 E12.48254
G1 X138.147 Y136.221 E12.51631
G1 X138.273 Y137.136 E12.5501
G1 X138.32 Y138.058 E12.58388
G1 X138.29 Y138.93 E12.6158
G1 X138.255 Y139.397 E12.63293
G1 X138.097 Y140.594 E12.6771
G1 X134.513 Y159.405 E13.37771
G1 X134.355 Y160.154 E13.40571
G1 X134.126 Y161.049 E13.43951
G1 X133.82 Y161.92 E13.47329
G1 X133.433 Y162.774 E13.50759
G1 X133.323 Y162.991 E13.51649
G1 X132.87 Y163.795 E13.55026
G1 X132.35 Y164.558 E13.58404
G1 X131.765 Y165.272 E13.61781
G1 X131.332 Y165.729 E13.64084
G1 X131.147 Y165.913 E13.65039
G1 X130.465 Y166.535 E13.68416
G1 X129.732 Y167.096 E13.71793
G1 X128.629 Y167.77 E13.76522
G1 X128.435 Y167.873 E13.77326
G1 X127.601 Y168.27 E13.80705
G1 X126.737 Y168.594 E13.84081
G1 X125.847 Y168.842 E13.87461
G1 X124.61 Y169.053 E13.92052
G1 X124.231 Y169.095 E13.93447
G1 X122.995 Y169.16 E13.97976
G1 X122.448 Y169.15 E13.99977
G1 X121.578 Y169.114 E14.03163
G1 X121.301 Y169.11 E14.04177
G1 X120.129 Y169.059 E14.08469
G1 X117.578 Y169.018 E14.17803
G1 X115.063 Y169.05 E14.27005
G1 X112.278 Y169.147 E14.372
G1 X111.819 Y169.149 E14.3888
G1 X110.897 Y169.113 E14.42256
G1 X109.981 Y168.997 E14.45634
G1 X109.223 Y168.843 E14.48464
G1 X108.331 Y168.606 E14.5184
G1 X107.462 Y168.292 E14.55221
G1 X106.624 Y167.904 E14.58599
G1 X105.734 Y167.389 E14.62361
G1 X105.5 Y167.238 E14.6338
G1 X104.747 Y166.704 E14.66758
G1 X104.042 Y166.107 E14.70138
G1 X103.392 Y165.452 E14.73514
G1 X102.801 Y164.742 E14.76893
G1 X102.289 Y164.008 E14.80168
G1 X102.089 Y163.694 E14.8153
G1 X101.627 Y162.894 E14.8491
G1 X101.236 Y162.058 E14.88286
G1 X100.919 Y161.191 E14.91664
G1 X100.644 Y160.139 E14.95642
G1 X100.407 Y158.993 E14.99923
G1 X96.941 Y140.768 E15.67797
G1 X96.823 Y140.09 E15.70314
G1 X96.704 Y139.174 E15.73694
G1 X96.665 Y138.252 E15.7707
G1 X96.686 Y137.592 E15.79486
G1 X96.776 Y136.673 E15.82864
G1 X96.945 Y135.765 E15.86243
G1 X97.066 Y135.292 E15.8803
G1 X97.194 Y134.834 E15.8977
G1 X97.868 Y132.295 E15.9938
G1 X98.45 Y129.821 E16.08679
G1 X98.964 Y127.321 E16.18017
G1 X99.398 Y124.859 E16.27163
G1 X99.763 Y122.38 E16.36331
G1 X100.063 Y119.852 E16.45645
G1 X100.29 Y117.336 E16.54887
G1 X100.444 Y114.815 E16.64128
G1 X100.528 Y112.292 E16.73363
G1 X100.545 Y110.502 E16.79913
G1 X100.548 Y86.674 E17.6709
G0 F2100 X100.988 Y86.68
G1 F1200 X101.006 Y85.86 E17.70091
G1 X101.049 Y85.011 E17.73201
G1 X101.118 Y84.238 E17.7604
G1 X101.174 Y83.798 E17.77663
G1 X101.327 Y82.907 E17.80971
G1 X101.559 Y82.033 E17.84279
G1 X101.867 Y81.183 E17.87587
G1 X102.223 Y80.415 E17.90684
G1 X102.332 Y80.203 E17.91556
G1 X102.78 Y79.418 E17.94863
G1 X103.297 Y78.676 E17.98171
G1 X103.876 Y77.982 E18.01478
G1 X104.515 Y77.342 E18.04787
G1 X105.208 Y76.762 E18.08093
G1 X105.949 Y76.244 E18.11401
G1 X106.733 Y75.795 E18.14706
G1 X107.554 Y75.416 E18.18015
G1 X108.176 Y75.185 E18.20442
G1 X108.394 Y75.112 E18.21283
G1 X109.263 Y74.863 E18.24591
G1 X110.151 Y74.692 E18.27899
G1 X111.05 Y74.6 E18.31205
G1 X111.635 Y74.583 E18.33347
G1 X122.789 Y74.579 E18.74155
G1 X123.641 Y74.59 E18.77272
G1 X124.544 Y74.643 E18.80582
G1 X125.438 Y74.775 E18.83888
G1 X126.317 Y74.986 E18.87195
G1 X127.174 Y75.274 E18.90503
G1 X128.002 Y75.636 E18.93809
G1 X128.795 Y76.07 E18.97116
G1 X129.547 Y76.573 E19.00427
G1 X130.251 Y77.14 E19.03734
G1 X130.891 Y77.755 E19.06981
G1 X131.036 Y77.907 E19.0775
G1 X131.63 Y78.588 E19.11056
G1 X132.162 Y79.319 E19.14363
G1 X132.628 Y80.094 E19.17672
G1 X133.022 Y80.907 E19.20977
G1 X133.273 Y81.544 E19.23482
G1 X133.545 Y82.406 E19.26789
G1 X133.775 Y83.507 E19.30904
G1 X133.837 Y83.914 E19.32411
G1 X133.918 Y84.594 E19.34916
G1 X133.952 Y84.997 E19.36396
G1 X133.986 Y85.649 E19.38784
G1 X134.013 Y87.09 E19.44057
G1 X134.015 Y110.507 E20.29731
G1 X134.052 Y113.145 E20.39384
G1 X134.161 Y115.708 E20.48769
G1 X134.337 Y118.197 E20.57898
G1 X134.591 Y120.746 E20.6727
G1 X134.913 Y123.257 E20.76532
G1 X135.31 Y125.786 E20.85898
G1 X135.771 Y128.271 E20.95145
G1 X136.298 Y130.721 E21.04313
G1 X136.916 Y133.235 E21.13785
G1 X137.518 Y135.437 E21.22137
G1 X137.718 Y136.318 E21.25442
G1 X137.839 Y137.214 E21.2875
G1 X137.88 Y138.117 E21.32057
G1 X137.851 Y138.897 E21.34913
G1 X137.816 Y139.364 E21.36626
G1 X137.665 Y140.511 E21.40859
G1 X134.083 Y159.314 E22.10889
G1 X133.925 Y160.063 E22.1369
G1 X133.699 Y160.939 E22.16999
G1 X133.397 Y161.791 E22.20307
G1 X133.041 Y162.575 E22.23457
G1 X132.931 Y162.792 E22.24347
G1 X132.487 Y163.579 E22.27653
G1 X131.975 Y164.324 E22.3096
G1 X131.399 Y165.021 E22.34268
G1 X130.837 Y165.601 E22.37223
G1 X130.169 Y166.21 E22.4053
G1 X129.449 Y166.757 E22.43838
G1 X128.422 Y167.382 E22.48237
G1 X128.228 Y167.485 E22.49041
G1 X127.412 Y167.873 E22.52346
G1 X126.565 Y168.187 E22.55651
G1 X125.693 Y168.426 E22.58959
G1 X124.562 Y168.616 E22.63155
G1 X124.183 Y168.658 E22.6455
G1 X122.997 Y168.72 E22.68895
G1 X122.466 Y168.71 E22.70838
G1 X121.455 Y168.668 E22.7454
G1 X121.32 Y168.67 E22.75034
G1 X120.155 Y168.619 E22.79301
G1 X117.579 Y168.578 E22.88726
G1 X115.042 Y168.61 E22.98009
G1 X112.277 Y168.707 E23.08131
G1 X111.818 Y168.709 E23.09811
G1 X110.914 Y168.673 E23.13121
G1 X109.576 Y168.47 E23.18072
G1 X109.317 Y168.413 E23.19042
G1 X108.444 Y168.18 E23.22348
G1 X107.595 Y167.871 E23.25653
G1 X106.776 Y167.487 E23.28963
G1 X105.973 Y167.019 E23.32363
G1 X105.739 Y166.868 E23.33382
G1 X105.001 Y166.345 E23.36692
G1 X104.313 Y165.759 E23.39998
G1 X103.68 Y165.114 E23.43304
G1 X103.106 Y164.415 E23.46613
G1 X102.66 Y163.771 E23.49479
G1 X102.46 Y163.457 E23.50841
G1 X102.009 Y162.674 E23.54147
G1 X101.628 Y161.854 E23.57455
G1 X101.322 Y161.004 E23.60761
G1 X101.074 Y160.049 E23.64371
G1 X100.839 Y158.911 E23.68622
G1 X97.374 Y140.692 E24.36473
G1 X97.256 Y140.014 E24.38991
G1 X97.141 Y139.118 E24.42296
G1 X97.105 Y138.214 E24.45606
G1 X97.125 Y137.615 E24.47799
G1 X97.214 Y136.716 E24.51104
G1 X97.489 Y135.411 E24.55983
G1 X97.646 Y134.851 E24.58111
G1 X98.295 Y132.402 E24.6738
G1 X98.875 Y129.938 E24.76641
G1 X99.393 Y127.42 E24.86047
G1 X99.832 Y124.927 E24.95308
G1 X100.201 Y122.424 E25.04564
G1 X100.499 Y119.91 E25.13827
G1 X100.728 Y117.366 E25.23172
G1 X100.884 Y114.822 E25.32497
G1 X100.968 Y112.309 E25.41696
G1 X100.985 Y110.507 E25.48289
G1 X100.988 Y86.68 E26.35463
G1 F2700 E21.35463
;MESH:octopus clip v3.stl
G0 F2100 X106.649 Y138.319
G0 X110.447 Y158.213
G0 X110.846 Y158.802
G0 X111.244 Y159.058
G0 X111.828 Y159.176
G0 X112.477 Y159.099
G0 X112.897 Y158.872
G0 X113.334 Y158.315
G0 X113.433 Y157.966
G0 X113.475 Y100.557
G0 X112.364 Y100.762
G0 X112.056 Y157.893
G1 F2700 E26.35463
G0 F2100 X112.193 Y158.254
;TYPE:WALL-OUTER
G1 F1200 X112.406 Y158.108 E26.36408
G1 X112.532 Y157.877 E26.3737
G1 X112.573 Y157.609 E26.38362
G1 X112.573 Y100.76 E28.46351
G1 X112.595 Y100.463 E28.4744
G1 X112.642 Y100.109 E28.48747
G1 X112.73 Y99.756 E28.50078
G1 X112.833 Y99.456 E28.51238
G1 X112.985 Y99.126 E28.52568
G1 X113.159 Y98.835 E28.53808
G1 X113.36 Y98.557 E28.55063
G1 X113.587 Y98.305 E28.56304
G1 X113.836 Y98.079 E28.57534
G1 X114.109 Y97.875 E28.58781
G1 X114.396 Y97.7 E28.60011
G1 X114.7 Y97.555 E28.61243
G1 X115.01 Y97.443 E28.62449
G1 X115.343 Y97.357 E28.63708
G1 X115.676 Y97.308 E28.64939
G1 X116.001 Y97.291 E28.6613
G1 X119.014 Y97.291 E28.77153
G1 X119.346 Y97.31 E28.7837
G1 X119.678 Y97.362 E28.79599
G1 X119.988 Y97.439 E28.80768
G1 X120.32 Y97.563 E28.82064
G1 X120.623 Y97.709 E28.83295
G1 X120.893 Y97.873 E28.84451
G1 X121.179 Y98.092 E28.85769
G1 X121.428 Y98.32 E28.87004
G1 X121.653 Y98.575 E28.88248
G1 X121.85 Y98.85 E28.89486
G1 X122.023 Y99.145 E28.90737
G1 X122.157 Y99.433 E28.91899
G1 X122.273 Y99.756 E28.93155
G1 X122.357 Y100.101 E28.94454
G1 X122.405 Y100.441 E28.9571
G1 X122.427 Y100.777 E28.96942
G1 X122.429 Y139.526 E30.3871
G1 X122.431 Y157.789 E31.05527
G1 X122.547 Y158.053 E31.06582
G1 X122.754 Y158.231 E31.07581
G1 X123.014 Y158.288 E31.08555
G1 X123.368 Y158.254 E31.09856
G1 X123.581 Y158.108 E31.10801
G1 X123.734 Y157.851 E31.11895
G1 X127.459 Y138.296 E31.84725
G1 X127.435 Y138.203 E31.85077
G1 X127.313 Y138.157 E31.85554
G1 X123.798 Y138.157 E31.98414
G1 X123.665 Y138.113 E31.98926
G1 X123.578 Y137.937 E31.99645
G1 X123.573 Y86.123 E33.89212
G1 X123.529 Y85.487 E33.91545
G1 X123.484 Y85.144 E33.9281
G1 X123.404 Y85.019 E33.93353
G1 X111.58 Y85.019 E34.36613
G1 X111.513 Y85.166 E34.37204
G1 X111.469 Y85.503 E34.38447
G1 X111.431 Y86.084 E34.40577
G1 X111.427 Y86.161 E34.40859
G1 X111.427 Y99.613 E34.90075
G1 X111.426 Y100.433 E34.93075
G1 X111.423 Y137.938 E36.30292
G1 X111.336 Y138.115 E36.31013
G1 X111.203 Y138.158 E36.31525
G1 X107.628 Y138.159 E36.44604
G1 X107.557 Y138.217 E36.4494
G1 X107.546 Y138.301 E36.45249
G1 X111.257 Y157.802 E37.17876
G1 X111.384 Y158.067 E37.18952
G1 X111.59 Y158.239 E37.19933
G1 X111.837 Y158.288 E37.20855
G1 X112.193 Y158.254 E37.22163
G0 F2100 X111.683 Y157.686
;TYPE:WALL-INNER
G1 F1200 X111.762 Y157.823 E37.22742
G1 X112.049 Y157.824 E37.23792
G1 X112.133 Y157.691 E37.24367
G1 X112.133 Y138.733 E37.93727
G1 F1035.3 X112.063 Y138.405 E37.9515
G1 F812.3 X111.993 Y138.076 E37.96968
G1 X111.797 Y138.271 E37.98462
G1 F1035.3 X111.6 Y138.467 E37.9964
G1 F1200 X111.203 Y138.598 E38.0117
G1 X108.05 Y138.598 E38.12705
G1 X111.683 Y157.686 E38.83795
G1 F2700 E33.83795
