;FLAVOR:Marlin
;TIME:36124
;Filament used: 26.3997m
;Layer height: 0.2
;MINX:7.775
;MINY:42.15
;MINZ:0.2
;MAXX:227.225
;MAXY:192.85
;MAXZ:31
;Generated with Cura_SteamEngine 5.0.0
M140 S60
M105
M190 S60
M104 S222
M105
M109 S222
M82 ;absolute extrusion mode
; Ender 3 Custom Start G-code
G92 E0 ; Reset Extruder
M140 S60 ; Start heating the heated bed
M190 S60 ; Wait until the heated bed reaches the desired temperature
G28 ; Auto Home
G29 A; Activate Bed Leveling
G29 L0; Loads the saved mesh in slot 0
G29  J3; 9 point autotilt

G92 E0 ; Reset extruder origin
G1 Z2.0 F3000 ; Move Z Axis up little to prevent scratching of Heat Bed
G1 X0.1 Y20 Z0.3 F5000.0 ; Move to start position
G1 X0.1 Y200.0 Z0.3 F1500.0 E15 ; Draw the first line
G1 X0.4 Y200.0 Z0.3 F5000.0 ; Move to side a little
G1 X0.4 Y20 Z0.3 F1500.0 E30 ; Draw the second line
G92 E0 ; Reset Extruder
G1 Z2.0 F3000 ; Move Z Axis up little to prevent scratching of Heat Bed
G1 X5 Y20 Z0.3 F5000.0 ; Move over to prevent blob squish

; End of Ender 3 Custom Start G-code
G92 E0
G92 E0
G1 F2700 E-5
;LAYER_COUNT:155
;LAYER:0
M107
G0 F2100 X40.261 Y45.266 Z0.2
G0 X37.344 Y48.017
;TYPE:SKIRT
G1 F2700 E0
G1 F1200 X39.231 Y46.258 E0.09438
G1 X40.261 Y45.266 E0.1467
G1 X40.967 Y44.642 E0.18117
G1 X41.723 Y44.08 E0.21564
G1 X42.523 Y43.584 E0.25008
G1 X43.364 Y43.157 E0.28458
G1 X44.237 Y42.804 E0.31904
G1 X45.137 Y42.526 E0.3535
G1 X46.057 Y42.325 E0.38795
G1 X46.992 Y42.202 E0.42245
G1 X47.622 Y42.165 E0.44554
G1 X48.288 Y42.15 E0.46992
G1 X102.251 Y42.15 E2.44421
G1 X103.138 Y42.162 E2.47667
G1 X104.374 Y42.25 E2.522
G1 X105.518 Y42.398 E2.56421
G1 X106.262 Y42.504 E2.5917
G1 X108.786 Y42.789 E2.68463
G1 X111.291 Y43.001 E2.77661
G1 X113.803 Y43.141 E2.86866
G1 X116.32 Y43.211 E2.96078
G1 X118.839 Y43.209 E3.05294
G1 X121.33 Y43.137 E3.14411
G1 X123.864 Y42.992 E3.23697
G1 X126.313 Y42.782 E3.3269
G1 X130.193 Y42.311 E3.4699
G1 X130.499 Y42.268 E3.4812
G1 X131.74 Y42.163 E3.52677
G1 X132.372 Y42.15 E3.5499
G1 X186.493 Y42.151 E5.52998
G1 X187.197 Y42.161 E5.55573
G1 X188.137 Y42.214 E5.59018
G1 X189.07 Y42.347 E5.62466
G1 X189.988 Y42.559 E5.65913
G1 X190.885 Y42.848 E5.69361
G1 X191.754 Y43.211 E5.72807
G1 X192.589 Y43.647 E5.76253
G1 X193.265 Y44.071 E5.79172
G1 X195.628 Y45.672 E5.89615
G1 X197.763 Y47.029 E5.9887
G1 X199.926 Y48.318 E6.08083
G1 X202.116 Y49.541 E6.1726
G1 X204.355 Y50.71 E6.26501
G1 X206.617 Y51.811 E6.35705
G1 X208.904 Y52.845 E6.44887
G1 X211.221 Y53.813 E6.54075
G1 X213.58 Y54.723 E6.63325
G1 X215.919 Y55.549 E6.72401
G1 X218.468 Y56.369 E6.82197
G1 X219.37 Y56.646 E6.85649
G1 X220.258 Y56.96 E6.89095
G1 X221.117 Y57.348 E6.92544
G1 X221.939 Y57.808 E6.9599
G1 X222.719 Y58.336 E6.99436
G1 X223.452 Y58.928 E7.02883
G1 X224.132 Y59.58 E7.0633
G1 X224.754 Y60.287 E7.09775
G1 X225.314 Y61.045 E7.13223
G1 X225.808 Y61.847 E7.16669
G1 X226.232 Y62.689 E7.20118
G1 X226.583 Y63.563 E7.23564
G1 X226.859 Y64.464 E7.27012
G1 X227.057 Y65.385 E7.30458
G1 X227.176 Y66.32 E7.33907
G1 X227.212 Y66.948 E7.36208
G1 X227.225 Y67.58 E7.38521
G1 X227.224 Y181.151 E11.54033
G1 X227.215 Y181.878 E11.56693
G1 X227.164 Y182.819 E11.60141
G1 X227.032 Y183.752 E11.63589
G1 X226.822 Y184.671 E11.67038
G1 X226.535 Y185.568 E11.70483
G1 X226.173 Y186.438 E11.73931
G1 X225.739 Y187.274 E11.77377
G1 X225.235 Y188.07 E11.80824
G1 X224.666 Y188.82 E11.84268
G1 X224.034 Y189.52 E11.87719
G1 X223.346 Y190.163 E11.91164
G1 X222.606 Y190.746 E11.94611
G1 X221.819 Y191.264 E11.98058
G1 X220.991 Y191.713 E12.01504
G1 X220.128 Y192.091 E12.04951
G1 X219.236 Y192.394 E12.08397
G1 X218.321 Y192.62 E12.11846
G1 X217.391 Y192.768 E12.15291
G1 X216.427 Y192.837 E12.18827
G1 X215.795 Y192.85 E12.2114
G1 X19.439 Y192.849 E19.39531
G1 X18.741 Y192.84 E19.42084
G1 X17.8 Y192.788 E19.45532
G1 X16.867 Y192.656 E19.4898
G1 X15.949 Y192.446 E19.52425
G1 X15.052 Y192.158 E19.55872
G1 X14.182 Y191.796 E19.5932
G1 X13.346 Y191.361 E19.62768
G1 X12.551 Y190.857 E19.66211
G1 X11.8 Y190.287 E19.69661
G1 X11.101 Y189.655 E19.73108
G1 X10.458 Y188.967 E19.76554
G1 X9.876 Y188.226 E19.80001
G1 X9.358 Y187.439 E19.83448
G1 X8.909 Y186.611 E19.86894
G1 X8.532 Y185.747 E19.90343
G1 X8.23 Y184.855 E19.93788
G1 X8.004 Y183.941 E19.97233
G1 X7.857 Y183.01 E20.00682
G1 X7.788 Y182.041 E20.04236
G1 X7.775 Y181.408 E20.06552
G1 X7.776 Y73.787 E24.00296
G1 X7.786 Y73.096 E24.02824
G1 X7.84 Y72.156 E24.06269
G1 X7.973 Y71.223 E24.09717
G1 X8.185 Y70.305 E24.13164
G1 X8.474 Y69.408 E24.16612
G1 X8.837 Y68.539 E24.20057
G1 X9.274 Y67.704 E24.23506
G1 X9.779 Y66.909 E24.26951
G1 X10.35 Y66.16 E24.30397
G1 X10.983 Y65.462 E24.33845
G1 X11.672 Y64.82 E24.3729
G1 X12.414 Y64.239 E24.40738
G1 X13.202 Y63.722 E24.44186
G1 X14.158 Y63.214 E24.48147
G1 X16.604 Y62.063 E24.58037
G1 X18.836 Y60.936 E24.67185
G1 X21.039 Y59.742 E24.76353
G1 X23.215 Y58.484 E24.85548
G1 X25.371 Y57.153 E24.94818
G1 X27.446 Y55.792 E25.03897
G1 X29.541 Y54.328 E25.13248
G1 X31.545 Y52.845 E25.22369
G1 X33.537 Y51.28 E25.31638
G1 X35.453 Y49.686 E25.40756
G1 X37.344 Y48.017 E25.49984
G1 F2700 E20.49984
G0 F2100 X33.816 Y51.62
G1 F2700 E25.49984
G1 F1200 X35.734 Y50.025 E25.5911
G1 X37.643 Y48.34 E25.68426
G1 X39.525 Y46.586 E25.77839
G1 X40.566 Y45.583 E25.83127
G1 X41.258 Y44.972 E25.86505
G1 X42 Y44.423 E25.89882
G1 X42.788 Y43.94 E25.93263
G1 X43.613 Y43.527 E25.96639
G1 X44.472 Y43.188 E26.00017
G1 X45.356 Y42.923 E26.03394
G1 X46.261 Y42.737 E26.06774
G1 X47.635 Y42.605 E26.11824
G1 X48.288 Y42.59 E26.14214
G1 X102.251 Y42.59 E28.11644
G1 X103.132 Y42.602 E28.14867
G1 X104.318 Y42.687 E28.19217
G1 X105.456 Y42.833 E28.23415
G1 X106.256 Y42.947 E28.26371
G1 X108.732 Y43.227 E28.35488
G1 X111.264 Y43.441 E28.44785
G1 X113.768 Y43.581 E28.5396
G1 X116.308 Y43.651 E28.63256
G1 X118.817 Y43.649 E28.72436
G1 X121.367 Y43.575 E28.81769
G1 X123.89 Y43.431 E28.91015
G1 X126.376 Y43.218 E29.00144
G1 X130.26 Y42.747 E29.14458
G1 X130.561 Y42.704 E29.1557
G1 X131.752 Y42.603 E29.19943
G1 X132.372 Y42.59 E29.22212
G1 X186.486 Y42.591 E31.20194
G1 X187.19 Y42.601 E31.2277
G1 X188.112 Y42.654 E31.26149
G1 X189.026 Y42.787 E31.29528
G1 X189.925 Y42.998 E31.32907
G1 X190.802 Y43.286 E31.36284
G1 X191.651 Y43.649 E31.39662
G1 X192.465 Y44.084 E31.43039
G1 X193.018 Y44.435 E31.45435
G1 X195.405 Y46.052 E31.55983
G1 X197.513 Y47.391 E31.6512
G1 X199.724 Y48.71 E31.74539
G1 X201.881 Y49.914 E31.83577
G1 X204.156 Y51.102 E31.92967
G1 X206.424 Y52.206 E32.02196
G1 X208.751 Y53.258 E32.11539
G1 X211.063 Y54.224 E32.20706
G1 X213.425 Y55.136 E32.2997
G1 X215.776 Y55.966 E32.39091
G1 X218.277 Y56.771 E32.48704
G1 X219.241 Y57.066 E32.52392
G1 X220.111 Y57.375 E32.5577
G1 X220.951 Y57.758 E32.59148
G1 X221.755 Y58.212 E32.62526
G1 X222.517 Y58.734 E32.65905
G1 X223.23 Y59.319 E32.69279
G1 X223.891 Y59.965 E32.72661
G1 X224.493 Y60.665 E32.76039
G1 X225.032 Y61.414 E32.79415
G1 X225.504 Y62.208 E32.82794
G1 X225.906 Y63.039 E32.86172
G1 X226.234 Y63.902 E32.89549
G1 X226.486 Y64.79 E32.92926
G1 X226.661 Y65.697 E32.96306
G1 X226.772 Y66.96 E33.00945
G1 X226.785 Y67.58 E33.03213
G1 X226.784 Y181.146 E37.18708
G1 X226.775 Y181.873 E37.21368
G1 X226.724 Y182.795 E37.24746
G1 X226.593 Y183.709 E37.28124
G1 X226.383 Y184.608 E37.31502
G1 X226.097 Y185.486 E37.3488
G1 X225.735 Y186.335 E37.38257
G1 X225.302 Y187.15 E37.41633
G1 X224.799 Y187.925 E37.45014
G1 X224.232 Y188.653 E37.4839
G1 X223.603 Y189.329 E37.51768
G1 X222.918 Y189.949 E37.55148
G1 X222.183 Y190.506 E37.58522
G1 X221.401 Y190.998 E37.61902
G1 X220.581 Y191.421 E37.65278
G1 X219.726 Y191.771 E37.68658
G1 X218.845 Y192.046 E37.72035
G1 X217.943 Y192.243 E37.75413
G1 X217.027 Y192.362 E37.78792
G1 X216.415 Y192.397 E37.81035
G1 X215.795 Y192.41 E37.83304
G1 X19.445 Y192.409 E45.01673
G1 X18.747 Y192.4 E45.04227
G1 X17.825 Y192.348 E45.07605
G1 X16.911 Y192.217 E45.10983
G1 X16.012 Y192.007 E45.14361
G1 X15.134 Y191.72 E45.17741
G1 X14.285 Y191.358 E45.21117
G1 X13.47 Y190.924 E45.24496
G1 X12.696 Y190.421 E45.27873
G1 X11.968 Y189.853 E45.31251
G1 X11.292 Y189.224 E45.34629
G1 X10.673 Y188.539 E45.38007
G1 X10.116 Y187.803 E45.41384
G1 X9.624 Y187.022 E45.44761
G1 X9.202 Y186.201 E45.48138
G1 X8.852 Y185.346 E45.51518
G1 X8.578 Y184.465 E45.54894
G1 X8.381 Y183.563 E45.58272
G1 X8.263 Y182.647 E45.61651
G1 X8.228 Y182.029 E45.63915
G1 X8.215 Y181.408 E45.66188
G1 X8.216 Y73.794 E49.59906
G1 X8.226 Y73.103 E49.62435
G1 X8.279 Y72.181 E49.65813
G1 X8.412 Y71.267 E49.69193
G1 X8.624 Y70.369 E49.72568
G1 X8.912 Y69.492 E49.75945
G1 X9.275 Y68.643 E49.79324
G1 X9.711 Y67.829 E49.82702
G1 X10.215 Y67.055 E49.86081
G1 X10.784 Y66.328 E49.89459
G1 X11.414 Y65.653 E49.92837
G1 X12.1 Y65.035 E49.96215
G1 X12.837 Y64.479 E49.99593
G1 X13.619 Y63.989 E50.02969
G1 X14.345 Y63.612 E50.05962
G1 X16.778 Y62.467 E50.158
G1 X19.06 Y61.314 E50.25154
G1 X21.247 Y60.13 E50.34253
G1 X23.467 Y58.846 E50.43635
G1 X25.591 Y57.535 E50.52767
G1 X27.703 Y56.149 E50.6201
G1 X29.803 Y54.682 E50.71382
G1 X31.804 Y53.201 E50.8049
G1 X33.816 Y51.62 E50.89852
G1 F2700 E45.89852
G0 F2100 X30.023 Y55.066
G1 F2700 E50.89852
G1 F1200 X32.112 Y53.519 E50.99362
G1 X34.077 Y51.975 E51.08505
G1 X36.031 Y50.349 E51.17805
G1 X37.942 Y48.664 E51.27127
G1 X39.819 Y46.913 E51.36518
G1 X40.871 Y45.9 E51.41861
G1 X41.55 Y45.302 E51.45172
G1 X42.278 Y44.767 E51.48477
G1 X43.051 Y44.297 E51.51787
G1 X43.862 Y43.899 E51.55092
G1 X44.705 Y43.573 E51.58399
G1 X45.574 Y43.323 E51.61707
G1 X46.461 Y43.151 E51.65013
G1 X47.649 Y43.045 E51.69376
G1 X48.288 Y43.03 E51.71715
G1 X102.251 Y43.03 E53.69145
G1 X103.125 Y43.042 E53.72343
G1 X104.262 Y43.123 E53.76513
G1 X105.394 Y43.269 E53.80689
G1 X106.178 Y43.381 E53.83586
G1 X108.683 Y43.664 E53.92809
G1 X111.239 Y43.88 E54.02194
G1 X113.765 Y44.021 E54.1145
G1 X116.296 Y44.091 E54.20714
G1 X118.83 Y44.089 E54.29985
G1 X121.405 Y44.014 E54.3941
G1 X123.884 Y43.873 E54.48494
G1 X126.409 Y43.656 E54.57766
G1 X130.622 Y43.14 E54.73295
G1 X131.765 Y43.043 E54.77492
G1 X132.372 Y43.03 E54.79713
G1 X186.48 Y43.031 E56.77673
G1 X187.184 Y43.041 E56.80249
G1 X188.087 Y43.094 E56.83559
G1 X188.981 Y43.226 E56.86865
G1 X189.86 Y43.437 E56.90172
G1 X190.717 Y43.725 E56.9348
G1 X191.545 Y44.087 E56.96786
G1 X192.338 Y44.521 E57.00094
G1 X192.771 Y44.799 E57.01976
G1 X195.158 Y46.416 E57.12524
G1 X197.303 Y47.779 E57.21822
G1 X199.494 Y49.085 E57.31155
G1 X201.701 Y50.318 E57.40404
G1 X203.942 Y51.488 E57.49653
G1 X206.219 Y52.596 E57.58917
G1 X208.569 Y53.659 E57.68354
G1 X210.886 Y54.627 E57.77541
G1 X213.26 Y55.543 E57.86851
G1 X215.667 Y56.393 E57.9619
G1 X218.174 Y57.2 E58.05826
G1 X219.112 Y57.487 E58.09414
G1 X219.964 Y57.79 E58.12723
G1 X220.785 Y58.167 E58.16028
G1 X221.57 Y58.615 E58.19335
G1 X222.313 Y59.131 E58.22644
G1 X223.007 Y59.71 E58.25951
G1 X223.647 Y60.349 E58.2926
G1 X224.228 Y61.041 E58.32566
G1 X224.745 Y61.782 E58.35871
G1 X225.196 Y62.566 E58.39181
G1 X225.575 Y63.387 E58.42489
G1 X225.88 Y64.238 E58.45796
G1 X226.108 Y65.113 E58.49104
G1 X226.259 Y66.004 E58.52411
G1 X226.332 Y66.972 E58.55962
G1 X226.345 Y67.58 E58.58187
G1 X226.344 Y181.141 E62.73663
G1 X226.335 Y181.868 E62.76323
G1 X226.284 Y182.77 E62.79629
G1 X226.153 Y183.665 E62.82938
G1 X225.944 Y184.544 E62.86244
G1 X225.658 Y185.401 E62.89549
G1 X225.297 Y186.23 E62.92857
G1 X224.865 Y187.024 E62.96164
G1 X224.363 Y187.777 E62.99475
G1 X223.798 Y188.482 E63.02781
G1 X223.172 Y189.134 E63.06087
G1 X222.491 Y189.729 E63.09396
G1 X221.76 Y190.261 E63.12704
G1 X220.986 Y190.726 E63.16007
G1 X220.172 Y191.121 E63.19317
G1 X219.328 Y191.443 E63.22622
G1 X218.458 Y191.689 E63.2593
G1 X217.57 Y191.857 E63.29237
G1 X216.402 Y191.957 E63.33526
G1 X215.795 Y191.97 E63.35747
G1 X19.45 Y191.969 E70.54098
G1 X18.752 Y191.96 E70.56652
G1 X17.85 Y191.909 E70.59957
G1 X16.955 Y191.777 E70.63267
G1 X16.076 Y191.568 E70.66572
G1 X15.219 Y191.281 E70.69879
G1 X14.39 Y190.92 E70.73187
G1 X13.596 Y190.487 E70.76496
G1 X12.844 Y189.985 E70.79804
G1 X12.139 Y189.419 E70.83112
G1 X11.487 Y188.793 E70.86418
G1 X10.893 Y188.112 E70.89725
G1 X10.361 Y187.381 E70.93032
G1 X9.896 Y186.606 E70.96339
G1 X9.501 Y185.793 E70.99646
G1 X9.18 Y184.948 E71.02953
G1 X8.935 Y184.078 E71.0626
G1 X8.767 Y183.189 E71.0957
G1 X8.668 Y182.017 E71.13873
G1 X8.655 Y181.408 E71.16102
G1 X8.656 Y73.8 E75.09798
G1 X8.666 Y73.109 E75.12326
G1 X8.719 Y72.207 E75.15632
G1 X8.852 Y71.312 E75.18942
G1 X9.063 Y70.433 E75.2225
G1 X9.351 Y69.577 E75.25554
G1 X9.713 Y68.748 E75.28864
G1 X10.148 Y67.956 E75.32169
G1 X10.65 Y67.204 E75.35477
G1 X11.217 Y66.5 E75.38785
G1 X11.844 Y65.849 E75.42091
G1 X12.526 Y65.256 E75.45398
G1 X13.258 Y64.725 E75.48706
G1 X14.034 Y64.261 E75.52014
G1 X14.533 Y64.01 E75.54058
G1 X16.967 Y62.864 E75.63901
G1 X19.245 Y61.714 E75.73237
G1 X21.478 Y60.505 E75.82527
G1 X23.681 Y59.23 E75.9184
G1 X25.853 Y57.89 E76.01177
G1 X27.945 Y56.518 E76.1033
G1 X30.023 Y55.066 E76.19604
G1 F2700 E71.19604
;MESH:PSU_Cover_with_cable_support.stl
G0 F2100 X47.293 Y55.066
G0 X48.388 Y55.066
G0 X58.006 Y66.46
G0 X58.746 Y66.939
G0 X59.224 Y67.073
G0 X60.891 Y67.425
G1 F2700 E76.19604
G0 F2100 X60.706 Y66.867
;TYPE:WALL-OUTER
G1 F1200 X60.182 Y66.96 E76.21551
G1 X59.643 Y66.951 E76.23524
G1 X59.363 Y66.904 E76.24562
G1 X59.096 Y66.828 E76.25578
G1 X58.623 Y66.62 E76.27469
G1 X58.381 Y66.466 E76.28518
G1 X58.355 Y66.446 E76.28638
G1 X57.964 Y66.1 E76.30548
G1 X57.649 Y65.688 E76.32446
G1 X57.511 Y65.44 E76.33484
G1 X57.329 Y64.947 E76.35407
G1 X57.243 Y64.411 E76.37393
G1 X57.266 Y63.867 E76.39385
G1 X57.394 Y63.343 E76.41358
G1 X57.502 Y63.081 E76.42395
G1 X57.777 Y62.626 E76.4434
G1 X58.14 Y62.228 E76.46311
G1 X58.363 Y62.047 E76.47362
G1 X58.591 Y61.898 E76.48358
G1 X59.065 Y61.681 E76.50266
G1 X59.106 Y61.667 E76.50424
G1 X59.609 Y61.552 E76.52312
G1 X59.881 Y61.531 E76.5331
G1 X60.397 Y61.567 E76.55202
G1 X60.681 Y61.626 E76.56264
G1 X61.179 Y61.819 E76.58218
G1 X61.425 Y61.959 E76.59253
G1 X61.646 Y62.115 E76.60243
G1 X62.026 Y62.485 E76.62183
G1 X62.199 Y62.708 E76.63216
G1 X62.343 Y62.94 E76.64215
G1 X62.549 Y63.418 E76.66119
G1 X62.562 Y63.461 E76.66284
G1 X62.666 Y63.979 E76.68217
G1 X62.666 Y64.515 E76.70178
G1 X62.625 Y64.793 E76.71206
G1 X62.473 Y65.285 E76.7309
G1 X62.219 Y65.761 E76.75064
G1 X61.876 Y66.179 E76.77042
G1 X61.665 Y66.37 E76.78083
G1 X61.442 Y66.53 E76.79087
G1 X60.974 Y66.772 E76.81015
G1 X60.706 Y66.867 E76.82055
G0 F2100 X61.175 Y67.164
;TYPE:WALL-INNER
G1 F1200 X60.886 Y67.27 E76.83182
G1 X60.257 Y67.394 E76.85527
G1 X59.633 Y67.391 E76.8781
G1 X59.286 Y67.337 E76.89095
G1 X58.973 Y67.25 E76.90283
G1 X58.444 Y67.022 E76.92391
G1 X58.142 Y66.836 E76.93689
G1 X58.064 Y66.776 E76.94049
G1 X57.688 Y66.444 E76.95884
G1 X57.299 Y65.954 E76.98173
G1 X57.125 Y65.651 E76.99451
G1 X56.915 Y65.098 E77.01615
G1 X56.808 Y64.477 E77.03921
G1 X56.826 Y63.845 E77.06234
G1 X56.968 Y63.235 E77.08525
G1 X57.096 Y62.911 E77.098
G1 X57.401 Y62.396 E77.1199
G1 X57.818 Y61.928 E77.14283
G1 X58.089 Y61.703 E77.15572
G1 X58.352 Y61.528 E77.16728
G1 X58.884 Y61.28 E77.18875
G1 X59.008 Y61.238 E77.19354
G1 X59.533 Y61.118 E77.21324
G1 X59.849 Y61.092 E77.22484
G1 X60.43 Y61.128 E77.24614
G1 X60.774 Y61.196 E77.25897
G1 X61.34 Y61.409 E77.2811
G1 X61.647 Y61.579 E77.29393
G1 X61.901 Y61.756 E77.30526
G1 X62.334 Y62.171 E77.3272
G1 X62.549 Y62.442 E77.33986
G1 X62.717 Y62.709 E77.3514
G1 X62.954 Y63.246 E77.37288
G1 X62.993 Y63.374 E77.37777
G1 X63.093 Y63.869 E77.39625
G1 X63.106 Y64.498 E77.41927
G1 X63.062 Y64.844 E77.43203
G1 X62.893 Y65.415 E77.45381
G1 X62.605 Y65.971 E77.47672
G1 X62.214 Y66.461 E77.49966
G1 X61.957 Y66.699 E77.51247
G1 X61.697 Y66.888 E77.52423
G1 X61.175 Y67.164 E77.54584
G0 F2100 X61.375 Y67.555
G1 F1200 X61.028 Y67.686 E77.55941
G1 X60.333 Y67.827 E77.58535
G1 X59.622 Y67.831 E77.61136
G1 X59.209 Y67.771 E77.62663
G1 X58.85 Y67.673 E77.64025
G1 X58.265 Y67.424 E77.66351
G1 X57.903 Y67.205 E77.67899
G1 X57.772 Y67.106 E77.685
G1 X57.396 Y66.774 E77.70335
G1 X56.948 Y66.22 E77.72941
G1 X56.739 Y65.861 E77.74461
G1 X56.502 Y65.249 E77.76862
