;FLAVOR:Marlin
;TIME:5962
;Filament used: 6.52726m
;Layer height: 0.2
;MINX:65.15
;MINY:28.4
;MINZ:0.2
;MAXX:169.85
;MAXY:206.6
;MAXZ:3
;Generated with Cura_SteamEngine 5.0.0
M140 S60
M105
M190 S60
M104 S222
M105
M109 S222
M82 ;absolute extrusion mode
; Ender 3 Custom Start G-code
G92 E0 ; Reset Extruder
M140 S60 ; Start heating the heated bed
M190 S60 ; Wait until the heated bed reaches the desired temperature
G28 ; Auto Home
G29 A; Activate Bed Leveling
G29 L0; Loads the saved mesh in slot 0
G29  J3; 9 point autotilt

G92 E0 ; Reset extruder origin
G1 Z2.0 F3000 ; Move Z Axis up little to prevent scratching of Heat Bed
G1 X0.1 Y20 Z0.3 F5000.0 ; Move to start position
G1 X0.1 Y200.0 Z0.3 F1500.0 E15 ; Draw the first line
G1 X0.4 Y200.0 Z0.3 F5000.0 ; Move to side a little
G1 X0.4 Y20 Z0.3 F1500.0 E30 ; Draw the second line
G92 E0 ; Reset Extruder
G1 Z2.0 F3000 ; Move Z Axis up little to prevent scratching of Heat Bed
G1 X5 Y20 Z0.3 F5000.0 ; Move over to prevent blob squish

; End of Ender 3 Custom Start G-code
G92 E0
G92 E0
G1 F2700 E-5
;LAYER_COUNT:15
;LAYER:0
M107
G0 F2100 X66.957 Y35.618 Z0.2
G0 X65.151 Y43.054
;TYPE:SKIRT
G1 F2700 E0
G1 F1200 X65.16 Y42.4 E0.02393
G1 X65.194 Y41.673 E0.05056
G1 X65.238 Y41.12 E0.07085
G1 X65.352 Y40.184 E0.10535
G1 X65.554 Y39.23 E0.14103
G1 X65.679 Y38.745 E0.15935
G1 X65.953 Y37.843 E0.19384
G1 X66.314 Y36.941 E0.22939
G1 X66.532 Y36.459 E0.24874
G1 X66.957 Y35.618 E0.28322
G1 X67.513 Y34.724 E0.32173
G1 X67.819 Y34.281 E0.34143
G1 X68.387 Y33.53 E0.37588
G1 X69.049 Y32.795 E0.41207
G1 X69.409 Y32.43 E0.43083
G1 X70.099 Y31.788 E0.46531
G1 X70.889 Y31.172 E0.50196
G1 X71.309 Y30.874 E0.5208
G1 X72.1 Y30.362 E0.55528
G1 X72.945 Y29.912 E0.5903
G1 X73.422 Y29.684 E0.60964
G1 X74.289 Y29.314 E0.64413
G1 X75.238 Y29.004 E0.68066
G1 X75.724 Y28.869 E0.69911
G1 X76.642 Y28.656 E0.73359
G1 X77.635 Y28.515 E0.77028
G1 X78.177 Y28.463 E0.79021
G1 X79.066 Y28.413 E0.82278
G1 X80.014 Y28.4 E0.85747
G1 X136.293 Y28.4 E2.9165
G1 X137.1 Y28.41 E2.94603
G1 X137.827 Y28.444 E2.97265
G1 X138.38 Y28.488 E2.99295
G1 X139.316 Y28.602 E3.02745
G1 X140.265 Y28.803 E3.06294
G1 X140.751 Y28.928 E3.0813
G1 X141.653 Y29.201 E3.11578
G1 X142.568 Y29.568 E3.15185
G1 X143.049 Y29.786 E3.17117
G1 X143.89 Y30.211 E3.20564
G1 X144.776 Y30.763 E3.24383
G1 X145.219 Y31.069 E3.26353
G1 X145.97 Y31.637 E3.29798
G1 X146.705 Y32.299 E3.33417
G1 X147.07 Y32.659 E3.35293
G1 X147.712 Y33.349 E3.38741
G1 X148.328 Y34.139 E3.42406
G1 X148.626 Y34.559 E3.4429
G1 X149.138 Y35.35 E3.47738
G1 X149.588 Y36.195 E3.5124
G1 X149.816 Y36.672 E3.53174
G1 X150.186 Y37.539 E3.56623
G1 X150.496 Y38.489 E3.60279
G1 X150.634 Y38.986 E3.62166
G1 X150.848 Y39.904 E3.65615
G1 X150.992 Y40.932 E3.69413
G1 X151.04 Y41.45 E3.71316
G1 X151.086 Y42.293 E3.74405
G1 X151.1 Y43.269 E3.77976
G1 X151.1 Y98.681 E5.80707
G1 X151.137 Y101.285 E5.90235
G1 X151.244 Y103.801 E5.99449
G1 X151.42 Y106.289 E6.08574
G1 X151.671 Y108.816 E6.17865
G1 X151.988 Y111.299 E6.27023
G1 X152.377 Y113.774 E6.36189
G1 X152.839 Y116.257 E6.45429
G1 X153.361 Y118.694 E6.54548
G1 X153.965 Y121.149 E6.63797
G1 X154.63 Y123.567 E6.72972
G1 X155.374 Y125.996 E6.82267
G1 X156.165 Y128.341 E6.91321
G1 X157.044 Y130.726 E7.00621
G1 X157.979 Y133.053 E7.09796
G1 X158.992 Y135.382 E7.19088
G1 X160.042 Y137.619 E7.28129
G1 X161.183 Y139.888 E7.37421
G1 X162.373 Y142.092 E7.46585
G1 X163.641 Y144.29 E7.55869
G1 X164.949 Y146.415 E7.64998
G1 X166.341 Y148.541 E7.74295
G1 X167.488 Y150.22 E7.81734
G1 X167.986 Y151.02 E7.85182
G1 X168.338 Y151.695 E7.87967
G1 X168.566 Y152.172 E7.89901
G1 X168.936 Y153.039 E7.9335
G1 X169.246 Y153.989 E7.97006
G1 X169.384 Y154.486 E7.98893
G1 X169.598 Y155.404 E8.02342
G1 X169.742 Y156.432 E8.0614
G1 X169.79 Y156.95 E8.08043
G1 X169.836 Y157.793 E8.11132
G1 X169.85 Y158.769 E8.14703
G1 X169.849 Y191.946 E9.36085
G1 X169.84 Y192.6 E9.38478
G1 X169.806 Y193.327 E9.41141
G1 X169.762 Y193.88 E9.4317
G1 X169.648 Y194.816 E9.4662
G1 X169.446 Y195.77 E9.50188
G1 X169.321 Y196.255 E9.5202
G1 X169.047 Y197.157 E9.55469
G1 X168.686 Y198.059 E9.59024
G1 X168.468 Y198.541 E9.60959
G1 X168.043 Y199.382 E9.64407
G1 X167.49 Y200.271 E9.68237
G1 X167.185 Y200.713 E9.70202
G1 X166.617 Y201.465 E9.7365
G1 X165.952 Y202.204 E9.77287
G1 X165.591 Y202.57 E9.79168
G1 X164.901 Y203.212 E9.82616
G1 X164.111 Y203.828 E9.86281
G1 X163.691 Y204.126 E9.88165
G1 X162.9 Y204.638 E9.91612
G1 X162.047 Y205.092 E9.95148
G1 X161.569 Y205.32 E9.97085
G1 X160.702 Y205.689 E10.00533
G1 X159.765 Y205.995 E10.04139
G1 X159.269 Y206.133 E10.06023
G1 X158.352 Y206.347 E10.09468
G1 X157.314 Y206.492 E10.13302
G1 X156.794 Y206.54 E10.15213
G1 X155.956 Y206.586 E10.18283
G1 X154.981 Y206.6 E10.21851
G1 X101.054 Y206.599 E12.19149
G1 X100.4 Y206.59 E12.21542
G1 X99.673 Y206.556 E12.24205
G1 X99.12 Y206.512 E12.26234
G1 X98.184 Y206.398 E12.29684
G1 X97.235 Y206.197 E12.33233
G1 X96.749 Y206.072 E12.35069
G1 X95.847 Y205.799 E12.38517
G1 X94.932 Y205.432 E12.42124
G1 X94.451 Y205.214 E12.44056
G1 X93.61 Y204.789 E12.47503
G1 X92.724 Y204.237 E12.51322
G1 X92.281 Y203.931 E12.53292
G1 X91.53 Y203.363 E12.56737
G1 X90.795 Y202.701 E12.60356
G1 X90.43 Y202.341 E12.62232
G1 X89.788 Y201.651 E12.6568
G1 X89.172 Y200.861 E12.69345
G1 X88.874 Y200.441 E12.71229
G1 X88.362 Y199.65 E12.74677
G1 X87.912 Y198.805 E12.78179
G1 X87.684 Y198.328 E12.80114
G1 X87.314 Y197.461 E12.83562
G1 X87.004 Y196.511 E12.87218
G1 X86.866 Y196.014 E12.89105
G1 X86.652 Y195.096 E12.92554
G1 X86.51 Y194.081 E12.96304
G1 X86.463 Y193.58 E12.98145
G1 X86.415 Y192.72 E13.01296
G1 X86.331 Y189.752 E13.12159
G1 X86.188 Y187.28 E13.21218
G1 X85.966 Y184.721 E13.30616
G1 X85.685 Y182.272 E13.39635
G1 X85.324 Y179.767 E13.48894
G1 X84.89 Y177.258 E13.5821
G1 X84.397 Y174.822 E13.67303
G1 X83.839 Y172.406 E13.76375
G1 X83.192 Y169.941 E13.85699
G1 X82.488 Y167.531 E13.94885
G1 X81.71 Y165.123 E14.04143
G1 X80.871 Y162.757 E14.13328
G1 X79.971 Y160.433 E14.22445
G1 X78.984 Y158.085 E14.31764
G1 X77.96 Y155.824 E14.40845
G1 X76.844 Y153.538 E14.50152
G1 X75.695 Y151.344 E14.59213
G1 X74.447 Y149.117 E14.68553
G1 X73.164 Y146.971 E14.77701
G1 X71.816 Y144.854 E14.86883
G1 X70.398 Y142.762 E14.96129
G1 X68.932 Y140.726 E15.05308
G1 X68.445 Y140.085 E15.08253
G1 X67.901 Y139.35 E15.11599
G1 X67.339 Y138.514 E15.15284
G1 X67.1 Y138.121 E15.16967
G1 X66.645 Y137.296 E15.20414
G1 X66.341 Y136.629 E15.23096
G1 X66.169 Y136.217 E15.24729
G1 X65.843 Y135.333 E15.28177
G1 X65.629 Y134.574 E15.31062
G1 X65.513 Y134.099 E15.32851
G1 X65.328 Y133.175 E15.36298
G1 X65.227 Y132.301 E15.39517
G1 X65.191 Y131.824 E15.41267
G1 X65.162 Y131.179 E15.43629
G1 X65.15 Y130.404 E15.46465
G1 X65.151 Y43.054 E18.66045
G0 F2100 X65.591 Y43.06
G1 F1200 X65.6 Y42.406 E18.68438
G1 X65.633 Y41.707 E18.70998
G1 X65.677 Y41.154 E18.73028
G1 X65.79 Y40.238 E18.76405
G1 X65.98 Y39.34 E18.79763
G1 X66.105 Y38.855 E18.81595
G1 X66.374 Y37.971 E18.84976
G1 X66.715 Y37.122 E18.88323
G1 X66.933 Y36.64 E18.90259
G1 X67.35 Y35.816 E18.93637
G1 X67.875 Y34.974 E18.97268
G1 X68.181 Y34.531 E18.99238
G1 X68.738 Y33.795 E19.02615
G1 X69.362 Y33.104 E19.06021
G1 X69.722 Y32.739 E19.07897
G1 X70.399 Y32.111 E19.11275
G1 X71.143 Y31.531 E19.14726
G1 X71.563 Y31.233 E19.16611
G1 X72.339 Y30.732 E19.1999
G1 X73.135 Y30.309 E19.23288
G1 X73.612 Y30.081 E19.25222
G1 X74.461 Y29.72 E19.28597
G1 X75.356 Y29.428 E19.32042
G1 X75.842 Y29.293 E19.33887
G1 X76.741 Y29.085 E19.37263
G1 X77.677 Y28.953 E19.40721
G1 X78.219 Y28.901 E19.42714
G1 X79.072 Y28.853 E19.45839
G1 X80.014 Y28.84 E19.49286
G1 X136.293 Y28.84 E21.55189
G1 X137.094 Y28.85 E21.5812
G1 X137.793 Y28.883 E21.6068
G1 X138.346 Y28.927 E21.6271
G1 X139.262 Y29.04 E21.66087
G1 X140.155 Y29.229 E21.69426
G1 X140.641 Y29.354 E21.71262
G1 X141.525 Y29.622 E21.74642
G1 X142.386 Y29.969 E21.78038
G1 X142.867 Y30.187 E21.7997
G1 X143.691 Y30.604 E21.83349
G1 X144.526 Y31.125 E21.8695
G1 X144.969 Y31.431 E21.88919
G1 X145.705 Y31.988 E21.92296
G1 X146.396 Y32.612 E21.95703
G1 X146.761 Y32.972 E21.97578
G1 X147.389 Y33.649 E22.00957
G1 X147.969 Y34.393 E22.04408
G1 X148.267 Y34.813 E22.06292
G1 X148.768 Y35.589 E22.09672
G1 X149.191 Y36.385 E22.1297
G1 X149.419 Y36.862 E22.14904
G1 X149.78 Y37.711 E22.18279
G1 X150.072 Y38.607 E22.21727
G1 X150.21 Y39.104 E22.23614
G1 X150.419 Y40.003 E22.26991
G1 X150.554 Y40.972 E22.3057
G1 X150.602 Y41.49 E22.32474
G1 X150.646 Y42.3 E22.35441
G1 X150.66 Y43.269 E22.38987
G1 X150.66 Y98.687 E24.4174
G1 X150.697 Y101.311 E24.51341
G1 X150.803 Y103.815 E24.60511
G1 X150.982 Y106.327 E24.69724
G1 X151.231 Y108.847 E24.78989
G1 X151.552 Y111.356 E24.88243
G1 X151.944 Y113.845 E24.97462
G1 X152.41 Y116.357 E25.06809
G1 X152.933 Y118.792 E25.15921
G1 X153.54 Y121.264 E25.25234
G1 X154.212 Y123.706 E25.345
G1 X154.953 Y126.127 E25.43763
G1 X155.748 Y128.483 E25.52861
G1 X156.641 Y130.903 E25.62298
G1 X157.572 Y133.224 E25.71447
G1 X158.571 Y135.519 E25.80605
G1 X159.658 Y137.836 E25.89968
G1 X160.803 Y140.112 E25.9929
G1 X161.975 Y142.284 E26.08319
G1 X163.272 Y144.53 E26.17808
G1 X164.567 Y146.635 E26.2685
G1 X165.98 Y148.791 E26.36281
G1 X167.125 Y150.468 E26.43711
G1 X167.612 Y151.252 E26.47087
G1 X167.941 Y151.885 E26.49697
G1 X168.169 Y152.362 E26.51632
G1 X168.53 Y153.211 E26.55007
G1 X168.822 Y154.107 E26.58455
G1 X168.96 Y154.604 E26.60342
G1 X169.169 Y155.503 E26.63719
G1 X169.304 Y156.472 E26.67298
G1 X169.352 Y156.99 E26.69201
G1 X169.396 Y157.8 E26.72169
G1 X169.41 Y158.769 E26.75715
G1 X169.409 Y191.94 E27.97075
G1 X169.4 Y192.594 E27.99468
G1 X169.367 Y193.293 E28.02028
G1 X169.323 Y193.846 E28.04057
G1 X169.21 Y194.762 E28.07434
G1 X169.02 Y195.66 E28.10792
G1 X168.895 Y196.145 E28.12625
G1 X168.626 Y197.029 E28.16005
G1 X168.285 Y197.878 E28.19353
G1 X168.067 Y198.36 E28.21288
G1 X167.65 Y199.184 E28.24667
G1 X167.128 Y200.021 E28.28276
G1 X166.823 Y200.463 E28.30241
G1 X166.266 Y201.2 E28.3362
G1 X165.638 Y201.895 E28.37047
G1 X165.277 Y202.261 E28.38928
G1 X164.601 Y202.889 E28.42304
G1 X163.857 Y203.469 E28.45755
G1 X163.437 Y203.767 E28.4764
G1 X162.661 Y204.268 E28.51019
G1 X161.857 Y204.695 E28.5435
G1 X161.379 Y204.923 E28.56287
G1 X160.53 Y205.284 E28.59662
G1 X159.647 Y205.571 E28.63059
G1 X159.151 Y205.709 E28.64943
G1 X158.252 Y205.918 E28.6832
G1 X157.274 Y206.054 E28.71932
G1 X156.754 Y206.102 E28.73843
G1 X155.949 Y206.146 E28.76793
G1 X154.981 Y206.16 E28.80334
G1 X101.06 Y206.159 E30.77611
G1 X100.406 Y206.15 E30.80004
G1 X99.707 Y206.117 E30.82564
G1 X99.154 Y206.073 E30.84593
G1 X98.238 Y205.96 E30.8797
G1 X97.345 Y205.771 E30.9131
G1 X96.859 Y205.646 E30.93146
G1 X95.975 Y205.378 E30.96525
G1 X95.114 Y205.031 E30.99921
G1 X94.633 Y204.813 E31.01853
G1 X93.809 Y204.396 E31.05232
G1 X92.974 Y203.875 E31.08833
G1 X92.531 Y203.569 E31.10803
G1 X91.795 Y203.012 E31.1418
G1 X91.104 Y202.388 E31.17586
G1 X90.739 Y202.028 E31.19462
G1 X90.111 Y201.351 E31.2284
G1 X89.531 Y200.607 E31.26292
G1 X89.233 Y200.187 E31.28176
G1 X88.732 Y199.411 E31.31555
G1 X88.309 Y198.615 E31.34853
G1 X88.081 Y198.138 E31.36787
G1 X87.72 Y197.289 E31.40163
G1 X87.428 Y196.393 E31.43611
G1 X87.29 Y195.896 E31.45498
G1 X87.081 Y194.997 E31.48874
G1 X86.948 Y194.04 E31.52409
G1 X86.901 Y193.539 E31.5425
G1 X86.855 Y192.713 E31.57277
G1 X86.849 Y192.31 E31.58752
G1 X86.772 Y189.751 E31.68118
G1 X86.624 Y187.216 E31.77409
G1 X86.407 Y184.701 E31.86644
G1 X86.119 Y182.196 E31.9587
G1 X85.76 Y179.702 E32.05088
G1 X85.327 Y177.202 E32.14371
G1 X84.83 Y174.743 E32.23549
G1 X84.258 Y172.27 E32.32836
G1 X83.614 Y169.813 E32.42129
G1 X82.91 Y167.401 E32.51322
G1 X82.13 Y164.99 E32.60593
G1 X81.289 Y162.621 E32.6979
G1 X80.373 Y160.256 E32.79069
G1 X79.384 Y157.901 E32.88414
G1 X78.356 Y155.631 E32.97531
G1 X77.243 Y153.352 E33.0681
G1 X76.075 Y151.12 E33.16027
G1 X74.826 Y148.893 E33.25368
G1 X73.542 Y146.745 E33.34524
G1 X72.174 Y144.598 E33.43838
G1 X70.776 Y142.533 E33.52962
G1 X69.279 Y140.454 E33.62334
G1 X68.799 Y139.823 E33.65235
G1 X68.255 Y139.088 E33.68581
G1 X67.715 Y138.285 E33.72121
G1 X67.476 Y137.892 E33.73804
G1 X67.031 Y137.083 E33.77182
G1 X66.747 Y136.46 E33.79687
G1 X66.575 Y136.048 E33.8132
G1 X66.256 Y135.181 E33.847
G1 X66.056 Y134.47 E33.87402
G1 X65.94 Y133.995 E33.89191
G1 X65.76 Y133.089 E33.92571
G1 X65.666 Y132.268 E33.95594
G1 X65.63 Y131.791 E33.97344
G1 X65.602 Y131.171 E33.99615
G1 X65.59 Y130.404 E34.02421
G1 X65.591 Y43.06 E37.21979
G0 F2100 X66.031 Y43.066
G1 F1200 X66.04 Y42.412 E37.24372
G1 X66.071 Y41.742 E37.26826
G1 X66.115 Y41.189 E37.28856
G1 X66.227 Y40.292 E37.32163
G1 X66.406 Y39.449 E37.35316
G1 X66.531 Y38.964 E37.37149
G1 X66.796 Y38.1 E37.40455
G1 X67.116 Y37.303 E37.43597
G1 X67.334 Y36.821 E37.45533
G1 X67.743 Y36.015 E37.48839
G1 X68.237 Y35.225 E37.52248
G1 X68.543 Y34.782 E37.54218
G1 X69.089 Y34.061 E37.57527
G1 X69.676 Y33.413 E37.60726
G1 X70.036 Y33.048 E37.62601
G1 X70.698 Y32.433 E37.65907
G1 X71.398 Y31.89 E37.69149
G1 X71.818 Y31.592 E37.71033
G1 X72.578 Y31.102 E37.74341
G1 X73.325 Y30.706 E37.77434
G1 X73.802 Y30.478 E37.79369
G1 X74.634 Y30.125 E37.82675
G1 X75.474 Y29.852 E37.85907
G1 X75.96 Y29.717 E37.87752
G1 X76.841 Y29.514 E37.9106
G1 X77.719 Y29.391 E37.94303
G1 X78.261 Y29.339 E37.96296
G1 X79.079 Y29.293 E37.99293
G1 X80.014 Y29.28 E38.02714
G1 X136.293 Y29.28 E40.08617
G1 X137.088 Y29.29 E40.11526
G1 X137.758 Y29.321 E40.1398
G1 X138.311 Y29.365 E40.1601
G1 X139.208 Y29.477 E40.19317
G1 X140.046 Y29.655 E40.22451
G1 X140.532 Y29.78 E40.24287
G1 X141.396 Y30.044 E40.27592
G1 X142.205 Y30.369 E40.30782
G1 X142.686 Y30.587 E40.32714
G1 X143.492 Y30.997 E40.36023
G1 X144.275 Y31.487 E40.39402
G1 X144.718 Y31.793 E40.41372
G1 X145.439 Y32.339 E40.44681
G1 X146.087 Y32.926 E40.4788
G1 X146.452 Y33.286 E40.49755
G1 X147.067 Y33.948 E40.53061
G1 X147.61 Y34.648 E40.56302
G1 X147.908 Y35.068 E40.58187
G1 X148.398 Y35.828 E40.61495
G1 X148.794 Y36.575 E40.64588
G1 X149.022 Y37.052 E40.66523
G1 X149.375 Y37.884 E40.69829
G1 X149.648 Y38.725 E40.73064
G1 X149.786 Y39.222 E40.74951
G1 X149.99 Y40.103 E40.7826
G1 X150.115 Y41.013 E40.8162
G1 X150.163 Y41.531 E40.83524
G1 X150.206 Y42.307 E40.86367
G1 X150.22 Y43.269 E40.89887
G1 X150.22 Y98.693 E42.92662
G1 X150.257 Y101.301 E43.02205
G1 X150.366 Y103.864 E43.1159
G1 X150.543 Y106.368 E43.20774
G1 X150.795 Y108.91 E43.3012
G1 X151.115 Y111.408 E43.39334
G1 X151.511 Y113.927 E43.48663
G1 X151.973 Y116.416 E43.57925
G1 X152.504 Y118.89 E43.67183
G1 X153.116 Y121.379 E43.7656
G1 X153.794 Y123.844 E43.85913
G1 X154.52 Y126.214 E43.94982
G1 X155.348 Y128.669 E44.04461
G1 X156.226 Y131.049 E44.13742
G1 X157.162 Y133.381 E44.22936
G1 X158.189 Y135.742 E44.32356
G1 X159.252 Y138.009 E44.41516
G1 X160.409 Y140.308 E44.50932
G1 X161.588 Y142.492 E44.60013
G1 X162.878 Y144.728 E44.69457
G1 X164.212 Y146.895 E44.78767
G1 X165.63 Y149.06 E44.88236
G1 X166.761 Y150.716 E44.95573
G1 X167.238 Y151.485 E44.98884
G1 X167.544 Y152.075 E45.01315
G1 X167.772 Y152.552 E45.03249
G1 X168.125 Y153.384 E45.06556
G1 X168.398 Y154.225 E45.09791
G1 X168.536 Y154.722 E45.11678
G1 X168.74 Y155.603 E45.14987
G1 X168.865 Y156.513 E45.18347
G1 X168.913 Y157.031 E45.20251
G1 X168.956 Y157.807 E45.23094
G1 X168.97 Y158.769 E45.26614
G1 X168.969 Y191.934 E46.47952
G1 X168.96 Y192.588 E46.50345
G1 X168.929 Y193.258 E46.52799
G1 X168.885 Y193.811 E46.54828
G1 X168.773 Y194.708 E46.58136
G1 X168.594 Y195.551 E46.61289
G1 X168.469 Y196.036 E46.63121
G1 X168.204 Y196.9 E46.66427
G1 X167.884 Y197.697 E46.6957
G1 X167.666 Y198.179 E46.71505
G1 X167.257 Y198.985 E46.74812
G1 X166.766 Y199.771 E46.78202
G1 X166.461 Y200.213 E46.80167
G1 X165.915 Y200.934 E46.83476
G1 X165.325 Y201.586 E46.86693
G1 X164.964 Y201.952 E46.88574
G1 X164.302 Y202.567 E46.9188
G1 X163.602 Y203.11 E46.95121
G1 X163.182 Y203.408 E46.97005
G1 X162.422 Y203.898 E47.00314
G1 X161.668 Y204.297 E47.03435
G1 X161.19 Y204.525 E47.05372
G1 X160.358 Y204.878 E47.08679
G1 X159.529 Y205.147 E47.11867
G1 X159.033 Y205.285 E47.13751
