;FLAVOR:Marlin
;TIME:1141
;Filament used: 0.311798m
;Layer height: 0.16
;MINX:86.2
;MINY:91.2
;MINZ:0.28
;MAXX:148.8
;MAXY:155.14
;MAXZ:4.76
;Generated with Cura_SteamEngine 5.0.0
M140 S60
M105
M190 S60
M104 S240
M105
M109 S240
M82 ;absolute extrusion mode
; Ender 3 Custom Start G-code
G92 E0 ; Reset Extruder
M140 S60 ; Start heating the heated bed
M190 S60 ; Wait until the heated bed reaches the desired temperature
G28 ; Auto Home
G29 A; Activate Bed Leveling
G29 L0; Loads the saved mesh in slot 0
G29  J3; 9 point autotilt

G92 E0 ; Reset extruder origin
G1 Z2.0 F3000 ; Move Z Axis up little to prevent scratching of Heat Bed
G1 X0.1 Y20 Z0.3 F5000.0 ; Move to start position
G1 X0.1 Y200.0 Z0.3 F1500.0 E15 ; Draw the first line
G1 X0.4 Y200.0 Z0.3 F5000.0 ; Move to side a little
G1 X0.4 Y20 Z0.3 F1500.0 E30 ; Draw the second line
G92 E0 ; Reset Extruder
G1 Z2.0 F3000 ; Move Z Axis up little to prevent scratching of Heat Bed
G1 X5 Y20 Z0.3 F5000.0 ; Move over to prevent blob squish

; End of Ender 3 Custom Start G-code
G92 E0
G92 E0
;LAYER_COUNT:29
;LAYER:0
M107
G0 F2100 X89.403 Y94.636 Z0.28
G0 X86.201 Y103.021
;TYPE:SKIRT
G1 F600 X86.21 Y102.356 E0.04428
G1 X86.263 Y101.407 E0.10757
G1 X86.395 Y100.466 E0.17085
G1 X86.606 Y99.539 E0.23415
G1 X86.895 Y98.633 E0.29747
G1 X87.258 Y97.755 E0.36074
G1 X87.694 Y96.91 E0.42405
G1 X88.199 Y96.105 E0.48733
G1 X88.77 Y95.345 E0.55062
G1 X89.403 Y94.636 E0.61391
G1 X90.094 Y93.982 E0.67726
G1 X90.837 Y93.389 E0.74056
G1 X91.627 Y92.861 E0.80383
G1 X92.458 Y92.4 E0.86711
G1 X93.326 Y92.012 E0.93042
G1 X94.223 Y91.697 E0.99372
G1 X95.143 Y91.459 E1.057
G1 X96.08 Y91.3 E1.12028
G1 X97.192 Y91.213 E1.19456
G1 X97.83 Y91.2 E1.23705
G1 X136.793 Y91.2 E3.83147
G1 X137.653 Y91.211 E3.88874
G1 X138.602 Y91.265 E3.95203
G1 X139.543 Y91.398 E4.01531
G1 X140.47 Y91.61 E4.07863
G1 X141.375 Y91.899 E4.14189
G1 X142.254 Y92.263 E4.20524
G1 X143.098 Y92.699 E4.26849
G1 X143.903 Y93.205 E4.33181
G1 X144.662 Y93.777 E4.39509
G1 X145.371 Y94.411 E4.45842
G1 X146.024 Y95.102 E4.52173
G1 X146.616 Y95.845 E4.58499
G1 X147.144 Y96.635 E4.64826
G1 X147.604 Y97.467 E4.71156
G1 X147.992 Y98.335 E4.77487
G1 X148.305 Y99.233 E4.83819
G1 X148.542 Y100.153 E4.90145
G1 X148.701 Y101.09 E4.96474
G1 X148.787 Y102.192 E5.03834
G1 X148.8 Y102.83 E5.08083
G1 X148.798 Y110.967 E5.62265
G1 X148.785 Y111.727 E5.67326
G1 X148.731 Y112.653 E5.73503
G1 X148.627 Y113.688 E5.80429
G1 X148.556 Y114.308 E5.84584
G1 X148.338 Y116.836 E6.0148
G1 X148.194 Y119.317 E6.18028
G1 X148.121 Y121.825 E6.34735
G1 X148.118 Y124.337 E6.51462
G1 X148.186 Y126.842 E6.68148
G1 X148.326 Y129.368 E6.84993
G1 X148.538 Y131.9 E7.01912
G1 X148.726 Y133.64 E7.13566
G1 X148.786 Y134.532 E7.19519
G1 X148.8 Y135.17 E7.23768
G1 X148.799 Y143.244 E7.7753
G1 X148.79 Y143.971 E7.82371
G1 X148.738 Y144.92 E7.887
G1 X148.607 Y145.862 E7.95033
G1 X148.397 Y146.789 E8.01362
G1 X148.11 Y147.695 E8.0769
G1 X147.748 Y148.574 E8.1402
G1 X147.313 Y149.419 E8.20348
G1 X146.808 Y150.225 E8.26681
G1 X146.238 Y150.985 E8.33007
G1 X145.606 Y151.695 E8.39337
G1 X144.916 Y152.349 E8.45667
G1 X144.174 Y152.943 E8.51996
G1 X143.384 Y153.472 E8.58327
G1 X142.553 Y153.934 E8.64658
G1 X141.686 Y154.323 E8.70985
G1 X140.789 Y154.639 E8.77318
G1 X139.869 Y154.878 E8.83647
G1 X138.933 Y155.039 E8.89971
G1 X137.808 Y155.127 E8.97485
G1 X137.17 Y155.14 E9.01734
G1 X98.061 Y155.139 E11.62148
G1 X97.363 Y155.13 E11.66797
G1 X96.414 Y155.078 E11.73125
G1 X95.473 Y154.946 E11.79452
G1 X94.546 Y154.736 E11.85781
G1 X93.64 Y154.448 E11.92112
G1 X92.761 Y154.085 E11.98444
G1 X91.916 Y153.65 E12.04772
G1 X91.111 Y153.145 E12.111
G1 X90.35 Y152.574 E12.17435
G1 X89.641 Y151.942 E12.23759
G1 X88.987 Y151.252 E12.3009
G1 X88.394 Y150.509 E12.3642
G1 X87.865 Y149.719 E12.42751
G1 X87.404 Y148.888 E12.49078
G1 X87.014 Y148.021 E12.55409
G1 X86.699 Y147.124 E12.61739
G1 X86.461 Y146.204 E12.68067
G1 X86.301 Y145.267 E12.74396
G1 X86.213 Y144.136 E12.8195
G1 X86.2 Y143.498 E12.86199
G1 X86.202 Y135.349 E13.40461
G1 X86.215 Y134.608 E13.45395
G1 X86.269 Y133.687 E13.51539
G1 X86.373 Y132.652 E13.58465
G1 X86.446 Y132.011 E13.62761
G1 X86.662 Y129.504 E13.79516
G1 X86.807 Y127.003 E13.96197
G1 X86.879 Y124.503 E14.12851
G1 X86.882 Y121.992 E14.29571
G1 X86.814 Y119.484 E14.46277
G1 X86.674 Y116.968 E14.63056
G1 X86.462 Y114.442 E14.79935
G1 X86.274 Y112.699 E14.91608
G1 X86.214 Y111.808 E14.97555
G1 X86.2 Y111.17 E15.01804
G1 X86.201 Y103.459 E15.53149
G0 F540 X86.201 Y103.021
G0 F2100 X86.721 Y103.028
G1 F600 X86.73 Y102.363 E15.57578
G1 X86.783 Y101.436 E15.6376
G1 X86.915 Y100.517 E15.69942
G1 X87.125 Y99.613 E15.76122
G1 X87.413 Y98.73 E15.82307
G1 X87.776 Y97.876 E15.88485
G1 X88.21 Y97.055 E15.94669
G1 X88.714 Y96.275 E16.00853
G1 X89.283 Y95.542 E16.07031
G1 X89.913 Y94.86 E16.13214
G1 X90.6 Y94.234 E16.19403
G1 X91.337 Y93.671 E16.25578
G1 X92.121 Y93.172 E16.31766
G1 X92.944 Y92.743 E16.37946
G1 X93.801 Y92.387 E16.44125
G1 X94.686 Y92.105 E16.5031
G1 X95.592 Y91.901 E16.56494
G1 X96.511 Y91.775 E16.62671
G1 X97.207 Y91.733 E16.67313
G1 X97.83 Y91.72 E16.71463
G1 X136.793 Y91.72 E19.30905
G1 X137.645 Y91.731 E19.36578
G1 X138.572 Y91.784 E19.42761
G1 X139.491 Y91.917 E19.48944
G1 X140.395 Y92.129 E19.55127
G1 X141.278 Y92.417 E19.61311
G1 X142.132 Y92.78 E19.6749
G1 X142.952 Y93.216 E19.73674
G1 X143.732 Y93.72 E19.79858
G1 X144.465 Y94.29 E19.86041
G1 X145.146 Y94.92 E19.92218
G1 X145.771 Y95.607 E19.98403
G1 X146.334 Y96.345 E20.04583
G1 X146.832 Y97.129 E20.10768
G1 X147.26 Y97.953 E20.16951
G1 X147.616 Y98.81 E20.2313
G1 X147.897 Y99.695 E20.29313
G1 X148.101 Y100.601 E20.35497
G1 X148.226 Y101.521 E20.41679
G1 X148.267 Y102.207 E20.46255
G1 X148.28 Y102.83 E20.50404
G1 X148.278 Y110.958 E21.04526
G1 X148.265 Y111.718 E21.09587
G1 X148.214 Y112.602 E21.15483
G1 X148.111 Y113.629 E21.22356
G1 X148.038 Y114.265 E21.26619
G1 X147.82 Y116.785 E21.43461
G1 X147.673 Y119.327 E21.60416
G1 X147.601 Y121.819 E21.77016
G1 X147.598 Y124.353 E21.93889
G1 X147.666 Y126.872 E22.10669
G1 X147.807 Y129.409 E22.27588
G1 X148.017 Y131.915 E22.44333
G1 X148.209 Y133.696 E22.56261
G1 X148.267 Y134.547 E22.6194
G1 X148.28 Y135.17 E22.6609
G1 X148.279 Y143.237 E23.19805
G1 X148.27 Y143.964 E23.24646
G1 X148.219 Y144.891 E23.30828
G1 X148.088 Y145.811 E23.37016
G1 X147.878 Y146.715 E23.43196
G1 X147.591 Y147.598 E23.49378
G1 X147.23 Y148.453 E23.55558
G1 X146.796 Y149.274 E23.61742
G1 X146.293 Y150.055 E23.67927
G1 X145.725 Y150.789 E23.74107
G1 X145.096 Y151.472 E23.8029
G1 X144.41 Y152.098 E23.86474
G1 X143.673 Y152.662 E23.92653
G1 X142.89 Y153.161 E23.98836
G1 X142.067 Y153.591 E24.05019
G1 X141.211 Y153.949 E24.11197
G1 X140.326 Y154.232 E24.17384
G1 X139.421 Y154.437 E24.23563
G1 X138.501 Y154.564 E24.29747
G1 X137.793 Y154.607 E24.3447
G1 X137.17 Y154.62 E24.38619
G1 X98.068 Y154.619 E26.98987
G1 X97.37 Y154.61 E27.03635
G1 X96.443 Y154.558 E27.09817
G1 X95.524 Y154.427 E27.15999
G1 X94.62 Y154.217 E27.22178
G1 X93.737 Y153.929 E27.28363
G1 X92.882 Y153.567 E27.34545
G1 X92.061 Y153.133 E27.40729
G1 X91.281 Y152.63 E27.46909
G1 X90.547 Y152.061 E27.53093
G1 X89.865 Y151.432 E27.59271
G1 X89.239 Y150.746 E27.65454
G1 X88.675 Y150.008 E27.71639
G1 X88.176 Y149.225 E27.77822
G1 X87.746 Y148.402 E27.84005
G1 X87.389 Y147.545 E27.90187
G1 X87.107 Y146.661 E27.96365
G1 X86.902 Y145.755 E28.0255
G1 X86.776 Y144.835 E28.08734
G1 X86.733 Y144.122 E28.1349
G1 X86.72 Y143.498 E28.17646
G1 X86.722 Y135.358 E28.71847
G1 X86.735 Y134.617 E28.76782
G1 X86.786 Y133.738 E28.82645
G1 X86.889 Y132.711 E28.89518
G1 X86.965 Y132.041 E28.94008
G1 X87.181 Y129.544 E29.10697
G1 X87.327 Y127.013 E29.27578
G1 X87.399 Y124.514 E29.44225
G1 X87.402 Y121.977 E29.61118
G1 X87.333 Y119.444 E29.7799
G1 X87.193 Y116.931 E29.9475
G1 X86.983 Y114.424 E30.11501
G1 X86.791 Y112.643 E30.23429
G1 X86.733 Y111.793 E30.29102
G1 X86.72 Y111.17 E30.33251
G1 X86.721 Y103.466 E30.8455
G0 F540 X86.721 Y103.028
G0 F2100 X87.241 Y103.035
G1 F600 X87.25 Y102.37 E30.88978
G1 X87.302 Y101.466 E30.95008
G1 X87.434 Y100.57 E31.01038
G1 X87.644 Y99.689 E31.07069
G1 X87.931 Y98.83 E31.131
G1 X88.293 Y97.999 E31.19135
G1 X88.727 Y97.204 E31.25166
G1 X89.229 Y96.45 E31.31198
G1 X89.796 Y95.744 E31.37227
G1 X90.422 Y95.09 E31.43255
G1 X91.104 Y94.494 E31.49286
G1 X91.836 Y93.96 E31.5532
G1 X92.612 Y93.493 E31.6135
G1 X93.426 Y93.096 E31.67381
G1 X94.272 Y92.773 E31.73411
G1 X95.144 Y92.525 E31.79447
G1 X96.033 Y92.356 E31.85473
G1 X97.221 Y92.253 E31.93413
G1 X97.83 Y92.24 E31.97469
G1 X136.793 Y92.24 E34.56911
G1 X137.638 Y92.251 E34.62538
G1 X138.542 Y92.304 E34.68568
G1 X139.438 Y92.436 E34.74599
G1 X140.319 Y92.647 E34.80631
G1 X141.178 Y92.935 E34.86664
G1 X142.008 Y93.298 E34.92696
G1 X142.803 Y93.732 E34.98727
G1 X143.556 Y94.235 E35.04757
G1 X144.262 Y94.802 E35.10786
G1 X144.916 Y95.429 E35.16819
G1 X145.511 Y96.112 E35.2285
G1 X146.045 Y96.844 E35.28884
G1 X146.511 Y97.62 E35.34911
G1 X146.907 Y98.435 E35.40944
G1 X147.23 Y99.281 E35.46974
G1 X147.477 Y100.153 E35.53009
G1 X147.646 Y101.043 E35.59041
G1 X147.747 Y102.222 E35.66921
G1 X147.76 Y102.83 E35.7097
G1 X147.758 Y110.949 E36.25032
G1 X147.745 Y111.709 E36.30093
G1 X147.697 Y112.55 E36.35702
G1 X147.594 Y113.57 E36.42529
G1 X147.518 Y114.232 E36.46966
G1 X147.301 Y116.756 E36.63834
G1 X147.155 Y119.282 E36.80682
G1 X147.081 Y121.826 E36.97629
G1 X147.078 Y124.368 E37.14555
G1 X147.147 Y126.902 E37.31435
G1 X147.288 Y129.444 E37.48387
G1 X147.5 Y131.972 E37.65279
G1 X147.692 Y133.752 E37.772
G1 X147.747 Y134.562 E37.82606
G1 X147.76 Y135.17 E37.86656
G1 X147.759 Y143.231 E38.40331
G1 X147.75 Y143.958 E38.45173
G1 X147.699 Y144.862 E38.51202
G1 X147.568 Y145.759 E38.57238
G1 X147.359 Y146.64 E38.63267
G1 X147.073 Y147.499 E38.69295
G1 X146.712 Y148.33 E38.75328
G1 X146.279 Y149.126 E38.81362
G1 X145.778 Y149.88 E38.8739
G1 X145.212 Y150.587 E38.9342
G1 X144.586 Y151.242 E38.99453
G1 X143.905 Y151.839 E39.05484
G1 X143.174 Y152.373 E39.11512
G1 X142.398 Y152.841 E39.17546
G1 X141.584 Y153.239 E39.23579
G1 X140.739 Y153.563 E39.29605
G1 X139.868 Y153.812 E39.35637
G1 X138.978 Y153.983 E39.41672
G1 X137.779 Y154.087 E39.49686
G1 X137.17 Y154.1 E39.53742
G1 X98.075 Y154.099 E42.14063
G1 X97.377 Y154.09 E42.18711
G1 X96.472 Y154.039 E42.24746
G1 X95.576 Y153.907 E42.30777
G1 X94.695 Y153.698 E42.36806
G1 X93.836 Y153.411 E42.42837
G1 X93.005 Y153.05 E42.4887
G1 X92.21 Y152.617 E42.54898
G1 X91.456 Y152.115 E42.60929
G1 X90.749 Y151.549 E42.6696
G1 X90.094 Y150.922 E42.72997
G1 X89.498 Y150.241 E42.79023
G1 X88.964 Y149.509 E42.85056
G1 X88.496 Y148.734 E42.91085
G1 X88.099 Y147.92 E42.97115
G1 X87.775 Y147.074 E43.03148
G1 X87.527 Y146.203 E43.09178
G1 X87.357 Y145.313 E43.15211
G1 X87.253 Y144.108 E43.23265
G1 X87.24 Y143.498 E43.27327
G1 X87.242 Y135.367 E43.81469
G1 X87.255 Y134.626 E43.86404
G1 X87.303 Y133.79 E43.9198
G1 X87.406 Y132.77 E43.98806
G1 X87.482 Y132.108 E44.03243
G1 X87.699 Y129.584 E44.20112
G1 X87.845 Y127.052 E44.36999
G1 X87.919 Y124.5 E44.54
G1 X87.922 Y121.964 E44.70886
G1 X87.853 Y119.435 E44.87732
G1 X87.712 Y116.896 E45.04664
G1 X87.5 Y114.364 E45.21583
G1 X87.308 Y112.587 E45.33485
G1 X87.253 Y111.778 E45.38884
G1 X87.24 Y111.17 E45.42933
G1 X87.241 Y103.473 E45.94185
G0 F540 X87.241 Y103.035
;MESH:rubber jaw v2.stl(1)
G0 F2100 X96.835 Y103.035
G0 X97.93 Y103.035
G0 X98.18 Y110.82
G0 X97.76 Y111.24
;TYPE:WALL-OUTER
G1 F600 X137.24 Y111.24 E48.5707
G1 X137.24 Y102.76 E49.13535
G1 X97.76 Y102.76 E51.7642
G1 X97.76 Y110.802 E52.29969
G0 F540 X97.76 Y111.24
G0 F2100 X98.28 Y110.72
;TYPE:WALL-INNER
G1 F600 X136.72 Y110.72 E54.85929
G1 X136.72 Y103.28 E55.35469
G1 X98.28 Y103.28 E57.91429
G1 X98.28 Y110.282 E58.38053
G0 F540 X98.28 Y110.72
G0 F2100 X98.8 Y110.2
G1 F600 X136.2 Y110.2 E60.87088
G1 X136.2 Y103.8 E61.29703
G1 X98.8 Y103.8 E63.78738
G1 X98.8 Y109.762 E64.18437
G0 F540 X98.8 Y110.2
G0 F2100 X99.28 Y109.72
;TYPE:SKIN
G1 F600 X99.28 Y106.08 E64.42674
G1 X99.8 Y106.08 E64.46137
G1 X100.32 Y106.08 E64.49599
G1 X100.32 Y105.32 E64.5466
G1 X134.68 Y105.32 E66.83452
G1 X134.68 Y108.68 E67.05825
G1 X100.32 Y108.68 E69.34618
G1 X100.32 Y107.12 E69.45005
G1 X100.84 Y107.12 E69.48468
G1 X101.36 Y107.12 E69.5193
G1 X101.36 Y106.36 E69.56991
G1 X133.64 Y106.36 E71.71933
G1 X133.64 Y107.64 E71.80456
G1 X101.36 Y107.64 E73.95398
G1 X100.84 Y107.64 E73.98861
G1 X100.84 Y108.16 E74.02323
G1 X134.16 Y108.16 E76.2419
G1 X134.16 Y105.84 E76.39638
G1 X100.84 Y105.84 E78.61506
G1 X100.84 Y106.6 E78.66566
G1 X100.32 Y106.6 E78.70029
G1 X99.8 Y106.6 E78.73491
G1 X99.8 Y109.2 E78.90804
G1 X135.2 Y109.2 E81.26521
G1 X135.2 Y104.8 E81.55819
G1 X99.8 Y104.8 E83.91537
G1 X99.8 Y105.56 E83.96597
G1 X99.28 Y105.56 E84.0006
G1 X99.28 Y104.28 E84.08583
G1 X135.72 Y104.28 E86.51225
G1 X135.72 Y109.72 E86.87448
G1 X99.718 Y109.72 E89.27174
G0 F540 X99.28 Y109.72
G0 F2100 X98.96 Y109.72
G0 X99.06 Y107
G0 X102 Y107
G1 F410.5 X133 Y107 E92.28863
;MESH:rubber jaw v2.stl
G0 F2100 X138.165 Y107
G0 X138.153 Y112.153
G0 X133 Y134.175
G0 X133 Y135.27
G0 X99.032 Y136.372
G0 X98.18 Y143.16
G0 X97.76 Y143.58
;TYPE:WALL-OUTER
G1 F600 X137.24 Y143.58 E94.91748
G1 X137.24 Y135.1 E95.48214
G1 X97.76 Y135.1 E98.11098
G1 X97.76 Y139.34 E98.39331
G1 X97.76 Y143.142 E98.64647
G0 F540 X97.76 Y143.58
G0 F2100 X98.28 Y143.06
;TYPE:WALL-INNER
G1 F600 X136.72 Y143.06 E101.20607
G1 X136.72 Y135.62 E101.70148
G1 X98.28 Y135.62 E104.26107
G1 X98.28 Y139.34 E104.50877
G1 X98.28 Y142.622 E104.72731
G0 F540 X98.28 Y143.06
G0 F2100 X98.8 Y142.54
G1 F600 X136.2 Y142.54 E107.21766
G1 X136.2 Y136.14 E107.64381
G1 X98.8 Y136.14 E110.13416
G1 X98.8 Y139.34 E110.34724
G1 X98.8 Y142.102 E110.53115
G0 F540 X98.8 Y142.54
G0 F2100 X99.28 Y142.06
;TYPE:SKIN
G1 F600 X99.28 Y138.42 E110.77353
G1 X99.8 Y138.42 E110.80815
G1 X100.32 Y138.42 E110.84278
G1 X100.32 Y137.66 E110.89338
G1 X134.68 Y137.66 E113.1813
G1 X134.68 Y141.02 E113.40504
G1 X100.32 Y141.02 E115.69296
G1 X100.32 Y139.46 E115.79683
G1 X100.84 Y139.46 E115.83146
G1 X101.36 Y139.46 E115.86608
G1 X101.36 Y138.7 E115.91669
G1 X133.64 Y138.7 E118.06611
G1 X133.64 Y139.98 E118.15134
G1 X101.36 Y139.98 E120.30076
G1 X100.84 Y139.98 E120.33539
G1 X100.84 Y140.5 E120.37001
G1 X134.16 Y140.5 E122.58869
G1 X134.16 Y138.18 E122.74317
G1 X100.84 Y138.18 E124.96184
G1 X100.84 Y138.94 E125.01245
G1 X100.32 Y138.94 E125.04707
G1 X99.8 Y138.94 E125.0817
G1 X99.8 Y141.54 E125.25482
G1 X135.2 Y141.54 E127.61199
G1 X135.2 Y137.14 E127.90498
G1 X99.8 Y137.14 E130.26215
G1 X99.8 Y137.9 E130.31275
G1 X99.28 Y137.9 E130.34738
G1 X99.28 Y136.62 E130.43261
G1 X135.72 Y136.62 E132.85903
G1 X135.72 Y142.06 E133.22127
G1 X99.718 Y142.06 E135.61852
G0 F540 X99.28 Y142.06
G0 F2100 X98.96 Y142.06
G0 X99.06 Y139.34
G0 X102 Y139.34
M104 S225
G1 F410.5 X133 Y139.34 E138.63542
;MESH:NONMESH
G0 F300 X133 Y139.34 Z0.44
G0 F2100 X138.165 Y139.34
G0 X138.153 Y134.187
G0 X133 Y112.165
G0 X133 Y111.07
G0 X98.18 Y110.82
G0 X97.7 Y111.3
;TIME_ELAPSED:219.219322
;LAYER:1
;WIPE_SCRIPT_BEGIN
G0 F9000 X100 Y111.3
G0 X120 Y111.3
G0 X100 Y111.3
G0 X120 Y111.3
G0 X100 Y111.3
G0 X120 Y111.3
G0 X97.7 Y111.3
;WIPE_SCRIPT_END
;TYPE:WALL-OUTER
;MESH:rubber jaw v2.stl(1)
G1 F525 X137.3 Y111.3 E139.79447
G1 X137.3 Y102.7 E140.04618
G1 X97.7 Y102.7 E141.20523
G1 X97.7 Y110.3 E141.42767
G0 F472.5 X97.7 Y111.3
G0 F5550 X98.1 Y110.9
;TYPE:WALL-INNER
G1 F525 X136.9 Y110.9 E142.56331
G1 X136.9 Y103.1 E142.7916
G1 X98.1 Y103.1 E143.92724
G1 X98.1 Y109.9 E144.12627
G0 F472.5 X98.1 Y110.9
G0 F5550 X98.5 Y110.5
G1 F525 X136.5 Y110.5 E145.23848
G1 X136.5 Y103.5 E145.44337
G1 X98.5 Y103.5 E146.55559
G1 X98.5 Y109.5 E146.7312
G0 F472.5 X98.5 Y110.5
G0 F5550 X98.86 Y110.14
;TYPE:SKIN
G1 F525 X136.14 Y110.14 E147.82234
G1 X136.14 Y103.86 E148.00615
G1 X98.86 Y103.86 E149.0973
G1 X98.86 Y109.14 E149.25184
G0 F472.5 X98.86 Y110.14
G0 F5550 X98.6 Y110.14
G0 X98.6 Y104.586
G0 X99.06 Y104.586
G1 F525 X99.587 Y104.059 E149.27365
G0 F5550 X100.153 Y104.059
G1 F525 X99.06 Y105.152 E149.31889
G0 F5550 X99.06 Y105.718
