;FLAVOR:Marlin
;TIME:6419
;Filament used: 3.62837m
;Layer height: 0.2
;MINX:84.449
;MINY:101.47
;MINZ:0.2
;MAXX:151.378
;MAXY:133.53
;MAXZ:75.6
;POSTPROCESSED
;Generated with Cura_SteamEngine 4.13.1
M140 S60
M105
M190 S60
M104 S222
M105
M109 S222
M82 ;absolute extrusion mode
; Ender 3 Custom Start G-code
M420 S1 ; enable bed levelling
G92 E0 ; Reset Extruder
G28 ; Home all axes
G1 Z2.0 F3000 ; Move Z Axis up little to prevent scratching of Heat Bed
G1 X0.1 Y20 Z0.3 F5000.0 ; Move to start position
G1 X0.1 Y200.0 Z0.3 F1500.0 E15 ; Draw the first line
G1 X0.4 Y200.0 Z0.3 F5000.0 ; Move to side a little
G1 X0.4 Y20 Z0.3 F1500.0 E30 ; Draw the second line
G92 E0 ; Reset Extruder
G1 Z2.0 F3000 ; Move Z Axis up little to prevent scratching of Heat Bed
G1 X5 Y20 Z0.3 F5000.0 ; Move over to prevent blob squish
G92 E0
G92 E0
G1 F2700 E-5
;LAYER_COUNT:378
;LAYER:0
M107
G0 F2100 X88.353 Y104.196 Z0.2
;TYPE:SKIRT
G1 F2700 E0
G1 F1200 X89.095 Y103.615 E0.03448
G1 X89.884 Y103.1 E0.06895
G1 X90.713 Y102.653 E0.10341
G1 X91.917 Y102.153 E0.15111
G1 X92.084 Y102.095 E0.15757
G1 X92.987 Y101.824 E0.19207
G1 X93.909 Y101.631 E0.22653
G1 X94.844 Y101.516 E0.261
G1 X95.547 Y101.482 E0.28675
G1 X96.29 Y101.47 E0.31393
G1 X139.635 Y101.471 E1.89976
G1 X140.334 Y101.481 E1.92534
G1 X141.274 Y101.535 E1.95978
G1 X142.207 Y101.668 E1.99426
G1 X143.125 Y101.879 E2.02873
G1 X144.022 Y102.168 E2.0632
G1 X144.891 Y102.532 E2.09767
G1 X145.726 Y102.968 E2.13214
G1 X146.521 Y103.473 E2.1666
G1 X147.271 Y104.044 E2.20108
G1 X147.969 Y104.677 E2.23556
G1 X148.611 Y105.366 E2.27001
G1 X149.004 Y105.853 E2.29291
G1 X149.084 Y105.958 E2.29774
G1 X149.623 Y106.731 E2.33221
G1 X150.094 Y107.547 E2.36669
G1 X150.494 Y108.4 E2.40115
G1 X150.821 Y109.283 E2.4356
G1 X151.071 Y110.192 E2.4701
G1 X151.244 Y111.118 E2.50456
G1 X151.352 Y112.447 E2.55334
G1 X151.375 Y113.521 E2.59265
G1 X151.378 Y113.76 E2.60139
G1 X151.376 Y121.723 E2.89273
G1 X151.366 Y122.44 E2.91896
G1 X151.313 Y123.38 E2.95341
G1 X151.18 Y124.313 E2.98789
G1 X150.969 Y125.231 E3.02235
G1 X150.68 Y126.128 E3.05683
G1 X150.317 Y126.997 E3.09128
G1 X149.881 Y127.833 E3.12578
G1 X149.36 Y128.65 E3.16123
G1 X149.269 Y128.78 E3.16704
G1 X148.697 Y129.529 E3.20152
G1 X148.063 Y130.226 E3.23599
G1 X147.372 Y130.866 E3.27045
G1 X146.63 Y131.446 E3.3049
G1 X145.841 Y131.961 E3.33937
G1 X145.011 Y132.407 E3.37385
G1 X144.146 Y132.781 E3.40833
G1 X143.253 Y133.08 E3.44278
G1 X142.337 Y133.303 E3.47727
G1 X141.406 Y133.447 E3.51174
G1 X140.369 Y133.513 E3.54976
G1 X139.314 Y133.53 E3.58836
G1 X96.252 Y133.53 E5.16383
G1 X95.555 Y133.52 E5.18933
G1 X94.614 Y133.466 E5.22382
G1 X93.681 Y133.333 E5.2583
G1 X92.47 Y133.037 E5.30391
G1 X92.326 Y132.993 E5.30942
G1 X91.438 Y132.679 E5.34388
G1 X90.579 Y132.292 E5.37835
G1 X89.756 Y131.833 E5.41282
G1 X88.975 Y131.306 E5.44729
G1 X88.242 Y130.714 E5.48177
G1 X87.561 Y130.063 E5.51623
G1 X86.939 Y129.356 E5.55069
G1 X86.378 Y128.599 E5.58516
G1 X85.883 Y127.797 E5.61964
G1 X85.459 Y126.956 E5.6541
G1 X85.107 Y126.082 E5.68857
G1 X84.83 Y125.182 E5.72302
G1 X84.631 Y124.261 E5.75749
G1 X84.511 Y123.326 E5.79198
G1 X84.472 Y122.602 E5.81851
G1 X84.451 Y121.568 E5.85635
G1 X84.449 Y121.343 E5.86458
G1 X84.45 Y113.123 E6.16532
G1 X84.46 Y112.469 E6.18925
G1 X84.515 Y111.529 E6.2237
G1 X84.649 Y110.596 E6.25818
G1 X84.861 Y109.678 E6.29265
G1 X85.151 Y108.782 E6.32711
G1 X85.515 Y107.913 E6.36158
G1 X85.952 Y107.078 E6.39606
G1 X86.458 Y106.284 E6.43051
G1 X87.03 Y105.535 E6.46499
G1 X87.663 Y104.837 E6.49946
G1 X88.353 Y104.196 E6.53392
G0 F2100 X88.781 Y104.412
G1 F1200 X89.518 Y103.856 E6.56769
G1 X90.301 Y103.366 E6.60149
G1 X91.123 Y102.946 E6.63526
G1 X92.062 Y102.569 E6.67228
G1 X92.229 Y102.511 E6.67875
G1 X93.113 Y102.246 E6.71251
G1 X94.017 Y102.059 E6.74629
G1 X94.934 Y101.95 E6.78007
G1 X95.554 Y101.922 E6.80278
G1 X96.297 Y101.91 E6.82996
G1 X139.628 Y101.911 E8.41528
G1 X140.327 Y101.921 E8.44086
G1 X141.249 Y101.974 E8.47464
G1 X142.163 Y102.107 E8.50844
G1 X143.062 Y102.318 E8.54222
G1 X143.939 Y102.607 E8.576
G1 X144.788 Y102.97 E8.60979
G1 X145.602 Y103.405 E8.64355
G1 X146.375 Y103.909 E8.67731
G1 X147.102 Y104.478 E8.71109
G1 X147.778 Y105.108 E8.7449
G1 X148.654 Y106.12 E8.79387
G1 X148.734 Y106.225 E8.7987
G1 X149.262 Y106.983 E8.83249
G1 X149.721 Y107.783 E8.86624
G1 X150.11 Y108.621 E8.90004
G1 X150.425 Y109.489 E8.93382
G1 X150.663 Y110.381 E8.9676
G1 X150.823 Y111.29 E9.00137
G1 X150.913 Y112.457 E9.04419
G1 X150.936 Y113.531 E9.08349
G1 X150.938 Y113.76 E9.09187
G1 X150.936 Y121.717 E9.38299
G1 X150.926 Y122.434 E9.40922
G1 X150.873 Y123.355 E9.44297
G1 X150.741 Y124.269 E9.47676
G1 X150.53 Y125.168 E9.51055
G1 X150.242 Y126.045 E9.54432
G1 X149.879 Y126.894 E9.5781
G1 X149.444 Y127.709 E9.6119
G1 X149 Y128.398 E9.64189
G1 X148.909 Y128.528 E9.64769
G1 X148.347 Y129.261 E9.68148
G1 X147.724 Y129.942 E9.71525
G1 X147.045 Y130.567 E9.74902
G1 X146.314 Y131.131 E9.7828
G1 X145.536 Y131.629 E9.81659
G1 X144.719 Y132.059 E9.85037
G1 X143.867 Y132.415 E9.88415
G1 X142.988 Y132.697 E9.91793
G1 X142.088 Y132.902 E9.9517
G1 X141.173 Y133.028 E9.98549
G1 X140.361 Y133.073 E10.01524
G1 X139.314 Y133.09 E10.05355
G1 X96.258 Y133.09 E11.62881
G1 X95.561 Y133.08 E11.65431
G1 X94.639 Y133.027 E11.6881
G1 X93.726 Y132.894 E11.72185
G1 X92.599 Y132.616 E11.76432
G1 X92.455 Y132.572 E11.76983
G1 X91.585 Y132.264 E11.8036
G1 X90.744 Y131.882 E11.83739
G1 X89.94 Y131.429 E11.87116
G1 X89.177 Y130.908 E11.90496
G1 X88.463 Y130.322 E11.93875
G1 X87.802 Y129.678 E11.97252
G1 X87.2 Y128.978 E12.00629
G1 X86.66 Y128.229 E12.04008
G1 X86.187 Y127.436 E12.07386
G1 X85.785 Y126.606 E12.1076
G1 X85.455 Y125.743 E12.1414
G1 X85.202 Y124.855 E12.17518
G1 X85.026 Y123.949 E12.20895
G1 X84.912 Y122.593 E12.25874
G1 X84.891 Y121.559 E12.29657
G1 X84.889 Y121.343 E12.30448
G1 X84.89 Y113.13 E12.60496
G1 X84.9 Y112.476 E12.62889
G1 X84.954 Y111.554 E12.66268
G1 X85.088 Y110.641 E12.69644
G1 X85.3 Y109.742 E12.73023
G1 X85.589 Y108.865 E12.76402
G1 X85.953 Y108.017 E12.79778
G1 X86.389 Y107.203 E12.83156
G1 X86.894 Y106.43 E12.86534
G1 X87.464 Y105.704 E12.89911
G1 X88.094 Y105.029 E12.9329
G1 X88.781 Y104.412 E12.96668
G0 F2100 X89.207 Y104.633
G1 F1200 X89.939 Y104.103 E12.99974
G1 X90.716 Y103.64 E13.03283
G1 X91.53 Y103.247 E13.0659
G1 X92.206 Y102.985 E13.09243
G1 X92.373 Y102.927 E13.0989
G1 X93.239 Y102.668 E13.13197
G1 X94.125 Y102.487 E13.16505
G1 X95.023 Y102.385 E13.19812
G1 X95.561 Y102.362 E13.21782
G1 X96.469 Y102.349 E13.25104
G1 X139.622 Y102.351 E14.82985
G1 X140.321 Y102.361 E14.85542
G1 X141.224 Y102.414 E14.88852
G1 X142.118 Y102.546 E14.92158
G1 X142.997 Y102.757 E14.95465
G1 X143.854 Y103.045 E14.98773
G1 X144.682 Y103.407 E15.02079
G1 X145.475 Y103.842 E15.05388
G1 X146.226 Y104.344 E15.08693
G1 X146.931 Y104.911 E15.12003
G1 X147.582 Y105.538 E15.1531
G1 X148.304 Y106.386 E15.19385
G1 X148.384 Y106.491 E15.19868
G1 X148.9 Y107.234 E15.23177
G1 X149.348 Y108.019 E15.26484
G1 X149.724 Y108.841 E15.29791
G1 X150.027 Y109.693 E15.33099
G1 X150.253 Y110.568 E15.36406
G1 X150.401 Y111.46 E15.39714
G1 X150.473 Y112.466 E15.43404
G1 X150.496 Y113.54 E15.47334
G1 X150.498 Y113.76 E15.48139
G1 X150.496 Y121.711 E15.77229
G1 X150.486 Y122.428 E15.79852
G1 X150.433 Y123.33 E15.83158
G1 X150.301 Y124.224 E15.86464
G1 X150.091 Y125.103 E15.89771
G1 X149.803 Y125.96 E15.93078
G1 X149.441 Y126.789 E15.96388
G1 X149.007 Y127.582 E15.99695
G1 X148.64 Y128.146 E16.02157
G1 X148.549 Y128.276 E16.02738
G1 X147.998 Y128.993 E16.06046
G1 X147.386 Y129.658 E16.09353
G1 X146.718 Y130.267 E16.1266
G1 X145.998 Y130.814 E16.15968
G1 X145.233 Y131.296 E16.19276
G1 X144.429 Y131.708 E16.22581
G1 X143.591 Y132.048 E16.2589
G1 X142.726 Y132.312 E16.29199
G1 X141.842 Y132.498 E16.32504
G1 X140.944 Y132.606 E16.35813
G1 X140.354 Y132.633 E16.37974
G1 X139.314 Y132.65 E16.41779
G1 X96.264 Y132.65 E17.99283
G1 X95.567 Y132.64 E18.01833
G1 X94.665 Y132.587 E18.05139
G1 X93.771 Y132.455 E18.08445
G1 X92.728 Y132.195 E18.12378
G1 X92.584 Y132.151 E18.12928
G1 X91.732 Y131.849 E18.16236
G1 X90.91 Y131.473 E18.19543
G1 X90.124 Y131.025 E18.22853
G1 X89.381 Y130.51 E18.2616
G1 X88.687 Y129.931 E18.29467
G1 X88.046 Y129.294 E18.32773
G1 X87.464 Y128.602 E18.36081
G1 X86.946 Y127.861 E18.39389
G1 X86.495 Y127.077 E18.42698
G1 X86.115 Y126.257 E18.46005
G1 X85.809 Y125.406 E18.49313
G1 X85.58 Y124.532 E18.52619
G1 X85.428 Y123.641 E18.55926
G1 X85.352 Y122.585 E18.59799
G1 X85.331 Y121.551 E18.63583
G1 X85.329 Y121.343 E18.64344
G1 X85.33 Y113.137 E18.94367
G1 X85.34 Y112.483 E18.9676
G1 X85.394 Y111.58 E19.00069
G1 X85.527 Y110.686 E19.03376
G1 X85.739 Y109.807 E19.06684
G1 X86.028 Y108.951 E19.0999
G1 X86.391 Y108.123 E19.13297
G1 X86.826 Y107.33 E19.16607
G1 X87.329 Y106.579 E19.19914
G1 X87.897 Y105.876 E19.2322
G1 X88.524 Y105.225 E19.26527
G1 X89.207 Y104.633 E19.29834
G1 F2700 E14.29834
;MESH:PLATempTower
G0 F2100 X95.983 Y111.904
G0 X95.983 Y113.003
G0 X96.04 Y121.91
G1 F2700 E19.29834
G0 F2100 X95.769 Y122.211
;TYPE:WALL-OUTER
G1 F1200 X95.769 Y112.789 E19.64305
G1 X140.058 Y112.79 E21.26342
G1 X140.057 Y122.21 E21.60806
G1 X95.769 Y122.211 E23.22839
G0 F2100 X96.209 Y121.771
;TYPE:WALL-INNER
G1 F1200 X96.209 Y113.229 E23.5409
G1 X139.618 Y113.23 E25.12907
G1 X139.617 Y121.77 E25.44152
G1 X96.209 Y121.771 E27.02965
G0 F2100 X96.649 Y121.331
G1 F1200 X96.649 Y113.669 E27.30997
G1 X139.178 Y113.67 E28.86594
G1 X139.177 Y121.33 E29.14619
G1 X96.649 Y121.331 E30.70213
G0 F2100 X97.089 Y120.891
G1 F1200 X97.089 Y114.109 E30.95026
G1 X138.738 Y114.11 E32.47403
G1 X138.737 Y120.89 E32.72209
G1 X97.089 Y120.891 E34.24583
G1 F2700 E29.24583
G0 F2100 X97.299 Y116.709
G0 X99.689 Y116.709
;TYPE:SKIN
G1 F2700 E34.24583
G1 F1200 X99.69 Y116.27 E34.26189
G1 X99.249 Y116.269 E34.27802
G1 X99.249 Y118.731 E34.3681
G1 X136.577 Y118.73 E35.73379
G1 X136.578 Y116.27 E35.82379
G1 X136.55 Y115.83 E35.83992
G1 X136.374 Y115.39 E35.85726
G1 X98.369 Y115.389 E37.24771
G1 X98.369 Y119.611 E37.40218
G1 X137.457 Y119.61 E38.83226
G1 X137.458 Y115.39 E38.98665
G1 X137.898 Y114.95 E39.00942
G1 X138.338 Y114.95 E39.02552
G1 X138.338 Y114.51 E39.04162
G1 X97.489 Y114.509 E40.53612
G1 X97.489 Y120.491 E40.75498
G1 X138.337 Y120.49 E42.24945
G1 X138.338 Y115.385 E42.43622
G1 X137.898 Y115.385 E42.45232
G1 X137.897 Y120.05 E42.623
G1 X97.929 Y120.051 E44.08527
G1 X97.929 Y114.949 E44.27193
G1 X137.282 Y114.95 E45.71171
G1 X136.842 Y115.39 E45.73448
G1 X137.018 Y115.83 E45.75181
G1 X137.017 Y119.17 E45.87401
G1 X98.809 Y119.171 E47.27189
G1 X98.809 Y115.829 E47.39417
G1 X136.115 Y115.83 E48.75905
G1 X136.143 Y116.27 E48.77518
G1 X100.125 Y116.27 E50.09294
G1 X100.124 Y116.709 E50.109
G1 X136.138 Y116.71 E51.42661
G1 X136.137 Y118.29 E51.48442
G1 X99.689 Y118.291 E52.81791
G1 X99.689 Y117.325 E52.85325
G1 X100.129 Y117.765 E52.87602
G1 X100.129 Y117.851 E52.87917
G1 X135.697 Y117.85 E54.18046
G1 X135.698 Y117.15 E54.20607
G1 X100.129 Y117.149 E55.50741
G1 X99.689 Y116.709 E55.53017
G0 F2100 X100.373 Y117.343
;TYPE:SKIN
G1 F1200 X100.684 Y117.655 E55.5375
G0 F2100 X100.402 Y117.655
G1 F1200 X100.324 Y117.577 E55.53933
G0 F2100 X100.655 Y117.343
G1 F1200 X100.967 Y117.655 E55.54667
G0 F2100 X101.25 Y117.655
G1 F1200 X100.938 Y117.343 E55.55401
G0 F2100 X101.221 Y117.343
G1 F1200 X101.533 Y117.655 E55.56134
G0 F2100 X101.816 Y117.655
G1 F1200 X101.504 Y117.343 E55.56868
G0 F2100 X101.787 Y117.343
G1 F1200 X102.099 Y117.655 E55.57602
G0 F2100 X102.381 Y117.655
G1 F1200 X102.07 Y117.343 E55.58335
G0 F2100 X102.352 Y117.343
G1 F1200 X102.664 Y117.655 E55.59068
G0 F2100 X102.947 Y117.655
G1 F1200 X102.635 Y117.343 E55.59802
G0 F2100 X102.918 Y117.343
G1 F1200 X103.23 Y117.655 E55.60536
G0 F2100 X103.513 Y117.655
G1 F1200 X103.201 Y117.343 E55.6127
G0 F2100 X103.484 Y117.343
G1 F1200 X103.796 Y117.655 E55.62004
G0 F2100 X104.079 Y117.655
G1 F1200 X103.767 Y117.343 E55.62737
G0 F2100 X104.05 Y117.343
G1 F1200 X104.361 Y117.655 E55.6347
G0 F2100 X104.644 Y117.655
G1 F1200 X104.332 Y117.343 E55.64204
G0 F2100 X104.615 Y117.343
G1 F1200 X104.927 Y117.655 E55.64937
G0 F2100 X105.21 Y117.655
G1 F1200 X104.898 Y117.343 E55.65671
G0 F2100 X105.181 Y117.343
G1 F1200 X105.493 Y117.655 E55.66405
G0 F2100 X105.776 Y117.655
G1 F1200 X105.464 Y117.343 E55.67139
G0 F2100 X105.747 Y117.343
G1 F1200 X106.058 Y117.655 E55.67871
G0 F2100 X106.341 Y117.655
G1 F1200 X106.029 Y117.343 E55.68605
G0 F2100 X106.312 Y117.343
G1 F1200 X106.624 Y117.655 E55.69339
G0 F2100 X106.907 Y117.655
G1 F1200 X106.595 Y117.343 E55.70073
G0 F2100 X106.878 Y117.343
G1 F1200 X107.19 Y117.655 E55.70806
G0 F2100 X107.473 Y117.655
G1 F1200 X107.161 Y117.343 E55.7154
G0 F2100 X107.444 Y117.343
G1 F1200 X107.756 Y117.655 E55.72274
G0 F2100 X108.038 Y117.655
G1 F1200 X107.727 Y117.343 E55.73007
G0 F2100 X108.009 Y117.343
G1 F1200 X108.321 Y117.655 E55.7374
G0 F2100 X108.604 Y117.655
G1 F1200 X108.292 Y117.343 E55.74474
G0 F2100 X108.575 Y117.343
G1 F1200 X108.887 Y117.655 E55.75208
G0 F2100 X109.17 Y117.655
G1 F1200 X108.858 Y117.343 E55.75942
G0 F2100 X109.141 Y117.343
G1 F1200 X109.453 Y117.655 E55.76676
G0 F2100 X109.735 Y117.655
G1 F1200 X109.424 Y117.343 E55.77408
G0 F2100 X109.706 Y117.343
G1 F1200 X110.018 Y117.655 E55.78142
G0 F2100 X110.301 Y117.655
G1 F1200 X109.989 Y117.343 E55.78876
G0 F2100 X110.272 Y117.343
G1 F1200 X110.584 Y117.655 E55.79609
G0 F2100 X110.867 Y117.655
G1 F1200 X110.555 Y117.343 E55.80343
G0 F2100 X110.838 Y117.343
G1 F1200 X111.15 Y117.655 E55.81077
G0 F2100 X111.432 Y117.655
G1 F1200 X111.121 Y117.343 E55.8181
G0 F2100 X111.403 Y117.343
G1 F1200 X111.715 Y117.655 E55.82543
G0 F2100 X111.998 Y117.655
G1 F1200 X111.686 Y117.343 E55.83277
G0 F2100 X111.969 Y117.343
G1 F1200 X112.281 Y117.655 E55.84011
G0 F2100 X112.564 Y117.655
G1 F1200 X112.253 Y117.344 E55.84742
G0 F2100 X112.536 Y117.344
G1 F1200 X112.847 Y117.655 E55.85474
G0 F2100 X113.13 Y117.655
G1 F1200 X112.818 Y117.344 E55.86206
G0 F2100 X113.101 Y117.344
G1 F1200 X113.412 Y117.655 E55.86938
G0 F2100 X113.695 Y117.655
G1 F1200 X113.384 Y117.344 E55.87669
G0 F2100 X113.667 Y117.344
G1 F1200 X113.978 Y117.655 E55.88401
G0 F2100 X114.261 Y117.655
G1 F1200 X113.95 Y117.344 E55.89132
G0 F2100 X114.233 Y117.344
G1 F1200 X114.544 Y117.655 E55.89864
G0 F2100 X114.827 Y117.655
G1 F1200 X114.515 Y117.344 E55.90596
G0 F2100 X114.798 Y117.344
G1 F1200 X115.109 Y117.655 E55.91328
G0 F2100 X115.392 Y117.655
G1 F1200 X115.081 Y117.344 E55.92059
G0 F2100 X115.364 Y117.344
G1 F1200 X115.675 Y117.655 E55.9279
G0 F2100 X115.958 Y117.655
G1 F1200 X115.647 Y117.344 E55.93522
G0 F2100 X115.93 Y117.344
G1 F1200 X116.241 Y117.655 E55.94253
G0 F2100 X116.524 Y117.655
G1 F1200 X116.212 Y117.344 E55.94986
G0 F2100 X116.495 Y117.344
G1 F1200 X116.806 Y117.655 E55.95717
G0 F2100 X117.089 Y117.655
G1 F1200 X116.778 Y117.344 E55.96449
G0 F2100 X117.061 Y117.344
G1 F1200 X117.372 Y117.655 E55.9718
G0 F2100 X117.655 Y117.655
G1 F1200 X117.344 Y117.344 E55.97912
G0 F2100 X117.627 Y117.344
G1 F1200 X117.938 Y117.655 E55.98643
G0 F2100 X118.221 Y117.655
G1 F1200 X117.91 Y117.344 E55.99374
G0 F2100 X118.192 Y117.344
G1 F1200 X118.504 Y117.655 E56.00107
G0 F2100 X118.786 Y117.655
G1 F1200 X118.475 Y117.344 E56.00838
G0 F2100 X118.758 Y117.344
G1 F1200 X119.069 Y117.655 E56.0157
G0 F2100 X119.352 Y117.655
G1 F1200 X119.041 Y117.344 E56.02301
G0 F2100 X119.324 Y117.344
G1 F1200 X119.635 Y117.655 E56.03033
G0 F2100 X119.918 Y117.655
G1 F1200 X119.607 Y117.344 E56.03764
G0 F2100 X119.889 Y117.344
G1 F1200 X120.201 Y117.655 E56.04497
G0 F2100 X120.483 Y117.655
G1 F1200 X120.172 Y117.344 E56.05228
G0 F2100 X120.455 Y117.344
G1 F1200 X120.766 Y117.655 E56.0596
G0 F2100 X121.049 Y117.655
G1 F1200 X120.738 Y117.344 E56.06691
G0 F2100 X121.021 Y117.344
G1 F1200 X121.332 Y117.655 E56.07422
G0 F2100 X121.615 Y117.655
G1 F1200 X121.304 Y117.344 E56.08154
G0 F2100 X121.587 Y117.344
G1 F1200 X121.898 Y117.655 E56.08885
G0 F2100 X122.18 Y117.655
G1 F1200 X121.869 Y117.344 E56.09617
G0 F2100 X122.152 Y117.344
