;FLAVOR:Marlin
;TIME:4726
;Filament used: 3.43107m
;Layer height: 0.2
;MINX:71.587
;MINY:83.305
;MINZ:0.2
;MAXX:163.056
;MAXY:151.695
;MAXZ:16
;Generated with Cura_SteamEngine 5.0.0
M140 S60
M105
M190 S60
M104 S222
M105
M109 S222
M82 ;absolute extrusion mode
; Ender 3 Custom Start G-code
G92 E0 ; Reset Extruder
M140 S60 ; Start heating the heated bed
M190 S60 ; Wait until the heated bed reaches the desired temperature
G28 ; Auto Home
G29 A; Activate Bed Leveling
G29 L0; Loads the saved mesh in slot 0
G29  J3; 9 point autotilt

G92 E0 ; Reset extruder origin
G1 Z2.0 F3000 ; Move Z Axis up little to prevent scratching of Heat Bed
G1 X0.1 Y20 Z0.3 F5000.0 ; Move to start position
G1 X0.1 Y200.0 Z0.3 F1500.0 E15 ; Draw the first line
G1 X0.4 Y200.0 Z0.3 F5000.0 ; Move to side a little
G1 X0.4 Y20 Z0.3 F1500.0 E30 ; Draw the second line
G92 E0 ; Reset Extruder
G1 Z2.0 F3000 ; Move Z Axis up little to prevent scratching of Heat Bed
G1 X5 Y20 Z0.3 F5000.0 ; Move over to prevent blob squish

; End of Ender 3 Custom Start G-code
G92 E0
G92 E0
G1 F2700 E-5
;LAYER_COUNT:80
;LAYER:0
M107
G0 F2100 X75.815 Y91.068 Z0.2
G0 X71.588 Y100.455
;TYPE:SKIRT
G1 F2700 E0
G1 F1200 X71.606 Y99.63 E0.03019
G1 X71.625 Y99.243 E0.04437
G1 X71.711 Y98.305 E0.07883
G1 X71.877 Y97.377 E0.11332
G1 X72.12 Y96.467 E0.14778
G1 X72.44 Y95.581 E0.18224
G1 X72.834 Y94.725 E0.21672
G1 X73.298 Y93.905 E0.25119
G1 X73.831 Y93.128 E0.28566
G1 X74.428 Y92.399 E0.32014
G1 X75.123 Y91.686 E0.35657
G1 X75.297 Y91.523 E0.36529
G1 X75.815 Y91.068 E0.39051
G1 X76.723 Y90.324 E0.43346
G1 X77.266 Y89.913 E0.45838
G1 X78.51 Y89.024 E0.51432
G1 X78.945 Y88.733 E0.53346
G1 X79.363 Y88.467 E0.55159
G1 X80.214 Y87.959 E0.58785
G1 X81.011 Y87.513 E0.62127
G1 X81.48 Y87.265 E0.64068
G1 X82.101 Y86.96 E0.66599
G1 X83.021 Y86.534 E0.70308
G1 X83.626 Y86.276 E0.72714
G1 X84.387 Y85.977 E0.75706
G1 X84.805 Y85.822 E0.77337
G1 X86.169 Y85.355 E0.82612
G1 X86.959 Y85.115 E0.85632
G1 X88.032 Y84.825 E0.89699
G1 X89.057 Y84.579 E0.93555
G1 X89.621 Y84.458 E0.95666
G1 X91.237 Y84.158 E1.01679
G1 X92.407 Y83.977 E1.06011
G1 X93.646 Y83.828 E1.10576
G1 X94.712 Y83.729 E1.14493
G1 X96.076 Y83.632 E1.19496
G1 X96.508 Y83.61 E1.21079
G1 X98.051 Y83.569 E1.26726
G1 X99.997 Y83.577 E1.33846
G1 X100.582 Y83.592 E1.35987
G1 X102.907 Y83.693 E1.44501
G1 X104.188 Y83.776 E1.49198
G1 X105.912 Y83.913 E1.55525
G1 X108.424 Y84.151 E1.64756
G1 X109.192 Y84.233 E1.67582
G1 X111.744 Y84.468 E1.76959
G1 X114.287 Y84.629 E1.86281
G1 X116.778 Y84.717 E1.954
G1 X119.293 Y84.734 E2.04602
G1 X121.85 Y84.68 E2.13959
G1 X124.316 Y84.557 E2.22993
G1 X126.819 Y84.361 E2.32178
G1 X129.464 Y84.08 E2.4191
G1 X132.353 Y83.736 E2.52554
G1 X133.663 Y83.598 E2.57373
G1 X135.543 Y83.432 E2.64278
G1 X137.159 Y83.334 E2.70201
G1 X138.349 Y83.305 E2.74556
G1 X139.671 Y83.313 E2.79393
G1 X140.636 Y83.349 E2.82926
G1 X141.142 Y83.384 E2.84782
G1 X141.946 Y83.462 E2.87737
G1 X142.58 Y83.538 E2.90073
G1 X143.211 Y83.632 E2.92407
G1 X144.185 Y83.806 E2.96027
G1 X145.058 Y83.991 E2.99292
G1 X145.577 Y84.12 E3.01249
G1 X146.233 Y84.306 E3.03744
G1 X146.689 Y84.446 E3.05489
G1 X147.286 Y84.648 E3.07795
G1 X148.195 Y84.99 E3.11348
G1 X148.547 Y85.133 E3.12738
G1 X149.124 Y85.387 E3.15044
G1 X149.96 Y85.789 E3.18438
G1 X150.277 Y85.951 E3.19741
G1 X150.855 Y86.268 E3.22153
G1 X151.671 Y86.754 E3.25627
G1 X151.943 Y86.925 E3.26803
G1 X152.518 Y87.312 E3.29339
G1 X153.356 Y87.921 E3.33129
G1 X153.629 Y88.13 E3.34387
G1 X154.132 Y88.539 E3.36758
G1 X154.846 Y89.164 E3.4023
G1 X155.211 Y89.502 E3.4205
G1 X155.606 Y89.886 E3.44066
G1 X156.122 Y90.423 E3.4679
G1 X156.604 Y90.95 E3.49403
G1 X157.028 Y91.441 E3.51777
G1 X157.353 Y91.841 E3.53662
G1 X157.692 Y92.281 E3.55694
G1 X158.251 Y93.044 E3.59155
G1 X158.63 Y93.595 E3.61602
G1 X159.035 Y94.224 E3.64339
G1 X159.369 Y94.778 E3.66706
G1 X159.755 Y95.462 E3.69579
G1 X160.078 Y96.078 E3.72124
G1 X160.467 Y96.881 E3.75388
G1 X160.751 Y97.519 E3.77943
G1 X161.203 Y98.643 E3.82375
G1 X161.48 Y99.424 E3.85407
G1 X161.727 Y100.197 E3.88376
G1 X161.863 Y100.655 E3.90124
G1 X162.067 Y101.427 E3.93046
G1 X162.222 Y102.076 E3.95487
G1 X162.321 Y102.53 E3.97187
G1 X162.488 Y103.418 E4.00493
G1 X162.656 Y104.504 E4.04513
G1 X162.776 Y105.46 E4.08038
G1 X162.864 Y106.392 E4.11463
G1 X162.977 Y108.089 E4.17686
G1 X162.996 Y108.471 E4.19085
G1 X163.044 Y110.053 E4.24876
G1 X163.056 Y111.224 E4.2916
G1 X163.055 Y123.903 E4.75548
G1 X163.036 Y125.381 E4.80956
G1 X162.996 Y126.553 E4.85246
G1 X162.864 Y128.607 E4.92776
G1 X162.778 Y129.521 E4.96135
G1 X162.654 Y130.514 E4.99796
G1 X162.507 Y131.466 E5.0332
G1 X162.351 Y132.313 E5.06471
G1 X162.132 Y133.317 E5.10231
G1 X162.002 Y133.84 E5.12203
G1 X161.787 Y134.606 E5.15114
G1 X161.55 Y135.368 E5.18033
G1 X161.325 Y136.025 E5.20574
G1 X161.061 Y136.733 E5.23338
G1 X160.794 Y137.381 E5.25903
G1 X160.472 Y138.11 E5.28818
G1 X160.171 Y138.736 E5.3136
G1 X159.77 Y139.509 E5.34546
G1 X159.427 Y140.123 E5.37119
G1 X159.002 Y140.829 E5.40134
G1 X158.657 Y141.367 E5.42472
G1 X158.247 Y141.967 E5.45131
G1 X157.828 Y142.539 E5.47725
G1 X157.238 Y143.294 E5.5123
G1 X156.917 Y143.686 E5.53084
G1 X156.585 Y144.073 E5.5495
G1 X156.125 Y144.577 E5.57446
G1 X155.598 Y145.12 E5.60214
G1 X155.159 Y145.548 E5.62458
G1 X154.567 Y146.086 E5.65384
G1 X154.178 Y146.422 E5.67265
G1 X153.702 Y146.811 E5.69514
G1 X152.961 Y147.375 E5.72921
G1 X152.669 Y147.585 E5.74237
G1 X152.153 Y147.934 E5.76516
G1 X151.245 Y148.505 E5.8044
G1 X150.981 Y148.661 E5.81562
G1 X150.419 Y148.972 E5.83912
G1 X149.537 Y149.419 E5.8753
G1 X149.191 Y149.583 E5.88931
G1 X148.635 Y149.829 E5.91155
G1 X147.8 Y150.165 E5.94448
G1 X147.446 Y150.298 E5.95832
G1 X146.796 Y150.519 E5.98343
G1 X145.824 Y150.81 E6.02056
G1 X145.312 Y150.947 E6.03995
G1 X144.63 Y151.106 E6.06557
G1 X144.038 Y151.225 E6.08766
G1 X143.506 Y151.319 E6.10742
G1 X142.498 Y151.471 E6.14472
G1 X141.85 Y151.549 E6.1686
G1 X140.898 Y151.631 E6.20356
G1 X140.345 Y151.665 E6.22383
G1 X139.736 Y151.686 E6.24612
G1 X138.354 Y151.695 E6.29669
G1 X137.159 Y151.666 E6.34042
G1 X135.542 Y151.568 E6.39969
G1 X133.663 Y151.402 E6.4687
G1 X131.463 Y151.162 E6.54967
G1 X129.437 Y150.917 E6.62433
G1 X126.872 Y150.643 E6.71871
G1 X124.343 Y150.445 E6.81152
G1 X121.832 Y150.319 E6.9035
G1 X119.349 Y150.266 E6.99437
G1 X116.795 Y150.283 E7.08781
G1 X114.305 Y150.37 E7.17896
G1 X111.769 Y150.53 E7.27193
G1 X109.181 Y150.768 E7.36702
G1 X107.791 Y150.912 E7.41814
G1 X105.74 Y151.102 E7.4935
G1 X104.023 Y151.236 E7.55651
G1 X102.674 Y151.319 E7.60596
G1 X100.357 Y151.415 E7.6908
G1 X99.782 Y151.426 E7.71184
G1 X97.677 Y151.426 E7.78886
G1 X96.272 Y151.377 E7.84029
G1 X95.022 Y151.297 E7.88612
G1 X94.045 Y151.211 E7.922
G1 X93.081 Y151.112 E7.95746
G1 X92.577 Y151.049 E7.97604
G1 X91.625 Y150.907 E8.01125
G1 X89.702 Y150.556 E8.08277
G1 X88.72 Y150.346 E8.11951
G1 X87.724 Y150.097 E8.15707
G1 X86.725 Y149.815 E8.19505
G1 X85.697 Y149.493 E8.23446
G1 X84.985 Y149.242 E8.26208
G1 X83.981 Y148.862 E8.30136
G1 X83.536 Y148.683 E8.31891
G1 X82.799 Y148.367 E8.34825
G1 X82.218 Y148.097 E8.37169
G1 X81.294 Y147.636 E8.40946
G1 X80.827 Y147.39 E8.42878
G1 X80.073 Y146.961 E8.46051
G1 X79.38 Y146.543 E8.49012
G1 X78.964 Y146.279 E8.50815
G1 X78.115 Y145.707 E8.5456
G1 X77.328 Y145.142 E8.58105
G1 X76.683 Y144.644 E8.61086
G1 X75.798 Y143.92 E8.6527
G1 X75.094 Y143.293 E8.68719
G1 X74.447 Y142.609 E8.72163
G1 X73.913 Y141.948 E8.75272
G1 X73.37 Y141.178 E8.78719
G1 X72.893 Y140.365 E8.82168
G1 X72.488 Y139.515 E8.85613
G1 X72.156 Y138.633 E8.89061
G1 X71.9 Y137.726 E8.92509
G1 X71.722 Y136.801 E8.95955
G1 X71.623 Y135.864 E8.99402
G1 X71.602 Y135.346 E9.01299
G1 X71.587 Y134.301 E9.05123
G1 X71.588 Y100.455 E10.28952
G0 F2100 X72.028 Y100.461
G1 F1200 X72.046 Y99.651 E10.31916
G1 X72.065 Y99.264 E10.33334
G1 X72.15 Y98.345 E10.3671
G1 X72.314 Y97.436 E10.4009
G1 X72.557 Y96.546 E10.43465
G1 X72.875 Y95.679 E10.46844
G1 X73.268 Y94.843 E10.50224
G1 X73.731 Y94.045 E10.53599
G1 X74.261 Y93.289 E10.56977
G1 X74.855 Y92.582 E10.60355
G1 X75.424 Y92.007 E10.63315
G1 X75.598 Y91.844 E10.64187
G1 X76.095 Y91.407 E10.66608
G1 X76.993 Y90.672 E10.70854
G1 X77.523 Y90.27 E10.73288
G1 X78.755 Y89.39 E10.78827
G1 X79.19 Y89.099 E10.80742
G1 X79.591 Y88.843 E10.82482
G1 X80.429 Y88.342 E10.86054
G1 X81.226 Y87.896 E10.89396
G1 X82.009 Y87.493 E10.92618
G1 X83.206 Y86.934 E10.97451
G1 X83.787 Y86.685 E10.99764
G1 X84.548 Y86.386 E11.02755
G1 X84.95 Y86.238 E11.04322
G1 X86.299 Y85.775 E11.0954
G1 X87.077 Y85.539 E11.12515
G1 X88.134 Y85.252 E11.16522
G1 X89.159 Y85.006 E11.20379
G1 X89.701 Y84.891 E11.22406
G1 X91.317 Y84.591 E11.28419
G1 X92.472 Y84.412 E11.32695
G1 X93.697 Y84.265 E11.37209
G1 X94.948 Y84.152 E11.41805
G1 X96.107 Y84.071 E11.46055
G1 X96.522 Y84.05 E11.47576
G1 X98.05 Y84.009 E11.53168
G1 X99.987 Y84.017 E11.60255
G1 X100.563 Y84.032 E11.62363
G1 X102.879 Y84.133 E11.70844
G1 X104.153 Y84.215 E11.75515
G1 X105.871 Y84.351 E11.8182
G1 X108.378 Y84.588 E11.91033
G1 X109.177 Y84.673 E11.93973
G1 X111.71 Y84.906 E12.03279
G1 X114.281 Y85.069 E12.12705
G1 X116.76 Y85.157 E12.2178
G1 X119.3 Y85.174 E12.31073
G1 X121.846 Y85.12 E12.4039
G1 X124.371 Y84.995 E12.49639
G1 X126.866 Y84.799 E12.58796
G1 X129.488 Y84.52 E12.68443
G1 X132.4 Y84.174 E12.79172
G1 X133.703 Y84.037 E12.83965
G1 X135.571 Y83.871 E12.90826
G1 X137.173 Y83.774 E12.96698
G1 X138.347 Y83.745 E13.00995
G1 X139.669 Y83.753 E13.05831
G1 X140.616 Y83.788 E13.09298
G1 X141.102 Y83.822 E13.11081
G1 X141.894 Y83.899 E13.13992
G1 X142.528 Y83.975 E13.16328
G1 X143.134 Y84.065 E13.1857
G1 X144.108 Y84.239 E13.2219
G1 X144.962 Y84.42 E13.25384
G1 X145.805 Y84.64 E13.28571
G1 X146.56 Y84.866 E13.31454
G1 X147.133 Y85.06 E13.33668
G1 X148.029 Y85.398 E13.37171
G1 X148.381 Y85.541 E13.38561
G1 X148.935 Y85.785 E13.40776
G1 X149.76 Y86.181 E13.44124
G1 X150.077 Y86.343 E13.45427
G1 X150.632 Y86.648 E13.47744
G1 X151.437 Y87.126 E13.51169
G1 X151.709 Y87.297 E13.52344
G1 X152.261 Y87.669 E13.5478
G1 X153.089 Y88.271 E13.58525
G1 X153.362 Y88.48 E13.59783
G1 X153.845 Y88.872 E13.62059
G1 X154.547 Y89.487 E13.65473
G1 X154.912 Y89.825 E13.67293
G1 X155.292 Y90.194 E13.69231
G1 X155.797 Y90.72 E13.71899
G1 X156.279 Y91.247 E13.74512
G1 X156.686 Y91.719 E13.76792
G1 X157.011 Y92.119 E13.78678
G1 X157.337 Y92.541 E13.80629
G1 X157.896 Y93.304 E13.84089
G1 X158.26 Y93.833 E13.86439
G1 X158.665 Y94.462 E13.89176
G1 X158.986 Y94.994 E13.91449
G1 X159.372 Y95.678 E13.94322
G1 X159.682 Y96.27 E13.96767
G1 X160.071 Y97.073 E14.00032
G1 X160.344 Y97.685 E14.02483
G1 X160.791 Y98.795 E14.06861
G1 X161.061 Y99.558 E14.09823
G1 X161.308 Y100.331 E14.12792
G1 X161.555 Y101.2 E14.16097
G1 X161.794 Y102.178 E14.1978
G1 X161.889 Y102.614 E14.21413
G1 X162.053 Y103.487 E14.24663
G1 X162.22 Y104.561 E14.28639
G1 X162.338 Y105.505 E14.3212
G1 X162.425 Y106.421 E14.35486
G1 X162.557 Y108.485 E14.43053
G1 X162.604 Y110.058 E14.48811
G1 X162.616 Y111.224 E14.53077
G1 X162.615 Y123.898 E14.99446
G1 X162.596 Y125.366 E15.04817
G1 X162.538 Y126.883 E15.10372
G1 X162.395 Y128.943 E15.17926
G1 X162.307 Y129.77 E15.20969
G1 X162.171 Y130.779 E15.24694
G1 X162.02 Y131.693 E15.28083
G1 X161.848 Y132.573 E15.31364
G1 X161.703 Y133.221 E15.33793
G1 X161.577 Y133.723 E15.35687
G1 X161.366 Y134.478 E15.38555
G1 X161.133 Y135.228 E15.41428
G1 X160.912 Y135.873 E15.43923
G1 X160.652 Y136.569 E15.46641
G1 X160.391 Y137.203 E15.4915
G1 X160.069 Y137.932 E15.52065
G1 X159.781 Y138.534 E15.54507
G1 X159.38 Y139.307 E15.57693
G1 X159.05 Y139.896 E15.60163
G1 X158.625 Y140.602 E15.63178
G1 X158.293 Y141.118 E15.65423
G1 X157.883 Y141.718 E15.68081
G1 X157.481 Y142.268 E15.70574
G1 X156.891 Y143.023 E15.74079
G1 X156.583 Y143.4 E15.75861
G1 X156.251 Y143.787 E15.77726
G1 X155.81 Y144.27 E15.80119
G1 X155.283 Y144.813 E15.82887
G1 X154.86 Y145.225 E15.85048
G1 X154.279 Y145.753 E15.8792
G1 X153.89 Y146.089 E15.89801
G1 X153.434 Y146.462 E15.91956
G1 X152.704 Y147.017 E15.95311
G1 X152.412 Y147.227 E15.96627
G1 X151.917 Y147.563 E15.98816
G1 X151.021 Y148.126 E16.02687
G1 X150.757 Y148.282 E16.03809
G1 X150.218 Y148.58 E16.06062
G1 X149.349 Y149.022 E16.09629
G1 X149.003 Y149.186 E16.1103
G1 X148.468 Y149.421 E16.13168
G1 X147.645 Y149.753 E16.16415
G1 X147.291 Y149.886 E16.17799
G1 X146.667 Y150.099 E16.20211
G1 X145.71 Y150.385 E16.23865
G1 X145.198 Y150.522 E16.25804
G1 X144.544 Y150.675 E16.28262
G1 X143.952 Y150.794 E16.30471
G1 X143.44 Y150.884 E16.32373
G1 X142.432 Y151.036 E16.36102
G1 X141.81 Y151.111 E16.38394
G1 X140.871 Y151.192 E16.41843
G1 X140.318 Y151.226 E16.4387
G1 X139.733 Y151.246 E16.46011
G1 X138.351 Y151.255 E16.51068
G1 X137.172 Y151.226 E16.55382
G1 X135.57 Y151.129 E16.61254
G1 X133.507 Y150.944 E16.68832
G1 X131.516 Y150.726 E16.7616
G1 X129.465 Y150.478 E16.83719
G1 X126.882 Y150.202 E16.93223
G1 X124.401 Y150.008 E17.02327
G1 X121.864 Y149.881 E17.11621
G1 X119.319 Y149.826 E17.20934
G1 X116.777 Y149.843 E17.30235
G1 X114.297 Y149.93 E17.39313
G1 X111.737 Y150.091 E17.48698
G1 X109.172 Y150.327 E17.58122
G1 X107.75 Y150.474 E17.63352
G1 X105.706 Y150.663 E17.70862
G1 X103.995 Y150.797 E17.77141
G1 X102.655 Y150.879 E17.82053
G1 X100.347 Y150.975 E17.90505
G1 X99.781 Y150.986 E17.92576
G1 X97.69 Y150.986 E18.00226
G1 X96.298 Y150.938 E18.05322
G1 X95.061 Y150.859 E18.09857
G1 X94.09 Y150.773 E18.13423
G1 X93.126 Y150.674 E18.16969
G1 X92.642 Y150.613 E18.18753
G1 X91.317 Y150.409 E18.23658
G1 X89.782 Y150.124 E18.2937
G1 X88.815 Y149.916 E18.32989
G1 X87.841 Y149.673 E18.36662
G1 X86.855 Y149.395 E18.4041
G1 X85.84 Y149.077 E18.44301
G1 X85.141 Y148.831 E18.47012
G1 X84.137 Y148.451 E18.5094
G1 X83.709 Y148.278 E18.52629
G1 X82.972 Y147.962 E18.55563
G1 X82.414 Y147.704 E18.57812
G1 X81.49 Y147.243 E18.6159
G1 X81.042 Y147.006 E18.63444
G1 X80.3 Y146.584 E18.66567
G1 X79.607 Y146.166 E18.69528
G1 X79.207 Y145.913 E18.71259
G1 X78.37 Y145.349 E18.74952
G1 X77.593 Y144.79 E18.78454
G1 X76.961 Y144.304 E18.81371
G1 X76.076 Y143.58 E18.85554
G1 X75.388 Y142.965 E18.8893
G1 X74.755 Y142.293 E18.92308
G1 X74.261 Y141.679 E18.95191
G1 X73.729 Y140.924 E18.9857
G1 X73.265 Y140.127 E19.01944
G1 X72.871 Y139.291 E19.05326
G1 X72.551 Y138.425 E19.08703
G1 X72.307 Y137.535 E19.1208
G1 X72.141 Y136.627 E19.15457
G1 X72.042 Y135.339 E19.20183
G1 X72.027 Y134.301 E19.23981
G1 X72.028 Y100.461 E20.47789
G0 F2100 X72.468 Y100.467
G1 F1200 X72.485 Y99.673 E20.50694
G1 X72.504 Y99.286 E20.52112
G1 X72.589 Y98.386 E20.55419
G1 X72.752 Y97.497 E20.58726
G1 X72.993 Y96.626 E20.62032
G1 X73.311 Y95.779 E20.65342
G1 X73.702 Y94.964 E20.6865
G1 X74.163 Y94.187 E20.71955
G1 X74.691 Y93.453 E20.75263
G1 X75.282 Y92.769 E20.7857
G1 X75.725 Y92.328 E20.80857
G1 X75.899 Y92.165 E20.81729
G1 X76.375 Y91.746 E20.8405
G1 X77.262 Y91.02 E20.88243
G1 X77.78 Y90.626 E20.90624
G1 X78.999 Y89.755 E20.96106
G1 X79.434 Y89.464 E20.9802
G1 X79.819 Y89.219 E20.9969
G1 X80.644 Y88.726 E21.03206
G1 X81.441 Y88.28 E21.06548
G1 X82.205 Y87.886 E21.09693
G1 X83.391 Y87.333 E21.1448
G1 X83.948 Y87.095 E21.16696
G1 X84.709 Y86.796 E21.19688
G1 X85.094 Y86.653 E21.2119
G1 X86.43 Y86.196 E21.26356
G1 X87.195 Y85.963 E21.29282
G1 X88.237 Y85.68 E21.33232
G1 X89.262 Y85.434 E21.37089
G1 X89.782 Y85.324 E21.39034
G1 X91.758 Y84.963 E21.46383
G1 X92.867 Y84.804 E21.50482
G1 X94.022 Y84.674 E21.54734
G1 X94.978 Y84.591 E21.58245
G1 X96.137 Y84.51 E21.62495
G1 X96.535 Y84.49 E21.63953
G1 X98.049 Y84.449 E21.69495
G1 X99.977 Y84.457 E21.76548
G1 X100.544 Y84.471 E21.78623
G1 X102.851 Y84.572 E21.87072
G1 X104.119 Y84.653 E21.91721
G1 X105.829 Y84.789 E21.97997
G1 X108.331 Y85.026 E22.07191
G1 X109.086 Y85.107 E22.09969
G1 X111.678 Y85.345 E22.19492
G1 X114.237 Y85.507 E22.28874
G1 X116.776 Y85.597 E22.38169
G1 X119.306 Y85.614 E22.47425
G1 X121.876 Y85.559 E22.5683
G1 X124.361 Y85.436 E22.65933
G1 X126.907 Y85.237 E22.75276
G1 X129.59 Y84.951 E22.85148
G1 X132.446 Y84.611 E22.9567
G1 X133.743 Y84.475 E23.00442
G1 X135.599 Y84.31 E23.07259
