;FLAVOR:Marlin
;TIME:2456
;Filament used: 0.885421m
;Layer height: 0.15
;MINX:100.32
;MINY:100.314
;MINZ:0.2
;MAXX:134.686
;MAXY:134.686
;MAXZ:28.1
;Generated with Cura_SteamEngine 5.0.0
M140 S60
M105
M190 S60
M104 S222
M105
M109 S222
M82 ;absolute extrusion mode
; Ender 3 Custom Start G-code
G92 E0 ; Reset Extruder
M140 S60 ; Start heating the heated bed
M190 S60 ; Wait until the heated bed reaches the desired temperature
G28 ; Auto Home
G29 A; Activate Bed Leveling
G29 L0; Loads the saved mesh in slot 0
G29  J3; 9 point autotilt

G92 E0 ; Reset extruder origin
G1 Z2.0 F3000 ; Move Z Axis up little to prevent scratching of Heat Bed
G1 X0.1 Y20 Z0.3 F5000.0 ; Move to start position
G1 X0.1 Y200.0 Z0.3 F1500.0 E15 ; Draw the first line
G1 X0.4 Y200.0 Z0.3 F5000.0 ; Move to side a little
G1 X0.4 Y20 Z0.3 F1500.0 E30 ; Draw the second line
G92 E0 ; Reset Extruder
G1 Z2.0 F3000 ; Move Z Axis up little to prevent scratching of Heat Bed
G1 X5 Y20 Z0.3 F5000.0 ; Move over to prevent blob squish

; End of Ender 3 Custom Start G-code
G92 E0
G92 E0
G1 F2700 E-5
;LAYER_COUNT:187
;LAYER:0
M107
G0 F2100 X105.271 Y105.423 Z0.2
G0 X100.32 Y117.96
;TYPE:SKIRT
G1 F2700 E0
G1 F1200 X100.321 Y116.992 E0.03542
G1 X100.345 Y116.457 E0.05501
G1 X100.432 Y115.481 E0.09086
G1 X100.5 Y114.973 E0.10961
G1 X100.643 Y114.145 E0.14035
G1 X100.732 Y113.725 E0.15606
G1 X100.932 Y112.919 E0.18644
G1 X101.169 Y112.137 E0.21634
G1 X101.407 Y111.469 E0.24228
G1 X101.591 Y110.999 E0.26075
G1 X101.947 Y110.185 E0.29325
G1 X102.171 Y109.725 E0.31197
G1 X102.665 Y108.821 E0.34966
G1 X102.936 Y108.375 E0.36876
G1 X103.441 Y107.615 E0.40214
G1 X103.757 Y107.18 E0.42181
G1 X104.352 Y106.432 E0.45678
G1 X104.685 Y106.048 E0.47537
G1 X105.271 Y105.423 E0.50672
G1 X105.597 Y105.101 E0.52348
G1 X106.269 Y104.489 E0.55674
G1 X106.651 Y104.169 E0.57497
G1 X107.378 Y103.61 E0.60852
G1 X107.803 Y103.31 E0.62755
G1 X108.583 Y102.806 E0.66153
G1 X109.007 Y102.557 E0.67952
G1 X109.823 Y102.123 E0.71333
G1 X110.252 Y101.917 E0.73075
G1 X111 Y101.591 E0.7606
G1 X111.466 Y101.408 E0.77891
G1 X112.386 Y101.092 E0.8145
G1 X112.885 Y100.945 E0.83354
G1 X113.734 Y100.731 E0.86557
G1 X114.204 Y100.632 E0.88314
G1 X115.115 Y100.48 E0.91693
G1 X115.595 Y100.42 E0.93463
G1 X116.45 Y100.344 E0.96604
G1 X117.207 Y100.314 E0.99375
G1 X118.02 Y100.321 E1.0235
G1 X118.549 Y100.345 E1.04287
G1 X119.519 Y100.432 E1.0785
G1 X120.027 Y100.5 E1.09726
G1 X120.855 Y100.643 E1.128
G1 X121.275 Y100.732 E1.1437
G1 X122.081 Y100.932 E1.17409
G1 X122.845 Y101.164 E1.2033
G1 X123.5 Y101.395 E1.22871
G1 X123.97 Y101.578 E1.24716
G1 X124.787 Y101.935 E1.27978
G1 X125.255 Y102.162 E1.29881
G1 X126.168 Y102.659 E1.33684
G1 X126.618 Y102.932 E1.3561
G1 X127.335 Y103.406 E1.38755
G1 X127.711 Y103.676 E1.40448
G1 X128.396 Y104.206 E1.43617
G1 X128.989 Y104.715 E1.46476
G1 X129.581 Y105.274 E1.49455
G1 X129.91 Y105.608 E1.5117
G1 X130.505 Y106.262 E1.54405
G1 X130.823 Y106.641 E1.56215
G1 X131.395 Y107.385 E1.59649
G1 X131.695 Y107.811 E1.61555
G1 X132.189 Y108.577 E1.6489
G1 X132.44 Y109.004 E1.66702
G1 X132.87 Y109.809 E1.70041
G1 X133.071 Y110.226 E1.71735
G1 X133.406 Y110.995 E1.74803
G1 X133.593 Y111.472 E1.76678
G1 X133.879 Y112.289 E1.79845
G1 X134.085 Y112.985 E1.825
G1 X134.268 Y113.729 E1.85304
G1 X134.369 Y114.21 E1.87102
G1 X134.52 Y115.114 E1.90455
G1 X134.58 Y115.594 E1.92225
G1 X134.656 Y116.449 E1.95365
G1 X134.686 Y117.216 E1.98173
G1 X134.678 Y118.028 E2.01144
G1 X134.654 Y118.553 E2.03067
G1 X134.567 Y119.522 E2.06627
G1 X134.499 Y120.029 E2.08498
G1 X134.362 Y120.829 E2.11468
G1 X134.274 Y121.249 E2.13038
G1 X134.12 Y121.89 E2.1545
G1 X133.928 Y122.558 E2.17992
G1 X133.84 Y122.835 E2.19056
G1 X133.602 Y123.509 E2.21671
G1 X133.419 Y123.978 E2.23513
G1 X133.066 Y124.786 E2.26739
G1 X132.842 Y125.248 E2.28617
G1 X132.359 Y126.137 E2.32319
G1 X132.084 Y126.593 E2.34267
G1 X131.552 Y127.395 E2.37788
G1 X131.236 Y127.829 E2.39752
G1 X130.658 Y128.556 E2.4315
G1 X130.325 Y128.941 E2.45013
G1 X129.729 Y129.579 E2.48207
G1 X129.414 Y129.89 E2.49826
G1 X128.766 Y130.481 E2.53035
G1 X128.373 Y130.812 E2.54915
G1 X127.605 Y131.403 E2.5846
G1 X127.181 Y131.701 E2.60357
G1 X126.418 Y132.192 E2.63676
G1 X125.999 Y132.438 E2.65454
G1 X125.214 Y132.857 E2.68709
G1 X124.778 Y133.068 E2.70481
G1 X124 Y133.409 E2.73589
G1 X123.534 Y133.592 E2.75421
G1 X122.614 Y133.908 E2.7898
G1 X122.115 Y134.055 E2.80883
G1 X121.266 Y134.269 E2.84086
G1 X120.796 Y134.368 E2.85844
G1 X119.885 Y134.52 E2.89223
G1 X119.405 Y134.58 E2.90992
G1 X118.55 Y134.656 E2.94133
G1 X117.785 Y134.686 E2.96934
G1 X116.972 Y134.678 E2.99909
G1 X116.447 Y134.654 E3.01831
G1 X115.481 Y134.568 E3.0538
G1 X114.973 Y134.5 E3.07255
G1 X114.145 Y134.357 E3.10329
G1 X113.725 Y134.268 E3.119
G1 X112.919 Y134.068 E3.14938
G1 X112.155 Y133.836 E3.17859
G1 X111.5 Y133.605 E3.204
G1 X111.03 Y133.422 E3.22245
G1 X110.203 Y133.06 E3.25548
G1 X109.73 Y132.83 E3.27473
G1 X108.826 Y132.338 E3.31238
G1 X108.381 Y132.068 E3.33142
G1 X107.661 Y131.591 E3.36302
G1 X107.277 Y131.315 E3.38032
G1 X106.568 Y130.761 E3.41324
G1 X106.169 Y130.422 E3.4324
G1 X105.485 Y129.79 E3.46647
G1 X105.126 Y129.429 E3.4851
G1 X104.494 Y128.737 E3.51938
G1 X104.176 Y128.358 E3.53748
G1 X103.601 Y127.61 E3.572
G1 X103.302 Y127.185 E3.59101
G1 X102.817 Y126.433 E3.62375
G1 X102.566 Y126.007 E3.64184
G1 X102.123 Y125.177 E3.67626
G1 X101.917 Y124.748 E3.69367
G1 X101.596 Y124.012 E3.72305
G1 X101.412 Y123.545 E3.74142
G1 X101.093 Y122.618 E3.77728
G1 X100.946 Y122.12 E3.79628
G1 X100.723 Y121.229 E3.82988
G1 X100.624 Y120.751 E3.84774
G1 X100.477 Y119.863 E3.88067
G1 X100.416 Y119.37 E3.89885
G1 X100.342 Y118.478 E3.9316
G1 X100.32 Y117.96 E3.95056
G0 F2100 X100.76 Y117.941
G1 F1200 X100.761 Y117.011 E3.98459
G1 X100.785 Y116.476 E4.00418
G1 X100.868 Y115.54 E4.03856
G1 X100.936 Y115.032 E4.05731
G1 X101.074 Y114.236 E4.08687
G1 X101.163 Y113.816 E4.10258
G1 X101.357 Y113.033 E4.13209
G1 X101.589 Y112.271 E4.16123
G1 X101.817 Y111.629 E4.18616
G1 X102.001 Y111.159 E4.20462
G1 X102.343 Y110.378 E4.23582
G1 X102.567 Y109.918 E4.25454
G1 X103.041 Y109.049 E4.29075
G1 X103.312 Y108.603 E4.30985
G1 X103.797 Y107.874 E4.34188
G1 X104.113 Y107.439 E4.36155
G1 X104.684 Y106.72 E4.39514
G1 X105.017 Y106.336 E4.41374
G1 X105.58 Y105.736 E4.44384
G1 X105.906 Y105.414 E4.46061
G1 X106.552 Y104.826 E4.49256
G1 X106.934 Y104.506 E4.5108
G1 X107.632 Y103.969 E4.54302
G1 X108.057 Y103.669 E4.56205
G1 X108.806 Y103.186 E4.59466
G1 X109.23 Y102.937 E4.61265
G1 X110.014 Y102.519 E4.64515
G1 X110.443 Y102.313 E4.66256
G1 X111.16 Y102.001 E4.69117
G1 X111.626 Y101.818 E4.70949
G1 X112.511 Y101.514 E4.74372
G1 X113.01 Y101.367 E4.76276
G1 X113.825 Y101.162 E4.7935
G1 X114.295 Y101.063 E4.81107
G1 X115.17 Y100.916 E4.84354
G1 X115.65 Y100.856 E4.86123
G1 X116.48 Y100.783 E4.89172
G1 X117.219 Y100.754 E4.91878
G1 X118 Y100.761 E4.94735
G1 X118.529 Y100.785 E4.96672
G1 X119.46 Y100.868 E5.00092
G1 X119.968 Y100.936 E5.01967
G1 X120.764 Y101.074 E5.04923
G1 X121.184 Y101.163 E5.06494
G1 X121.967 Y101.357 E5.09445
G1 X122.711 Y101.583 E5.1229
G1 X123.341 Y101.805 E5.14734
G1 X123.811 Y101.988 E5.16579
G1 X124.595 Y102.331 E5.1971
G1 X125.063 Y102.558 E5.21613
G1 X125.94 Y103.035 E5.25265
G1 X126.39 Y103.308 E5.27191
G1 X127.079 Y103.763 E5.30212
G1 X127.455 Y104.033 E5.31905
G1 X128.119 Y104.548 E5.3498
G1 X128.699 Y105.046 E5.37777
G1 X129.267 Y105.582 E5.40634
G1 X129.596 Y105.916 E5.42349
G1 X130.168 Y106.545 E5.4546
G1 X130.486 Y106.924 E5.4727
G1 X131.036 Y107.638 E5.50567
G1 X131.336 Y108.064 E5.52474
G1 X131.81 Y108.8 E5.55676
G1 X132.061 Y109.227 E5.57489
G1 X132.474 Y110 E5.60695
G1 X132.675 Y110.417 E5.62389
G1 X132.997 Y111.155 E5.65334
G1 X133.184 Y111.632 E5.67209
G1 X133.461 Y112.425 E5.70282
G1 X133.661 Y113.105 E5.72875
G1 X133.837 Y113.819 E5.75566
G1 X133.938 Y114.3 E5.77364
G1 X134.084 Y115.169 E5.80588
G1 X134.144 Y115.649 E5.82358
G1 X134.217 Y116.479 E5.85406
G1 X134.246 Y117.228 E5.88148
G1 X134.239 Y118.008 E5.91002
G1 X134.215 Y118.533 E5.92925
G1 X134.131 Y119.463 E5.96341
G1 X134.063 Y119.97 E5.98213
G1 X133.931 Y120.739 E6.01068
G1 X133.843 Y121.159 E6.02638
G1 X133.634 Y121.998 E6.05801
G1 X133.421 Y122.702 E6.08492
G1 X133.192 Y123.349 E6.11003
G1 X133.009 Y123.818 E6.12845
G1 X132.67 Y124.594 E6.15943
G1 X132.446 Y125.056 E6.17821
G1 X131.982 Y125.91 E6.21377
G1 X131.707 Y126.366 E6.23326
G1 X131.197 Y127.136 E6.26705
G1 X130.881 Y127.57 E6.28669
G1 X130.326 Y128.269 E6.31934
G1 X129.993 Y128.654 E6.33796
G1 X129.419 Y129.266 E6.36866
G1 X129.104 Y129.577 E6.38486
G1 X128.482 Y130.144 E6.41565
G1 X128.089 Y130.475 E6.43445
G1 X127.352 Y131.043 E6.46849
G1 X126.928 Y131.341 E6.48745
G1 X126.195 Y131.813 E6.51935
G1 X125.776 Y132.059 E6.53713
G1 X125.023 Y132.461 E6.56836
G1 X124.587 Y132.672 E6.58608
G1 X123.84 Y132.999 E6.61591
G1 X123.374 Y133.182 E6.63423
G1 X122.489 Y133.486 E6.66846
G1 X121.99 Y133.633 E6.68749
G1 X121.175 Y133.838 E6.71824
G1 X120.705 Y133.937 E6.73581
G1 X119.83 Y134.084 E6.76828
G1 X119.35 Y134.144 E6.78597
G1 X118.52 Y134.217 E6.81646
G1 X117.773 Y134.246 E6.84381
G1 X116.992 Y134.239 E6.87238
G1 X116.467 Y134.215 E6.89161
G1 X115.54 Y134.132 E6.92566
G1 X115.032 Y134.064 E6.94441
G1 X114.236 Y133.926 E6.97397
G1 X113.816 Y133.837 E6.98968
G1 X113.033 Y133.643 E7.01919
G1 X112.289 Y133.417 E7.04764
G1 X111.659 Y133.195 E7.07208
G1 X111.189 Y133.012 E7.09053
G1 X110.395 Y132.665 E7.12223
G1 X109.922 Y132.435 E7.14148
G1 X109.054 Y131.962 E7.17764
G1 X108.609 Y131.692 E7.19668
G1 X107.917 Y131.234 E7.22704
G1 X107.533 Y130.958 E7.24435
G1 X106.853 Y130.426 E7.27593
G1 X106.454 Y130.087 E7.29509
G1 X105.797 Y129.48 E7.32781
G1 X105.438 Y129.119 E7.34644
G1 X104.831 Y128.454 E7.37938
G1 X104.513 Y128.075 E7.39748
G1 X103.96 Y127.357 E7.43064
G1 X103.661 Y126.932 E7.44965
G1 X103.196 Y126.209 E7.4811
G1 X102.945 Y125.783 E7.49919
G1 X102.519 Y124.986 E7.53226
G1 X102.313 Y124.557 E7.54967
G1 X102.005 Y123.851 E7.57785
G1 X101.821 Y123.384 E7.59621
G1 X101.515 Y122.494 E7.63064
G1 X101.368 Y121.996 E7.64964
G1 X101.154 Y121.14 E7.68192
G1 X101.055 Y120.662 E7.69978
G1 X100.914 Y119.809 E7.73141
G1 X100.853 Y119.316 E7.74959
G1 X100.782 Y118.459 E7.78105
G1 X100.76 Y117.941 E7.80002
G0 F2100 X101.199 Y117.923
G1 F1200 X101.2 Y117.031 E7.83265
G1 X101.224 Y116.496 E7.85225
G1 X101.304 Y115.598 E7.88523
G1 X101.372 Y115.09 E7.90398
G1 X101.504 Y114.327 E7.93231
G1 X101.593 Y113.907 E7.94802
G1 X101.782 Y113.148 E7.97664
G1 X102.008 Y112.405 E8.00505
G1 X102.226 Y111.789 E8.02896
G1 X102.41 Y111.319 E8.04742
G1 X102.739 Y110.571 E8.07732
G1 X102.963 Y110.111 E8.09604
G1 X103.417 Y109.278 E8.13075
G1 X103.688 Y108.832 E8.14984
G1 X104.153 Y108.132 E8.18059
G1 X104.469 Y107.697 E8.20026
G1 X105.017 Y107.008 E8.23247
G1 X105.35 Y106.624 E8.25106
G1 X105.889 Y106.049 E8.2799
G1 X106.215 Y105.727 E8.29666
G1 X106.834 Y105.164 E8.32727
G1 X107.216 Y104.844 E8.34551
G1 X107.885 Y104.329 E8.37639
G1 X108.31 Y104.029 E8.39543
G1 X109.029 Y103.565 E8.42673
G1 X109.453 Y103.316 E8.44472
G1 X110.204 Y102.916 E8.47586
G1 X110.633 Y102.71 E8.49327
G1 X111.321 Y102.41 E8.52073
G1 X111.787 Y102.227 E8.53904
G1 X112.635 Y101.937 E8.57183
G1 X113.134 Y101.79 E8.59086
G1 X113.916 Y101.592 E8.62038
G1 X114.386 Y101.493 E8.63795
G1 X115.224 Y101.353 E8.66903
G1 X115.704 Y101.293 E8.68673
G1 X116.509 Y101.222 E8.7163
G1 X117.231 Y101.194 E8.74273
G1 X117.98 Y101.201 E8.77014
G1 X118.509 Y101.225 E8.78951
G1 X119.402 Y101.304 E8.82231
G1 X119.91 Y101.372 E8.84106
G1 X120.673 Y101.504 E8.86939
G1 X121.093 Y101.593 E8.8851
G1 X121.852 Y101.782 E8.91372
G1 X122.578 Y102.002 E8.94147
G1 X123.181 Y102.215 E8.96487
G1 X123.651 Y102.398 E8.98332
G1 X124.403 Y102.727 E9.01335
G1 X124.871 Y102.954 E9.03238
G1 X125.712 Y103.411 E9.0674
G1 X126.162 Y103.684 E9.08666
G1 X126.822 Y104.121 E9.11562
G1 X127.198 Y104.391 E9.13255
G1 X127.842 Y104.89 E9.16236
G1 X128.409 Y105.377 E9.18971
G1 X128.954 Y105.891 E9.21711
G1 X129.283 Y106.225 E9.23427
G1 X129.831 Y106.828 E9.26408
G1 X130.149 Y107.207 E9.28218
G1 X130.676 Y107.892 E9.3138
G1 X130.976 Y108.318 E9.33286
G1 X131.431 Y109.023 E9.36356
G1 X131.682 Y109.45 E9.38168
G1 X132.077 Y110.191 E9.4124
G1 X132.278 Y110.608 E9.42934
G1 X132.587 Y111.316 E9.4576
G1 X132.774 Y111.793 E9.47635
G1 X133.042 Y112.56 E9.50607
G1 X133.238 Y113.225 E9.53144
G1 X133.407 Y113.91 E9.55725
G1 X133.508 Y114.391 E9.57523
G1 X133.647 Y115.223 E9.60609
G1 X133.707 Y115.703 E9.62379
G1 X133.778 Y116.508 E9.65336
G1 X133.806 Y117.24 E9.68016
G1 X133.799 Y117.988 E9.70752
G1 X133.775 Y118.513 E9.72675
G1 X133.695 Y119.405 E9.75952
G1 X133.627 Y119.912 E9.77823
G1 X133.501 Y120.649 E9.80559
G1 X133.413 Y121.069 E9.82129
G1 X133.21 Y121.882 E9.85195
G1 X133.001 Y122.568 E9.87818
G1 X132.782 Y123.189 E9.90227
G1 X132.599 Y123.658 E9.92069
G1 X132.274 Y124.402 E9.9504
G1 X132.05 Y124.864 E9.96918
G1 X131.606 Y125.683 E10.00327
G1 X131.331 Y126.139 E10.02275
G1 X130.841 Y126.877 E10.05516
G1 X130.525 Y127.311 E10.0748
G1 X129.993 Y127.981 E10.1061
G1 X129.66 Y128.366 E10.12472
G1 X129.11 Y128.953 E10.15415
G1 X128.795 Y129.264 E10.17035
G1 X128.199 Y129.808 E10.19987
G1 X127.806 Y130.139 E10.21867
G1 X127.099 Y130.683 E10.25131
G1 X126.675 Y130.981 E10.27027
G1 X125.972 Y131.433 E10.30085
G1 X125.553 Y131.679 E10.31862
G1 X124.831 Y132.065 E10.34858
G1 X124.395 Y132.276 E10.3663
G1 X123.679 Y132.59 E10.3949
G1 X123.213 Y132.773 E10.41322
G1 X122.365 Y133.063 E10.44601
G1 X121.866 Y133.21 E10.46504
G1 X121.084 Y133.408 E10.49455
G1 X120.614 Y133.507 E10.51212
G1 X119.776 Y133.647 E10.54321
G1 X119.296 Y133.707 E10.56091
G1 X118.491 Y133.778 E10.59047
G1 X117.761 Y133.806 E10.6172
G1 X117.012 Y133.799 E10.6446
G1 X116.487 Y133.775 E10.66383
G1 X115.598 Y133.696 E10.69649
G1 X115.09 Y133.628 E10.71524
G1 X114.327 Y133.496 E10.74357
G1 X113.907 Y133.407 E10.75927
G1 X113.148 Y133.218 E10.78789
G1 X112.422 Y132.998 E10.81565
G1 X111.819 Y132.785 E10.83904
G1 X111.349 Y132.602 E10.8575
G1 X110.588 Y132.269 E10.88789
G1 X110.115 Y132.039 E10.90713
G1 X109.283 Y131.585 E10.94181
G1 X108.838 Y131.315 E10.96085
G1 X108.174 Y130.877 E10.98995
G1 X107.79 Y130.601 E11.00725
G1 X107.138 Y130.09 E11.03756
G1 X106.739 Y129.751 E11.05672
G1 X106.109 Y129.17 E11.08807
G1 X105.75 Y128.809 E11.1067
G1 X105.168 Y128.171 E11.13829
G1 X104.85 Y127.792 E11.15639
G1 X104.32 Y127.104 E11.18817
G1 X104.021 Y126.679 E11.20718
G1 X103.575 Y125.986 E11.23733
G1 X103.324 Y125.56 E11.25542
G1 X102.916 Y124.796 E11.28711
G1 X102.71 Y124.367 E11.30452
G1 X102.414 Y123.689 E11.33159
G1 X102.23 Y123.222 E11.34995
G1 X101.937 Y122.369 E11.38295
G1 X101.79 Y121.871 E11.40194
G1 X101.584 Y121.051 E11.43288
G1 X101.485 Y120.573 E11.45074
G1 X101.35 Y119.755 E11.48107
G1 X101.289 Y119.262 E11.49924
G1 X101.221 Y118.441 E11.52938
G1 X101.199 Y117.923 E11.54835
G1 F2700 E6.54835
;MESH:Ball End For Rod v5 8.2mm.stl
G0 F2100 X112.491 Y122.044
G0 X113.325 Y121.337
G0 X117.027 Y122.859
G1 F2700 E11.54835
G0 F2100 X117.088 Y122.375
;TYPE:WALL-OUTER
G1 F1200 X116.687 Y122.324 E11.56314
G1 X116.289 Y122.241 E11.57802
G1 X115.901 Y122.124 E11.59284
G1 X115.521 Y121.975 E11.60778
G1 X115.162 Y121.797 E11.62244
G1 X114.817 Y121.591 E11.63714
G1 X114.487 Y121.354 E11.652
G1 X114.18 Y121.093 E11.66674
G1 X113.895 Y120.805 E11.68157
G1 X113.632 Y120.495 E11.69644
G1 X113.4 Y120.168 E11.71111
G1 X113.192 Y119.82 E11.72594
G1 X113.02 Y119.463 E11.74044
G1 X112.868 Y119.08 E11.75552
G1 X112.75 Y118.678 E11.77085
G1 X112.693 Y118.395 E11.78141
G1 X112.635 Y117.995 E11.79619
G1 X112.611 Y117.612 E11.81023
G1 X112.625 Y117.088 E11.82941
G1 X112.676 Y116.687 E11.8442
G1 X112.759 Y116.289 E11.85908
G1 X112.873 Y115.908 E11.87363
G1 X113.025 Y115.521 E11.88884
G1 X113.203 Y115.162 E11.9035
G1 X113.409 Y114.817 E11.9182
G1 X113.645 Y114.488 E11.93301
G1 X113.907 Y114.18 E11.94781
G1 X114.195 Y113.895 E11.96263
G1 X114.503 Y113.633 E11.97742
G1 X114.833 Y113.399 E11.99223
G1 X115.18 Y113.193 E12.00699
