;FLAVOR:Marlin
;TIME:3370
;Filament used: 1.96135m
;Layer height: 0.2
;MINX:87.643
;MINY:100.318
;MINZ:0.2
;MAXX:140.701
;MAXY:139.746
;MAXZ:34
;Generated with Cura_SteamEngine 5.0.0
M140 S60
M105
M190 S60
M104 S222
M105
M109 S222
M82 ;absolute extrusion mode
; Ender 3 Custom Start G-code
G92 E0 ; Reset Extruder
M140 S60 ; Start heating the heated bed
M190 S60 ; Wait until the heated bed reaches the desired temperature
G28 ; Auto Home
G29 A; Activate Bed Leveling
G29 L0; Loads the saved mesh in slot 0
G29  J3; 9 point autotilt

G92 E0 ; Reset extruder origin
G1 Z2.0 F3000 ; Move Z Axis up little to prevent scratching of Heat Bed
G1 X0.1 Y20 Z0.3 F5000.0 ; Move to start position
G1 X0.1 Y200.0 Z0.3 F1500.0 E15 ; Draw the first line
G1 X0.4 Y200.0 Z0.3 F5000.0 ; Move to side a little
G1 X0.4 Y20 Z0.3 F1500.0 E30 ; Draw the second line
G92 E0 ; Reset Extruder
G1 Z2.0 F3000 ; Move Z Axis up little to prevent scratching of Heat Bed
G1 X5 Y20 Z0.3 F5000.0 ; Move over to prevent blob squish

; End of Ender 3 Custom Start G-code
G92 E0
G92 E0
G1 F2700 E-5
;LAYER_COUNT:171
;LAYER:0
M107
G0 F2100 X93.663 Y109.496 Z0.2
G0 X87.68 Y121.426
;TYPE:SKIRT
G1 F2700 E0
G1 F1200 X87.726 Y120.874 E0.02027
G1 X87.846 Y119.928 E0.05515
G1 X87.938 Y119.389 E0.07516
G1 X88.147 Y118.427 E0.11118
G1 X88.272 Y117.953 E0.12911
G1 X88.554 Y117.044 E0.16393
G1 X88.749 Y116.499 E0.18511
G1 X89.117 Y115.596 E0.22078
G1 X89.326 Y115.142 E0.23907
G1 X89.8 Y114.228 E0.27674
G1 X90.103 Y113.704 E0.29888
G1 X90.649 Y112.851 E0.33594
G1 X90.934 Y112.448 E0.354
G1 X91.492 Y111.725 E0.38741
G1 X91.84 Y111.31 E0.40722
G1 X92.516 Y110.573 E0.44381
G1 X92.916 Y110.175 E0.46446
G1 X93.663 Y109.496 E0.50139
G1 X94.042 Y109.182 E0.5194
G1 X94.794 Y108.612 E0.55392
G1 X95.265 Y108.285 E0.5749
G1 X96.117 Y107.749 E0.61173
G1 X96.584 Y107.484 E0.63137
G1 X97.464 Y107.035 E0.66752
G1 X97.943 Y106.817 E0.68677
G1 X98.851 Y106.451 E0.72259
G1 X99.373 Y106.267 E0.74284
G1 X100.319 Y105.981 E0.77899
G1 X100.856 Y105.844 E0.79927
G1 X101.557 Y105.689 E0.82554
G1 X104.14 Y105.205 E0.92168
G1 X106.605 Y104.672 E1.01395
G1 X109.037 Y104.07 E1.10562
G1 X111.485 Y103.392 E1.19855
G1 X113.88 Y102.655 E1.29023
G1 X116.275 Y101.843 E1.38275
G1 X117.686 Y101.33 E1.43768
G1 X118.265 Y101.137 E1.46001
G1 X118.794 Y100.977 E1.48023
G1 X119.701 Y100.744 E1.51449
G1 X120.214 Y100.635 E1.53368
G1 X121.198 Y100.472 E1.57017
G1 X121.723 Y100.409 E1.58952
G1 X122.694 Y100.336 E1.62514
G1 X123.261 Y100.318 E1.6459
G1 X124.26 Y100.331 E1.68245
G1 X124.774 Y100.361 E1.70129
G1 X125.734 Y100.459 E1.73659
G1 X126.308 Y100.543 E1.75781
G1 X127.369 Y100.751 E1.79737
G1 X127.886 Y100.879 E1.81686
G1 X128.699 Y101.114 E1.84782
G1 X129.132 Y101.257 E1.8645
G1 X130.077 Y101.618 E1.90151
G1 X130.652 Y101.868 E1.92445
G1 X131.597 Y102.333 E1.96299
G1 X132.051 Y102.584 E1.98197
G1 X132.832 Y103.059 E2.01541
G1 X133.245 Y103.334 E2.03356
G1 X134.043 Y103.918 E2.06974
G1 X134.515 Y104.297 E2.09189
G1 X135.293 Y104.984 E2.12986
G1 X135.657 Y105.337 E2.14841
G1 X136.279 Y105.991 E2.18143
G1 X136.625 Y106.386 E2.20065
G1 X137.252 Y107.171 E2.2374
G1 X137.58 Y107.622 E2.2578
G1 X138.132 Y108.459 E2.29449
G1 X138.402 Y108.911 E2.31375
G1 X138.867 Y109.773 E2.34958
G1 X139.098 Y110.251 E2.36901
G1 X139.471 Y111.113 E2.40337
G1 X139.662 Y111.612 E2.42292
G1 X139.987 Y112.599 E2.46094
G1 X140.142 Y113.155 E2.48205
G1 X140.356 Y114.072 E2.5165
G1 X140.451 Y114.574 E2.5352
G1 X140.594 Y115.571 E2.57205
G1 X140.645 Y116.099 E2.59145
G1 X140.695 Y117.045 E2.62611
G1 X140.701 Y117.594 E2.6462
G1 X140.665 Y118.619 E2.68372
G1 X140.62 Y119.17 E2.70395
G1 X140.499 Y120.134 E2.7395
G1 X140.408 Y120.667 E2.75928
G1 X140.194 Y121.649 E2.79605
G1 X140.058 Y122.161 E2.81543
G1 X139.777 Y123.062 E2.84996
G1 X139.6 Y123.555 E2.86912
G1 X139.23 Y124.458 E2.90483
G1 X138.994 Y124.969 E2.92542
G1 X138.523 Y125.877 E2.96284
G1 X138.252 Y126.345 E2.98263
G1 X137.726 Y127.167 E3.01833
G1 X137.43 Y127.588 E3.03716
G1 X136.842 Y128.352 E3.07243
G1 X136.491 Y128.769 E3.09238
G1 X135.818 Y129.499 E3.1287
G1 X135.419 Y129.895 E3.14927
G1 X134.695 Y130.554 E3.18509
G1 X134.322 Y130.864 E3.20283
G1 X133.55 Y131.45 E3.23829
G1 X133.045 Y131.8 E3.26077
G1 X132.164 Y132.351 E3.29879
G1 X131.716 Y132.603 E3.31759
G1 X130.891 Y133.023 E3.35146
G1 X130.469 Y133.216 E3.36844
G1 X129.666 Y133.546 E3.4002
G1 X129.185 Y133.722 E3.41894
G1 X128.372 Y133.985 E3.45021
G1 X127.507 Y134.217 E3.48297
G1 X126.787 Y134.374 E3.50993
G1 X124.204 Y134.858 E3.60608
G1 X121.739 Y135.391 E3.69835
G1 X119.307 Y135.993 E3.79001
G1 X116.859 Y136.671 E3.88295
G1 X114.464 Y137.408 E3.97462
G1 X112.069 Y138.22 E4.06715
G1 X110.658 Y138.733 E4.12208
G1 X110.077 Y138.926 E4.14447
G1 X109.551 Y139.085 E4.16458
G1 X108.642 Y139.319 E4.19892
G1 X108.128 Y139.428 E4.21814
G1 X107.169 Y139.587 E4.25371
G1 X106.636 Y139.652 E4.27335
G1 X105.636 Y139.729 E4.31005
G1 X105.088 Y139.746 E4.33011
G1 X104.097 Y139.732 E4.36637
G1 X103.532 Y139.699 E4.38707
G1 X102.578 Y139.602 E4.42216
G1 X102.091 Y139.531 E4.44016
G1 X101.088 Y139.337 E4.47754
G1 X100.541 Y139.205 E4.49813
G1 X99.629 Y138.943 E4.53284
G1 X99.126 Y138.775 E4.55224
G1 X98.184 Y138.412 E4.58918
G1 X97.671 Y138.187 E4.60967
G1 X96.781 Y137.748 E4.64598
G1 X96.33 Y137.5 E4.66481
G1 X95.521 Y137.01 E4.69942
G1 X95.071 Y136.71 E4.7192
G1 X94.243 Y136.101 E4.75681
G1 X93.791 Y135.735 E4.77809
G1 X93.049 Y135.077 E4.81437
G1 X92.688 Y134.727 E4.83277
G1 X92.067 Y134.073 E4.86576
G1 X91.72 Y133.677 E4.88502
G1 X91.084 Y132.881 E4.9223
G1 X90.756 Y132.429 E4.94273
G1 X90.213 Y131.605 E4.97884
G1 X89.944 Y131.155 E4.99802
G1 X89.478 Y130.292 E5.0339
G1 X89.243 Y129.806 E5.05365
G1 X88.852 Y128.896 E5.08989
G1 X88.659 Y128.385 E5.10987
G1 X88.359 Y127.474 E5.14496
G1 X88.215 Y126.963 E5.16439
G1 X87.984 Y125.971 E5.20165
G1 X87.883 Y125.425 E5.22197
G1 X87.75 Y124.481 E5.25685
G1 X87.7 Y123.967 E5.27574
G1 X87.649 Y123.014 E5.31066
G1 X87.643 Y122.47 E5.33056
G1 X87.68 Y121.426 E5.36878
G0 F2100 X88.083 Y122.466
G1 F1200 X88.119 Y121.463 E5.4055
G1 X88.165 Y120.911 E5.42576
G1 X88.28 Y120.002 E5.45929
G1 X88.372 Y119.463 E5.47929
G1 X88.572 Y118.539 E5.51388
G1 X88.697 Y118.065 E5.53182
G1 X88.968 Y117.192 E5.56526
G1 X89.163 Y116.647 E5.58644
G1 X89.517 Y115.78 E5.6207
G1 X89.726 Y115.326 E5.63898
G1 X90.181 Y114.448 E5.67516
G1 X90.484 Y113.924 E5.69731
G1 X91.009 Y113.105 E5.7329
G1 X91.294 Y112.702 E5.75096
G1 X91.829 Y112.007 E5.78305
G1 X92.177 Y111.592 E5.80286
G1 X92.826 Y110.885 E5.83798
G1 X93.226 Y110.487 E5.85862
G1 X93.944 Y109.835 E5.8941
G1 X94.323 Y109.521 E5.91211
G1 X95.045 Y108.973 E5.94527
G1 X95.516 Y108.646 E5.96625
G1 X96.334 Y108.132 E6.0016
G1 X96.801 Y107.867 E6.02124
G1 X97.646 Y107.436 E6.05595
G1 X98.125 Y107.218 E6.0752
G1 X98.997 Y106.866 E6.1096
G1 X99.519 Y106.682 E6.12985
G1 X100.428 Y106.407 E6.1646
G1 X100.965 Y106.27 E6.18487
G1 X101.638 Y106.121 E6.21009
G1 X104.242 Y105.633 E6.30702
G1 X106.705 Y105.1 E6.39922
G1 X109.154 Y104.495 E6.49151
G1 X111.583 Y103.822 E6.58373
G1 X114.043 Y103.065 E6.6779
G1 X116.427 Y102.256 E6.77
G1 X117.836 Y101.744 E6.82485
G1 X118.393 Y101.558 E6.84633
G1 X118.922 Y101.398 E6.86655
G1 X119.792 Y101.175 E6.89941
G1 X120.305 Y101.066 E6.9186
G1 X121.251 Y100.909 E6.95369
G1 X121.776 Y100.846 E6.97303
G1 X122.708 Y100.775 E7.00723
G1 X123.275 Y100.757 E7.02798
G1 X124.234 Y100.77 E7.06307
G1 X124.748 Y100.8 E7.08191
G1 X125.671 Y100.894 E7.11585
G1 X126.245 Y100.978 E7.13708
G1 X127.263 Y101.178 E7.17503
G1 X127.78 Y101.306 E7.19452
G1 X128.561 Y101.532 E7.22427
G1 X128.994 Y101.675 E7.24095
G1 X129.901 Y102.021 E7.27647
G1 X130.476 Y102.271 E7.2994
G1 X131.384 Y102.718 E7.33643
G1 X131.838 Y102.969 E7.35541
G1 X132.588 Y103.425 E7.38753
G1 X133.001 Y103.7 E7.40568
G1 X133.767 Y104.261 E7.44042
G1 X134.239 Y104.64 E7.46256
G1 X134.986 Y105.3 E7.49903
G1 X135.35 Y105.653 E7.51758
G1 X135.948 Y106.281 E7.54931
G1 X136.294 Y106.676 E7.56852
G1 X136.896 Y107.43 E7.60382
G1 X137.224 Y107.881 E7.62422
G1 X137.755 Y108.684 E7.65944
G1 X138.025 Y109.136 E7.67871
G1 X138.471 Y109.965 E7.71315
G1 X138.702 Y110.443 E7.73257
G1 X139.06 Y111.27 E7.76554
G1 X139.251 Y111.769 E7.78509
G1 X139.563 Y112.717 E7.8216
G1 X139.718 Y113.273 E7.84272
G1 X139.924 Y114.154 E7.87582
G1 X140.019 Y114.656 E7.89451
G1 X140.156 Y115.613 E7.92988
G1 X140.207 Y116.141 E7.94929
G1 X140.255 Y117.05 E7.9826
G1 X140.261 Y117.599 E8.00268
G1 X140.227 Y118.583 E8.0387
G1 X140.182 Y119.134 E8.05893
G1 X140.065 Y120.06 E8.09308
G1 X139.974 Y120.593 E8.11286
G1 X139.769 Y121.536 E8.14817
G1 X139.633 Y122.048 E8.16755
G1 X139.363 Y122.913 E8.2007
G1 X139.186 Y123.406 E8.21987
G1 X138.831 Y124.274 E8.25418
G1 X138.595 Y124.785 E8.27477
G1 X138.142 Y125.657 E8.31072
G1 X137.871 Y126.125 E8.33051
G1 X137.366 Y126.914 E8.36478
G1 X137.07 Y127.335 E8.38361
G1 X136.505 Y128.069 E8.4175
G1 X136.154 Y128.486 E8.43744
G1 X135.508 Y129.187 E8.47232
G1 X135.109 Y129.583 E8.49288
G1 X134.414 Y130.215 E8.52725
G1 X134.041 Y130.525 E8.545
G1 X133.299 Y131.088 E8.57907
G1 X132.794 Y131.438 E8.60155
G1 X131.948 Y131.968 E8.63808
G1 X131.5 Y132.22 E8.65688
G1 X130.708 Y132.623 E8.68939
G1 X130.286 Y132.816 E8.70637
G1 X129.515 Y133.133 E8.73687
G1 X129.034 Y133.309 E8.75561
G1 X128.253 Y133.561 E8.78563
G1 X127.407 Y133.789 E8.81769
G1 X126.706 Y133.942 E8.84394
G1 X124.102 Y134.43 E8.94087
G1 X121.639 Y134.963 E9.03307
G1 X119.19 Y135.568 E9.12536
G1 X116.761 Y136.241 E9.21758
G1 X114.301 Y136.998 E9.31174
G1 X111.917 Y137.807 E9.40385
G1 X110.508 Y138.319 E9.4587
G1 X109.949 Y138.505 E9.48025
G1 X109.423 Y138.664 E9.50036
G1 X108.55 Y138.888 E9.53333
G1 X108.036 Y138.997 E9.55255
G1 X107.115 Y139.151 E9.58672
G1 X106.582 Y139.216 E9.60636
G1 X105.623 Y139.289 E9.64155
G1 X105.075 Y139.306 E9.66161
G1 X104.122 Y139.293 E9.69648
G1 X103.557 Y139.26 E9.71718
G1 X102.641 Y139.166 E9.75087
G1 X102.154 Y139.095 E9.76888
G1 X101.191 Y138.91 E9.80476
G1 X100.644 Y138.778 E9.82534
G1 X99.768 Y138.526 E9.85869
G1 X99.265 Y138.358 E9.87809
G1 X98.36 Y138.009 E9.91358
G1 X97.847 Y137.784 E9.93408
G1 X96.993 Y137.363 E9.96891
G1 X96.542 Y137.115 E9.98774
G1 X95.765 Y136.644 E10.02098
G1 X95.315 Y136.344 E10.04077
G1 X94.52 Y135.759 E10.07688
G1 X94.068 Y135.393 E10.09816
G1 X93.356 Y134.761 E10.13299
G1 X92.995 Y134.411 E10.15139
G1 X92.398 Y133.783 E10.18309
G1 X92.051 Y133.387 E10.20235
G1 X91.44 Y132.623 E10.23814
G1 X91.112 Y132.171 E10.25858
G1 X90.59 Y131.38 E10.29325
G1 X90.321 Y130.93 E10.31243
G1 X89.874 Y130.1 E10.34692
G1 X89.639 Y129.614 E10.36667
G1 X89.264 Y128.74 E10.40147
G1 X89.071 Y128.229 E10.42145
G1 X88.783 Y127.354 E10.45515
G1 X88.639 Y126.843 E10.47458
G1 X88.417 Y125.891 E10.51034
G1 X88.316 Y125.345 E10.53066
G1 X88.188 Y124.438 E10.56417
G1 X88.138 Y123.924 E10.58306
G1 X88.089 Y123.01 E10.61655
G1 X88.083 Y122.466 E10.63646
G0 F2100 X88.523 Y122.461
G1 F1200 X88.557 Y121.499 E10.67167
G1 X88.603 Y120.947 E10.69194
G1 X88.714 Y120.076 E10.72406
G1 X88.806 Y119.537 E10.74407
G1 X88.998 Y118.651 E10.77724
G1 X89.123 Y118.177 E10.79517
G1 X89.382 Y117.34 E10.82723
G1 X89.577 Y116.795 E10.8484
G1 X89.916 Y115.964 E10.88124
G1 X90.125 Y115.51 E10.89952
G1 X90.562 Y114.668 E10.93423
G1 X90.865 Y114.144 E10.95638
G1 X91.368 Y113.359 E10.99049
G1 X91.653 Y112.956 E11.00855
G1 X92.166 Y112.29 E11.0393
G1 X92.514 Y111.875 E11.05912
G1 X93.137 Y111.197 E11.09281
G1 X93.537 Y110.799 E11.11345
G1 X94.225 Y110.174 E11.14746
G1 X94.604 Y109.86 E11.16546
G1 X95.296 Y109.335 E11.19724
G1 X95.767 Y109.008 E11.21822
G1 X96.551 Y108.514 E11.25212
G1 X97.018 Y108.249 E11.27177
G1 X97.829 Y107.836 E11.30507
G1 X98.308 Y107.618 E11.32432
G1 X99.143 Y107.281 E11.35726
G1 X99.665 Y107.097 E11.37751
G1 X100.537 Y106.833 E11.41085
G1 X101.074 Y106.696 E11.43112
G1 X101.719 Y106.554 E11.45529
G1 X104.309 Y106.069 E11.55169
G1 X106.805 Y105.529 E11.64512
G1 X109.262 Y104.921 E11.73773
G1 X111.723 Y104.239 E11.83116
G1 X114.142 Y103.495 E11.92375
G1 X116.579 Y102.669 E12.01789
G1 X117.986 Y102.157 E12.07267
G1 X118.52 Y101.98 E12.09326
G1 X119.049 Y101.82 E12.11348
G1 X119.884 Y101.605 E12.14502
G1 X120.397 Y101.496 E12.16421
G1 X121.303 Y101.346 E12.19781
G1 X121.828 Y101.283 E12.21715
G1 X122.722 Y101.215 E12.24996
G1 X123.289 Y101.197 E12.27071
G1 X124.208 Y101.209 E12.30434
G1 X124.722 Y101.239 E12.32317
G1 X125.607 Y101.33 E12.35572
G1 X126.181 Y101.414 E12.37695
G1 X127.157 Y101.606 E12.41334
G1 X127.674 Y101.734 E12.43283
G1 X128.423 Y101.95 E12.46134
G1 X128.856 Y102.093 E12.47803
G1 X129.726 Y102.425 E12.5121
G1 X130.301 Y102.675 E12.53504
G1 X131.171 Y103.103 E12.57051
G1 X131.625 Y103.354 E12.58949
G1 X132.344 Y103.791 E12.62027
G1 X132.757 Y104.066 E12.63843
G1 X133.492 Y104.604 E12.67175
G1 X133.964 Y104.983 E12.6939
G1 X134.68 Y105.615 E12.72884
G1 X135.044 Y105.968 E12.74739
G1 X135.617 Y106.571 E12.77782
G1 X135.963 Y106.966 E12.79703
G1 X136.54 Y107.689 E12.83088
G1 X136.868 Y108.14 E12.85128
G1 X137.377 Y108.91 E12.88505
G1 X137.647 Y109.362 E12.90431
G1 X138.075 Y110.156 E12.93731
G1 X138.306 Y110.634 E12.95674
G1 X138.649 Y111.428 E12.98838
G1 X138.84 Y111.927 E13.00793
G1 X139.14 Y112.836 E13.04295
G1 X139.295 Y113.392 E13.06407
G1 X139.492 Y114.236 E13.09578
G1 X139.587 Y114.738 E13.11447
G1 X139.718 Y115.655 E13.14836
G1 X139.769 Y116.183 E13.16777
G1 X139.815 Y117.054 E13.19968
G1 X139.821 Y117.603 E13.21976
G1 X139.788 Y118.547 E13.25432
G1 X139.743 Y119.098 E13.27455
G1 X139.631 Y119.986 E13.30729
G1 X139.54 Y120.519 E13.32708
G1 X139.343 Y121.423 E13.36093
G1 X139.207 Y121.935 E13.38031
G1 X138.949 Y122.764 E13.41207
G1 X138.772 Y123.257 E13.43124
G1 X138.431 Y124.089 E13.46414
G1 X138.195 Y124.6 E13.48473
G1 X137.761 Y125.436 E13.51919
G1 X137.49 Y125.904 E13.53898
G1 X137.006 Y126.661 E13.57185
G1 X136.71 Y127.082 E13.59068
G1 X136.169 Y127.785 E13.62313
G1 X135.818 Y128.202 E13.64307
G1 X135.198 Y128.875 E13.67655
G1 X134.799 Y129.271 E13.69712
G1 X134.132 Y129.877 E13.73009
G1 X133.759 Y130.187 E13.74783
G1 X133.049 Y130.727 E13.78047
G1 X132.544 Y131.077 E13.80295
G1 X131.732 Y131.585 E13.83799
G1 X131.284 Y131.837 E13.8568
G1 X130.525 Y132.223 E13.88795
G1 X130.103 Y132.416 E13.90493
G1 X129.364 Y132.72 E13.93416
G1 X128.883 Y132.896 E13.9529
G1 X128.134 Y133.137 E13.98169
G1 X127.306 Y133.36 E14.01306
G1 X126.625 Y133.509 E14.03857
G1 X124.035 Y133.994 E14.13497
G1 X121.539 Y134.534 E14.2284
G1 X119.082 Y135.142 E14.32101
G1 X116.621 Y135.824 E14.41444
G1 X114.202 Y136.568 E14.50703
G1 X111.765 Y137.394 E14.60118
G1 X110.358 Y137.906 E14.65595
G1 X109.822 Y138.084 E14.67662
G1 X109.296 Y138.243 E14.69672
G1 X108.459 Y138.458 E14.72834
G1 X107.945 Y138.567 E14.74756
G1 X107.062 Y138.714 E14.78031
G1 X106.529 Y138.779 E14.79996
G1 X105.609 Y138.849 E14.83371
G1 X105.061 Y138.866 E14.85377
G1 X104.148 Y138.854 E14.88718
G1 X103.583 Y138.821 E14.90789
G1 X102.705 Y138.731 E14.94018
G1 X102.218 Y138.66 E14.95818
G1 X101.295 Y138.482 E14.99257
G1 X100.748 Y138.35 E15.01316
G1 X99.907 Y138.109 E15.04517
G1 X99.404 Y137.941 E15.06457
G1 X98.537 Y137.606 E15.09858
G1 X98.024 Y137.381 E15.11907
G1 X97.205 Y136.977 E15.15248
G1 X96.754 Y136.729 E15.17131
G1 X96.009 Y136.278 E15.20317
G1 X95.559 Y135.978 E15.22296
G1 X94.797 Y135.417 E15.25758
G1 X94.345 Y135.051 E15.27886
G1 X93.662 Y134.446 E15.31224
G1 X93.301 Y134.096 E15.33064
G1 X92.728 Y133.493 E15.36107
G1 X92.381 Y133.097 E15.38033
G1 X91.796 Y132.364 E15.41465
G1 X91.468 Y131.912 E15.43508
G1 X90.968 Y131.154 E15.4683
G1 X90.699 Y130.704 E15.48748
G1 X90.27 Y129.909 E15.52053
G1 X90.035 Y129.423 E15.54028
G1 X89.675 Y128.585 E15.57365
G1 X89.482 Y128.074 E15.59363
G1 X89.206 Y127.235 E15.62595
G1 X89.062 Y126.724 E15.64537
G1 X88.849 Y125.811 E15.67967
G1 X88.748 Y125.265 E15.69999
G1 X88.626 Y124.395 E15.73213
G1 X88.576 Y123.881 E15.75102
G1 X88.529 Y123.005 E15.78312
G1 X88.523 Y122.461 E15.80302
G1 F2700 E10.80302
;MESH:Ball End For Rod v6.stl(1)
G0 F2100 X99.124 Y126.197
G0 X100.065 Y125.642
G0 X102.738 Y127.239
