;FLAVOR:Marlin
;TIME:465
;Filament used: 0.221065m
;Layer height: 0.2
;MINX:91.4
;MINY:103.4
;MINZ:0.2
;MAXX:143.6
;MAXY:131.6
;MAXZ:3
;Generated with Cura_SteamEngine 5.0.0
M140 S60
M105
M190 S60
M104 S222
M105
M109 S222
M82 ;absolute extrusion mode
; Ender 3 Custom Start G-code
G92 E0 ; Reset Extruder
M140 S60 ; Start heating the heated bed
M190 S60 ; Wait until the heated bed reaches the desired temperature
G28 ; Auto Home
G29 A; Activate Bed Leveling
G29 L0; Loads the saved mesh in slot 0
G29  J3; 9 point autotilt

G92 E0 ; Reset extruder origin
G1 Z2.0 F3000 ; Move Z Axis up little to prevent scratching of Heat Bed
G1 X0.1 Y20 Z0.3 F5000.0 ; Move to start position
G1 X0.1 Y200.0 Z0.3 F1500.0 E15 ; Draw the first line
G1 X0.4 Y200.0 Z0.3 F5000.0 ; Move to side a little
G1 X0.4 Y20 Z0.3 F1500.0 E30 ; Draw the second line
G92 E0 ; Reset Extruder
G1 Z2.0 F3000 ; Move Z Axis up little to prevent scratching of Heat Bed
G1 X5 Y20 Z0.3 F5000.0 ; Move over to prevent blob squish

; End of Ender 3 Custom Start G-code
G92 E0
G92 E0
G1 F2700 E-5
;LAYER_COUNT:15
;LAYER:0
M107
G0 F2100 X95.288 Y106.079 Z0.2
G0 X91.401 Y115.024
;TYPE:SKIRT
G1 F2700 E0
G1 F1200 X91.41 Y114.359 E0.02433
G1 X91.463 Y113.418 E0.05881
G1 X91.595 Y112.485 E0.09329
G1 X91.806 Y111.567 E0.12775
G1 X92.094 Y110.67 E0.16222
G1 X92.457 Y109.801 E0.19667
G1 X92.892 Y108.965 E0.23115
G1 X93.397 Y108.17 E0.26561
G1 X93.968 Y107.42 E0.3001
G1 X94.6 Y106.721 E0.33458
G1 X95.288 Y106.079 E0.369
G1 X96.029 Y105.497 E0.40348
G1 X96.817 Y104.98 E0.43796
G1 X97.646 Y104.531 E0.47245
G1 X98.509 Y104.155 E0.50689
G1 X99.402 Y103.853 E0.54138
G1 X100.316 Y103.628 E0.57582
G1 X101.247 Y103.481 E0.6103
G1 X102.198 Y103.413 E0.64518
G1 X102.83 Y103.4 E0.66831
G1 X131.793 Y103.4 E1.72796
G1 X132.65 Y103.411 E1.75931
G1 X133.591 Y103.465 E1.7938
G1 X134.523 Y103.598 E1.82824
G1 X135.441 Y103.809 E1.8627
G1 X136.338 Y104.098 E1.89718
G1 X137.207 Y104.462 E1.93165
G1 X138.042 Y104.898 E1.96611
G1 X138.837 Y105.403 E2.00057
G1 X139.587 Y105.974 E2.03506
G1 X140.285 Y106.607 E2.06953
G1 X140.927 Y107.296 E2.10399
G1 X141.509 Y108.037 E2.13846
G1 X142.025 Y108.825 E2.17292
G1 X142.473 Y109.654 E2.2074
G1 X142.848 Y110.518 E2.24186
G1 X143.15 Y111.411 E2.27635
G1 X143.374 Y112.326 E2.31081
G1 X143.52 Y113.257 E2.34529
G1 X143.587 Y114.198 E2.3798
G1 X143.6 Y114.83 E2.40293
G1 X143.599 Y119.901 E2.58846
G1 X143.59 Y120.628 E2.61506
G1 X143.539 Y121.569 E2.64954
G1 X143.407 Y122.502 E2.68401
G1 X143.197 Y123.421 E2.7185
G1 X142.91 Y124.318 E2.75296
G1 X142.548 Y125.188 E2.78743
G1 X142.114 Y126.024 E2.8219
G1 X141.61 Y126.82 E2.85637
G1 X141.041 Y127.57 E2.89081
G1 X140.409 Y128.27 E2.92531
G1 X139.721 Y128.913 E2.95977
G1 X138.981 Y129.496 E2.99423
G1 X138.194 Y130.014 E3.0287
G1 X137.366 Y130.463 E3.06316
G1 X136.503 Y130.841 E3.09763
G1 X135.611 Y131.144 E3.1321
G1 X134.696 Y131.37 E3.16658
G1 X133.766 Y131.518 E3.20103
G1 X132.802 Y131.587 E3.23639
G1 X132.17 Y131.6 E3.25952
G1 X103.064 Y131.599 E4.3244
G1 X102.366 Y131.59 E4.34994
G1 X101.425 Y131.538 E4.38442
G1 X100.492 Y131.406 E4.41889
G1 X99.574 Y131.196 E4.45335
G1 X98.677 Y130.908 E4.48781
G1 X97.807 Y130.546 E4.52229
G1 X96.971 Y130.111 E4.55677
G1 X96.176 Y129.607 E4.59121
G1 X95.425 Y129.037 E4.6257
G1 X94.726 Y128.405 E4.66018
G1 X94.083 Y127.717 E4.69463
G1 X93.501 Y126.976 E4.7291
G1 X92.983 Y126.189 E4.76357
G1 X92.534 Y125.361 E4.79803
G1 X92.157 Y124.497 E4.83252
G1 X91.855 Y123.605 E4.86698
G1 X91.629 Y122.691 E4.90142
G1 X91.482 Y121.76 E4.93591
G1 X91.413 Y120.791 E4.97145
G1 X91.4 Y120.158 E4.99461
G1 X91.401 Y115.024 E5.18245
G0 F2100 X91.841 Y115.03
G1 F1200 X91.85 Y114.365 E5.20678
G1 X91.902 Y113.443 E5.24056
G1 X92.034 Y112.529 E5.27435
G1 X92.245 Y111.63 E5.30814
G1 X92.533 Y110.753 E5.34191
G1 X92.895 Y109.904 E5.37568
G1 X93.33 Y109.089 E5.40947
G1 X93.833 Y108.315 E5.44325
G1 X94.401 Y107.588 E5.477
G1 X95.031 Y106.912 E5.51081
G1 X95.716 Y106.294 E5.54456
G1 X96.452 Y105.737 E5.57833
G1 X97.234 Y105.246 E5.61211
G1 X98.056 Y104.824 E5.64592
G1 X98.91 Y104.475 E5.67967
G1 X99.792 Y104.201 E5.71346
G1 X100.694 Y104.005 E5.74723
G1 X101.61 Y103.887 E5.78102
G1 X102.21 Y103.853 E5.80301
G1 X102.83 Y103.84 E5.8257
G1 X131.793 Y103.84 E6.88534
G1 X132.644 Y103.851 E6.91648
G1 X133.565 Y103.904 E6.95023
G1 X134.479 Y104.037 E6.98402
G1 X135.378 Y104.248 E7.01781
G1 X136.255 Y104.537 E7.05159
G1 X137.104 Y104.9 E7.08537
G1 X137.918 Y105.335 E7.11914
G1 X138.692 Y105.839 E7.15293
G1 X139.419 Y106.408 E7.18671
G1 X140.094 Y107.038 E7.22049
G1 X140.712 Y107.724 E7.25427
G1 X141.268 Y108.46 E7.28802
G1 X141.759 Y109.243 E7.32183
G1 X142.18 Y110.064 E7.35559
G1 X142.528 Y110.919 E7.38936
G1 X142.801 Y111.801 E7.42314
G1 X142.997 Y112.703 E7.45691
G1 X143.114 Y113.619 E7.4907
G1 X143.147 Y114.21 E7.51235
G1 X143.16 Y114.83 E7.53504
G1 X143.159 Y119.896 E7.72038
G1 X143.15 Y120.623 E7.74699
G1 X143.099 Y121.545 E7.78077
G1 X142.968 Y122.459 E7.81455
G1 X142.758 Y123.358 E7.84833
G1 X142.472 Y124.236 E7.88211
G1 X142.11 Y125.085 E7.91588
G1 X141.677 Y125.9 E7.94964
G1 X141.174 Y126.675 E7.98345
G1 X140.607 Y127.403 E8.01721
G1 X139.978 Y128.079 E8.05099
G1 X139.293 Y128.699 E8.08479
G1 X138.558 Y129.256 E8.11853
G1 X137.776 Y129.748 E8.15233
G1 X136.956 Y130.171 E8.18609
G1 X136.101 Y130.521 E8.21989
G1 X135.22 Y130.796 E8.25366
G1 X134.318 Y130.993 E8.28744
G1 X133.402 Y131.112 E8.32123
G1 X132.79 Y131.147 E8.34366
G1 X132.17 Y131.16 E8.36635
G1 X103.07 Y131.159 E9.431
G1 X102.372 Y131.15 E9.45654
G1 X101.45 Y131.098 E9.49033
G1 X100.536 Y130.967 E9.52411
G1 X99.637 Y130.757 E9.55789
G1 X98.759 Y130.47 E9.59168
G1 X97.91 Y130.108 E9.62545
G1 X97.095 Y129.674 E9.65923
G1 X96.321 Y129.171 E9.693
G1 X95.593 Y128.603 E9.72678
G1 X94.917 Y127.974 E9.76057
G1 X94.298 Y127.289 E9.79435
G1 X93.741 Y126.553 E9.82812
G1 X93.249 Y125.772 E9.86189
G1 X92.827 Y124.951 E9.89566
G1 X92.477 Y124.096 E9.92946
G1 X92.203 Y123.215 E9.96321
G1 X92.006 Y122.313 E9.99699
G1 X91.888 Y121.397 E10.03078
G1 X91.853 Y120.779 E10.05343
G1 X91.84 Y120.158 E10.07615
G1 X91.841 Y115.03 E10.26377
G0 F2100 X92.281 Y115.036
G1 F1200 X92.29 Y114.371 E10.2881
G1 X92.342 Y113.468 E10.32119
G1 X92.474 Y112.574 E10.35426
G1 X92.684 Y111.695 E10.38732
G1 X92.971 Y110.837 E10.42042
G1 X93.333 Y110.009 E10.45348
G1 X93.767 Y109.216 E10.48656
G1 X94.268 Y108.464 E10.51962
G1 X94.835 Y107.759 E10.55272
G1 X95.461 Y107.108 E10.58576
G1 X96.143 Y106.514 E10.61885
G1 X96.874 Y105.983 E10.6519
G1 X97.65 Y105.518 E10.685
G1 X98.463 Y105.124 E10.71805
G1 X99.309 Y104.803 E10.75116
G1 X100.179 Y104.558 E10.78423
G1 X101.067 Y104.391 E10.81728
G1 X102.223 Y104.293 E10.85973
G1 X102.83 Y104.28 E10.88194
G1 X131.793 Y104.28 E11.94159
G1 X132.637 Y104.291 E11.97247
G1 X133.54 Y104.344 E12.00556
G1 X134.434 Y104.476 E12.03863
G1 X135.313 Y104.687 E12.0717
G1 X136.17 Y104.975 E12.10478
G1 X136.998 Y105.338 E12.13785
G1 X137.791 Y105.772 E12.17093
G1 X138.543 Y106.274 E12.20401
G1 X139.247 Y106.841 E12.23708
G1 X139.898 Y107.468 E12.27015
G1 X140.491 Y108.15 E12.30321
G1 X141.022 Y108.882 E12.3363
G1 X141.486 Y109.658 E12.36938
G1 X141.879 Y110.472 E12.40245
G1 X142.199 Y111.317 E12.4355
G1 X142.444 Y112.188 E12.46861
G1 X142.61 Y113.076 E12.50166
G1 X142.707 Y114.223 E12.54377
G1 X142.72 Y114.83 E12.56599
G1 X142.719 Y119.891 E12.75115
G1 X142.71 Y120.618 E12.77775
G1 X142.659 Y121.52 E12.8108
G1 X142.528 Y122.415 E12.84389
G1 X142.319 Y123.294 E12.87695
G1 X142.033 Y124.151 E12.91
G1 X141.672 Y124.98 E12.94309
G1 X141.24 Y125.774 E12.97616
G1 X140.738 Y126.527 E13.00927
G1 X140.173 Y127.232 E13.04232
G1 X139.547 Y127.884 E13.07539
G1 X138.866 Y128.479 E13.10848
G1 X138.135 Y129.011 E13.14155
G1 X137.361 Y129.476 E13.17459
G1 X136.547 Y129.871 E13.20769
G1 X135.703 Y130.193 E13.24074
G1 X134.833 Y130.439 E13.27382
G1 X133.945 Y130.607 E13.30688
G1 X132.777 Y130.707 E13.34977
G1 X132.17 Y130.72 E13.37198
G1 X103.075 Y130.719 E14.43646
G1 X102.377 Y130.71 E14.462
G1 X101.475 Y130.659 E14.49505
G1 X100.58 Y130.527 E14.52815
G1 X99.701 Y130.318 E14.56121
G1 X98.844 Y130.031 E14.59427
G1 X98.015 Y129.67 E14.62735
G1 X97.221 Y129.237 E14.66044
G1 X96.469 Y128.735 E14.69352
G1 X95.764 Y128.169 E14.7266
G1 X95.112 Y127.543 E14.75967
G1 X94.518 Y126.862 E14.79273
G1 X93.986 Y126.131 E14.82581
G1 X93.521 Y125.356 E14.85887
G1 X93.126 Y124.543 E14.89194
G1 X92.805 Y123.698 E14.92501
G1 X92.56 Y122.828 E14.95808
G1 X92.392 Y121.939 E14.99118
G1 X92.293 Y120.767 E15.03421
G1 X92.28 Y120.158 E15.0565
G1 X92.281 Y115.036 E15.24389
G1 F2700 E10.24389
;MESH:bolt hole test v1.stl
G0 F2100 X101.835 Y115.036
G0 X102.93 Y115.036
G0 X103.08 Y119.92
G1 F2700 E15.24389
G0 F2100 X102.72 Y120.28
;TYPE:WALL-OUTER
G1 F1200 X120.555 Y120.279 E15.89641
G1 X132.28 Y120.28 E16.32538
G1 X132.28 Y114.72 E16.5288
G1 X126.824 Y114.72 E16.72841
G1 X112.946 Y114.721 E17.23615
G1 F1202.7 X112.613 Y114.72 E17.24831
G1 X107.666 Y114.72 E17.42889
G1 X102.719 Y114.72 E17.60947
G1 F1200 X102.72 Y120.28 E17.81289
G1 F2700 E12.81289
G0 F2100 X103.08 Y119.92
G0 X106.237 Y119.652
G0 X106.559 Y119.556
G0 X107.213 Y119.19
G1 F2700 E17.81289
G0 F2100 X107.141 Y118.805
G1 F1202.7 X106.661 Y118.779 E17.83044
G1 F1200 X106.219 Y118.579 E17.84819
G1 X105.882 Y118.235 E17.86581
G1 X105.69 Y117.791 E17.8835
G1 X105.673 Y117.298 E17.90155
G1 X105.81 Y116.902 E17.91688
G1 X105.874 Y116.778 E17.92199
G1 X106.141 Y116.48 E17.93663
G1 X106.566 Y116.247 E17.95436
G1 X107.045 Y116.185 E17.97203
G1 X107.52 Y116.301 E17.98992
G1 X107.917 Y116.581 E18.00769
G1 X108.184 Y116.982 E18.02532
G1 X108.291 Y117.449 E18.04285
G1 X108.219 Y117.929 E18.0606
G1 X107.978 Y118.351 E18.07838
G1 X107.604 Y118.658 E18.09609
G1 F1202.7 X107.141 Y118.805 E18.11382
G0 F2100 X107.27 Y119.257
;TYPE:WALL-INNER
G1 F1043.5 X107.019 Y119.289 E18.12446
G1 F1009.6 X106.619 Y119.263 E18.1419
G1 F1079.8 X106.39 Y119.156 E18.15217
G1 F1191.9 X106.026 Y118.975 E18.16715
G1 F1200 X105.829 Y118.828 E18.17614
G1 X105.558 Y118.533 E18.1908
G1 X105.4 Y118.25 E18.20266
G1 X105.281 Y117.954 E18.21433
G1 X105.235 Y117.713 E18.2233
G1 X105.233 Y117.3 E18.23841
G1 X105.278 Y117.055 E18.24753
G1 X105.422 Y116.684 E18.26209
G1 X105.546 Y116.484 E18.2707
G1 X105.813 Y116.186 E18.28534
G1 F1183.9 X106.087 Y116.015 E18.29731
G1 F1152.8 X106.361 Y115.844 E18.30961
G1 F1058.1 X106.597 Y115.739 E18.32033
G1 F1007.6 X106.999 Y115.71 E18.33789
G1 F1011.5 X107.256 Y115.725 E18.34907
G1 F1088.7 X107.637 Y115.877 E18.36561
G1 F1200 X107.858 Y115.986 E18.37462
G1 X108.181 Y116.229 E18.38941
G1 X108.345 Y116.407 E18.39827
G1 X108.558 Y116.749 E18.41301
G1 X108.65 Y116.995 E18.42262
G1 X108.723 Y117.363 E18.43634
G1 X108.725 Y117.612 E18.44545
G1 X108.65 Y118.014 E18.46041
G1 X108.566 Y118.234 E18.46903
G1 X108.354 Y118.581 E18.48391
G1 X108.193 Y118.76 E18.49272
G1 X107.872 Y119.007 E18.50753
G1 F1163 X107.571 Y119.132 E18.51984
G1 F1090.9 X107.27 Y119.257 E18.53295
G1 F2700 E13.53295
G0 F2100 X107.206 Y119.544
G0 X107.749 Y119.659
G0 X112.633 Y119.652
G0 X112.938 Y119.589
G0 X113.62 Y119.299
G1 F2700 E18.53295
G0 F2100 X113.567 Y118.913
;TYPE:WALL-OUTER
G1 F1200 X113.062 Y118.862 E18.55152
G1 X112.611 Y118.639 E18.56993
G1 X112.265 Y118.268 E18.58849
G1 X112.07 Y117.802 E18.60697
G1 X112.055 Y117.473 E18.61902
G1 X112.055 Y117.262 E18.62674
G1 X112.213 Y116.815 E18.64409
G1 X112.536 Y116.42 E18.66276
G1 F1202.7 X112.977 Y116.168 E18.6813
G1 X113.468 Y116.083 E18.69949
G1 F1200 X113.743 Y116.11 E18.7096
G1 X114.194 Y116.292 E18.72739
G1 X114.573 Y116.628 E18.74592
G1 X114.809 Y117.08 E18.76458
G1 X114.858 Y117.458 E18.77852
G1 X114.863 Y117.657 E18.7858
G1 X114.75 Y118.075 E18.80165
G1 X114.469 Y118.49 E18.81998
G1 X114.056 Y118.783 E18.83851
G1 X113.567 Y118.913 E18.85702
G0 F2100 X113.672 Y119.353
;TYPE:WALL-INNER
G1 F1137.9 X113.429 Y119.365 E18.86641
G1 F1104.6 X113.002 Y119.324 E18.88346
G1 F1102.3 X112.704 Y119.176 E18.89671
G1 F1165.6 X112.406 Y119.028 E18.90924
G1 F1200 X112.218 Y118.881 E18.91797
G1 X111.935 Y118.559 E18.93366
G1 X111.815 Y118.361 E18.94213
G1 X111.66 Y117.961 E18.95782
G1 X111.616 Y117.726 E18.96657
G1 X111.614 Y117.288 E18.98259
G1 X111.617 Y117.22 E18.98509
G1 X111.801 Y116.661 E19.00662
G1 X111.92 Y116.459 E19.01519
G1 X112.203 Y116.132 E19.03102
G1 X112.39 Y115.983 E19.03976
G1 F1189.2 X112.766 Y115.776 E19.05561
G1 F1121 X112.981 Y115.681 E19.06482
G1 F1100 X113.403 Y115.635 E19.08176
G1 F1121 X113.803 Y115.655 E19.09744
G1 F1128.2 X114.084 Y115.77 E19.10926
G1 F1175.9 X114.365 Y115.886 E19.12061
G1 F1200 X114.56 Y116.013 E19.12912
G1 X114.873 Y116.307 E19.14483
G1 X115.016 Y116.499 E19.15359
G1 X115.205 Y116.887 E19.16938
G1 X115.269 Y117.116 E19.17808
G1 X115.311 Y117.595 E19.19567
G1 X115.243 Y117.935 E19.20836
G1 X115.175 Y118.19 E19.21801
G1 X115.074 Y118.403 E19.22664
G1 X114.827 Y118.747 E19.24213
G1 X114.657 Y118.911 E19.25077
G1 X114.3 Y119.149 E19.26647
G1 F1183.9 X113.986 Y119.251 E19.27872
G1 F1152.8 X113.672 Y119.353 E19.29129
G1 F2700 E14.29129
G0 F2100 X114.155 Y119.658
G0 X119.881 Y119.644
G0 X119.431 Y119.297
G1 F2700 E19.29129
G0 F2100 X119.545 Y118.924
;TYPE:WALL-OUTER
G1 F1200 X119.097 Y118.667 E19.31019
G1 X118.765 Y118.281 E19.32881
G1 X118.579 Y117.802 E19.34761
G1 X118.566 Y117.4 E19.36233
G1 X118.565 Y117.279 E19.36675
G1 X118.72 Y116.798 E19.38524
G1 X119.029 Y116.393 E19.40388
G1 X119.461 Y116.109 E19.4228
G1 X119.956 Y115.987 E19.44145
G1 X120.232 Y115.991 E19.45155
G1 X120.707 Y116.124 E19.46959
G1 X121.129 Y116.414 E19.48833
G1 X121.429 Y116.831 E19.50712
G1 X121.534 Y117.18 E19.52046
G1 X121.581 Y117.403 E19.52879
G1 X121.546 Y117.838 E19.54476
G1 X121.348 Y118.31 E19.56349
G1 X121.003 Y118.693 E19.58235
G1 X120.541 Y118.941 E19.60153
G1 X120.049 Y119.018 E19.61975
G1 X119.545 Y118.924 E19.63851
G0 F2100 X120.105 Y119.441
;TYPE:WALL-INNER
G1 F1257.1 X119.779 Y119.398 E19.64999
G1 F1219.4 X119.453 Y119.355 E19.66183
G1 F1200 X118.869 Y119.043 E19.68605
G1 X118.425 Y118.56 E19.71006
G1 X118.313 Y118.364 E19.71832
G1 X118.152 Y117.911 E19.7359
G1 X118.127 Y117.583 E19.74794
G1 X118.125 Y117.281 E19.75899
G1 X118.162 Y117.059 E19.76722
G1 X118.305 Y116.652 E19.78301
G1 X118.413 Y116.457 E19.79116
G1 X118.686 Y116.117 E19.80711
G1 X119.229 Y115.735 E19.8314
G1 X119.434 Y115.652 E19.8395
G1 F1233.6 X119.892 Y115.563 E19.8561
G1 F1269.2 X120.249 Y115.564 E19.86845
G1 F1254.2 X120.54 Y115.633 E19.87892
G1 F1219.4 X120.832 Y115.702 E19.88972
G1 F1200 X121.032 Y115.8 E19.89787
G1 X121.387 Y116.058 E19.91393
G1 X121.545 Y116.22 E19.9222
G1 X121.793 Y116.583 E19.93829
G1 X121.96 Y117.067 E19.95702
G1 X122.018 Y117.318 E19.96645
G1 X122.007 Y117.587 E19.9763
G1 X121.984 Y117.874 E19.98683
G1 X121.929 Y118.09 E19.99498
G1 X121.75 Y118.49 E20.01102
G1 X121.323 Y118.996 E20.03524
G1 X121.141 Y119.131 E20.04353
G1 X120.739 Y119.334 E20.06001
G1 X120.527 Y119.399 E20.06812
G1 F1236.5 X120.105 Y119.441 E20.08318
G1 F2700 E15.08318
G0 F2100 X120.592 Y119.66
G0 X126.14 Y119.626
G0 X126.479 Y119.463
G1 F2700 E20.08318
G0 F2100 X126.541 Y119.078
;TYPE:WALL-OUTER
G1 F1200 X126.048 Y118.876 E20.10267
G1 X125.646 Y118.527 E20.12215
G1 X125.382 Y118.067 E20.14155
G1 X125.301 Y117.664 E20.15659
G1 X125.279 Y117.473 E20.16362
G1 X125.353 Y117.017 E20.18053
G1 X125.594 Y116.54 E20.20008
G1 X125.974 Y116.171 E20.21946
G1 X126.454 Y115.943 E20.2389
G1 X126.874 Y115.895 E20.25437
G1 X127.058 Y115.891 E20.2611
G1 X127.507 Y116.003 E20.27803
G1 X127.957 Y116.28 E20.29736
G1 X128.297 Y116.69 E20.31685
G1 X128.484 Y117.188 E20.33631
G1 X128.498 Y117.724 E20.35593
G1 X128.341 Y118.228 E20.37524
G1 X128.027 Y118.658 E20.39472
G1 X127.589 Y118.962 E20.41423
G1 F1202.7 X127.072 Y119.107 E20.43383
G1 X126.541 Y119.078 E20.45324
G0 F2100 X126.495 Y119.678
;TYPE:WALL-INNER
G1 F707.8 X126.954 Y119.696 E20.48173
G1 F720.3 X127.156 Y119.691 E20.49405
G0 F2100 X127.685 Y119.839
G1 F1200 X131.84 Y119.84 E20.64607
G1 X131.84 Y115.16 E20.81729
G1 X127.664 Y115.16 E20.97007
G1 F888.9 X127.201 Y115.315 E20.99419
G1 X127.613 Y115.575 E21.01825
