;FLAVOR:Marlin
;TIME:1070
;Filament used: 0.280078m
;Layer height: 0.1
;MINX:99.263
;MINY:96.5
;MINZ:0.2
;MAXX:135.737
;MAXY:138.5
;MAXZ:4.2
;Generated with Cura_SteamEngine 5.0.0
M140 S60
M105
M190 S60
M104 S222
M105
M109 S222
M82 ;absolute extrusion mode
; Ender 3 Custom Start G-code
G92 E0 ; Reset Extruder
M140 S60 ; Start heating the heated bed
M190 S60 ; Wait until the heated bed reaches the desired temperature
G28 ; Auto Home
G29 A; Activate Bed Leveling
G29 L0; Loads the saved mesh in slot 0
G29  J3; 9 point autotilt

G92 E0 ; Reset extruder origin
G1 Z2.0 F3000 ; Move Z Axis up little to prevent scratching of Heat Bed
G1 X0.1 Y20 Z0.3 F5000.0 ; Move to start position
G1 X0.1 Y200.0 Z0.3 F1500.0 E15 ; Draw the first line
G1 X0.4 Y200.0 Z0.3 F5000.0 ; Move to side a little
G1 X0.4 Y20 Z0.3 F1500.0 E30 ; Draw the second line
G92 E0 ; Reset Extruder
G1 Z2.0 F3000 ; Move Z Axis up little to prevent scratching of Heat Bed
G1 X5 Y20 Z0.3 F5000.0 ; Move over to prevent blob squish

; End of Ender 3 Custom Start G-code
G92 E0
G92 E0
G1 F2700 E-5
;LAYER_COUNT:41
;LAYER:0
M107
G0 F2100 X102.463 Y99.821 Z0.2
G0 X99.264 Y108.124
;TYPE:SKIRT
G1 F2700 E0
G1 F1200 X99.273 Y107.459 E0.02433
G1 X99.326 Y106.518 E0.05881
G1 X99.458 Y105.585 E0.09329
G1 X99.669 Y104.667 E0.12775
G1 X99.957 Y103.77 E0.16222
G1 X100.32 Y102.901 E0.19667
G1 X100.755 Y102.065 E0.23115
G1 X101.26 Y101.27 E0.26561
G1 X101.831 Y100.52 E0.3001
G1 X102.463 Y99.821 E0.33458
G1 X103.151 Y99.179 E0.369
G1 X103.892 Y98.597 E0.40348
G1 X104.68 Y98.08 E0.43796
G1 X105.509 Y97.631 E0.47245
G1 X106.372 Y97.255 E0.50689
G1 X107.265 Y96.953 E0.54138
G1 X108.179 Y96.728 E0.57582
G1 X109.11 Y96.581 E0.6103
G1 X110.061 Y96.513 E0.64518
G1 X110.693 Y96.5 E0.66831
G1 X123.93 Y96.5 E1.1526
G1 X124.787 Y96.511 E1.18396
G1 X125.728 Y96.565 E1.21844
G1 X126.66 Y96.698 E1.25289
G1 X127.578 Y96.909 E1.28735
G1 X128.475 Y97.198 E1.32183
G1 X129.344 Y97.562 E1.3563
G1 X130.179 Y97.998 E1.39076
G1 X130.974 Y98.503 E1.42522
G1 X131.724 Y99.074 E1.45971
G1 X132.422 Y99.707 E1.49418
G1 X133.064 Y100.396 E1.52863
G1 X133.646 Y101.137 E1.56311
G1 X134.162 Y101.925 E1.59757
G1 X134.61 Y102.754 E1.63204
G1 X134.985 Y103.618 E1.6665
G1 X135.287 Y104.511 E1.70099
G1 X135.511 Y105.426 E1.73546
G1 X135.657 Y106.357 E1.76994
G1 X135.724 Y107.298 E1.80445
G1 X135.737 Y107.93 E1.82758
G1 X135.736 Y112.302 E1.98753
G1 X135.72 Y113.197 E2.02028
G1 X135.644 Y115.85 E2.11738
G1 X135.644 Y118.382 E2.21002
G1 X135.737 Y121.962 E2.34104
G1 X135.736 Y126.801 E2.51808
G1 X135.727 Y127.528 E2.54468
G1 X135.676 Y128.469 E2.57916
G1 X135.544 Y129.402 E2.61364
G1 X135.334 Y130.321 E2.64813
G1 X135.047 Y131.218 E2.68258
G1 X134.685 Y132.088 E2.71706
G1 X134.251 Y132.924 E2.75152
G1 X133.747 Y133.72 E2.78599
G1 X133.178 Y134.47 E2.82043
G1 X132.546 Y135.17 E2.85494
G1 X131.858 Y135.813 E2.88939
G1 X131.118 Y136.396 E2.92386
G1 X130.331 Y136.914 E2.95833
G1 X129.503 Y137.363 E2.99279
G1 X128.64 Y137.741 E3.02726
G1 X127.748 Y138.044 E3.06172
G1 X126.833 Y138.27 E3.09621
G1 X125.903 Y138.418 E3.13066
G1 X124.939 Y138.487 E3.16602
G1 X124.307 Y138.5 E3.18915
G1 X110.927 Y138.499 E3.67867
G1 X110.229 Y138.49 E3.70421
G1 X109.288 Y138.438 E3.73869
G1 X108.355 Y138.306 E3.77316
G1 X107.437 Y138.096 E3.80762
G1 X106.54 Y137.808 E3.84208
G1 X105.67 Y137.446 E3.87656
G1 X104.834 Y137.011 E3.91104
G1 X104.039 Y136.507 E3.94548
G1 X103.288 Y135.937 E3.97997
G1 X102.589 Y135.305 E4.01445
G1 X101.946 Y134.617 E4.0489
G1 X101.364 Y133.876 E4.08337
G1 X100.846 Y133.089 E4.11784
G1 X100.397 Y132.261 E4.1523
G1 X100.02 Y131.397 E4.18679
G1 X99.718 Y130.505 E4.22125
G1 X99.492 Y129.591 E4.25569
G1 X99.345 Y128.66 E4.29018
G1 X99.276 Y127.691 E4.32572
G1 X99.263 Y127.058 E4.34888
G1 X99.264 Y108.124 E5.04161
G0 F2100 X99.704 Y108.13
G1 F1200 X99.713 Y107.465 E5.06594
G1 X99.765 Y106.543 E5.09972
G1 X99.897 Y105.629 E5.13351
G1 X100.108 Y104.73 E5.1673
G1 X100.396 Y103.853 E5.20107
G1 X100.758 Y103.004 E5.23483
G1 X101.193 Y102.189 E5.26863
G1 X101.696 Y101.415 E5.30241
G1 X102.264 Y100.688 E5.33616
G1 X102.894 Y100.012 E5.36997
G1 X103.579 Y99.394 E5.40372
G1 X104.315 Y98.837 E5.43749
G1 X105.097 Y98.346 E5.47127
G1 X105.919 Y97.924 E5.50508
G1 X106.773 Y97.575 E5.53883
G1 X107.655 Y97.301 E5.57262
G1 X108.557 Y97.105 E5.60639
G1 X109.473 Y96.987 E5.64018
G1 X110.073 Y96.953 E5.66217
G1 X110.693 Y96.94 E5.68486
G1 X123.93 Y96.94 E6.16915
G1 X124.781 Y96.951 E6.20029
G1 X125.702 Y97.004 E6.23404
G1 X126.616 Y97.137 E6.26783
G1 X127.515 Y97.348 E6.30161
G1 X128.392 Y97.637 E6.3354
G1 X129.241 Y98 E6.36918
G1 X130.055 Y98.435 E6.40295
G1 X130.829 Y98.939 E6.43674
G1 X131.556 Y99.508 E6.47051
G1 X132.231 Y100.138 E6.50429
G1 X132.849 Y100.824 E6.53808
G1 X133.405 Y101.56 E6.57182
G1 X133.896 Y102.343 E6.60564
G1 X134.317 Y103.164 E6.63939
G1 X134.665 Y104.019 E6.67317
G1 X134.938 Y104.901 E6.70694
G1 X135.134 Y105.803 E6.74072
G1 X135.251 Y106.719 E6.7745
G1 X135.284 Y107.31 E6.79616
G1 X135.297 Y107.93 E6.81885
G1 X135.296 Y112.295 E6.97854
G1 X135.281 Y113.184 E7.01107
G1 X135.204 Y115.872 E7.10946
G1 X135.204 Y118.394 E7.20173
G1 X135.297 Y121.962 E7.33231
G1 X135.296 Y126.796 E7.50917
G1 X135.287 Y127.523 E7.53577
G1 X135.236 Y128.445 E7.56955
G1 X135.105 Y129.359 E7.60333
G1 X134.895 Y130.258 E7.63711
G1 X134.609 Y131.136 E7.67089
G1 X134.247 Y131.985 E7.70466
G1 X133.814 Y132.8 E7.73843
G1 X133.311 Y133.575 E7.77223
G1 X132.744 Y134.303 E7.80599
G1 X132.115 Y134.979 E7.83977
G1 X131.43 Y135.599 E7.87357
G1 X130.695 Y136.156 E7.90731
G1 X129.913 Y136.648 E7.94112
G1 X129.093 Y137.071 E7.97487
G1 X128.238 Y137.421 E8.00867
G1 X127.357 Y137.696 E8.04244
G1 X126.455 Y137.893 E8.07622
G1 X125.539 Y138.012 E8.11001
G1 X124.927 Y138.047 E8.13244
G1 X124.307 Y138.06 E8.15513
G1 X110.933 Y138.059 E8.64443
G1 X110.235 Y138.05 E8.66997
G1 X109.313 Y137.998 E8.70376
G1 X108.399 Y137.867 E8.73754
G1 X107.5 Y137.657 E8.77132
G1 X106.622 Y137.37 E8.80511
G1 X105.773 Y137.008 E8.83888
G1 X104.958 Y136.574 E8.87266
G1 X104.184 Y136.071 E8.90643
G1 X103.456 Y135.503 E8.94022
G1 X102.78 Y134.874 E8.974
G1 X102.161 Y134.189 E9.00778
G1 X101.604 Y133.453 E9.04155
G1 X101.112 Y132.672 E9.07532
G1 X100.69 Y131.851 E9.10909
G1 X100.34 Y130.996 E9.14289
G1 X100.066 Y130.115 E9.17664
G1 X99.869 Y129.213 E9.21042
G1 X99.751 Y128.297 E9.24421
G1 X99.716 Y127.679 E9.26686
G1 X99.703 Y127.058 E9.28958
G1 X99.704 Y108.13 E9.98209
G0 F2100 X100.144 Y108.136
G1 F1200 X100.153 Y107.471 E10.00642
G1 X100.205 Y106.568 E10.03951
G1 X100.337 Y105.674 E10.07257
G1 X100.547 Y104.795 E10.10564
G1 X100.834 Y103.937 E10.13874
G1 X101.196 Y103.109 E10.1718
G1 X101.63 Y102.316 E10.20487
G1 X102.131 Y101.564 E10.23793
G1 X102.698 Y100.859 E10.27103
G1 X103.324 Y100.208 E10.30408
G1 X104.006 Y99.614 E10.33717
G1 X104.737 Y99.083 E10.37022
G1 X105.513 Y98.618 E10.40332
G1 X106.326 Y98.224 E10.43637
G1 X107.172 Y97.903 E10.46948
G1 X108.042 Y97.658 E10.50255
G1 X108.93 Y97.491 E10.5356
G1 X110.086 Y97.393 E10.57805
G1 X110.693 Y97.38 E10.60026
G1 X123.93 Y97.38 E11.08455
G1 X124.774 Y97.391 E11.11543
G1 X125.677 Y97.444 E11.14853
G1 X126.571 Y97.576 E11.18159
G1 X127.45 Y97.787 E11.21466
G1 X128.307 Y98.075 E11.24774
G1 X129.135 Y98.438 E11.28082
G1 X129.928 Y98.872 E11.31389
G1 X130.68 Y99.374 E11.34697
G1 X131.384 Y99.941 E11.38004
G1 X132.035 Y100.568 E11.41311
G1 X132.628 Y101.25 E11.44618
G1 X133.159 Y101.982 E11.47926
G1 X133.623 Y102.758 E11.51234
G1 X134.016 Y103.572 E11.54541
G1 X134.336 Y104.417 E11.57847
G1 X134.581 Y105.288 E11.61157
G1 X134.747 Y106.176 E11.64462
G1 X134.844 Y107.323 E11.68674
G1 X134.857 Y107.93 E11.70895
G1 X134.856 Y112.288 E11.86839
G1 X134.841 Y113.172 E11.90074
G1 X134.764 Y115.86 E11.99912
G1 X134.764 Y118.406 E12.09227
G1 X134.857 Y121.962 E12.22242
G1 X134.856 Y126.791 E12.39909
G1 X134.847 Y127.518 E12.42569
G1 X134.796 Y128.42 E12.45874
G1 X134.665 Y129.315 E12.49184
G1 X134.456 Y130.194 E12.52489
G1 X134.17 Y131.051 E12.55795
G1 X133.809 Y131.88 E12.59103
G1 X133.377 Y132.674 E12.6241
G1 X132.875 Y133.427 E12.65721
G1 X132.31 Y134.132 E12.69026
G1 X131.684 Y134.784 E12.72333
G1 X131.003 Y135.379 E12.75642
G1 X130.272 Y135.911 E12.7895
G1 X129.498 Y136.376 E12.82253
G1 X128.684 Y136.771 E12.85563
G1 X127.84 Y137.093 E12.88868
G1 X126.97 Y137.339 E12.92176
G1 X126.082 Y137.507 E12.95483
G1 X124.914 Y137.607 E12.99771
G1 X124.307 Y137.62 E13.01993
G1 X110.938 Y137.619 E13.50905
G1 X110.24 Y137.61 E13.53459
G1 X109.338 Y137.559 E13.56764
G1 X108.443 Y137.427 E13.60074
G1 X107.564 Y137.218 E13.6338
G1 X106.707 Y136.931 E13.66686
G1 X105.878 Y136.57 E13.69994
G1 X105.084 Y136.137 E13.73303
G1 X104.332 Y135.635 E13.76611
G1 X103.627 Y135.069 E13.79919
G1 X102.975 Y134.443 E13.83226
G1 X102.381 Y133.762 E13.86532
G1 X101.849 Y133.031 E13.89839
G1 X101.384 Y132.256 E13.93146
G1 X100.989 Y131.443 E13.96453
G1 X100.668 Y130.598 E13.9976
G1 X100.423 Y129.728 E14.03067
G1 X100.255 Y128.839 E14.06377
G1 X100.156 Y127.667 E14.1068
G1 X100.143 Y127.058 E14.12909
G1 X100.144 Y108.136 E14.82137
G1 F2700 E9.82137
G0 F2100 X109.71 Y106.947
G0 X125.29 Y106.947
G0 X125.29 Y113.485
G0 X117.903 Y118.435
G1 F2700 E14.82137
G1 F1200 X118.401 Y118.475 E14.83965
G1 X118.744 Y118.4 E14.8525
G1 X119.06 Y118.25 E14.86529
G1 X119.334 Y118.032 E14.8781
G1 X119.552 Y117.757 E14.89094
G1 X119.678 Y117.491 E14.90171
G1 X119.8 Y117.639 E14.90873
G1 X119.621 Y117.988 E14.92308
G1 X119.54 Y118.329 E14.9359
G1 X119.535 Y118.665 E14.9482
G1 X118.22 Y118.705 E14.99633
G1 X117.973 Y118.692 E15.00538
G1 X117.903 Y118.435 E15.01512
G0 F2100 X117.376 Y117.667
G1 F1200 X117.382 Y117.632 E15.01642
G1 X117.679 Y117.886 E15.03072
G1 X117.951 Y118.003 E15.04155
G1 X118.244 Y118.043 E15.05237
G1 X118.537 Y118.003 E15.06319
G1 X118.809 Y117.887 E15.07401
G1 X119.041 Y117.702 E15.08487
G1 X119.214 Y117.463 E15.09566
G1 X119.318 Y117.185 E15.10652
G1 X119.344 Y116.891 E15.11732
G1 X119.253 Y116.503 E15.1319
G1 X118.923 Y115.747 E15.16208
G1 X118.837 Y115.605 E15.16815
G1 X119.214 Y115.823 E15.18409
G1 X119.503 Y115.885 E15.1949
G1 X119.878 Y115.848 E15.20869
G1 X120.188 Y115.763 E15.22045
G1 X119.962 Y116.043 E15.23361
G1 X119.851 Y116.317 E15.24443
G1 X119.817 Y116.611 E15.25525
G1 X119.863 Y116.904 E15.26611
G1 X119.985 Y117.173 E15.27691
G1 X120.269 Y117.478 E15.29216
G1 X120.377 Y117.557 E15.29705
G1 X120.146 Y117.914 E15.31261
G1 X120.02 Y118.182 E15.32345
G1 X119.97 Y118.473 E15.33425
G1 X119.999 Y118.768 E15.34509
G1 X120.125 Y119.115 E15.3586
G1 X119.476 Y119.106 E15.38235
G1 X118.223 Y119.145 E15.42821
G1 X117.633 Y119.115 E15.44983
G1 X117.403 Y118.27 E15.48187
G1 X117.376 Y117.667 E15.50395
G0 F2100 X116.934 Y117.639
G1 F1200 X117.035 Y117.057 E15.52556
G1 X117.18 Y116.951 E15.53213
G1 X117.342 Y116.951 E15.53806
G1 X117.767 Y117.398 E15.56063
G1 X117.951 Y117.534 E15.569
G1 X118.17 Y117.599 E15.57735
G1 X118.399 Y117.585 E15.58575
G1 X118.609 Y117.494 E15.59412
G1 X118.775 Y117.336 E15.60251
G1 X118.877 Y117.132 E15.61085
G1 X118.904 Y116.904 E15.61925
G1 X118.85 Y116.679 E15.62772
G1 X118.52 Y115.923 E15.6579
G1 X118.393 Y115.732 E15.66629
G1 X118.131 Y115.563 E15.67769
G1 X117.205 Y115.242 E15.71355
G1 X117.169 Y115.132 E15.71778
G1 X117.241 Y114.912 E15.72625
G1 X117.396 Y114.799 E15.73327
G1 X118.655 Y114.938 E15.77961
G1 X119.205 Y115.327 E15.80426
G1 X119.412 Y115.425 E15.81264
G1 X119.761 Y115.424 E15.82541
G1 X120.742 Y115.154 E15.86263
G1 X120.847 Y115.23 E15.86738
G1 X120.909 Y115.419 E15.87465
G1 X120.727 Y115.848 E15.8917
G1 X120.452 Y116.12 E15.90585
G1 X120.32 Y116.307 E15.91423
G1 X120.26 Y116.528 E15.92261
G1 X120.279 Y116.756 E15.93098
G1 X120.374 Y116.964 E15.93934
G1 X120.89 Y117.386 E15.96373
G1 X120.931 Y117.511 E15.96854
G1 X120.515 Y118.153 E15.99653
G1 X120.426 Y118.364 E16.00491
G1 X120.414 Y118.593 E16.0133
G1 X120.456 Y118.756 E16.01946
G1 X120.644 Y119.228 E16.03805
G1 X120.579 Y119.426 E16.04567
G1 X120.396 Y119.559 E16.05395
G1 X119.489 Y119.545 E16.08714
G1 X118.201 Y119.585 E16.13428
G1 X117.445 Y119.546 E16.16198
G1 X117.256 Y119.409 E16.17052
G1 X116.966 Y118.338 E16.21111
G1 X116.934 Y117.639 E16.23671
G0 F2100 X116.493 Y117.611
G1 F1200 X116.632 Y116.807 E16.26656
G1 X117.037 Y116.511 E16.28492
G1 X117.531 Y116.511 E16.30299
G1 X118.086 Y117.095 E16.33247
G1 X118.2 Y117.158 E16.33723
G1 X118.331 Y117.146 E16.34205
G1 X118.431 Y117.061 E16.34685
G1 X118.447 Y116.855 E16.35441
G1 X118.117 Y116.099 E16.38459
G1 X117.987 Y115.979 E16.39106
G1 X116.854 Y115.587 E16.43492
G1 X116.706 Y115.132 E16.45243
G1 X116.866 Y114.642 E16.47129
G1 X117.275 Y114.343 E16.48982
G1 X118.816 Y114.514 E16.54655
G1 X119.459 Y114.968 E16.57534
G1 X119.644 Y115 E16.58221
G1 X120.829 Y114.673 E16.62719
G1 X121.222 Y114.96 E16.64499
G1 X121.378 Y115.439 E16.66342
G1 X121.097 Y116.1 E16.6897
G1 X120.762 Y116.433 E16.70698
G1 X120.701 Y116.549 E16.71178
G1 X120.716 Y116.679 E16.71657
G1 X120.787 Y116.767 E16.7207
G1 X121.265 Y117.116 E16.74236
G1 X121.414 Y117.574 E16.75998
G1 X120.884 Y118.392 E16.79564
G1 X120.865 Y118.593 E16.80302
G1 X121.112 Y119.213 E16.82744
G1 X120.954 Y119.696 E16.84603
G1 X120.535 Y120.002 E16.86502
G1 X119.503 Y119.985 E16.90278
G1 X118.204 Y120.026 E16.95033
G1 X117.292 Y119.978 E16.98374
G1 X116.872 Y119.672 E17.00275
G1 X116.529 Y118.41 E17.0506
G1 X116.493 Y117.611 E17.07986
G1 F2700 E12.07986
;MESH:Cameraspacer_12.stl
G0 F2100 X114.565 Y117.611
G0 X114.356 Y122.742
G0 X123.345 Y122.924
G0 X123.345 Y126.108
G0 X111.463 Y126.3
;TYPE:WALL-INNER
G1 F2700 E17.07986
G1 F1200 X123.537 Y126.3 E17.5216
G1 X123.537 Y122.732 E17.65214
G1 X114.995 Y122.732 E17.96466
G1 X114.706 Y122.694 E17.97532
G1 X114.446 Y122.586 E17.98562
G1 X114.179 Y122.371 E17.99817
G1 X113.973 Y122.041 E18.0124
G1 X113.895 Y121.632 E18.02763
G1 X113.895 Y112.832 E18.34959
G1 X113.955 Y112.473 E18.36291
G1 X114.117 Y112.168 E18.37554
G1 X114.339 Y111.948 E18.38698
G1 X114.64 Y111.79 E18.39941
G1 X114.995 Y111.732 E18.41258
G1 X123.537 Y111.732 E18.72509
G1 X123.537 Y108.7 E18.83602
G1 X111.463 Y108.7 E19.27776
G1 X111.463 Y126.3 E19.92168
G0 F2100 X111.023 Y126.74
G1 F1200 X123.977 Y126.74 E20.39562
G1 X123.977 Y122.292 E20.55835
G1 X114.995 Y122.292 E20.88697
G1 X114.665 Y122.204 E20.89946
G1 X114.505 Y122.075 E20.90698
G1 X114.344 Y121.746 E20.92039
G1 X114.335 Y121.632 E20.92457
G1 X114.335 Y112.832 E21.24653
G1 X114.371 Y112.616 E21.25454
G1 X114.468 Y112.434 E21.26208
G1 X114.601 Y112.302 E21.26894
G1 X114.881 Y112.181 E21.2801
G1 X114.995 Y112.172 E21.28428
G1 X123.977 Y112.172 E21.6129
G1 X123.977 Y108.26 E21.75602
G1 X111.023 Y108.26 E22.22996
G1 X111.023 Y126.74 E22.90607
G0 F2100 X110.583 Y127.18
;TYPE:WALL-OUTER
G1 F1200 X124.417 Y127.18 E23.41221
G1 X124.417 Y121.852 E23.60714
G1 X114.995 Y121.852 E23.95185
G1 X114.831 Y121.78 E23.95841
G1 X114.775 Y121.632 E23.96419
G1 X114.775 Y112.832 E24.28615
G1 X114.819 Y112.699 E24.29128
G1 X114.957 Y112.615 E24.29719
G1 X114.995 Y112.612 E24.29858
G1 X124.417 Y112.612 E24.6433
G1 X124.417 Y107.82 E24.81862
G1 X110.583 Y107.82 E25.32475
G1 X110.583 Y127.18 E26.03306
G0 F2100 X111.043 Y126.72
G0 X111.583 Y125.899
G0 X111.864 Y125.899
;TYPE:SKIN
G1 F1200 X111.863 Y121.827 E26.18204
G1 X111.864 Y110.502 E26.59638
G1 X111.864 Y109.101 E26.64763
G1 X123.137 Y109.1 E27.06007
G1 X123.137 Y111.332 E27.14173
G1 X115 Y111.332 E27.43943
G1 X114.965 Y111.334 E27.44071
G1 X114.479 Y111.424 E27.4588
G1 X114.076 Y111.647 E27.47565
G1 X113.778 Y111.955 E27.49133
G1 X113.567 Y112.375 E27.50852
G1 X113.495 Y112.834 E27.52552
G1 F1102.3 X113.238 Y112.834 E27.53576
G1 F946.2 X112.981 Y112.833 E27.54768
G1 F882.9 X112.981 Y112.764 E27.55111
G1 F878.5 X112.984 Y112.702 E27.55422
G1 F937.8 X113.082 Y112.43 E27.56775
G1 F1097.7 X113.181 Y112.157 E27.57936
G1 F1200 X113.206 Y112.091 E27.58195
G1 X113.471 Y111.635 E27.60124
G1 X113.876 Y111.251 E27.62166
G1 X113.93 Y111.215 E27.62404
G1 X114.411 Y110.986 E27.64353
G1 X114.896 Y110.899 E27.66155
G1 X114.93 Y110.897 E27.6628
G1 X122.697 Y110.892 E27.94696
