;FLAVOR:Marlin
;TIME:3832
;Filament used: 2.4921m
;Layer height: 0.2
;MINX:80.851
;MINY:80.413
;MINZ:0.2
;MAXX:154.157
;MAXY:154.586
;MAXZ:10.8
;Generated with Cura_SteamEngine 5.0.0
M140 S60
M105
M190 S60
M104 S222
M105
M109 S222
M82 ;absolute extrusion mode
; Ender 3 Custom Start G-code
G92 E0 ; Reset Extruder
M140 S60 ; Start heating the heated bed
M190 S60 ; Wait until the heated bed reaches the desired temperature
G28 ; Auto Home
G29 A; Activate Bed Leveling
G29 L0; Loads the saved mesh in slot 0
G29  J3; 9 point autotilt

G92 E0 ; Reset extruder origin
G1 Z2.0 F3000 ; Move Z Axis up little to prevent scratching of Heat Bed
G1 X0.1 Y20 Z0.3 F5000.0 ; Move to start position
G1 X0.1 Y200.0 Z0.3 F1500.0 E15 ; Draw the first line
G1 X0.4 Y200.0 Z0.3 F5000.0 ; Move to side a little
G1 X0.4 Y20 Z0.3 F1500.0 E30 ; Draw the second line
G92 E0 ; Reset Extruder
G1 Z2.0 F3000 ; Move Z Axis up little to prevent scratching of Heat Bed
G1 X5 Y20 Z0.3 F5000.0 ; Move over to prevent blob squish

; End of Ender 3 Custom Start G-code
G92 E0
G92 E0
G1 F2700 E-5
;LAYER_COUNT:55
;LAYER:0
M107
G0 F2100 X91.205 Y90.951 Z0.2
G0 X83.957 Y100.788
;TYPE:SKIRT
G1 F2700 E0
G1 F1200 X84.351 Y100.031 E0.03122
G1 X84.793 Y99.229 E0.06473
G1 X85.287 Y98.381 E0.10063
G1 X85.724 Y97.673 E0.13107
G1 X86.204 Y96.935 E0.16328
G1 X86.762 Y96.12 E0.19942
G1 X87.339 Y95.323 E0.23542
G1 X87.796 Y94.725 E0.26295
G1 X88.389 Y93.984 E0.29767
G1 X88.648 Y93.676 E0.3124
G1 X89.062 Y93.212 E0.33515
G1 X89.758 Y92.473 E0.37229
G1 X90.511 Y91.695 E0.4119
G1 X91.205 Y90.951 E0.44913
G1 X91.759 Y90.398 E0.47776
G1 X92.424 Y89.789 E0.51075
G1 X93.323 Y89.016 E0.55413
G1 X94.041 Y88.432 E0.58799
G1 X95.074 Y87.643 E0.63555
G1 X95.977 Y86.996 E0.67619
G1 X97.099 Y86.25 E0.72549
G1 X98.088 Y85.64 E0.768
G1 X99.275 Y84.963 E0.81799
G1 X100.287 Y84.428 E0.85988
G1 X101.422 Y83.877 E0.90604
G1 X102.573 Y83.365 E0.95212
G1 X103.766 Y82.883 E0.9992
G1 X104.873 Y82.476 E1.04235
G1 X106.043 Y82.091 E1.08741
G1 X107.35 Y81.71 E1.13722
G1 X108.464 Y81.426 E1.17928
G1 X109.654 Y81.163 E1.22387
G1 X110.966 Y80.919 E1.2727
G1 X112.072 Y80.751 E1.31362
G1 X112.46 Y80.701 E1.32794
G1 X113.845 Y80.554 E1.37889
G1 X114.916 Y80.476 E1.41818
G1 X116.274 Y80.422 E1.4679
G1 X117.103 Y80.413 E1.49824
G1 X118.383 Y80.436 E1.54507
G1 X119.615 Y80.5 E1.59021
G1 X120.798 Y80.6 E1.63364
G1 X122.117 Y80.758 E1.68225
G1 X123.294 Y80.938 E1.72581
G1 X124.522 Y81.169 E1.77152
G1 X124.912 Y81.251 E1.78611
G1 X126.178 Y81.548 E1.83368
G1 X127.266 Y81.842 E1.87491
G1 X128.521 Y82.225 E1.92292
G1 X129.681 Y82.623 E1.96779
G1 X130.85 Y83.068 E2.01355
G1 X132.016 Y83.558 E2.05983
G1 X133.102 Y84.057 E2.10355
G1 X134.199 Y84.605 E2.14842
G1 X135.386 Y85.25 E2.19784
G1 X136.41 Y85.854 E2.24134
G1 X137.422 Y86.496 E2.28518
G1 X138.52 Y87.244 E2.33379
G1 X139.467 Y87.939 E2.37677
G1 X140.464 Y88.722 E2.42315
G1 X141.425 Y89.53 E2.46908
G1 X142.371 Y90.382 E2.51566
G1 X143.25 Y91.229 E2.56032
G1 X144.083 Y92.088 E2.6041
G1 X144.726 Y92.788 E2.63887
G1 X145.512 Y93.699 E2.6829
G1 X146.29 Y94.659 E2.7281
G1 X147.054 Y95.671 E2.7745
G1 X147.776 Y96.699 E2.82046
G1 X148.43 Y97.699 E2.86417
G1 X149.091 Y98.788 E2.91078
G1 X149.709 Y99.888 E2.95694
G1 X150.262 Y100.955 E3.00091
G1 X150.828 Y102.14 E3.04895
G1 X151.292 Y103.203 E3.09139
G1 X151.772 Y104.413 E3.13901
G1 X152.198 Y105.602 E3.18522
G1 X152.559 Y106.724 E3.22835
G1 X152.906 Y107.946 E3.27482
G1 X153.214 Y109.188 E3.32164
G1 X153.47 Y110.387 E3.36649
G1 X153.686 Y111.601 E3.41161
G1 X153.865 Y112.852 E3.45784
G1 X154 Y114.086 E3.50326
G1 X154.093 Y115.312 E3.54824
G1 X154.146 Y116.581 E3.59471
G1 X154.157 Y117.751 E3.63752
G1 X154.122 Y119.123 E3.68773
G1 X154.055 Y120.263 E3.72951
G1 X153.933 Y121.577 E3.77779
G1 X153.785 Y122.745 E3.82087
G1 X153.587 Y123.982 E3.8667
G1 X153.321 Y125.337 E3.91722
G1 X153.172 Y125.995 E3.9419
G1 X152.938 Y126.839 E3.97395
G1 X152.148 Y129.305 E4.06868
G1 X151.788 Y130.471 E4.11333
G1 X151.477 Y131.345 E4.14727
G1 X151.186 Y132.051 E4.17521
G1 X150.692 Y133.155 E4.21946
G1 X150.169 Y134.233 E4.2633
G1 X149.565 Y135.378 E4.31066
G1 X148.989 Y136.386 E4.35313
G1 X148.34 Y137.442 E4.39848
G1 X147.713 Y138.393 E4.44016
G1 X146.95 Y139.471 E4.48848
G1 X146.296 Y140.331 E4.528
G1 X145.428 Y141.405 E4.57853
G1 X144.718 Y142.221 E4.6181
G1 X143.841 Y143.169 E4.66535
G1 X143.02 Y143.997 E4.70801
G1 X142.12 Y144.849 E4.75335
G1 X141.225 Y145.642 E4.7971
G1 X140.276 Y146.43 E4.84223
G1 X139.331 Y147.163 E4.88598
G1 X138.353 Y147.872 E4.93018
G1 X137.341 Y148.555 E4.97485
G1 X136.308 Y149.206 E5.01952
G1 X135.241 Y149.83 E5.06474
G1 X134.204 Y150.392 E5.1079
G1 X133.116 Y150.935 E5.15238
G1 X131.969 Y151.463 E5.19858
G1 X130.989 Y151.876 E5.23749
G1 X129.665 Y152.385 E5.28939
G1 X129.366 Y152.49 E5.30098
G1 X128.487 Y152.758 E5.3346
G1 X127.313 Y153.064 E5.37899
G1 X127.081 Y153.132 E5.38783
G1 X126.366 Y153.314 E5.41483
G1 X125.029 Y153.687 E5.46561
G1 X124.149 Y153.895 E5.49869
G1 X123.04 Y154.101 E5.53996
G1 X121.952 Y154.263 E5.58021
G1 X120.677 Y154.411 E5.62717
G1 X119.511 Y154.505 E5.66996
G1 X118.25 Y154.567 E5.71616
G1 X117.008 Y154.586 E5.7616
G1 X115.826 Y154.564 E5.80485
G1 X114.499 Y154.497 E5.85346
G1 X113.354 Y154.4 E5.89551
G1 X112.125 Y154.255 E5.94078
G1 X110.836 Y154.059 E5.98848
G1 X109.7 Y153.846 E6.03077
G1 X108.394 Y153.556 E6.07971
G1 X107.315 Y153.279 E6.12047
G1 X106.086 Y152.921 E6.1673
G1 X104.895 Y152.53 E6.21317
G1 X103.779 Y152.122 E6.25664
G1 X102.925 Y151.782 E6.29027
G1 X101.816 Y151.302 E6.33448
G1 X100.675 Y150.764 E6.38063
G1 X99.622 Y150.225 E6.42391
G1 X98.482 Y149.591 E6.47164
G1 X97.514 Y149.011 E6.51292
G1 X96.391 Y148.285 E6.56185
G1 X95.426 Y147.614 E6.60485
G1 X94.408 Y146.854 E6.65133
G1 X93.475 Y146.111 E6.69496
G1 X92.51 Y145.286 E6.74141
G1 X91.617 Y144.472 E6.78562
G1 X90.752 Y143.627 E6.82986
G1 X89.821 Y142.654 E6.87913
G1 X89.055 Y141.799 E6.92113
G1 X88.261 Y140.853 E6.96632
G1 X87.518 Y139.906 E7.01036
G1 X86.713 Y138.8 E7.0604
G1 X86.119 Y137.93 E7.09894
G1 X85.413 Y136.816 E7.1472
G1 X84.76 Y135.702 E7.19444
G1 X84.215 Y134.698 E7.23624
G1 X83.616 Y133.503 E7.28514
G1 X83.155 Y132.503 E7.32543
G1 X82.638 Y131.269 E7.37438
G1 X82.211 Y130.153 E7.41809
G1 X81.812 Y128.994 E7.46294
G1 X81.416 Y127.703 E7.51234
G1 X81.25 Y127.105 E7.53505
G1 X81.045 Y126.186 E7.5695
G1 X80.932 Y125.414 E7.59804
G1 X80.851 Y124.476 E7.63249
G1 X80.873 Y123.158 E7.68072
G1 X80.97 Y121.873 E7.72786
G1 X81.141 Y119.197 E7.82597
G1 X81.23 Y116.705 E7.9172
G1 X81.249 Y114.18 E8.00958
G1 X81.183 Y111.294 E8.1152
G1 X81.146 Y110.35 E8.14976
G1 X81.15 Y109.408 E8.18423
G1 X81.233 Y108.469 E8.21871
G1 X81.417 Y107.445 E8.25678
G1 X81.497 Y107.095 E8.26991
G1 X81.805 Y106.007 E8.31128
G1 X82.147 Y105.006 E8.34998
G1 X82.459 Y104.165 E8.3828
G1 X82.805 Y103.298 E8.41696
G1 X83.132 Y102.535 E8.44733
G1 X83.516 Y101.693 E8.48118
G1 X83.957 Y100.788 E8.51802
G1 F2700 E3.51802
G0 F2100 X82.026 Y110.315
G1 F2700 E8.51802
G1 F1200 X82.031 Y109.412 E8.55105
G1 X82.115 Y108.511 E8.58416
G1 X82.275 Y107.641 E8.61653
G1 X82.355 Y107.291 E8.62966
G1 X82.638 Y106.289 E8.66775
G1 X82.974 Y105.309 E8.70566
G1 X83.278 Y104.489 E8.73765
G1 X83.616 Y103.64 E8.77109
G1 X83.933 Y102.898 E8.80061
G1 X84.309 Y102.075 E8.83371
G1 X84.739 Y101.192 E8.86964
G1 X85.124 Y100.452 E8.90016
G1 X85.554 Y99.67 E8.93281
G1 X86.037 Y98.84 E8.96795
G1 X86.463 Y98.15 E8.99761
G1 X86.932 Y97.429 E9.02908
G1 X87.476 Y96.634 E9.06433
G1 X88.041 Y95.854 E9.09956
G1 X88.485 Y95.272 E9.12635
G1 X89.063 Y94.55 E9.16018
G1 X89.322 Y94.242 E9.17491
G1 X89.702 Y93.815 E9.19582
G1 X90.391 Y93.085 E9.23254
G1 X91.136 Y92.315 E9.27174
G1 X91.848 Y91.552 E9.30992
G1 X92.359 Y91.043 E9.33631
G1 X93.001 Y90.453 E9.36821
G1 X93.878 Y89.698 E9.41055
G1 X94.596 Y89.114 E9.44441
G1 X95.604 Y88.345 E9.4908
G1 X96.486 Y87.714 E9.53047
G1 X97.583 Y86.986 E9.57864
G1 X98.546 Y86.392 E9.62004
G1 X99.707 Y85.729 E9.66895
G1 X100.694 Y85.209 E9.70977
G1 X101.803 Y84.67 E9.75488
G1 X102.926 Y84.171 E9.79984
G1 X104.092 Y83.7 E9.84585
G1 X105.172 Y83.304 E9.88794
G1 X106.313 Y82.929 E9.93188
G1 X107.593 Y82.556 E9.98065
G1 X108.677 Y82.28 E10.02158
G1 X109.84 Y82.023 E10.06516
G1 X111.122 Y81.785 E10.11286
G1 X112.199 Y81.622 E10.15271
G1 X113.589 Y81.462 E10.2039
G1 X114.617 Y81.376 E10.24165
G1 X115.936 Y81.311 E10.28996
G1 X117.112 Y81.293 E10.33299
G1 X118.362 Y81.316 E10.37873
G1 X119.564 Y81.379 E10.42277
G1 X120.719 Y81.477 E10.46518
G1 X122.008 Y81.631 E10.51267
G1 X123.156 Y81.807 E10.55516
G1 X124.356 Y82.033 E10.59984
G1 X124.715 Y82.108 E10.61326
G1 X125.953 Y82.398 E10.65978
G1 X127.014 Y82.685 E10.69999
G1 X128.24 Y83.059 E10.74689
G1 X129.372 Y83.447 E10.79067
G1 X130.513 Y83.88 E10.83532
G1 X131.653 Y84.36 E10.88057
G1 X132.713 Y84.846 E10.92323
G1 X133.783 Y85.38 E10.96698
G1 X134.625 Y85.832 E11.00195
G1 X135.666 Y86.433 E11.04593
G1 X136.648 Y87.042 E11.0882
G1 X137.71 Y87.751 E11.13492
G1 X138.664 Y88.436 E11.17789
G1 X139.625 Y89.176 E11.22226
G1 X140.586 Y89.969 E11.26785
G1 X141.508 Y90.782 E11.31282
G1 X142.37 Y91.597 E11.35622
G1 X143.213 Y92.449 E11.40007
G1 X144.078 Y93.383 E11.44665
G1 X144.843 Y94.27 E11.4895
G1 X145.604 Y95.21 E11.53375
G1 X146.349 Y96.198 E11.57902
G1 X147.053 Y97.201 E11.62386
G1 X147.691 Y98.177 E11.66652
G1 X148.337 Y99.241 E11.71206
G1 X148.94 Y100.316 E11.75715
G1 X149.479 Y101.356 E11.80001
G1 X150.032 Y102.516 E11.84702
G1 X150.483 Y103.55 E11.8883
G1 X150.952 Y104.734 E11.93489
G1 X151.368 Y105.895 E11.98001
G1 X151.72 Y106.99 E12.02209
G1 X152.058 Y108.182 E12.06742
G1 X152.359 Y109.396 E12.11318
G1 X152.608 Y110.566 E12.15695
G1 X152.819 Y111.751 E12.20098
G1 X152.994 Y112.973 E12.24615
G1 X153.124 Y114.177 E12.29045
G1 X153.215 Y115.375 E12.33441
G1 X153.267 Y116.614 E12.37978
G1 X153.277 Y117.755 E12.42152
G1 X153.242 Y119.097 E12.47064
G1 X153.177 Y120.206 E12.51128
G1 X153.057 Y121.492 E12.55854
G1 X152.913 Y122.63 E12.60051
G1 X152.718 Y123.838 E12.64527
G1 X152.458 Y125.163 E12.69467
G1 X152.315 Y125.794 E12.71835
G1 X152.1 Y126.571 E12.74784
G1 X151.31 Y129.037 E12.84258
G1 X150.947 Y130.211 E12.88754
G1 X150.661 Y131.016 E12.91879
G1 X150.381 Y131.695 E12.94566
G1 X149.899 Y132.775 E12.98893
G1 X149.388 Y133.826 E13.03169
G1 X148.799 Y134.946 E13.07799
G1 X148.238 Y135.928 E13.11936
G1 X147.602 Y136.961 E13.16375
G1 X146.992 Y137.888 E13.20435
G1 X146.246 Y138.942 E13.25159
G1 X145.609 Y139.781 E13.29013
G1 X144.761 Y140.831 E13.33951
G1 X144.07 Y141.626 E13.37805
G1 X143.212 Y142.552 E13.42423
G1 X142.412 Y143.361 E13.46586
G1 X141.534 Y144.192 E13.51009
G1 X140.66 Y144.967 E13.55282
G1 X139.732 Y145.737 E13.59694
G1 X138.812 Y146.453 E13.63959
G1 X137.857 Y147.145 E13.68274
G1 X136.869 Y147.813 E13.72638
G1 X135.86 Y148.448 E13.76999
G1 X134.818 Y149.058 E13.81417
G1 X133.807 Y149.607 E13.85626
G1 X132.745 Y150.137 E13.89968
G1 X131.622 Y150.654 E13.94491
G1 X130.669 Y151.056 E13.98276
G1 X129.373 Y151.555 E14.03356
G1 X129.074 Y151.66 E14.04516
G1 X128.265 Y151.907 E14.07611
G1 X127.021 Y152.231 E14.12314
G1 X126.865 Y152.279 E14.12911
G1 X126.155 Y152.459 E14.15591
G1 X124.792 Y152.84 E14.20769
G1 X123.982 Y153.031 E14.23813
G1 X123.283 Y153.166 E14.26418
G1 X122.18 Y153.343 E14.30505
G1 X120.944 Y153.498 E14.35062
G1 X119.805 Y153.603 E14.39247
G1 X118.561 Y153.675 E14.43806
G1 X117.369 Y153.705 E14.48169
G1 X116.196 Y153.695 E14.5246
G1 X114.923 Y153.642 E14.57122
G1 X113.774 Y153.556 E14.61337
G1 X112.607 Y153.43 E14.65632
G1 X111.319 Y153.246 E14.70392
G1 X110.236 Y153.056 E14.74415
G1 X108.934 Y152.779 E14.79285
G1 X107.87 Y152.517 E14.83294
G1 X106.695 Y152.187 E14.87759
G1 X105.504 Y151.808 E14.92332
G1 X104.428 Y151.426 E14.96509
G1 X103.251 Y150.964 E15.01135
G1 X102.169 Y150.496 E15.05448
G1 X101.054 Y149.97 E15.09959
G1 X100.027 Y149.443 E15.14182
G1 X98.913 Y148.824 E15.18845
G1 X97.971 Y148.259 E15.22863
G1 X96.872 Y147.548 E15.27652
G1 X95.933 Y146.895 E15.31837
G1 X94.937 Y146.151 E15.36385
G1 X94.027 Y145.425 E15.40644
G1 X93.084 Y144.62 E15.4518
G1 X92.212 Y143.824 E15.495
G1 X91.37 Y143.001 E15.53808
G1 X90.46 Y142.049 E15.58626
G1 X89.714 Y141.215 E15.6272
G1 X88.937 Y140.29 E15.6714
G1 X88.213 Y139.366 E15.71434
G1 X87.426 Y138.286 E15.76324
G1 X86.848 Y137.438 E15.80078
G1 X86.158 Y136.348 E15.84798
G1 X85.521 Y135.261 E15.89407
G1 X84.99 Y134.282 E15.93482
G1 X84.404 Y133.112 E15.9827
G1 X83.957 Y132.14 E16.02184
G1 X83.451 Y130.933 E16.06972
G1 X83.035 Y129.842 E16.11244
G1 X82.646 Y128.712 E16.15616
G1 X82.258 Y127.449 E16.2045
G1 X82.1 Y126.877 E16.22621
G1 X81.905 Y125.995 E16.25926
G1 X81.805 Y125.302 E16.28488
G1 X81.729 Y124.401 E16.31796
G1 X81.75 Y123.224 E16.36103
G1 X81.857 Y121.813 E16.4128
G1 X82.02 Y119.249 E16.5068
G1 X82.11 Y116.743 E16.59854
G1 X82.129 Y114.166 E16.69282
G1 X82.062 Y111.238 E16.79998
G1 X82.026 Y110.315 E16.83377
G0 F2100 X81.586 Y110.333
G1 F1200 X81.59 Y109.409 E16.86758
G1 X81.674 Y108.49 E16.90134
G1 X81.846 Y107.543 E16.93655
G1 X81.926 Y107.193 E16.94969
G1 X82.221 Y106.148 E16.98942
G1 X82.56 Y105.157 E17.02774
G1 X82.868 Y104.327 E17.06013
G1 X83.211 Y103.469 E17.09393
G1 X83.532 Y102.716 E17.12388
G1 X83.913 Y101.884 E17.15736
G1 X84.348 Y100.99 E17.19373
G1 X84.738 Y100.241 E17.22463
G1 X85.173 Y99.449 E17.25769
G1 X85.662 Y98.611 E17.29319
G1 X86.093 Y97.912 E17.32323
G1 X86.568 Y97.182 E17.35509
G1 X87.119 Y96.377 E17.39079
G1 X87.69 Y95.588 E17.42642
G1 X88.14 Y94.998 E17.45357
G1 X88.726 Y94.267 E17.48784
G1 X88.985 Y93.959 E17.50257
G1 X89.382 Y93.513 E17.52441
G1 X90.075 Y92.779 E17.56134
G1 X90.837 Y91.991 E17.60145
G1 X91.527 Y91.252 E17.63844
G1 X92.059 Y90.72 E17.66596
G1 X92.713 Y90.121 E17.69841
G1 X93.601 Y89.357 E17.74127
G1 X94.619 Y88.538 E17.78907
G1 X95.604 Y87.799 E17.83412
G1 X96.535 Y87.148 E17.87569
G1 X97.648 Y86.424 E17.92426
G1 X98.628 Y85.833 E17.96613
G1 X99.804 Y85.177 E18.0154
G1 X100.802 Y84.663 E18.05647
G1 X101.949 Y84.119 E18.10292
G1 X103.081 Y83.63 E18.14803
G1 X104.247 Y83.171 E18.19388
G1 X105.376 Y82.769 E18.23772
G1 X106.518 Y82.406 E18.28156
G1 X107.831 Y82.037 E18.33146
G1 X108.892 Y81.778 E18.37142
G1 X110.104 Y81.522 E18.41674
G1 X111.397 Y81.294 E18.46478
G1 X112.509 Y81.138 E18.50586
G1 X113.88 Y80.992 E18.5563
G1 X114.936 Y80.916 E18.59504
G1 X116.278 Y80.862 E18.64418
G1 X117.107 Y80.853 E18.67451
G1 X118.372 Y80.876 E18.7208
G1 X119.59 Y80.939 E18.76542
G1 X120.758 Y81.039 E18.80831
G1 X121.121 Y81.077 E18.82166
G1 X122.419 Y81.245 E18.86954
G1 X123.565 Y81.433 E18.91203
G1 X124.813 Y81.679 E18.95857
G1 X126.066 Y81.973 E19.00566
G1 X127.14 Y82.263 E19.04636
G1 X128.381 Y82.642 E19.09383
G1 X129.527 Y83.035 E19.13816
G1 X130.681 Y83.474 E19.18333
G1 X131.834 Y83.959 E19.22909
G1 X132.907 Y84.452 E19.2723
G1 X133.991 Y84.993 E19.31662
G1 X135.165 Y85.631 E19.36551
G1 X136.176 Y86.227 E19.40844
G1 X137.177 Y86.861 E19.45179
G1 X138.262 Y87.6 E19.49982
G1 X139.197 Y88.286 E19.54225
G1 X140.183 Y89.06 E19.58811
G1 X141.132 Y89.859 E19.6335
G1 X142.067 Y90.7 E19.67951
G1 X142.935 Y91.537 E19.72362
G1 X143.759 Y92.386 E19.76691
G1 X144.661 Y93.378 E19.81596
G1 X145.382 Y94.231 E19.85683
G1 X146.173 Y95.226 E19.90333
G1 X146.702 Y95.934 E19.93567
G1 X147.414 Y96.95 E19.98106
G1 X148.061 Y97.938 E20.02426
G1 X148.714 Y99.014 E20.07031
G1 X149.325 Y100.102 E20.11597
G1 X149.871 Y101.155 E20.15936
G1 X150.43 Y102.328 E20.2069
G1 X150.888 Y103.376 E20.24875
G1 X151.362 Y104.574 E20.29588
G1 X151.783 Y105.748 E20.34151
G1 X152.14 Y106.857 E20.38414
G1 X152.482 Y108.064 E20.43004
G1 X152.787 Y109.292 E20.47633
G1 X153.039 Y110.476 E20.52062
G1 X153.252 Y111.676 E20.56521
G1 X153.429 Y112.912 E20.61089
G1 X153.562 Y114.131 E20.65575
G1 X153.654 Y115.343 E20.70022
G1 X153.707 Y116.597 E20.74614
G1 X153.717 Y117.753 E20.78844
G1 X153.682 Y119.11 E20.8381
G1 X153.616 Y120.235 E20.87933
G1 X153.495 Y121.534 E20.92706
G1 X153.349 Y122.687 E20.96958
G1 X153.153 Y123.91 E21.0149
G1 X152.89 Y125.25 E21.06486
G1 X152.744 Y125.895 E21.08905
G1 X152.519 Y126.705 E21.11981
