;FLAVOR:Marlin
;TIME:1885
;Filament used: 0.831709m
;Layer height: 0.15
;MINX:96.748
;MINY:96.027
;MINZ:0.2
;MAXX:142.948
;MAXY:144.779
;MAXZ:15.5
;Generated with Cura_SteamEngine 5.0.0
M140 S60
M105
M190 S60
M104 S222
M105
M109 S222
M82 ;absolute extrusion mode
; Ender 3 Custom Start G-code
G92 E0 ; Reset Extruder
M140 S60 ; Start heating the heated bed
M190 S60 ; Wait until the heated bed reaches the desired temperature
G28 ; Auto Home
G29 A; Activate Bed Leveling
G29 L0; Loads the saved mesh in slot 0
G29  J3; 9 point autotilt

G92 E0 ; Reset extruder origin
G1 Z2.0 F3000 ; Move Z Axis up little to prevent scratching of Heat Bed
G1 X0.1 Y20 Z0.3 F5000.0 ; Move to start position
G1 X0.1 Y200.0 Z0.3 F1500.0 E15 ; Draw the first line
G1 X0.4 Y200.0 Z0.3 F5000.0 ; Move to side a little
G1 X0.4 Y20 Z0.3 F1500.0 E30 ; Draw the second line
G92 E0 ; Reset Extruder
G1 Z2.0 F3000 ; Move Z Axis up little to prevent scratching of Heat Bed
G1 X5 Y20 Z0.3 F5000.0 ; Move over to prevent blob squish

; End of Ender 3 Custom Start G-code
G92 E0
G92 E0
G1 F2700 E-5
;LAYER_COUNT:103
;LAYER:0
M107
G0 F2100 X99.948 Y99.348 Z0.2
G0 X96.749 Y107.651
;TYPE:SKIRT
G1 F2700 E0
G1 F1200 X96.758 Y106.986 E0.02433
G1 X96.811 Y106.045 E0.05881
G1 X96.943 Y105.112 E0.09329
G1 X97.154 Y104.194 E0.12775
G1 X97.442 Y103.297 E0.16222
G1 X97.805 Y102.428 E0.19667
G1 X98.24 Y101.592 E0.23115
G1 X98.745 Y100.797 E0.26561
G1 X99.316 Y100.047 E0.3001
G1 X99.948 Y99.348 E0.33458
G1 X100.636 Y98.706 E0.369
G1 X101.377 Y98.124 E0.40348
G1 X102.165 Y97.607 E0.43796
G1 X102.994 Y97.158 E0.47245
G1 X103.857 Y96.782 E0.50689
G1 X104.75 Y96.48 E0.54138
G1 X105.664 Y96.255 E0.57582
G1 X106.595 Y96.108 E0.6103
G1 X107.546 Y96.04 E0.64518
G1 X108.178 Y96.027 E0.66831
G1 X122.971 Y96.027 E1.20953
G1 X123.831 Y96.038 E1.241
G1 X124.772 Y96.092 E1.27548
G1 X125.704 Y96.224 E1.30992
G1 X126.622 Y96.436 E1.34439
G1 X127.519 Y96.725 E1.37887
G1 X128.388 Y97.088 E1.41332
G1 X129.224 Y97.524 E1.44782
G1 X130.019 Y98.03 E1.4823
G1 X130.768 Y98.601 E1.51676
G1 X131.358 Y99.128 E1.5457
G1 X131.892 Y99.644 E1.57287
G1 X139.28 Y107.032 E1.95513
G1 X139.798 Y107.565 E1.98232
G1 X140.425 Y108.268 E2.01678
G1 X140.991 Y109.021 E2.05125
G1 X141.49 Y109.82 E2.08571
G1 X141.92 Y110.658 E2.12017
G1 X142.278 Y111.53 E2.15466
G1 X142.56 Y112.429 E2.18913
G1 X142.765 Y113.349 E2.22361
G1 X142.891 Y114.282 E2.25806
G1 X142.936 Y115.1 E2.28803
G1 X142.948 Y115.854 E2.31562
G1 X142.947 Y124.961 E2.64881
G1 X142.937 Y125.662 E2.67446
G1 X142.883 Y126.603 E2.70894
G1 X142.75 Y127.536 E2.74342
G1 X142.539 Y128.454 E2.77789
G1 X142.25 Y129.35 E2.81233
G1 X141.887 Y130.22 E2.84682
G1 X141.45 Y131.055 E2.8813
G1 X140.945 Y131.85 E2.91576
G1 X140.374 Y132.599 E2.95022
G1 X139.863 Y133.172 E2.97831
G1 X139.365 Y133.69 E3.0046
G1 X131.894 Y141.159 E3.3911
G1 X131.4 Y141.638 E3.41627
G1 X130.696 Y142.264 E3.45074
G1 X129.942 Y142.829 E3.48521
G1 X129.143 Y143.328 E3.51968
G1 X128.304 Y143.757 E3.55415
G1 X127.432 Y144.113 E3.58861
G1 X126.533 Y144.394 E3.62307
G1 X125.613 Y144.598 E3.65755
G1 X124.679 Y144.723 E3.69202
G1 X123.872 Y144.767 E3.72159
G1 X123.028 Y144.779 E3.75247
G1 X121.766 Y144.769 E3.79865
G1 X120.825 Y144.721 E3.83312
G1 X119.892 Y144.594 E3.86757
G1 X118.972 Y144.388 E3.90206
G1 X118.074 Y144.105 E3.93651
G1 X117.202 Y143.747 E3.971
G1 X116.364 Y143.316 E4.00547
G1 X115.566 Y142.816 E4.03993
G1 X114.813 Y142.25 E4.07439
G1 X114.111 Y141.622 E4.10885
G1 X113.464 Y140.937 E4.14332
G1 X112.878 Y140.199 E4.1778
G1 X112.236 Y139.21 E4.22094
G1 X110.717 Y136.572 E4.33231
G1 X109.394 Y134.43 E4.42442
G1 X108.015 Y132.328 E4.5164
G1 X106.589 Y130.284 E4.60758
G1 X105.087 Y128.256 E4.69991
G1 X103.522 Y126.264 E4.79259
G1 X101.921 Y124.341 E4.88414
G1 X100.258 Y122.452 E4.97622
G1 X99.625 Y121.752 E5.01075
G1 X99.023 Y121.027 E5.04522
G1 X98.485 Y120.254 E5.07968
G1 X98.015 Y119.438 E5.11413
G1 X97.615 Y118.584 E5.14863
G1 X97.289 Y117.7 E5.18311
G1 X97.04 Y116.792 E5.21755
G1 X96.868 Y115.866 E5.25201
G1 X96.762 Y114.612 E5.29805
G1 X96.748 Y113.943 E5.32253
G1 X96.749 Y107.651 E5.55273
G0 F2100 X97.189 Y107.657
G1 F1200 X97.198 Y106.992 E5.57707
G1 X97.25 Y106.07 E5.61085
G1 X97.382 Y105.156 E5.64464
G1 X97.593 Y104.257 E5.67842
G1 X97.881 Y103.38 E5.7122
G1 X98.243 Y102.531 E5.74596
G1 X98.678 Y101.716 E5.77976
G1 X99.181 Y100.942 E5.81353
G1 X99.749 Y100.215 E5.84729
G1 X100.379 Y99.539 E5.8811
G1 X101.064 Y98.921 E5.91485
G1 X101.8 Y98.364 E5.94862
G1 X102.582 Y97.873 E5.9824
G1 X103.404 Y97.451 E6.01621
G1 X104.258 Y97.102 E6.04996
G1 X105.14 Y96.828 E6.08375
G1 X106.042 Y96.632 E6.11752
G1 X106.958 Y96.514 E6.15131
G1 X107.558 Y96.48 E6.1733
G1 X108.178 Y96.467 E6.19599
G1 X122.971 Y96.467 E6.7372
G1 X123.825 Y96.478 E6.76845
G1 X124.747 Y96.531 E6.80224
G1 X125.66 Y96.664 E6.836
G1 X126.559 Y96.875 E6.86978
G1 X127.436 Y97.163 E6.90355
G1 X128.285 Y97.526 E6.93733
G1 X129.099 Y97.961 E6.9711
G1 X129.873 Y98.465 E7.00489
G1 X130.6 Y99.034 E7.03867
G1 X131.054 Y99.445 E7.06107
G1 X131.581 Y99.955 E7.08791
G1 X138.965 Y107.339 E7.46996
G1 X139.483 Y107.872 E7.49715
G1 X140.097 Y108.561 E7.53092
G1 X140.649 Y109.301 E7.56469
G1 X141.135 Y110.086 E7.59847
G1 X141.552 Y110.91 E7.63226
G1 X141.895 Y111.767 E7.66603
G1 X142.163 Y112.65 E7.69979
G1 X142.354 Y113.554 E7.7336
G1 X142.466 Y114.47 E7.76736
G1 X142.496 Y115.108 E7.79073
G1 X142.508 Y115.854 E7.81802
G1 X142.507 Y124.955 E8.15099
G1 X142.497 Y125.656 E8.17664
G1 X142.444 Y126.578 E8.21043
G1 X142.311 Y127.491 E8.24419
G1 X142.1 Y128.39 E8.27797
G1 X141.812 Y129.267 E8.31174
G1 X141.449 Y130.116 E8.34552
G1 X141.013 Y130.93 E8.37931
G1 X140.509 Y131.704 E8.4131
G1 X139.94 Y132.431 E8.44688
G1 X139.545 Y132.868 E8.46843
G1 X139.054 Y133.379 E8.49436
G1 X131.588 Y140.843 E8.8806
G1 X131.094 Y141.322 E8.90577
G1 X130.404 Y141.935 E8.93954
G1 X129.663 Y142.487 E8.97335
G1 X128.878 Y142.972 E9.00711
G1 X128.053 Y143.388 E9.04091
G1 X127.196 Y143.73 E9.07467
G1 X126.312 Y143.997 E9.10846
G1 X125.408 Y144.187 E9.14225
G1 X124.492 Y144.298 E9.17601
G1 X123.864 Y144.327 E9.19901
G1 X123.032 Y144.339 E9.22945
G1 X121.77 Y144.329 E9.27563
G1 X120.847 Y144.281 E9.30944
G1 X119.933 Y144.154 E9.3432
G1 X119.033 Y143.949 E9.37697
G1 X118.154 Y143.666 E9.41076
G1 X117.303 Y143.309 E9.44452
G1 X116.486 Y142.879 E9.4783
G1 X115.709 Y142.38 E9.51208
G1 X114.978 Y141.815 E9.54589
G1 X114.299 Y141.19 E9.57965
G1 X113.677 Y140.508 E9.61342
G1 X113.116 Y139.775 E9.64719
G1 X112.617 Y138.99 E9.68122
G1 X111.086 Y136.333 E9.79342
G1 X109.776 Y134.21 E9.88468
G1 X108.388 Y132.094 E9.97727
G1 X106.925 Y129.999 E10.07076
G1 X105.443 Y127.997 E10.16189
G1 X103.876 Y126.003 E10.25467
G1 X102.261 Y124.061 E10.34708
G1 X100.568 Y122.139 E10.44079
G1 X99.951 Y121.457 E10.47444
G1 X99.362 Y120.746 E10.50822
G1 X98.837 Y119.987 E10.54198
G1 X98.38 Y119.185 E10.57575
G1 X97.993 Y118.346 E10.60956
G1 X97.68 Y117.478 E10.64331
G1 X97.444 Y116.585 E10.67711
G1 X97.286 Y115.676 E10.71086
G1 X97.202 Y114.6 E10.75035
G1 X97.188 Y113.943 E10.77439
G1 X97.189 Y107.657 E11.00437
G0 F2100 X97.629 Y107.663
G1 F1200 X97.638 Y106.998 E11.0287
G1 X97.69 Y106.095 E11.0618
G1 X97.822 Y105.201 E11.09486
G1 X98.032 Y104.322 E11.12792
G1 X98.319 Y103.464 E11.16102
G1 X98.681 Y102.636 E11.19409
G1 X99.115 Y101.843 E11.22716
G1 X99.616 Y101.091 E11.26022
G1 X100.183 Y100.386 E11.29332
G1 X100.809 Y99.735 E11.32636
G1 X101.491 Y99.141 E11.35945
G1 X102.222 Y98.61 E11.39251
G1 X102.998 Y98.145 E11.4256
G1 X103.811 Y97.751 E11.45866
G1 X104.657 Y97.43 E11.49176
G1 X105.527 Y97.185 E11.52483
G1 X106.415 Y97.018 E11.55789
G1 X107.571 Y96.92 E11.60033
G1 X108.178 Y96.907 E11.62255
G1 X122.971 Y96.907 E12.16377
G1 X123.819 Y96.918 E12.19479
G1 X124.721 Y96.971 E12.22785
G1 X125.615 Y97.103 E12.26091
G1 X126.494 Y97.314 E12.29399
G1 X127.351 Y97.602 E12.32706
G1 X128.179 Y97.964 E12.36013
G1 X128.972 Y98.398 E12.3932
G1 X129.724 Y98.901 E12.4263
G1 X130.749 Y99.763 E12.4753
G1 X131.27 Y100.266 E12.50179
G1 X138.649 Y107.645 E12.88359
G1 X139.167 Y108.178 E12.91078
G1 X139.768 Y108.854 E12.94387
G1 X140.306 Y109.58 E12.97693
G1 X140.779 Y110.35 E13.01
G1 X141.181 Y111.16 E13.04308
G1 X141.511 Y112.002 E13.07617
G1 X141.765 Y112.869 E13.10922
G1 X141.941 Y113.756 E13.1423
G1 X142.038 Y114.655 E13.17539
G1 X142.056 Y115.116 E13.19227
G1 X142.068 Y115.854 E13.21927
G1 X142.067 Y124.949 E13.55202
G1 X142.057 Y125.65 E13.57767
G1 X142.004 Y126.552 E13.61073
G1 X141.872 Y127.446 E13.64379
G1 X141.661 Y128.326 E13.6769
G1 X141.373 Y129.182 E13.70994
G1 X141.011 Y130.011 E13.74304
G1 X140.577 Y130.804 E13.77611
G1 X140.074 Y131.555 E13.80918
G1 X139.227 Y132.564 E13.85738
G1 X138.743 Y133.068 E13.88294
G1 X131.281 Y140.527 E14.26895
G1 X130.787 Y141.006 E14.29413
G1 X130.111 Y141.606 E14.3272
G1 X129.385 Y142.144 E14.36026
G1 X128.613 Y142.616 E14.39336
G1 X127.803 Y143.017 E14.42643
G1 X126.961 Y143.346 E14.4595
G1 X126.093 Y143.598 E14.49257
G1 X125.206 Y143.773 E14.52565
G1 X123.856 Y143.887 E14.57522
G1 X123.035 Y143.899 E14.60526
G1 X121.773 Y143.889 E14.65143
G1 X120.87 Y143.842 E14.68451
G1 X119.975 Y143.715 E14.71759
G1 X119.095 Y143.509 E14.75065
G1 X118.236 Y143.227 E14.78373
G1 X117.406 Y142.87 E14.81679
G1 X116.61 Y142.441 E14.84987
G1 X115.855 Y141.943 E14.88296
G1 X115.148 Y141.381 E14.916
G1 X114.492 Y140.758 E14.9491
G1 X113.895 Y140.08 E14.98215
G1 X113.359 Y139.351 E15.01526
G1 X112.998 Y138.771 E15.04025
G1 X111.462 Y136.104 E15.15285
G1 X110.131 Y133.948 E15.24555
G1 X108.756 Y131.853 E15.33723
G1 X107.308 Y129.779 E15.42978
G1 X105.769 Y127.7 E15.52441
G1 X104.217 Y125.724 E15.61634
G1 X102.583 Y123.76 E15.70981
G1 X100.913 Y121.865 E15.80222
G1 X100.278 Y121.162 E15.83688
G1 X99.702 Y120.465 E15.86996
G1 X99.189 Y119.72 E15.90306
G1 X98.745 Y118.933 E15.93612
G1 X98.372 Y118.11 E15.96918
G1 X98.073 Y117.257 E16.00225
G1 X97.851 Y116.38 E16.03534
G1 X97.706 Y115.488 E16.06841
G1 X97.642 Y114.588 E16.10142
G1 X97.628 Y113.943 E16.12502
G1 X97.629 Y107.663 E16.35478
G1 F2700 E11.35478
;MESH:ESP32Microscope_Lightperiscope_V0_1.stl
G0 F2100 X107.195 Y114.965
G0 X115.09 Y117.762
G0 X121.187 Y118.883
G0 X122.276 Y118.432
G0 X122.948 Y132.579
;TYPE:WALL-INNER
G1 F2700 E16.35478
G1 F1200 X123.221 Y132.579 E16.36477
G1 X130.748 Y125.052 E16.75422
G1 X130.748 Y115.753 E17.09444
G1 X123.221 Y108.227 E17.48386
G1 X108.948 Y108.227 E18.00606
G1 X108.948 Y113.212 E18.18844
G1 X115.744 Y113.216 E18.43708
G1 X116.182 Y113.306 E18.45344
G1 X116.523 Y113.539 E18.46855
G1 X116.731 Y113.831 E18.48166
G1 X116.806 Y114.032 E18.48951
G1 X116.843 Y114.316 E18.49999
G1 X116.843 Y116.009 E18.56193
G1 X120.348 Y116.009 E18.69017
G1 X120.616 Y116.041 E18.70004
G1 X120.971 Y116.201 E18.71429
G1 X121.127 Y116.33 E18.72169
G1 X122.627 Y117.83 E18.7993
G1 X122.855 Y118.162 E18.81404
G1 X122.932 Y118.419 E18.82385
G1 X122.948 Y118.609 E18.83083
G1 X122.948 Y132.579 E19.34194
G0 F2100 X122.508 Y133.019
G1 F1200 X123.403 Y133.019 E19.37468
G1 X131.188 Y125.234 E19.77748
G1 X131.188 Y115.571 E20.13102
G1 X123.403 Y107.787 E20.53379
G1 X108.508 Y107.787 E21.07874
G1 X108.508 Y113.652 E21.29332
G1 X115.744 Y113.656 E21.55806
G1 X116.007 Y113.71 E21.56788
G1 X116.211 Y113.85 E21.57693
G1 X116.336 Y114.025 E21.5848
G1 X116.403 Y114.316 E21.59573
G1 X116.403 Y116.449 E21.67376
G1 X120.348 Y116.449 E21.8181
G1 X120.618 Y116.506 E21.82819
G1 X120.815 Y116.642 E21.83695
G1 X122.315 Y118.142 E21.91456
G1 X122.452 Y118.341 E21.9234
G1 X122.508 Y118.609 E21.93342
G1 X122.508 Y133.019 E22.46062
G0 F2100 X122.068 Y133.459
;TYPE:WALL-OUTER
G1 F1200 X123.585 Y133.459 E22.51613
G1 X131.628 Y125.416 E22.93227
G1 X131.628 Y115.389 E23.29912
G1 X123.585 Y107.347 E23.71525
G1 X108.068 Y107.347 E24.28296
G1 X108.068 Y114.092 E24.52973
G1 X115.744 Y114.096 E24.81056
G1 X115.899 Y114.16 E24.8167
G1 X115.963 Y114.316 E24.82287
G1 X115.963 Y116.889 E24.917
G1 X120.376 Y116.89 E25.07846
G1 X120.504 Y116.953 E25.08368
G1 X122.004 Y118.453 E25.16129
G1 X122.068 Y118.609 E25.16746
G1 X122.068 Y133.459 E25.71076
G0 F2100 X122.528 Y132.999
G0 X123.068 Y131.882
G0 X123.349 Y131.882
;TYPE:SKIN
G1 F1200 X123.347 Y118.583 E26.19732
G1 X123.294 Y118.216 E26.21089
G1 X123.085 Y117.757 E26.22934
G1 X122.921 Y117.561 E26.23869
G1 X121.403 Y116.041 E26.31729
G1 X121.158 Y115.849 E26.32867
G1 X120.681 Y115.646 E26.34764
G1 X120.373 Y115.61 E26.35898
G1 X117.243 Y115.609 E26.4735
G1 X117.242 Y114.291 E26.52172
G1 X117.18 Y113.888 E26.53664
G1 X116.949 Y113.427 E26.5555
G1 X116.554 Y113.057 E26.5753
G1 X116.737 Y112.683 E26.59054
G1 X116.875 Y112.75 E26.59615
G1 X116.939 Y112.811 E26.59938
G1 X117.264 Y112.499 E26.61587
G1 X117.248 Y112.483 E26.6167
G1 X117.069 Y112.355 E26.62475
G1 X116.468 Y112.062 E26.64921
G1 X116.413 Y112.044 E26.65133
G1 X115.893 Y111.945 E26.67069
G1 X115.852 Y111.942 E26.6722
G1 X110.229 Y111.932 E26.87792
G1 X110.229 Y109.508 E26.96661
G1 X122.686 Y109.509 E27.42236
G1 X129.468 Y116.288 E27.77319
G1 X129.468 Y124.517 E28.07425
G1 X124.229 Y129.754 E28.34527
G1 X124.222 Y118.469 E28.75815
G1 X124.152 Y118.006 E28.77528
G1 X123.914 Y117.439 E28.79778
G1 X123.887 Y117.392 E28.79976
G1 X123.569 Y116.971 E28.81906
G1 X123.549 Y116.948 E28.82018
G1 X121.98 Y115.377 E28.90141
G1 X121.959 Y115.358 E28.90245
G1 X121.638 Y115.116 E28.91715
G1 X121.12 Y114.867 E28.93818
G1 X121.256 Y114.453 E28.95412
G1 X121.309 Y114.47 E28.95616
G1 X121.829 Y114.719 E28.97725
G1 X122.238 Y115.015 E28.99573
G1 X122.259 Y115.034 E28.99676
G1 X123.872 Y116.651 E29.08032
G1 X124.237 Y117.123 E29.10215
G1 X124.322 Y117.271 E29.1084
G1 X124.581 Y117.9 E29.13328
G1 X124.658 Y118.407 E29.15205
G1 X124.66 Y118.437 E29.15315
G1 X124.669 Y128.69 E29.52826
G1 X129.028 Y124.333 E29.75375
G1 X129.028 Y116.472 E30.04135
G1 X122.502 Y109.949 E30.37893
G1 X110.67 Y109.949 E30.81182
G1 X110.67 Y111.492 E30.86827
G1 X115.47 Y111.502 E31.04389
G1 F1125.8 X115.494 Y111.253 E31.05364
G1 F1001.9 X115.518 Y111.004 E31.06461
G1 F949.6 X115.873 Y111.004 E31.08102
G1 X114.396 Y111.002 E31.1493
G1 F953.1 X112.919 Y111 E31.21734
G1 F956.5 X111.442 Y110.998 E31.28513
G1 X111.166 Y110.996 E31.2978
G1 X111.166 Y110.445 E31.32309
G1 X111.442 Y110.445 E31.33576
G1 X112.913 Y110.446 E31.40328
G1 F953.1 X114.384 Y110.447 E31.47104
G1 F951.4 X115.855 Y110.448 E31.53892
G1 F942.9 X116.072 Y110.451 E31.54903
G1 F990.6 X116.362 Y110.42 E31.56196
G1 F1121 X116.652 Y110.389 E31.57338
G1 F1200 X122.318 Y110.39 E31.78067
G1 X128.588 Y116.656 E32.10498
G1 X128.588 Y124.149 E32.37912
G1 X125.109 Y127.627 E32.5591
G1 X125.096 Y118.374 E32.89764
G1 X125.094 Y118.343 E32.89877
G1 X125.023 Y117.845 E32.91718
G1 X125.01 Y117.794 E32.9191
G1 X124.73 Y117.105 E32.94631
G1 X124.618 Y116.903 E32.95476
G1 X124.213 Y116.375 E32.97911
G1 X124.194 Y116.353 E32.98017
G1 X122.569 Y114.723 E33.06438
G1 X122.549 Y114.705 E33.06536
G1 X122.016 Y114.319 E33.08944
G1 X121.447 Y114.052 E33.11244
G1 X121.224 Y113.981 E33.121
G1 X120.61 Y113.867 E33.14385
G1 X120.579 Y113.864 E33.14499
G1 X120.212 Y113.848 E33.15843
G1 X118.959 Y113.847 E33.20427
G1 X118.92 Y113.585 E33.21396
G1 X118.904 Y113.533 E33.21595
G1 X119.316 Y113.406 E33.23172
G1 X120.21 Y113.407 E33.26443
G1 X120.597 Y113.424 E33.2786
G1 X120.626 Y113.427 E33.27967
G1 X121.307 Y113.549 E33.30498
G1 X121.55 Y113.621 E33.31426
G1 X122.201 Y113.919 E33.34045
G1 X122.441 Y114.063 E33.35069
G1 X122.86 Y114.394 E33.37023
G1 X122.879 Y114.411 E33.37116
G1 X124.545 Y116.087 E33.45762
G1 X125.005 Y116.692 E33.48542
G1 X125.128 Y116.915 E33.49474
G1 X125.139 Y116.938 E33.49567
G1 X125.439 Y117.689 E33.52526
G1 X125.452 Y117.739 E33.52715
G1 X125.53 Y118.278 E33.54708
G1 X125.532 Y118.309 E33.54821
G1 X125.548 Y126.565 E33.85027
G1 X128.148 Y123.965 E33.98479
G1 X128.148 Y116.84 E34.24547
G1 X122.134 Y110.83 E34.55654
G1 X116.933 Y110.83 E34.74682
G1 X117.667 Y111.177 E34.77652
G1 X118.177 Y111.543 E34.79949
G1 X118.203 Y111.566 E34.80076
G1 X118.524 Y111.271 E34.81671
G1 X119.985 Y111.271 E34.87016
G1 X121.95 Y111.27 E34.94206
