;FLAVOR:Marlin
;TIME:4846
;Filament used: 2.12581m
;Layer height: 0.15
;MINX:80.41
;MINY:80.409
;MINZ:0.2
;MAXX:154.591
;MAXY:154.588
;MAXZ:6.95
;Generated with Cura_SteamEngine 5.0.0
M140 S60
M105
M190 S60
M104 S222
M105
M109 S222
M82 ;absolute extrusion mode
; Ender 3 Custom Start G-code
G92 E0 ; Reset Extruder
M140 S60 ; Start heating the heated bed
M190 S60 ; Wait until the heated bed reaches the desired temperature
G28 ; Auto Home
G29 A; Activate Bed Leveling
G29 L0; Loads the saved mesh in slot 0
G29  J3; 9 point autotilt

G92 E0 ; Reset extruder origin
G1 Z2.0 F3000 ; Move Z Axis up little to prevent scratching of Heat Bed
G1 X0.1 Y20 Z0.3 F5000.0 ; Move to start position
G1 X0.1 Y200.0 Z0.3 F1500.0 E15 ; Draw the first line
G1 X0.4 Y200.0 Z0.3 F5000.0 ; Move to side a little
G1 X0.4 Y20 Z0.3 F1500.0 E30 ; Draw the second line
G92 E0 ; Reset Extruder
G1 Z2.0 F3000 ; Move Z Axis up little to prevent scratching of Heat Bed
G1 X5 Y20 Z0.3 F5000.0 ; Move over to prevent blob squish

; End of Ender 3 Custom Start G-code
G92 E0
G92 E0
G1 F2700 E-5
;LAYER_COUNT:46
;LAYER:0
M107
G0 F2100 X91.397 Y91.149 Z0.2
G0 X84.694 Y100.19
;TYPE:SKIRT
G1 F2700 E0
G1 F1200 X84.997 Y99.63 E0.0233
G1 X85.566 Y98.629 E0.06542
G1 X85.847 Y98.164 E0.0853
G1 X86.493 Y97.143 E0.1295
G1 X86.868 Y96.586 E0.15407
G1 X87.546 Y95.626 E0.19707
G1 X87.821 Y95.253 E0.21402
G1 X88.576 Y94.278 E0.25914
G1 X88.98 Y93.787 E0.2824
G1 X89.769 Y92.869 E0.32669
G1 X90.07 Y92.532 E0.34322
G1 X90.925 Y91.621 E0.38893
G1 X91.397 Y91.149 E0.41335
G1 X92.278 Y90.305 E0.45799
G1 X92.656 Y89.959 E0.47674
G1 X93.548 Y89.18 E0.52006
G1 X93.899 Y88.886 E0.53682
G1 X94.855 Y88.123 E0.58157
G1 X95.36 Y87.743 E0.60469
G1 X96.343 Y87.036 E0.64899
G1 X96.72 Y86.776 E0.66574
G1 X97.705 Y86.131 E0.70882
G1 X98.246 Y85.797 E0.73208
G1 X99.064 Y85.314 E0.76684
G1 X99.478 Y85.082 E0.7842
G1 X100.573 Y84.497 E0.82962
G1 X101.05 Y84.256 E0.84917
G1 X102.177 Y83.722 E0.8948
G1 X102.641 Y83.515 E0.91339
G1 X104.107 Y82.908 E0.97144
G1 X104.683 Y82.694 E0.99392
G1 X105.719 Y82.33 E1.03409
G1 X106.146 Y82.189 E1.05055
G1 X107.148 Y81.882 E1.08889
G1 X107.626 Y81.747 E1.10706
G1 X108.823 Y81.438 E1.15229
G1 X109.333 Y81.319 E1.17145
G1 X110.533 Y81.069 E1.2163
G1 X111.06 Y80.973 E1.23589
G1 X112.316 Y80.774 E1.28242
G1 X112.842 Y80.703 E1.30184
G1 X114.353 Y80.542 E1.35743
G1 X114.962 Y80.496 E1.37978
G1 X116.162 Y80.433 E1.42374
G1 X116.658 Y80.418 E1.4419
G1 X117.813 Y80.409 E1.48415
G1 X118.294 Y80.416 E1.50175
G1 X119.62 Y80.468 E1.5503
G1 X120.311 Y80.516 E1.57565
G1 X121.47 Y80.622 E1.61823
G1 X121.965 Y80.679 E1.63646
G1 X123.097 Y80.834 E1.67826
G1 X123.553 Y80.906 E1.69515
G1 X124.88 Y81.148 E1.7445
G1 X125.559 Y81.295 E1.76992
G1 X126.692 Y81.566 E1.81254
G1 X127.134 Y81.681 E1.82925
G1 X128.288 Y82.011 E1.87316
G1 X128.877 Y82.197 E1.89576
G1 X129.968 Y82.567 E1.93791
G1 X130.416 Y82.73 E1.95535
G1 X131.603 Y83.193 E2.00196
G1 X132.187 Y83.44 E2.02516
G1 X133.287 Y83.936 E2.06931
G1 X133.702 Y84.134 E2.08613
G1 X134.81 Y84.694 E2.13155
G1 X135.37 Y84.997 E2.15485
G1 X136.359 Y85.559 E2.19647
G1 X136.836 Y85.847 E2.21685
G1 X137.849 Y86.488 E2.26071
G1 X138.409 Y86.864 E2.28539
G1 X139.346 Y87.525 E2.32734
G1 X139.72 Y87.801 E2.34435
G1 X140.722 Y88.576 E2.39069
G1 X141.213 Y88.98 E2.41395
G1 X142.131 Y89.769 E2.45824
G1 X142.467 Y90.07 E2.47475
G1 X143.378 Y90.925 E2.52046
G1 X143.802 Y91.346 E2.54232
G1 X144.551 Y92.121 E2.58175
G1 X144.998 Y92.607 E2.60591
G1 X145.795 Y93.515 E2.65011
G1 X146.154 Y93.947 E2.67066
G1 X146.872 Y94.849 E2.71284
G1 X147.222 Y95.312 E2.73407
G1 X147.785 Y96.086 E2.76909
G1 X148.048 Y96.462 E2.78588
G1 X148.873 Y97.71 E2.84061
G1 X149.203 Y98.247 E2.86367
G1 X149.823 Y99.303 E2.90847
G1 X150.11 Y99.827 E2.93033
G1 X150.635 Y100.832 E2.97181
G1 X150.846 Y101.257 E2.98917
G1 X151.406 Y102.459 E3.03769
G1 X151.646 Y103.016 E3.05988
G1 X152.073 Y104.064 E3.10128
G1 X152.263 Y104.562 E3.12078
G1 X152.667 Y105.708 E3.16524
G1 X152.81 Y106.144 E3.18203
G1 X153.116 Y107.142 E3.22022
G1 X153.252 Y107.622 E3.23847
G1 X153.562 Y108.823 E3.28385
G1 X153.68 Y109.328 E3.30282
G1 X153.99 Y110.842 E3.35937
G1 X154.095 Y111.461 E3.38234
G1 X154.272 Y112.657 E3.42657
G1 X154.335 Y113.162 E3.44519
G1 X154.461 Y114.404 E3.49086
G1 X154.502 Y114.93 E3.51016
G1 X154.565 Y116.105 E3.55322
G1 X154.581 Y116.606 E3.57155
G1 X154.591 Y117.805 E3.61542
G1 X154.584 Y118.296 E3.63339
G1 X154.533 Y119.598 E3.68106
G1 X154.484 Y120.311 E3.70721
G1 X154.378 Y121.47 E3.74979
G1 X154.321 Y121.965 E3.76802
G1 X154.166 Y123.097 E3.80982
G1 X154.094 Y123.553 E3.82671
G1 X153.844 Y124.915 E3.87737
G1 X153.721 Y125.488 E3.89881
G1 X153.471 Y126.552 E3.9388
G1 X153.287 Y127.247 E3.9651
G1 X152.967 Y128.354 E4.00726
G1 X152.819 Y128.827 E4.0254
G1 X152.435 Y129.963 E4.06927
G1 X152.27 Y130.42 E4.08704
G1 X151.799 Y131.624 E4.13435
G1 X151.559 Y132.189 E4.1568
G1 X151.062 Y133.29 E4.201
G1 X150.868 Y133.696 E4.21746
G1 X150.312 Y134.8 E4.26269
G1 X150.005 Y135.368 E4.28631
G1 X149.443 Y136.357 E4.32793
G1 X149.155 Y136.833 E4.34828
G1 X148.508 Y137.856 E4.39257
G1 X148.142 Y138.399 E4.41652
G1 X147.479 Y139.34 E4.45864
G1 X147.199 Y139.72 E4.47591
G1 X146.424 Y140.722 E4.52225
G1 X146.02 Y141.213 E4.54552
G1 X145.231 Y142.131 E4.5898
G1 X144.93 Y142.467 E4.60631
G1 X144.075 Y143.378 E4.65202
G1 X143.603 Y143.851 E4.67646
G1 X142.722 Y144.695 E4.7211
G1 X142.393 Y144.998 E4.73746
G1 X141.485 Y145.795 E4.78167
G1 X141.053 Y146.154 E4.80222
G1 X140.151 Y146.872 E4.8444
G1 X139.688 Y147.222 E4.86563
G1 X138.914 Y147.785 E4.90065
G1 X138.531 Y148.052 E4.91773
G1 X137.295 Y148.869 E4.97194
G1 X136.753 Y149.203 E4.99523
G1 X135.697 Y149.823 E5.04003
G1 X135.173 Y150.11 E5.06189
G1 X134.168 Y150.635 E5.10337
G1 X133.746 Y150.845 E5.12062
G1 X132.54 Y151.407 E5.1693
G1 X131.984 Y151.646 E5.19144
G1 X130.936 Y152.073 E5.23284
G1 X130.438 Y152.263 E5.25234
G1 X129.292 Y152.667 E5.2968
G1 X128.854 Y152.811 E5.31367
G1 X127.852 Y153.118 E5.35201
G1 X127.374 Y153.253 E5.37018
G1 X126.177 Y153.562 E5.41541
G1 X125.667 Y153.681 E5.43457
G1 X124.132 Y153.995 E5.49189
G1 X123.538 Y154.095 E5.51393
G1 X122.328 Y154.274 E5.55868
G1 X121.809 Y154.339 E5.57782
G1 X120.56 Y154.464 E5.62374
G1 X120.097 Y154.5 E5.64073
G1 X118.925 Y154.565 E5.68368
G1 X118.202 Y154.584 E5.71014
G1 X117.011 Y154.588 E5.75371
G1 X116.547 Y154.58 E5.77069
G1 X115.364 Y154.531 E5.81401
G1 X114.688 Y154.484 E5.8388
G1 X113.53 Y154.378 E5.88135
G1 X113.037 Y154.322 E5.8995
G1 X111.904 Y154.167 E5.94134
G1 X111.445 Y154.094 E5.95834
G1 X110.092 Y153.846 E6.00867
G1 X109.508 Y153.72 E6.03052
G1 X108.429 Y153.466 E6.07108
G1 X107.753 Y153.287 E6.09666
G1 X106.646 Y152.967 E6.13882
G1 X106.173 Y152.819 E6.15696
G1 X105.037 Y152.435 E6.20083
G1 X104.574 Y152.267 E6.21885
G1 X103.388 Y151.804 E6.26543
G1 X102.811 Y151.559 E6.28836
G1 X101.71 Y151.062 E6.33256
G1 X101.304 Y150.868 E6.34902
G1 X100.2 Y150.312 E6.39425
G1 X99.63 Y150.003 E6.41797
G1 X98.87 Y149.574 E6.4499
G1 X98.462 Y149.333 E6.46723
G1 X97.136 Y148.502 E6.52449
G1 X96.592 Y148.136 E6.54847
G1 X95.655 Y147.475 E6.59043
G1 X95.251 Y147.176 E6.60882
G1 X94.253 Y146.402 E6.65502
G1 X93.868 Y146.09 E6.67315
G1 X93.116 Y145.451 E6.70926
G1 X92.763 Y145.137 E6.72654
G1 X91.636 Y144.087 E6.7829
G1 X91.149 Y143.603 E6.80802
G1 X90.304 Y142.721 E6.8527
G1 X89.958 Y142.343 E6.87145
G1 X89.18 Y141.452 E6.91473
G1 X88.886 Y141.101 E6.93148
G1 X88.127 Y140.15 E6.976
G1 X87.742 Y139.639 E6.99941
G1 X87.035 Y138.656 E7.04371
G1 X86.777 Y138.283 E7.0603
G1 X86.107 Y137.257 E7.10513
G1 X85.794 Y136.748 E7.12699
G1 X85.314 Y135.934 E7.16157
G1 X85.086 Y135.529 E7.17857
G1 X84.359 Y134.16 E7.23528
G1 X84.085 Y133.601 E7.25806
G1 X83.578 Y132.503 E7.3023
G1 X83.395 Y132.082 E7.3191
G1 X82.929 Y130.945 E7.36406
G1 X82.686 Y130.295 E7.38944
G1 X82.295 Y129.176 E7.43281
G1 X82.143 Y128.708 E7.45081
G1 X81.806 Y127.586 E7.49368
G1 X81.676 Y127.115 E7.51155
G1 X81.356 Y125.836 E7.55979
G1 X81.227 Y125.244 E7.58196
G1 X81.004 Y124.113 E7.62413
G1 X80.917 Y123.614 E7.64266
G1 X80.732 Y122.382 E7.68824
G1 X80.664 Y121.838 E7.7083
G1 X80.536 Y120.558 E7.75536
G1 X80.5 Y120.101 E7.77214
G1 X80.433 Y118.891 E7.81647
G1 X80.416 Y118.253 E7.83982
G1 X80.41 Y117.16 E7.87981
G1 X80.417 Y116.704 E7.8965
G1 X80.467 Y115.404 E7.94409
G1 X80.516 Y114.691 E7.97024
G1 X80.622 Y113.531 E8.01286
G1 X80.679 Y113.035 E8.03112
G1 X80.834 Y111.903 E8.07293
G1 X80.906 Y111.448 E8.08978
G1 X81.151 Y110.107 E8.13965
G1 X81.282 Y109.492 E8.16266
G1 X81.534 Y108.429 E8.20263
G1 X81.713 Y107.753 E8.22821
G1 X82.033 Y106.646 E8.27037
G1 X82.182 Y106.168 E8.28869
G1 X82.566 Y105.034 E8.33249
G1 X82.731 Y104.58 E8.35017
G1 X83.199 Y103.383 E8.39719
G1 X83.439 Y102.818 E8.41965
G1 X83.935 Y101.717 E8.46383
G1 X84.134 Y101.298 E8.4808
G1 X84.694 Y100.19 E8.52622
G1 F2700 E3.52622
G0 F2100 X82.012 Y110.286
G1 F2700 E8.52622
G1 F1200 X82.139 Y109.693 E8.54841
G1 X82.386 Y108.648 E8.58769
G1 X82.558 Y107.997 E8.61233
G1 X82.878 Y106.89 E8.65449
G1 X83.016 Y106.45 E8.67136
G1 X83.4 Y105.316 E8.71516
G1 X83.552 Y104.898 E8.73143
G1 X84.012 Y103.72 E8.7777
G1 X84.241 Y103.179 E8.79919
G1 X84.737 Y102.078 E8.84337
G1 X84.92 Y101.693 E8.85897
G1 X85.47 Y100.605 E8.90357
G1 X85.763 Y100.062 E8.92615
G1 X86.321 Y99.081 E8.96744
G1 X86.592 Y98.633 E8.98659
G1 X87.227 Y97.629 E9.03006
G1 X87.587 Y97.093 E9.05368
G1 X88.265 Y96.133 E9.09668
G1 X88.518 Y95.79 E9.11227
G1 X89.261 Y94.831 E9.15666
G1 X89.647 Y94.36 E9.17894
G1 X90.436 Y93.442 E9.22322
G1 X90.714 Y93.133 E9.23843
G1 X91.553 Y92.238 E9.28331
G1 X92.006 Y91.784 E9.30678
G1 X92.887 Y90.94 E9.35141
G1 X93.234 Y90.622 E9.36863
G1 X94.126 Y89.843 E9.41196
G1 X94.45 Y89.572 E9.42742
G1 X95.389 Y88.822 E9.47138
G1 X95.874 Y88.457 E9.49359
G1 X96.857 Y87.75 E9.53789
G1 X97.204 Y87.511 E9.55331
G1 X98.172 Y86.877 E9.59564
G1 X98.694 Y86.555 E9.61808
G1 X99.512 Y86.072 E9.65284
G1 X99.892 Y85.858 E9.66879
G1 X100.987 Y85.273 E9.71421
G1 X101.427 Y85.051 E9.73224
G1 X102.554 Y84.517 E9.77787
G1 X102.981 Y84.327 E9.79497
G1 X104.419 Y83.731 E9.85192
G1 X104.974 Y83.524 E9.87359
G1 X106.01 Y83.16 E9.91377
G1 X106.404 Y83.03 E9.92895
G1 X107.406 Y82.723 E9.96729
G1 X107.845 Y82.599 E9.98398
G1 X109.042 Y82.29 E10.02921
G1 X109.513 Y82.181 E10.04689
G1 X110.713 Y81.931 E10.09174
G1 X111.198 Y81.842 E10.10978
G1 X112.454 Y81.643 E10.15631
G1 X112.938 Y81.578 E10.17417
G1 X114.425 Y81.419 E10.22889
G1 X115.008 Y81.375 E10.25028
G1 X116.208 Y81.312 E10.29424
G1 X116.664 Y81.298 E10.31093
G1 X117.819 Y81.289 E10.35319
G1 X118.263 Y81.295 E10.36944
G1 X119.564 Y81.346 E10.41707
G1 X120.231 Y81.392 E10.44153
G1 X121.39 Y81.498 E10.48411
G1 X121.845 Y81.55 E10.50087
G1 X122.977 Y81.705 E10.54267
G1 X123.398 Y81.772 E10.55827
G1 X124.701 Y82.01 E10.60673
G1 X125.354 Y82.15 E10.63116
G1 X126.487 Y82.421 E10.67378
G1 X126.895 Y82.528 E10.68921
G1 X128.029 Y82.852 E10.73236
G1 X128.594 Y83.03 E10.75403
G1 X129.685 Y83.4 E10.79618
G1 X130.098 Y83.55 E10.81226
G1 X131.267 Y84.006 E10.85817
G1 X131.825 Y84.242 E10.88033
G1 X132.925 Y84.738 E10.92448
G1 X133.307 Y84.92 E10.93996
G1 X134.395 Y85.47 E10.98456
G1 X134.937 Y85.763 E11.0071
G1 X135.908 Y86.314 E11.04795
G1 X136.367 Y86.592 E11.06758
G1 X137.364 Y87.222 E11.11073
G1 X137.901 Y87.583 E11.13441
G1 X138.838 Y88.244 E11.17636
G1 X139.183 Y88.498 E11.19203
G1 X140.169 Y89.261 E11.23765
G1 X140.64 Y89.647 E11.25993
G1 X141.558 Y90.436 E11.30421
G1 X141.867 Y90.713 E11.3194
G1 X142.761 Y91.552 E11.36425
G1 X143.171 Y91.959 E11.38539
G1 X143.906 Y92.72 E11.4241
G1 X144.338 Y93.189 E11.44742
G1 X145.121 Y94.08 E11.49082
G1 X145.467 Y94.497 E11.51065
G1 X146.173 Y95.383 E11.55209
G1 X146.511 Y95.829 E11.57257
G1 X147.074 Y96.603 E11.60758
G1 X147.315 Y96.95 E11.62304
G1 X148.126 Y98.176 E11.67682
G1 X148.446 Y98.694 E11.6991
G1 X149.054 Y99.731 E11.74308
G1 X149.33 Y100.235 E11.7641
G1 X149.855 Y101.24 E11.80558
G1 X150.049 Y101.631 E11.82155
G1 X150.601 Y102.813 E11.86928
G1 X150.832 Y103.348 E11.8906
G1 X151.259 Y104.396 E11.932
G1 X151.433 Y104.854 E11.94993
G1 X151.837 Y106 E11.99439
G1 X151.969 Y106.402 E12.00987
G1 X152.275 Y107.4 E12.04806
G1 X152.4 Y107.842 E12.06486
G1 X152.71 Y109.043 E12.11024
G1 X152.818 Y109.508 E12.12771
G1 X153.124 Y110.995 E12.18325
G1 X153.225 Y111.59 E12.20533
G1 X153.402 Y112.786 E12.24957
G1 X153.46 Y113.25 E12.26667
G1 X153.586 Y114.492 E12.31235
G1 X153.623 Y114.977 E12.33014
G1 X153.686 Y116.152 E12.37319
G1 X153.701 Y116.614 E12.3901
G1 X153.711 Y117.813 E12.43397
G1 X153.704 Y118.264 E12.45048
G1 X153.655 Y119.543 E12.4973
G1 X153.608 Y120.231 E12.52253
G1 X153.502 Y121.39 E12.56511
G1 X153.45 Y121.845 E12.58187
G1 X153.295 Y122.977 E12.62367
G1 X153.228 Y123.398 E12.63927
G1 X152.983 Y124.734 E12.68896
G1 X152.864 Y125.289 E12.70973
G1 X152.618 Y126.334 E12.74901
G1 X152.442 Y127.003 E12.77432
G1 X152.122 Y128.11 E12.81647
G1 X151.986 Y128.545 E12.83315
G1 X151.602 Y129.681 E12.87702
G1 X151.449 Y130.102 E12.89341
G1 X150.987 Y131.286 E12.93991
G1 X150.757 Y131.827 E12.96142
G1 X150.26 Y132.928 E13.00561
G1 X150.082 Y133.302 E13.02077
G1 X149.535 Y134.385 E13.06515
G1 X149.238 Y134.936 E13.08806
G1 X148.687 Y135.905 E13.12884
G1 X148.41 Y136.365 E13.14848
G1 X147.774 Y137.369 E13.19197
G1 X147.423 Y137.892 E13.21501
G1 X146.76 Y138.833 E13.25713
G1 X146.502 Y139.183 E13.27303
G1 X145.739 Y140.169 E13.31865
G1 X145.353 Y140.64 E13.34093
G1 X144.564 Y141.558 E13.38521
G1 X144.287 Y141.867 E13.4004
G1 X143.448 Y142.761 E13.44525
G1 X142.994 Y143.216 E13.46877
G1 X142.113 Y144.06 E13.5134
G1 X141.811 Y144.338 E13.52842
G1 X140.92 Y145.121 E13.57182
G1 X140.503 Y145.467 E13.59164
G1 X139.617 Y146.173 E13.63309
G1 X139.171 Y146.511 E13.65357
G1 X138.397 Y147.074 E13.68858
G1 X138.044 Y147.319 E13.7043
G1 X136.828 Y148.123 E13.75764
G1 X136.306 Y148.446 E13.78009
G1 X135.269 Y149.054 E13.82407
G1 X134.765 Y149.33 E13.8451
G1 X133.76 Y149.855 E13.88658
G1 X133.372 Y150.048 E13.90244
G1 X132.186 Y150.601 E13.95031
G1 X131.652 Y150.832 E13.9716
G1 X130.604 Y151.259 E14.013
G1 X130.146 Y151.433 E14.03093
G1 X129 Y151.837 E14.07538
G1 X128.596 Y151.97 E14.09095
G1 X127.594 Y152.277 E14.12929
G1 X127.155 Y152.401 E14.14598
G1 X125.958 Y152.71 E14.19121
G1 X125.487 Y152.819 E14.20889
G1 X123.979 Y153.128 E14.26521
G1 X123.41 Y153.225 E14.28633
G1 X122.2 Y153.404 E14.33108
G1 X121.722 Y153.463 E14.3487
G1 X120.473 Y153.588 E14.39463
G1 X120.046 Y153.622 E14.4103
G1 X118.896 Y153.685 E14.45243
G1 X118.199 Y153.704 E14.47794
G1 X117.008 Y153.708 E14.52152
G1 X116.581 Y153.7 E14.53714
G1 X115.42 Y153.653 E14.57965
G1 X114.768 Y153.607 E14.60357
G1 X113.61 Y153.501 E14.64611
G1 X113.157 Y153.45 E14.66279
G1 X112.024 Y153.295 E14.70463
G1 X111.601 Y153.228 E14.7203
G1 X110.273 Y152.984 E14.7697
G1 X109.708 Y152.863 E14.79084
G1 X108.648 Y152.614 E14.83067
G1 X107.997 Y152.442 E14.85531
G1 X106.89 Y152.122 E14.89747
G1 X106.455 Y151.986 E14.91414
G1 X105.319 Y151.602 E14.95801
G1 X104.893 Y151.447 E14.9746
G1 X103.724 Y150.991 E15.02051
G1 X103.173 Y150.757 E15.04241
G1 X102.072 Y150.26 E15.0866
G1 X101.698 Y150.082 E15.10176
G1 X100.615 Y149.535 E15.14615
G1 X100.062 Y149.237 E15.16913
G1 X99.302 Y148.808 E15.20106
G1 X98.927 Y148.586 E15.217
G1 X97.622 Y147.769 E15.27333
G1 X97.1 Y147.417 E15.29637
G1 X96.163 Y146.756 E15.33832
G1 X95.791 Y146.481 E15.35525
G1 X94.793 Y145.707 E15.40145
G1 X94.438 Y145.419 E15.41818
G1 X93.686 Y144.78 E15.45428
G1 X93.361 Y144.491 E15.47019
G1 X92.251 Y143.459 E15.52565
G1 X91.784 Y142.994 E15.54976
G1 X90.939 Y142.112 E15.59444
G1 X90.621 Y141.764 E15.61169
G1 X89.843 Y140.873 E15.65497
G1 X89.572 Y140.55 E15.67039
G1 X88.826 Y139.616 E15.71413
G1 X88.456 Y139.125 E15.73662
G1 X87.749 Y138.142 E15.78092
G1 X87.512 Y137.798 E15.7962
G1 X86.854 Y136.793 E15.84015
G1 X86.552 Y136.301 E15.86127
G1 X86.072 Y135.487 E15.89585
G1 X85.862 Y135.114 E15.91151
G1 X85.146 Y133.767 E15.96732
G1 X84.884 Y133.232 E15.98911
G1 X84.377 Y132.134 E16.03336
G1 X84.208 Y131.747 E16.04881
