;FLAVOR:Marlin
;TIME:7908
;Filament used: 4.66993m
;Layer height: 0.2
;MINX:54.946
;MINY:58.702
;MINZ:0.2
;MAXX:176.299
;MAXY:167.503
;MAXZ:26
;Generated with Cura_SteamEngine 5.0.0
M140 S60
M105
M190 S60
M104 S222
M105
M109 S222
M82 ;absolute extrusion mode
; Ender 3 Custom Start G-code
G92 E0 ; Reset Extruder
M140 S60 ; Start heating the heated bed
M190 S60 ; Wait until the heated bed reaches the desired temperature
G28 ; Auto Home
G29 A; Activate Bed Leveling
G29 L0; Loads the saved mesh in slot 0
G29  J3; 9 point autotilt

G92 E0 ; Reset extruder origin
G1 Z2.0 F3000 ; Move Z Axis up little to prevent scratching of Heat Bed
G1 X0.1 Y20 Z0.3 F5000.0 ; Move to start position
G1 X0.1 Y200.0 Z0.3 F1500.0 E15 ; Draw the first line
G1 X0.4 Y200.0 Z0.3 F5000.0 ; Move to side a little
G1 X0.4 Y20 Z0.3 F1500.0 E30 ; Draw the second line
G92 E0 ; Reset Extruder
G1 Z2.0 F3000 ; Move Z Axis up little to prevent scratching of Heat Bed
G1 X5 Y20 Z0.3 F5000.0 ; Move over to prevent blob squish

; End of Ender 3 Custom Start G-code
G92 E0
G92 E0
G1 F2700 E-5
;LAYER_COUNT:130
;LAYER:0
M107
G0 F2100 X91.017 Y79.241 Z0.2
G0 X89.462 Y81.593
;TYPE:SKIRT
G1 F2700 E0
G1 F1200 X89.913 Y80.766 E0.03446
G1 X90.433 Y79.98 E0.06894
G1 X91.017 Y79.241 E0.1034
G1 X91.67 Y78.545 E0.13832
G1 X92.364 Y77.908 E0.17279
G1 X93.109 Y77.332 E0.20724
G1 X93.901 Y76.821 E0.24172
G1 X94.733 Y76.379 E0.27619
G1 X95.6 Y76.009 E0.31068
G1 X96.494 Y75.714 E0.34512
G1 X97.253 Y75.528 E0.37371
G1 X98.227 Y75.326 E0.41011
G1 X99.282 Y75.122 E0.44942
G1 X101.784 Y74.562 E0.54322
G1 X104.169 Y73.958 E0.63324
G1 X106.604 Y73.266 E0.72585
G1 X109.019 Y72.507 E0.81847
G1 X111.375 Y71.691 E0.90969
G1 X113.718 Y70.807 E1.00131
G1 X116.065 Y69.842 E1.09415
G1 X118.361 Y68.821 E1.18608
G1 X120.632 Y67.735 E1.27818
G1 X122.86 Y66.589 E1.36985
G1 X125.056 Y65.382 E1.46153
G1 X126.981 Y64.235 E1.54351
G1 X127.35 Y64.035 E1.55886
G1 X129.238 Y62.9 E1.63946
G1 X130.182 Y62.371 E1.67905
G1 X130.874 Y62.011 E1.70759
G1 X131.365 Y61.775 E1.72752
G1 X132.325 Y61.342 E1.76605
G1 X132.726 Y61.17 E1.78201
G1 X133.779 Y60.744 E1.82357
G1 X134.421 Y60.503 E1.84866
G1 X134.965 Y60.32 E1.86966
G1 X136.189 Y59.943 E1.91652
G1 X137.093 Y59.694 E1.95082
G1 X137.479 Y59.598 E1.96538
G1 X138.418 Y59.384 E2.00061
G1 X139.586 Y59.155 E2.04416
G1 X140.435 Y59.016 E2.07563
G1 X140.92 Y58.951 E2.09353
G1 X141.737 Y58.859 E2.12361
G1 X142.275 Y58.811 E2.14338
G1 X143.502 Y58.733 E2.18836
G1 X144.246 Y58.705 E2.2156
G1 X144.794 Y58.702 E2.23565
G1 X146.449 Y58.741 E2.29621
G1 X147.236 Y58.79 E2.32506
G1 X148.504 Y58.905 E2.37164
G1 X148.931 Y58.956 E2.38738
G1 X149.468 Y59.034 E2.40723
G1 X150.543 Y59.216 E2.44712
G1 X150.985 Y59.3 E2.46358
G1 X152.364 Y59.597 E2.51519
G1 X152.864 Y59.72 E2.53403
G1 X153.36 Y59.855 E2.55284
G1 X154.202 Y60.104 E2.58496
G1 X154.651 Y60.247 E2.6022
G1 X155.372 Y60.494 E2.63008
G1 X155.903 Y60.691 E2.6508
G1 X157.221 Y61.219 E2.70275
G1 X158.029 Y61.57 E2.73498
G1 X158.506 Y61.795 E2.75428
G1 X159.47 Y62.287 E2.79387
G1 X160.419 Y62.805 E2.83343
G1 X160.788 Y63.015 E2.84896
G1 X161.631 Y63.524 E2.88499
G1 X162.105 Y63.825 E2.90553
G1 X162.556 Y64.126 E2.92537
G1 X163.583 Y64.857 E2.97149
G1 X163.989 Y65.161 E2.99005
G1 X164.41 Y65.492 E3.00964
G1 X165.254 Y66.19 E3.04971
G1 X166.01 Y66.854 E3.08652
G1 X166.934 Y67.725 E3.13298
G1 X167.554 Y68.347 E3.16511
G1 X167.873 Y68.685 E3.18212
G1 X168.413 Y69.282 E3.21157
G1 X168.745 Y69.666 E3.23014
G1 X169.375 Y70.43 E3.26637
G1 X170.089 Y71.351 E3.30901
G1 X170.683 Y72.176 E3.3462
G1 X171.195 Y72.936 E3.37973
G1 X171.439 Y73.321 E3.3964
G1 X172.264 Y74.693 E3.45497
G1 X172.726 Y75.538 E3.49021
G1 X173.102 Y76.281 E3.52067
G1 X173.328 Y76.756 E3.53992
G1 X173.776 Y77.77 E3.58048
G1 X174.325 Y79.127 E3.63403
G1 X174.474 Y79.528 E3.64969
G1 X174.645 Y80.025 E3.66891
G1 X174.947 Y80.994 E3.70605
G1 X175.27 Y82.141 E3.74965
G1 X175.536 Y83.209 E3.78991
G1 X175.698 Y83.957 E3.81791
G1 X175.799 Y84.517 E3.83873
G1 X175.986 Y85.721 E3.88331
G1 X176.046 Y86.16 E3.89952
G1 X176.19 Y87.478 E3.94803
G1 X176.241 Y88.22 E3.97524
G1 X176.297 Y89.672 E4.0284
G1 X176.299 Y90.418 E4.0557
G1 X176.282 Y91.124 E4.08153
G1 X176.248 Y91.903 E4.11006
G1 X176.209 Y92.473 E4.13096
G1 X176.129 Y93.312 E4.1618
G1 X176.081 Y93.731 E4.17723
G1 X175.865 Y95.299 E4.23514
G1 X175.755 Y95.923 E4.25832
G1 X175.609 Y96.654 E4.28559
G1 X175.505 Y97.12 E4.30306
G1 X175.302 Y97.949 E4.33429
G1 X175.153 Y98.498 E4.3551
G1 X174.751 Y99.815 E4.40548
G1 X174.404 Y100.819 E4.44434
G1 X174.151 Y101.49 E4.47058
G1 X173.984 Y101.907 E4.48701
G1 X173.513 Y103 E4.53056
G1 X173.127 Y103.824 E4.56385
G1 X172.914 Y104.253 E4.58137
G1 X172.258 Y105.495 E4.63276
G1 X171.946 Y106.032 E4.65548
G1 X171.49 Y106.776 E4.68741
G1 X171.254 Y107.145 E4.70343
G1 X170.429 Y108.367 E4.75738
G1 X169.859 Y109.144 E4.79263
G1 X169.343 Y109.791 E4.82291
G1 X168.519 Y110.773 E4.86981
G1 X168.163 Y111.177 E4.88951
G1 X167.398 Y111.996 E4.93051
G1 X165.369 Y114.103 E5.03753
G1 X163.674 Y115.973 E5.12987
G1 X162.033 Y117.89 E5.22219
G1 X160.455 Y119.842 E5.31403
G1 X158.927 Y121.846 E5.40623
G1 X157.477 Y123.863 E5.49711
G1 X156.06 Y125.957 E5.58961
G1 X154.704 Y128.087 E5.68199
G1 X153.416 Y130.245 E5.77394
G1 X152.183 Y132.448 E5.86631
G1 X151.034 Y134.646 E5.95705
G1 X149.916 Y136.942 E6.05048
G1 X148.882 Y139.222 E6.14207
G1 X147.909 Y141.547 E6.23428
G1 X147.011 Y143.87 E6.3254
G1 X145.949 Y146.894 E6.44266
G1 X145.599 Y147.769 E6.47714
G1 X145.177 Y148.611 E6.5116
G1 X144.684 Y149.414 E6.54607
G1 X144.125 Y150.173 E6.58056
G1 X143.504 Y150.881 E6.61502
G1 X142.825 Y151.534 E6.64948
G1 X142.094 Y152.128 E6.68394
G1 X141.314 Y152.657 E6.71842
G1 X140.492 Y153.118 E6.7529
G1 X139.635 Y153.508 E6.78735
G1 X138.747 Y153.823 E6.82182
G1 X137.836 Y154.062 E6.85628
G1 X136.908 Y154.223 E6.89074
G1 X136.187 Y154.293 E6.91724
G1 X133.227 Y154.521 E7.02586
G1 X130.732 Y154.788 E7.11766
G1 X128.232 Y155.128 E7.20997
G1 X125.776 Y155.533 E7.30104
G1 X123.269 Y156.019 E7.39447
G1 X120.87 Y156.553 E7.48439
G1 X118.383 Y157.185 E7.57827
G1 X115.976 Y157.867 E7.6698
G1 X113.592 Y158.617 E7.76123
G1 X111.197 Y159.444 E7.85394
G1 X108.86 Y160.328 E7.94535
G1 X106.532 Y161.283 E8.03741
G1 X104.216 Y162.312 E8.13013
G1 X101.803 Y163.469 E8.22804
G1 X99.701 Y164.505 E8.31377
G1 X98.974 Y164.839 E8.34304
G1 X97.627 Y165.396 E8.39637
G1 X96.951 Y165.654 E8.42285
G1 X96.41 Y165.839 E8.44376
G1 X95.388 Y166.16 E8.48296
G1 X94.983 Y166.279 E8.4984
G1 X94.158 Y166.504 E8.52969
G1 X93.17 Y166.742 E8.56687
G1 X92.761 Y166.83 E8.58217
G1 X91.818 Y167.013 E8.61732
G1 X90.761 Y167.185 E8.6565
G1 X89.794 Y167.308 E8.69216
G1 X88.54 Y167.424 E8.73824
G1 X87.482 Y167.484 E8.77701
G1 X86.311 Y167.503 E8.81985
G1 X85.569 Y167.494 E8.847
G1 X84.372 Y167.443 E8.89084
G1 X83.86 Y167.408 E8.90961
G1 X82.989 Y167.321 E8.94164
G1 X81.891 Y167.182 E8.98213
G1 X81.012 Y167.045 E9.01468
G1 X80.608 Y166.971 E9.0297
G1 X79.422 Y166.73 E9.07398
G1 X78.513 Y166.517 E9.10814
G1 X78.051 Y166.395 E9.12562
G1 X77.275 Y166.171 E9.15517
G1 X76.793 Y166.02 E9.17365
G1 X75.621 Y165.616 E9.21901
G1 X74.601 Y165.223 E9.259
G1 X73.612 Y164.806 E9.29827
G1 X72.829 Y164.449 E9.32975
G1 X71.647 Y163.851 E9.37822
G1 X71.245 Y163.635 E9.39491
G1 X70.556 Y163.245 E9.42388
G1 X70.137 Y162.995 E9.44173
G1 X69.066 Y162.325 E9.48795
G1 X68.47 Y161.925 E9.51421
G1 X67.411 Y161.163 E9.56194
G1 X66.92 Y160.789 E9.58452
G1 X66.219 Y160.215 E9.61767
G1 X65.311 Y159.422 E9.66178
G1 X64.453 Y158.625 E9.70462
G1 X63.982 Y158.161 E9.72881
G1 X63.25 Y157.395 E9.76757
G1 X62.905 Y157.016 E9.78633
G1 X62.359 Y156.382 E9.81694
G1 X61.811 Y155.712 E9.84861
G1 X61.549 Y155.378 E9.86414
G1 X60.721 Y154.272 E9.91468
G1 X60.4 Y153.814 E9.93515
G1 X60.142 Y153.429 E9.9521
G1 X59.672 Y152.695 E9.98399
G1 X59.395 Y152.239 E10.00351
G1 X58.792 Y151.176 E10.04822
G1 X58.429 Y150.491 E10.07659
G1 X58.233 Y150.102 E10.09252
G1 X57.835 Y149.274 E10.12613
G1 X57.436 Y148.377 E10.16205
G1 X56.983 Y147.243 E10.20673
G1 X56.825 Y146.816 E10.22338
G1 X56.543 Y146.001 E10.25494
G1 X56.403 Y145.567 E10.27162
G1 X56.075 Y144.476 E10.3133
G1 X55.836 Y143.583 E10.34712
G1 X55.608 Y142.568 E10.38518
G1 X55.45 Y141.753 E10.41556
G1 X55.379 Y141.336 E10.43103
G1 X55.219 Y140.274 E10.47033
G1 X55.162 Y139.839 E10.48638
G1 X55.047 Y138.755 E10.52626
G1 X55.008 Y138.273 E10.54395
G1 X54.979 Y137.779 E10.56205
G1 X54.946 Y136.706 E10.60133
G1 X54.946 Y135.423 E10.64827
G1 X54.976 Y134.617 E10.67778
G1 X55.026 Y133.824 E10.70685
G1 X55.06 Y133.409 E10.72208
G1 X55.156 Y132.456 E10.75713
G1 X55.205 Y132.044 E10.77231
G1 X55.364 Y130.946 E10.8129
G1 X55.476 Y130.302 E10.83681
G1 X55.564 Y129.851 E10.85362
G1 X55.726 Y129.104 E10.88159
G1 X55.877 Y128.495 E10.90454
G1 X56.329 Y126.887 E10.96566
G1 X56.661 Y125.859 E11.00518
G1 X56.959 Y125.024 E11.03762
G1 X57.188 Y124.43 E11.06091
G1 X57.372 Y123.982 E11.07863
G1 X57.758 Y123.107 E11.11362
G1 X58.209 Y122.157 E11.15209
G1 X58.48 Y121.621 E11.17406
G1 X58.709 Y121.191 E11.19189
G1 X59.388 Y119.996 E11.24217
G1 X59.677 Y119.521 E11.26252
G1 X59.929 Y119.127 E11.27963
G1 X60.558 Y118.196 E11.32073
G1 X61.229 Y117.263 E11.36278
G1 X61.572 Y116.812 E11.38351
G1 X62.015 Y116.258 E11.40946
G1 X62.707 Y115.446 E11.44849
G1 X62.953 Y115.17 E11.46202
G1 X63.782 Y114.274 E11.50668
G1 X64.178 Y113.867 E11.52746
G1 X64.963 Y113.109 E11.56738
G1 X65.38 Y112.732 E11.58795
G1 X67.977 Y110.477 E11.71378
G1 X69.821 Y108.789 E11.80524
G1 X71.623 Y107.042 E11.89707
G1 X73.403 Y105.215 E11.99039
G1 X75.104 Y103.369 E12.08223
G1 X76.745 Y101.481 E12.17375
G1 X78.325 Y99.561 E12.26472
G1 X79.893 Y97.538 E12.35837
G1 X81.363 Y95.528 E12.44947
G1 X82.778 Y93.47 E12.54085
G1 X84.159 Y91.34 E12.63372
G1 X85.469 Y89.185 E12.72599
G1 X86.694 Y87.036 E12.81649
G1 X87.879 Y84.815 E12.90859
G1 X89.462 Y81.593 E13.03993
G1 F2700 E8.03993
G0 F2100 X87.102 Y87.209
G1 F2700 E13.03993
G1 F1200 X88.257 Y85.044 E13.1297
G1 X89.857 Y81.787 E13.26247
G1 X90.3 Y80.977 E13.29624
G1 X90.811 Y80.208 E13.33002
G1 X91.387 Y79.486 E13.36382
G1 X91.981 Y78.856 E13.3955
G1 X92.662 Y78.232 E13.42929
G1 X93.394 Y77.67 E13.46305
G1 X94.172 Y77.172 E13.49685
G1 X94.99 Y76.744 E13.53062
G1 X95.842 Y76.388 E13.56441
G1 X96.721 Y76.108 E13.59816
G1 X97.343 Y75.958 E13.62157
G1 X98.31 Y75.758 E13.6577
G1 X99.395 Y75.548 E13.69813
G1 X101.848 Y74.999 E13.79009
G1 X104.29 Y74.381 E13.88225
G1 X106.727 Y73.689 E13.97494
G1 X109.177 Y72.917 E14.06892
G1 X111.524 Y72.105 E14.15978
G1 X113.871 Y71.219 E14.25156
G1 X116.242 Y70.244 E14.34536
G1 X118.548 Y69.22 E14.43767
G1 X120.84 Y68.123 E14.53064
G1 X123.062 Y66.981 E14.62204
G1 X125.263 Y65.771 E14.71393
G1 X127.206 Y64.613 E14.79668
G1 X127.559 Y64.423 E14.81135
G1 X129.464 Y63.277 E14.89269
G1 X130.394 Y62.756 E14.93169
G1 X131.075 Y62.402 E14.95977
G1 X131.546 Y62.176 E14.97888
G1 X132.506 Y61.743 E15.01741
G1 X132.891 Y61.578 E15.03274
G1 X134.282 Y61.022 E15.08754
G1 X135.094 Y60.74 E15.11899
G1 X136.318 Y60.363 E15.16585
G1 X137.206 Y60.119 E15.19954
G1 X137.576 Y60.027 E15.21349
G1 X138.515 Y59.813 E15.24873
G1 X139.668 Y59.588 E15.29171
G1 X140.504 Y59.451 E15.3227
G1 X140.969 Y59.388 E15.33987
G1 X141.786 Y59.296 E15.36995
G1 X142.303 Y59.25 E15.38894
G1 X143.53 Y59.172 E15.43392
G1 X144.259 Y59.145 E15.46061
G1 X144.785 Y59.142 E15.47985
G1 X146.06 Y59.167 E15.52651
G1 X146.852 Y59.204 E15.55552
G1 X148.109 Y59.307 E15.60166
G1 X148.879 Y59.393 E15.63001
G1 X149.394 Y59.468 E15.64905
G1 X150.469 Y59.65 E15.68894
G1 X150.894 Y59.73 E15.70476
G1 X152.258 Y60.025 E15.75582
G1 X152.758 Y60.148 E15.77465
G1 X153.235 Y60.277 E15.79273
G1 X154.077 Y60.526 E15.82486
G1 X154.509 Y60.663 E15.84144
G1 X155.23 Y60.91 E15.86932
G1 X155.739 Y61.1 E15.8892
G1 X157.057 Y61.628 E15.94115
G1 X157.85 Y61.972 E15.97277
G1 X158.308 Y62.189 E15.99131
G1 X159.259 Y62.673 E16.03035
G1 X160.208 Y63.191 E16.06991
G1 X161.142 Y63.739 E16.10953
G1 X161.869 Y64.196 E16.14094
G1 X162.302 Y64.486 E16.16001
G1 X163.319 Y65.209 E16.20566
G1 X163.725 Y65.513 E16.22422
G1 X164.13 Y65.831 E16.24306
G1 X164.974 Y66.529 E16.28313
G1 X165.718 Y67.182 E16.31935
G1 X166.631 Y68.044 E16.36529
G1 X167.24 Y68.655 E16.39685
G1 X167.547 Y68.98 E16.4132
G1 X168.087 Y69.577 E16.44266
G1 X168.405 Y69.946 E16.46048
G1 X169.276 Y71.013 E16.51087
G1 X169.967 Y71.927 E16.55279
G1 X170.509 Y72.7 E16.58733
G1 X171.063 Y73.549 E16.62442
G1 X171.693 Y74.587 E16.66884
G1 X172.122 Y75.34 E16.70055
G1 X172.333 Y75.737 E16.717
G1 X172.709 Y76.48 E16.74747
G1 X172.927 Y76.936 E16.76596
G1 X173.369 Y77.937 E16.80599
G1 X173.912 Y79.28 E16.85899
G1 X174.061 Y79.681 E16.87464
G1 X174.226 Y80.158 E16.89311
G1 X174.524 Y81.113 E16.92971
G1 X174.847 Y82.26 E16.97331
G1 X175.109 Y83.312 E17.01297
G1 X175.267 Y84.047 E17.04048
G1 X175.365 Y84.585 E17.06048
G1 X175.552 Y85.789 E17.10506
G1 X175.609 Y86.21 E17.1206
G1 X175.715 Y87.134 E17.15463
G1 X175.778 Y87.855 E17.18111
G1 X175.847 Y89.32 E17.23477
G1 X175.861 Y90.114 E17.26382
G1 X175.843 Y91.105 E17.30009
G1 X175.809 Y91.884 E17.32861
G1 X175.771 Y92.431 E17.34867
G1 X175.645 Y93.673 E17.39435
G1 X175.431 Y95.227 E17.45174
G1 X175.324 Y95.837 E17.4744
G1 X175.178 Y96.568 E17.50167
G1 X175.078 Y97.015 E17.51843
G1 X174.875 Y97.844 E17.54965
G1 X174.732 Y98.371 E17.56963
G1 X174.334 Y99.674 E17.61948
G1 X173.993 Y100.664 E17.65779
G1 X173.74 Y101.335 E17.68402
G1 X173.275 Y102.452 E17.72829
G1 X173.114 Y102.813 E17.74275
G1 X172.728 Y103.637 E17.77604
G1 X172.524 Y104.049 E17.79286
G1 X171.875 Y105.278 E17.84371
G1 X171.571 Y105.803 E17.86591
G1 X171.115 Y106.547 E17.89783
G1 X170.888 Y106.9 E17.91319
G1 X170.072 Y108.111 E17.96661
G1 X169.786 Y108.509 E17.98454
G1 X169.224 Y109.24 E18.01828
G1 X168.182 Y110.49 E18.07782
G1 X167.84 Y110.878 E18.09674
G1 X167.084 Y111.687 E18.13725
G1 X165.021 Y113.832 E18.24613
G1 X163.358 Y115.666 E18.33671
G1 X161.7 Y117.602 E18.42997
G1 X160.11 Y119.569 E18.5225
G1 X158.576 Y121.581 E18.61507
G1 X157.099 Y123.637 E18.70769
G1 X155.685 Y125.726 E18.79998
G1 X154.331 Y127.852 E18.89219
G1 X153.04 Y130.015 E18.98435
G1 X151.795 Y132.24 E19.07764
G1 X150.635 Y134.46 E19.16928
G1 X149.526 Y136.736 E19.26191
G1 X148.476 Y139.053 E19.35497
G1 X147.498 Y141.388 E19.44759
G1 X146.602 Y143.706 E19.53852
G1 X145.534 Y146.748 E19.65647
G1 X145.19 Y147.605 E19.69026
G1 X144.774 Y148.429 E19.72403
G1 X144.288 Y149.214 E19.75781
G1 X143.736 Y149.954 E19.79158
G1 X143.122 Y150.644 E19.82537
G1 X142.451 Y151.278 E19.85915
G1 X141.727 Y151.851 E19.89293
G1 X140.956 Y152.359 E19.92671
G1 X140.145 Y152.799 E19.96047
G1 X139.298 Y153.167 E19.99425
G1 X138.422 Y153.461 E20.02806
G1 X137.525 Y153.677 E20.06182
G1 X136.159 Y153.854 E20.11221
G1 X133.179 Y154.083 E20.22156
G1 X130.693 Y154.349 E20.31303
G1 X128.178 Y154.691 E20.40589
G1 X125.693 Y155.101 E20.49804
G1 X123.197 Y155.584 E20.59105
G1 X120.724 Y156.136 E20.68375
G1 X118.303 Y156.75 E20.77513
G1 X115.863 Y157.442 E20.86792
G1 X113.434 Y158.206 E20.96108
G1 X111.069 Y159.023 E21.05263
G1 X108.677 Y159.927 E21.14618
G1 X106.355 Y160.88 E21.23801
G1 X104.058 Y161.901 E21.32998
G1 X101.523 Y163.116 E21.43283
G1 X99.506 Y164.11 E21.5151
G1 X98.795 Y164.437 E21.54373
G1 X97.46 Y164.989 E21.59658
G1 X96.798 Y165.241 E21.6225
G1 X96.278 Y165.419 E21.64261
G1 X95.256 Y165.74 E21.6818
G1 X94.867 Y165.854 E21.69663
G1 X93.661 Y166.176 E21.7423
G1 X92.677 Y166.398 E21.7792
G1 X91.734 Y166.581 E21.81435
G1 X90.693 Y166.75 E21.85293
G1 X89.742 Y166.871 E21.88801
G1 X88.501 Y166.985 E21.9336
G1 X87.46 Y167.044 E21.97175
G1 X87.04 Y167.057 E21.98712
G1 X86.007 Y167.062 E22.02492
G1 X85.287 Y167.045 E22.05126
G1 X84.393 Y167.004 E22.08401
G1 X83.901 Y166.97 E22.10205
G1 X83.044 Y166.885 E22.13356
G1 X81.946 Y166.746 E22.17405
G1 X81.084 Y166.611 E22.20597
G1 X80.695 Y166.54 E22.22044
G1 X79.509 Y166.299 E22.26472
G1 X78.616 Y166.09 E22.29827
G1 X78.173 Y165.972 E22.31504
G1 X77.397 Y165.748 E22.34459
G1 X76.934 Y165.603 E22.36235
G1 X75.776 Y165.204 E22.40716
G1 X74.772 Y164.818 E22.44651
