;FLAVOR:Marlin
;TIME:3992
;Filament used: 2.63312m
;Layer height: 0.2
;MINX:84.477
;MINY:79.446
;MINZ:0.2
;MAXX:150.523
;MAXY:155.555
;MAXZ:13.6
;Generated with Cura_SteamEngine 5.0.0
M140 S60
M105
M190 S60
M104 S222
M105
M109 S222
M82 ;absolute extrusion mode
; Ender 3 Custom Start G-code
G92 E0 ; Reset Extruder
M140 S60 ; Start heating the heated bed
M190 S60 ; Wait until the heated bed reaches the desired temperature
G28 ; Auto Home
G29 A; Activate Bed Leveling
G29 L0; Loads the saved mesh in slot 0
G29  J3; 9 point autotilt

G92 E0 ; Reset extruder origin
G1 Z2.0 F3000 ; Move Z Axis up little to prevent scratching of Heat Bed
G1 X0.1 Y20 Z0.3 F5000.0 ; Move to start position
G1 X0.1 Y200.0 Z0.3 F1500.0 E15 ; Draw the first line
G1 X0.4 Y200.0 Z0.3 F5000.0 ; Move to side a little
G1 X0.4 Y20 Z0.3 F1500.0 E30 ; Draw the second line
G92 E0 ; Reset Extruder
G1 Z2.0 F3000 ; Move Z Axis up little to prevent scratching of Heat Bed
G1 X5 Y20 Z0.3 F5000.0 ; Move over to prevent blob squish

; End of Ender 3 Custom Start G-code
G92 E0
G92 E0
G1 F2700 E-5
;LAYER_COUNT:68
;LAYER:0
M107
G0 F2100 X100.121 Y83.256 Z0.2
G0 X97.662 Y88.013
;TYPE:SKIRT
G1 F2700 E0
G1 F1200 X97.861 Y87.351 E0.02529
G1 X98.17 Y86.461 E0.05976
G1 X98.554 Y85.6 E0.09425
G1 X99.009 Y84.775 E0.12872
G1 X99.532 Y83.992 E0.16317
G1 X100.121 Y83.256 E0.19766
G1 X100.769 Y82.572 E0.23213
G1 X101.473 Y81.946 E0.2666
G1 X102.227 Y81.382 E0.30105
G1 X103.027 Y80.884 E0.33552
G1 X103.866 Y80.455 E0.37
G1 X104.738 Y80.1 E0.40444
G1 X105.638 Y79.819 E0.43894
G1 X106.558 Y79.616 E0.47341
G1 X107.492 Y79.491 E0.50788
G1 X108.433 Y79.446 E0.54235
G1 X109.374 Y79.481 E0.5768
G1 X110.309 Y79.596 E0.61127
G1 X111.238 Y79.791 E0.646
G1 X111.875 Y79.959 E0.6701
G1 X141.964 Y88.587 E1.81531
G1 X142.63 Y88.788 E1.84076
G1 X143.52 Y89.099 E1.87525
G1 X144.38 Y89.483 E1.90971
G1 X145.204 Y89.939 E1.94416
G1 X145.987 Y90.464 E1.97865
G1 X146.722 Y91.053 E2.01311
G1 X147.405 Y91.702 E2.04758
G1 X148.03 Y92.406 E2.08203
G1 X148.594 Y93.161 E2.11651
G1 X149.091 Y93.962 E2.15099
G1 X149.519 Y94.801 E2.18545
G1 X149.874 Y95.674 E2.21993
G1 X150.153 Y96.574 E2.25441
G1 X150.355 Y97.494 E2.28887
G1 X150.479 Y98.428 E2.32334
G1 X150.523 Y99.369 E2.3578
G1 X150.487 Y100.31 E2.39226
G1 X150.371 Y101.245 E2.42673
G1 X150.178 Y102.16 E2.46094
G1 X150.007 Y102.812 E2.4856
G1 X137.355 Y146.93 E4.16477
G1 X137.136 Y147.657 E4.19255
G1 X136.826 Y148.546 E4.22699
G1 X136.442 Y149.407 E4.26149
G1 X135.987 Y150.231 E4.29592
G1 X135.463 Y151.014 E4.33039
G1 X134.874 Y151.75 E4.36488
G1 X134.225 Y152.433 E4.39935
G1 X133.521 Y153.059 E4.43382
G1 X132.766 Y153.623 E4.4683
G1 X131.966 Y154.12 E4.50275
G1 X131.127 Y154.548 E4.53721
G1 X130.255 Y154.904 E4.57167
G1 X129.355 Y155.184 E4.60616
G1 X128.435 Y155.386 E4.64062
G1 X127.501 Y155.51 E4.67509
G1 X126.56 Y155.555 E4.70956
G1 X125.618 Y155.519 E4.74405
G1 X124.683 Y155.404 E4.77851
G1 X123.722 Y155.2 E4.81445
G1 X123.124 Y155.041 E4.83709
G1 X93.041 Y146.414 E5.98208
G1 X92.374 Y146.213 E6.00756
G1 X91.485 Y145.903 E6.04201
G1 X90.624 Y145.519 E6.0765
G1 X89.8 Y145.063 E6.11096
G1 X89.017 Y144.539 E6.14543
G1 X88.281 Y143.95 E6.17992
G1 X87.598 Y143.302 E6.21436
G1 X86.972 Y142.597 E6.24885
G1 X86.409 Y141.842 E6.28331
G1 X85.911 Y141.042 E6.31779
G1 X85.483 Y140.203 E6.35225
G1 X85.128 Y139.33 E6.38673
G1 X84.848 Y138.431 E6.42118
G1 X84.645 Y137.511 E6.45564
G1 X84.521 Y136.577 E6.49012
G1 X84.477 Y135.636 E6.52458
G1 X84.513 Y134.694 E6.55907
G1 X84.628 Y133.759 E6.59354
G1 X84.836 Y132.783 E6.63005
G1 X85.015 Y132.111 E6.65549
G1 X97.662 Y88.013 E8.33391
G0 F2100 X98.083 Y88.139
G1 F1200 X98.282 Y87.477 E8.3592
G1 X98.586 Y86.605 E8.39298
G1 X98.964 Y85.763 E8.42675
G1 X99.414 Y84.957 E8.46052
G1 X99.931 Y84.192 E8.4943
G1 X100.513 Y83.475 E8.52809
G1 X101.155 Y82.812 E8.56185
G1 X101.852 Y82.206 E8.59565
G1 X102.598 Y81.663 E8.6294
G1 X103.389 Y81.186 E8.6632
G1 X104.218 Y80.78 E8.69697
G1 X105.079 Y80.447 E8.73074
G1 X105.966 Y80.189 E8.76454
G1 X106.872 Y80.01 E8.79833
G1 X107.789 Y79.909 E8.83208
G1 X108.712 Y79.888 E8.86586
G1 X109.634 Y79.947 E8.89966
G1 X110.546 Y80.086 E8.93341
G1 X111.129 Y80.217 E8.95527
G1 X111.754 Y80.382 E8.97892
G1 X141.837 Y89.009 E10.12391
G1 X142.503 Y89.21 E10.14936
G1 X143.374 Y89.514 E10.18311
G1 X144.216 Y89.893 E10.21689
G1 X145.022 Y90.344 E10.25069
G1 X145.786 Y90.862 E10.28446
G1 X146.502 Y91.445 E10.31824
G1 X147.165 Y92.088 E10.35203
G1 X147.77 Y92.785 E10.38579
G1 X148.313 Y93.532 E10.41958
G1 X148.788 Y94.323 E10.45334
G1 X149.194 Y95.153 E10.48714
G1 X149.526 Y96.014 E10.52091
G1 X149.782 Y96.901 E10.55468
G1 X149.961 Y97.807 E10.58847
G1 X150.061 Y98.725 E10.62225
G1 X150.08 Y99.648 E10.65603
G1 X150.02 Y100.569 E10.6898
G1 X149.881 Y101.482 E10.72359
G1 X149.752 Y102.051 E10.74493
G1 X149.584 Y102.69 E10.7691
G1 X136.934 Y146.803 E12.44808
G1 X136.715 Y147.53 E12.47586
G1 X136.411 Y148.401 E12.50961
G1 X136.032 Y149.243 E12.54339
G1 X135.582 Y150.05 E12.5772
G1 X135.064 Y150.814 E12.61097
G1 X134.482 Y151.53 E12.64472
G1 X133.839 Y152.194 E12.67854
G1 X133.142 Y152.799 E12.71231
G1 X132.395 Y153.342 E12.7461
G1 X131.604 Y153.818 E12.77987
G1 X130.775 Y154.224 E12.81364
G1 X129.914 Y154.556 E12.8474
G1 X129.027 Y154.813 E12.88119
G1 X128.121 Y154.992 E12.91498
G1 X127.204 Y155.092 E12.94873
G1 X126.281 Y155.113 E12.98251
G1 X125.359 Y155.053 E13.01631
G1 X124.446 Y154.914 E13.0501
G1 X123.833 Y154.774 E13.0731
G1 X123.246 Y154.618 E13.09532
G1 X93.168 Y145.993 E14.24011
G1 X92.501 Y145.792 E14.2656
G1 X91.63 Y145.487 E14.29936
G1 X90.788 Y145.109 E14.33313
G1 X89.982 Y144.658 E14.36692
G1 X89.217 Y144.14 E14.40072
G1 X88.501 Y143.558 E14.43448
G1 X87.838 Y142.916 E14.46824
G1 X87.232 Y142.218 E14.50206
G1 X86.69 Y141.472 E14.5358
G1 X86.214 Y140.68 E14.56961
G1 X85.808 Y139.851 E14.60338
G1 X85.475 Y138.99 E14.63715
G1 X85.219 Y138.103 E14.67093
G1 X85.04 Y137.197 E14.70472
G1 X84.94 Y136.279 E14.7385
G1 X84.919 Y135.356 E14.77228
G1 X84.979 Y134.435 E14.80605
G1 X85.118 Y133.522 E14.83984
G1 X85.262 Y132.894 E14.86341
G1 X85.438 Y132.233 E14.88843
G1 X98.083 Y88.139 E16.56669
G0 F2100 X98.505 Y88.266
G1 F1200 X98.704 Y87.604 E16.59198
G1 X99.002 Y86.751 E16.62504
G1 X99.374 Y85.927 E16.65811
G1 X99.818 Y85.139 E16.6912
G1 X100.33 Y84.394 E16.72428
G1 X100.906 Y83.697 E16.75736
G1 X101.54 Y83.053 E16.79042
G1 X102.23 Y82.469 E16.8235
G1 X102.968 Y81.947 E16.85657
G1 X103.749 Y81.492 E16.88964
G1 X104.568 Y81.109 E16.92271
G1 X105.417 Y80.799 E16.95578
G1 X106.291 Y80.566 E16.98888
G1 X107.181 Y80.41 E17.02193
G1 X108.082 Y80.334 E17.05501
G1 X108.986 Y80.338 E17.08809
G1 X109.886 Y80.422 E17.12116
G1 X111.02 Y80.644 E17.16344
G1 X111.633 Y80.805 E17.18662
G1 X141.71 Y89.43 E18.33138
G1 X142.376 Y89.631 E18.35683
G1 X143.229 Y89.93 E18.3899
G1 X144.052 Y90.304 E18.42297
G1 X144.839 Y90.748 E18.45603
G1 X145.584 Y91.261 E18.48913
G1 X146.28 Y91.837 E18.52218
G1 X146.923 Y92.473 E18.55527
G1 X147.507 Y93.163 E18.58834
G1 X148.028 Y93.901 E18.62139
G1 X148.482 Y94.683 E18.65447
G1 X148.864 Y95.502 E18.68754
G1 X149.173 Y96.352 E18.72063
G1 X149.406 Y97.226 E18.75372
G1 X149.56 Y98.116 E18.78676
G1 X149.635 Y99.017 E18.81984
G1 X149.63 Y99.921 E18.85292
G1 X149.546 Y100.821 E18.88599
G1 X149.326 Y101.942 E18.92778
G1 X149.161 Y102.569 E18.9515
G1 X136.513 Y146.676 E20.63025
G1 X136.294 Y147.403 E20.65802
G1 X135.995 Y148.256 E20.69109
G1 X135.622 Y149.079 E20.72415
G1 X135.178 Y149.867 E20.75724
G1 X134.665 Y150.612 E20.79034
G1 X134.089 Y151.308 E20.82339
G1 X133.454 Y151.952 E20.85648
G1 X132.765 Y152.536 E20.88952
G1 X132.026 Y153.057 E20.9226
G1 X131.244 Y153.511 E20.95569
G1 X130.425 Y153.894 E20.98877
G1 X129.576 Y154.204 E21.02183
G1 X128.703 Y154.437 E21.05489
G1 X127.812 Y154.591 E21.08797
G1 X126.911 Y154.667 E21.12105
G1 X126.007 Y154.663 E21.15413
G1 X125.107 Y154.579 E21.1872
G1 X123.943 Y154.348 E21.23062
G1 X123.367 Y154.195 E21.25242
G1 X93.295 Y145.571 E22.39699
G1 X92.628 Y145.37 E22.42247
G1 X91.775 Y145.071 E22.45554
G1 X90.952 Y144.698 E22.4886
G1 X90.164 Y144.254 E22.52169
G1 X89.42 Y143.742 E22.55474
G1 X88.723 Y143.166 E22.58782
G1 X88.08 Y142.53 E22.62091
G1 X87.495 Y141.841 E22.65397
G1 X86.974 Y141.102 E22.68706
G1 X86.52 Y140.32 E22.72014
G1 X86.137 Y139.502 E22.75318
G1 X85.828 Y138.652 E22.78627
G1 X85.595 Y137.779 E22.81933
G1 X85.44 Y136.888 E22.85242
G1 X85.365 Y135.987 E22.8855
G1 X85.369 Y135.083 E22.91857
G1 X85.454 Y134.183 E22.95164
G1 X85.688 Y133.005 E22.99559
G1 X85.861 Y132.354 E23.02023
G1 X98.505 Y88.266 E24.69826
G1 F2700 E19.69826
;MESH:multisocket v3.stl
G0 F2100 X130.41 Y103.64
G0 X131.486 Y104.816
G0 X132.483 Y105.433
G1 F2700 E24.69826
G0 F2100 X132.561 Y105.052
;TYPE:WALL-OUTER
G1 F1200 X132.129 Y104.867 E24.71546
G1 X131.723 Y104.581 E24.73363
G1 X131.389 Y104.223 E24.75154
G1 X131.148 Y103.815 E24.76888
G1 X131.019 Y103.439 E24.78342
G1 X130.932 Y102.883 E24.80401
G1 X130.976 Y102.389 E24.82215
G1 X131.122 Y101.916 E24.84026
G1 X131.352 Y101.506 E24.85746
G1 X131.675 Y101.136 E24.87543
G1 X132.053 Y100.85 E24.89278
G1 X132.5 Y100.643 E24.9108
G1 X132.985 Y100.533 E24.92899
G1 X133.451 Y100.528 E24.94604
G1 X133.962 Y100.629 E24.9651
G1 X134.372 Y100.806 E24.98144
G1 X134.777 Y101.093 E24.9996
G1 X135.111 Y101.451 E25.01751
G1 X135.287 Y101.746 E25.03008
G1 X135.513 Y102.329 E25.05296
G1 X135.568 Y102.791 E25.06998
G1 X135.524 Y103.285 E25.08812
G1 X135.378 Y103.757 E25.1062
G1 X135.149 Y104.168 E25.12341
G1 X134.825 Y104.538 E25.14141
G1 X134.448 Y104.824 E25.15872
G1 X134 Y105.031 E25.17677
G1 X133.515 Y105.141 E25.19497
G1 X133.048 Y105.146 E25.21206
G1 X132.561 Y105.052 E25.2302
G0 F2100 X132.473 Y105.483
;TYPE:WALL-INNER
G1 F1200 X131.951 Y105.269 E25.25084
G1 X131.467 Y104.939 E25.27228
G1 X131.064 Y104.52 E25.29354
G1 X130.767 Y104.035 E25.31435
G1 X130.601 Y103.577 E25.33217
G1 X130.54 Y103.349 E25.34081
G1 X130.494 Y102.931 E25.35619
G1 X130.538 Y102.346 E25.37766
G1 X130.703 Y101.782 E25.39916
G1 X130.97 Y101.287 E25.41973
G1 X131.347 Y100.843 E25.44104
G1 X131.791 Y100.496 E25.46166
G1 X132.319 Y100.242 E25.4831
G1 X132.892 Y100.103 E25.50467
G1 X133.45 Y100.088 E25.52509
G1 X134.052 Y100.198 E25.54748
G1 X134.551 Y100.404 E25.56723
G1 X135.035 Y100.736 E25.58871
G1 X135.435 Y101.154 E25.60987
G1 X135.668 Y101.526 E25.62593
G1 X135.789 Y101.76 E25.63557
G1 X135.931 Y102.191 E25.65217
G1 X136.006 Y102.743 E25.67255
G1 X135.962 Y103.328 E25.69402
G1 X135.797 Y103.891 E25.71548
G1 X135.531 Y104.386 E25.73604
G1 X135.153 Y104.831 E25.7574
G1 X134.711 Y105.177 E25.77794
G1 X134.18 Y105.433 E25.79951
G1 X133.608 Y105.571 E25.82103
G1 X133.049 Y105.586 E25.84149
G1 X132.473 Y105.483 E25.8629
G1 F2700 E20.8629
G0 F2100 X132.873 Y105.77
G0 X136.857 Y106.912
G0 X126.117 Y143.748
G1 F2700 E25.8629
G0 F2100 X126.363 Y144.192
;TYPE:WALL-OUTER
G1 F1200 X139.161 Y99.561 E27.56158
G1 X134.098 Y98.11 E27.75428
G1 X108.637 Y90.808 E28.72335
G1 X95.839 Y135.439 E30.42203
G1 X100.909 Y136.892 E30.61499
G1 X126.363 Y144.192 E31.5838
G0 F2100 X126.061 Y143.648
;TYPE:WALL-INNER
G1 F1200 X137.451 Y103.926 E33.09564
G1 X137.536 Y103.638 E33.10662
G1 X137.748 Y102.891 E33.13503
G1 X138.617 Y99.863 E33.25029
G1 X134.729 Y98.749 E33.39826
G1 X133.976 Y98.533 E33.42692
G1 X132.955 Y98.239 E33.46579
G1 X108.939 Y91.352 E34.37986
G1 X96.383 Y135.137 E36.04635
G1 X100.295 Y136.258 E36.19523
G1 X101.031 Y136.469 E36.22324
G1 X101.32 Y136.553 E36.23425
G1 X126.061 Y143.648 E37.17592
G1 F2700 E32.17592
G0 F2100 X101.014 Y136.727
G0 X101.348 Y135.091
G0 X101.548 Y134.862
G1 F2700 E37.17592
G0 F2100 X101.548 Y134.472
;TYPE:WALL-OUTER
G1 F1200 X101.061 Y134.378 E37.19406
G1 X100.629 Y134.193 E37.21126
G1 X100.223 Y133.907 E37.22943
G1 X99.889 Y133.549 E37.24734
G1 X99.714 Y133.256 E37.25983
G1 X99.488 Y132.672 E37.28274
G1 X99.478 Y132.627 E37.28442
G1 X99.432 Y132.209 E37.29981
G1 X99.479 Y131.693 E37.31876
G1 X99.623 Y131.239 E37.33619
G1 X99.852 Y130.832 E37.35328
G1 X100.175 Y130.462 E37.37125
G1 X100.553 Y130.176 E37.38859
G1 X101 Y129.969 E37.40661
G1 X101.485 Y129.859 E37.4248
G1 X101.952 Y129.854 E37.44189
G1 X102.439 Y129.948 E37.46004
G1 X102.871 Y130.133 E37.47723
G1 X103.277 Y130.419 E37.4954
G1 X103.611 Y130.777 E37.51331
G1 X103.852 Y131.183 E37.53059
G1 X103.978 Y131.553 E37.54489
G1 X104.068 Y132.117 E37.56578
G1 X104.024 Y132.611 E37.58393
G1 X103.878 Y133.083 E37.602
G1 X103.649 Y133.494 E37.61922
G1 X103.325 Y133.864 E37.63721
G1 X102.948 Y134.15 E37.65452
G1 X102.5 Y134.357 E37.67258
G1 X102.015 Y134.466 E37.69077
G1 X101.548 Y134.472 E37.70785
G0 F2100 X101.549 Y134.912
;TYPE:WALL-INNER
G1 F1200 X100.973 Y134.809 E37.72926
G1 X100.451 Y134.595 E37.7499
G1 X99.967 Y134.265 E37.77133
G1 X99.565 Y133.846 E37.79258
G1 X99.333 Y133.476 E37.80856
G1 X99.212 Y133.239 E37.81829
G1 X99.07 Y132.81 E37.83482
G1 X99.04 Y132.675 E37.83988
G1 X98.994 Y132.257 E37.85527
G1 X99.041 Y131.649 E37.87758
G1 X99.205 Y131.101 E37.89851
G1 X99.47 Y130.612 E37.91886
G1 X99.847 Y130.169 E37.94014
G1 X100.291 Y129.822 E37.96076
G1 X100.819 Y129.568 E37.98219
G1 X101.392 Y129.429 E38.00376
G1 X101.951 Y129.414 E38.02422
G1 X102.527 Y129.517 E38.04563
G1 X103.049 Y129.731 E38.06627
G1 X103.533 Y130.061 E38.0877
G1 X103.936 Y130.48 E38.10897
G1 X104.233 Y130.963 E38.12972
G1 X104.396 Y131.415 E38.1473
G1 X104.46 Y131.651 E38.15624
G1 X104.506 Y132.069 E38.17163
G1 X104.462 Y132.654 E38.19309
G1 X104.297 Y133.218 E38.21459
G1 X104.031 Y133.712 E38.23512
G1 X103.653 Y134.157 E38.25648
G1 X103.211 Y134.503 E38.27702
G1 X102.68 Y134.759 E38.29858
G1 X102.108 Y134.896 E38.3201
G1 X101.549 Y134.912 E38.34056
G1 F2700 E33.34056
G0 F2100 X100.655 Y134.554
G0 X99.305 Y133.831
G0 X98.204 Y134.174
;TYPE:SKIN
G1 F2700 E38.34056
G1 F783.4 X98.161 Y134.246 E38.34526
G1 X98.078 Y134.246 E38.34991
G1 X98.036 Y134.174 E38.35459
G1 X98.079 Y134.102 E38.35929
G1 X98.161 Y134.102 E38.36388
G1 F2700 E33.36388
G0 F2100 X100.457 Y132.773
G0 X102.907 Y131.318
G0 X116.364 Y121.433
G1 F2700 E38.36388
G1 F1106.9 X116.815 Y119.863 E38.42867
G1 F1109.2 X117.267 Y118.293 E38.49333
G1 X117.718 Y116.722 E38.55803
G1 F1111.6 X118.17 Y115.152 E38.62255
G1 F1113.9 X118.622 Y113.581 E38.68698
G1 F2700 E33.68698
G0 F2100 X132.093 Y103.682
G0 X134.544 Y102.229
G0 X136.965 Y100.827
G1 F2700 E38.68698
G1 F776.5 X136.922 Y100.9 E38.69177
G1 X136.838 Y100.9 E38.69652
G1 X136.795 Y100.827 E38.70131
G1 X136.838 Y100.754 E38.7061
G1 X136.922 Y100.754 E38.71085
G1 F2700 E33.71085
G0 F2100 X138.475 Y101.198
G0 X126.055 Y143.229
G1 F2700 E38.71085
G0 F2100 X125.786 Y143.152
G1 F1200 X101.811 Y136.275 E39.62338
G1 F1079.8 X101.542 Y136.147 E39.63549
G1 F899.5 X101.273 Y136.019 E39.65003
G1 F831.5 X101.222 Y136.008 E39.65279
G1 F842.1 X100.879 Y135.914 E39.67133
G1 F855.8 X100.535 Y135.819 E39.68964
G1 F859.9 X100.408 Y135.781 E39.69641
G1 F834.1 X100.028 Y135.654 E39.71749
G1 F970.6 X99.618 Y135.645 E39.73604
G1 F1200 X96.882 Y134.861 E39.84017
G1 X97.178 Y133.827 E39.87952
G1 X97.666 Y132.125 E39.9443
G1 F1121 X97.724 Y132.034 E39.94853
G1 F916.7 X97.877 Y131.772 E39.96306
G1 F812.3 X98.512 Y131.904 E39.99811
G1 F968.8 X98.603 Y132.221 E40.01306
G1 F1200 X98.649 Y132.756 E40.0327
G1 X98.829 Y133.355 E40.05559
G1 X98.842 Y133.389 E40.05692
G1 X98.985 Y133.676 E40.06865
G1 X99.156 Y133.963 E40.08087
G1 X99.56 Y134.436 E40.10363
G1 X99.594 Y134.469 E40.10536
G1 X99.79 Y134.618 E40.11437
G1 X99.269 Y134.765 E40.13418
G1 X99.224 Y134.72 E40.13651
G1 X98.82 Y134.248 E40.15924
G1 X98.604 Y133.897 E40.17432
G1 X98.418 Y133.512 E40.18996
G1 X98.407 Y133.481 E40.19116
G1 X98.22 Y132.86 E40.21489
G1 X98.168 Y132.328 E40.23445
G1 X98.114 Y132.263 E40.23754
G1 X97.956 Y132.718 E40.25516
G1 X97.429 Y134.557 E40.32515
G1 X99.689 Y135.205 E40.41117
G1 X99.753 Y135.192 E40.41356
G1 F1073.2 X100.006 Y135.121 E40.42431
G1 F885.9 X100.259 Y135.049 E40.43734
G1 F836.8 X100.676 Y135.224 E40.46107
G1 F855.8 X100.99 Y135.302 E40.47767
G1 F847.5 X101.304 Y135.381 E40.49444
G1 F835.4 X101.369 Y135.394 E40.49792
