;FLAVOR:Marlin
;TIME:3724
;Filament used: 2.87125m
;Layer height: 0.2
;MINX:71.7
;MINY:71.699
;MINZ:0.2
;MAXX:163.3
;MAXY:163.3
;MAXZ:2
;Generated with Cura_SteamEngine 5.0.0
M140 S60
M105
M190 S60
M104 S222
M105
M109 S222
M82 ;absolute extrusion mode
; Ender 3 Custom Start G-code
G92 E0 ; Reset Extruder
M140 S60 ; Start heating the heated bed
M190 S60 ; Wait until the heated bed reaches the desired temperature
G28 ; Auto Home
G29 A; Activate Bed Leveling
G29 L0; Loads the saved mesh in slot 0
G29  J3; 9 point autotilt

G92 E0 ; Reset extruder origin
G1 Z2.0 F3000 ; Move Z Axis up little to prevent scratching of Heat Bed
G1 X0.1 Y20 Z0.3 F5000.0 ; Move to start position
G1 X0.1 Y200.0 Z0.3 F1500.0 E15 ; Draw the first line
G1 X0.4 Y200.0 Z0.3 F5000.0 ; Move to side a little
G1 X0.4 Y20 Z0.3 F1500.0 E30 ; Draw the second line
G92 E0 ; Reset Extruder
G1 Z2.0 F3000 ; Move Z Axis up little to prevent scratching of Heat Bed
G1 X5 Y20 Z0.3 F5000.0 ; Move over to prevent blob squish

; End of Ender 3 Custom Start G-code
G92 E0
G92 E0
G1 F2700 E-5
;LAYER_COUNT:10
;LAYER:0
M107
;MESH:Noctua 92 14 Cover v1.stl
G0 F2100 X76.594 Y78.776 Z0.2
;TYPE:WALL-OUTER
G1 F2700 E0
G1 F1200 X75.94 Y78.812 E0.02396
G1 X75.885 Y78.808 E0.02598
G1 X75.27 Y78.688 E0.04891
G1 X75.217 Y78.671 E0.05094
G1 X74.649 Y78.398 E0.074
G1 X74.603 Y78.368 E0.07601
G1 X74.126 Y77.968 E0.09878
G1 X74.089 Y77.928 E0.10078
G1 X73.721 Y77.415 E0.12388
G1 X73.694 Y77.367 E0.12589
G1 F1202.7 X73.47 Y76.789 E0.14852
G1 X73.405 Y76.294 E0.16674
G1 F1200 X73.383 Y76.055 E0.17552
G1 X73.466 Y75.429 E0.19863
G1 X73.711 Y74.802 E0.22326
G1 X73.738 Y74.754 E0.22527
G1 X74.113 Y74.246 E0.24837
G1 X74.357 Y74.038 E0.2601
G1 X74.648 Y73.801 E0.27383
G1 X74.681 Y73.782 E0.27523
G1 X75.248 Y73.517 E0.29812
G1 X75.635 Y73.44 E0.31256
G1 X75.939 Y73.385 E0.32386
G1 X76.087 Y73.392 E0.32928
G1 X76.599 Y73.429 E0.34806
G1 X76.653 Y73.439 E0.35007
G1 X77.252 Y73.637 E0.37316
G1 X77.302 Y73.662 E0.3752
G1 X77.825 Y74 E0.39798
G1 X77.867 Y74.035 E0.39998
G1 X78.296 Y74.498 E0.42308
G1 X78.328 Y74.543 E0.4251
G1 X78.624 Y75.09 E0.44785
G1 X78.644 Y75.141 E0.44986
G1 X78.796 Y75.747 E0.47271
G1 X78.802 Y75.804 E0.47481
G1 X78.796 Y76.432 E0.49779
G1 X78.789 Y76.485 E0.49974
G1 X78.624 Y77.11 E0.52339
G1 X78.61 Y77.141 E0.52464
G1 X78.298 Y77.702 E0.54812
G1 X78.272 Y77.735 E0.54966
G1 X77.828 Y78.202 E0.57324
G1 X77.8 Y78.222 E0.5745
G1 X77.251 Y78.564 E0.59816
G1 X77.215 Y78.579 E0.59959
G1 X76.594 Y78.776 E0.62342
G0 F2100 X76.753 Y79.188
;TYPE:WALL-INNER
G1 F1200 X76.587 Y79.219 E0.6296
G1 X75.963 Y79.252 E0.65246
G1 X75.801 Y79.24 E0.65841
G1 X75.186 Y79.12 E0.68133
G1 X75.026 Y79.067 E0.6875
G1 X74.459 Y78.794 E0.71052
G1 X74.32 Y78.705 E0.71656
G1 X73.843 Y78.305 E0.73933
G1 X73.731 Y78.184 E0.74537
G1 X73.363 Y77.671 E0.76847
G1 X73.284 Y77.527 E0.77447
G1 F1202.7 X73.06 Y76.949 E0.7971
G1 F1088.7 X72.968 Y76.652 E0.80964
G1 F913.5 X72.876 Y76.355 E0.82458
G1 F855.8 X72.858 Y76.101 E0.83765
G1 F862.7 X72.92 Y75.527 E0.86703
G1 F867 X72.968 Y75.267 E0.88042
G1 X73.059 Y75.007 E0.89437
G1 F864.2 X73.242 Y74.57 E0.91843
G1 F869.9 X73.317 Y74.443 E0.92588
G1 F862.7 X73.633 Y74.009 E0.9532
G1 F865.6 X73.821 Y73.801 E0.96742
G1 F864.2 X74.023 Y73.628 E0.98093
G1 X74.348 Y73.374 E1.00189
G1 F868.4 X74.457 Y73.307 E1.00836
G1 F865.6 X75.026 Y73.042 E1.04019
G1 F861.3 X75.541 Y72.92 E1.06717
G1 F865.6 X75.826 Y72.874 E1.08181
G1 X76.125 Y72.866 E1.09698
G1 F850.2 X76.381 Y72.879 E1.11022
G1 F838.1 X76.637 Y72.893 E1.12365
G1 F983.2 X76.791 Y73.021 E1.13259
G1 F1200 X77.39 Y73.219 E1.15567
G1 X77.541 Y73.292 E1.16181
G1 X78.064 Y73.63 E1.18459
G1 X78.19 Y73.736 E1.19062
G1 X78.619 Y74.199 E1.21371
G1 X78.715 Y74.333 E1.21974
G1 X79.011 Y74.88 E1.24249
G1 X79.071 Y75.034 E1.24854
G1 X79.223 Y75.64 E1.2714
G1 X79.242 Y75.808 E1.27759
G1 X79.236 Y76.436 E1.30056
G1 X79.215 Y76.597 E1.3065
G1 X79.056 Y77.202 E1.32939
G1 X78.994 Y77.355 E1.33543
G1 X78.669 Y77.939 E1.35988
G1 X78.591 Y78.038 E1.36449
G1 X78.137 Y78.515 E1.38858
G1 X78.033 Y78.595 E1.39339
G1 X77.498 Y78.929 E1.41646
G1 X77.349 Y78.998 E1.42247
G1 X76.753 Y79.188 E1.44535
G1 F2700 E-3.55465
G0 F2100 X76.797 Y79.331
G0 X157.936 Y79.261
G1 F2700 E1.44535
G0 F2100 X158.05 Y78.683
;TYPE:WALL-OUTER
G1 F1200 X158.017 Y78.671 E1.44664
G1 X157.435 Y78.39 E1.47028
G1 X157.403 Y78.368 E1.4717
G1 X156.913 Y77.956 E1.49513
G1 X156.889 Y77.928 E1.49648
G1 X156.514 Y77.405 E1.52002
G1 X156.495 Y77.366 E1.52161
G1 X156.262 Y76.765 E1.54519
G1 X156.256 Y76.735 E1.54631
G1 X156.183 Y76.11 E1.56933
G1 X156.183 Y76.055 E1.57134
G1 X156.266 Y75.43 E1.59441
G1 X156.28 Y75.376 E1.59645
G1 X156.511 Y74.802 E1.61909
G1 X156.538 Y74.754 E1.6211
G1 X156.913 Y74.246 E1.64421
G1 X156.951 Y74.206 E1.64622
G1 X157.435 Y73.811 E1.66908
G1 X157.481 Y73.782 E1.67107
G1 X158.048 Y73.517 E1.69397
G1 X158.102 Y73.5 E1.69604
G1 X158.721 Y73.388 E1.71905
G1 X158.835 Y73.389 E1.72322
G1 X159.411 Y73.43 E1.74435
G1 X159.85 Y73.571 E1.76122
G1 X160.102 Y73.661 E1.77101
G1 X160.632 Y74.004 E1.79411
G1 X161 Y74.394 E1.81373
G1 X161.228 Y74.727 E1.82849
G1 X161.43 Y75.101 E1.84404
G1 X161.444 Y75.141 E1.84559
G1 X161.596 Y75.747 E1.86845
G1 X161.599 Y76.139 E1.88279
G1 X161.597 Y76.432 E1.89351
G1 F1202.7 X161.588 Y76.485 E1.89548
G1 X161.43 Y77.09 E1.9183
G1 F1200 X161.41 Y77.142 E1.92034
G1 X161.105 Y77.69 E1.94328
G1 X161.072 Y77.735 E1.94533
G1 X160.643 Y78.187 E1.96813
G1 X160.6 Y78.222 E1.97015
G1 X160.065 Y78.556 E1.99323
G1 X160.015 Y78.579 E1.99524
G1 X159.419 Y78.769 E2.01813
G1 X159.364 Y78.779 E2.02017
G1 X158.74 Y78.812 E2.04304
G1 X158.685 Y78.808 E2.04505
G1 X158.05 Y78.683 E2.06873
G0 F2100 X158.601 Y79.24
;TYPE:WALL-INNER
G1 F1200 X157.986 Y79.12 E2.09166
G1 X157.827 Y79.067 E2.09779
G1 X157.216 Y78.772 E2.12261
G1 X157.12 Y78.705 E2.12689
G1 X156.622 Y78.286 E2.15071
G1 X156.531 Y78.184 E2.15571
G1 X156.143 Y77.642 E2.18009
G1 X156.085 Y77.526 E2.18484
G1 X155.86 Y76.949 E2.2075
G1 X155.819 Y76.786 E2.21365
G1 X155.746 Y76.161 E2.23667
G1 X155.747 Y75.997 E2.24267
G1 X155.83 Y75.372 E2.26574
G1 X155.872 Y75.212 E2.27179
G1 X156.103 Y74.638 E2.29443
G1 X156.184 Y74.492 E2.30053
G1 X156.559 Y73.984 E2.32363
G1 X156.673 Y73.865 E2.32966
G1 X157.157 Y73.47 E2.35252
G1 X157.295 Y73.383 E2.35849
G1 X157.862 Y73.118 E2.38139
G1 X158.024 Y73.067 E2.3876
G1 X158.641 Y72.955 E2.41054
G1 F996.2 X158.629 Y72.865 E2.41454
G1 F855.8 X158.873 Y72.863 E2.42706
G1 F864.2 X159.476 Y72.91 E2.45779
G1 F861.3 X160.015 Y73.069 E2.48644
G1 F868.4 X160.296 Y73.174 E2.5016
G1 F875.6 X160.909 Y73.56 E2.53792
G1 F864.2 X161.387 Y74.036 E2.57219
G1 F865.6 X161.587 Y74.295 E2.58879
G1 F872.7 X161.883 Y74.842 E2.62008
G1 F869.9 X161.952 Y75.014 E2.62943
G1 F864.2 X162.092 Y75.56 E2.65807
G1 F868.4 X162.124 Y75.809 E2.67076
G1 F862.7 X162.129 Y76.144 E2.68781
G1 F851.6 X162.127 Y76.437 E2.70292
G1 F875.6 X162.085 Y76.615 E2.71209
G1 F963.5 X161.971 Y76.908 E2.72641
G1 F1109.2 X161.856 Y77.202 E2.73891
G1 F1200 X161.795 Y77.356 E2.74497
G1 X161.49 Y77.904 E2.76791
G1 X161.392 Y78.038 E2.77399
G1 X160.962 Y78.49 E2.79681
G1 X160.833 Y78.596 E2.80292
G1 X160.298 Y78.93 E2.826
G1 X160.149 Y78.998 E2.83199
G1 X159.553 Y79.188 E2.85487
G1 X159.387 Y79.219 E2.86105
G1 X158.763 Y79.252 E2.88391
G1 X158.601 Y79.24 E2.88986
G1 F2700 E-2.11014
G0 F2100 X158.572 Y79.387
G0 X155.646 Y158.878
G0 X155.742 Y159.688
G0 X155.981 Y160.303
G0 X156.547 Y161.218
G1 F2700 E2.88986
G0 F2100 X156.926 Y160.768
;TYPE:WALL-OUTER
G1 F1200 X156.889 Y160.728 E2.89185
G1 X156.521 Y160.215 E2.91495
G1 X156.495 Y160.166 E2.91698
G1 X156.27 Y159.589 E2.93964
G1 X156.256 Y159.535 E2.94168
G1 X156.183 Y158.91 E2.9647
G1 X156.183 Y158.855 E2.96671
G1 X156.266 Y158.23 E2.98978
G1 X156.28 Y158.176 E2.99182
G1 X156.518 Y157.587 E3.01506
G1 X156.538 Y157.554 E3.01647
G1 X156.928 Y157.028 E3.04043
G1 X156.951 Y157.006 E3.0416
G1 X157.444 Y156.604 E3.06487
G1 X157.481 Y156.582 E3.06644
G1 X158.048 Y156.317 E3.08934
G1 X158.102 Y156.3 E3.09141
G1 X158.719 Y156.188 E3.11436
G1 X158.775 Y156.185 E3.11641
G1 X159.399 Y156.229 E3.13929
G1 X159.453 Y156.24 E3.14131
G1 X160.052 Y156.438 E3.16439
G1 X160.102 Y156.462 E3.16642
G1 X160.625 Y156.8 E3.1892
G1 X160.667 Y156.835 E3.1912
G1 X161.096 Y157.298 E3.2143
G1 X161.128 Y157.343 E3.21632
G1 X161.424 Y157.89 E3.23907
G1 X161.444 Y157.941 E3.24108
G1 X161.596 Y158.547 E3.26393
G1 X161.6 Y158.884 E3.27626
G1 X161.596 Y159.249 E3.28962
G1 X161.585 Y159.303 E3.29163
G1 X161.43 Y159.892 E3.31392
G1 X161.232 Y160.263 E3.3293
G1 X161.093 Y160.51 E3.33967
G1 X161.01 Y160.601 E3.34418
G1 X160.63 Y161 E3.36434
G1 X160.228 Y161.254 E3.38174
G1 X160.015 Y161.379 E3.39077
G1 X159.41 Y161.572 E3.414
G1 X159.364 Y161.579 E3.41571
G1 X158.728 Y161.612 E3.43901
G1 X158.685 Y161.609 E3.44058
G1 X158.07 Y161.489 E3.46351
G1 X158.017 Y161.471 E3.46556
G1 X157.449 Y161.198 E3.48861
G1 X157.403 Y161.168 E3.49062
G1 X156.926 Y160.768 E3.5134
G0 F2100 X156.643 Y161.105
;TYPE:WALL-INNER
G1 F1200 X156.531 Y160.984 E3.51943
G1 X156.163 Y160.471 E3.54253
G1 X156.085 Y160.326 E3.54855
G1 X155.86 Y159.749 E3.57121
G1 X155.819 Y159.586 E3.57736
G1 X155.746 Y158.961 E3.60038
G1 X155.747 Y158.797 E3.60638
G1 X155.83 Y158.172 E3.62945
G1 X155.872 Y158.012 E3.6355
G1 X156.103 Y157.438 E3.65814
G1 X156.184 Y157.293 E3.66422
G1 X156.582 Y156.755 E3.6887
G1 X156.673 Y156.665 E3.69338
G1 X157.184 Y156.249 E3.71749
G1 X157.295 Y156.184 E3.7222
G1 X157.862 Y155.919 E3.74509
G1 X158.024 Y155.867 E3.75132
G1 X158.641 Y155.755 E3.77426
G1 X158.806 Y155.746 E3.78031
G1 X159.43 Y155.79 E3.80319
G1 X159.591 Y155.822 E3.8092
G1 X160.19 Y156.02 E3.83228
G1 X160.341 Y156.092 E3.8384
G1 X160.864 Y156.43 E3.86118
G1 X160.99 Y156.536 E3.86721
G1 X161.419 Y156.999 E3.8903
G1 X161.515 Y157.133 E3.89633
G1 X161.811 Y157.68 E3.91909
G1 X161.87 Y157.834 E3.92512
G1 F1082 X161.993 Y158.125 E3.93794
G1 F902.6 X162.116 Y158.417 E3.95335
G1 F843.5 X162.129 Y158.889 E3.97793
G1 F865.6 X162.117 Y159.296 E3.99858
G1 F869.9 X162.094 Y159.437 E4.00579
G1 F864.2 X161.938 Y160.03 E4.03695
G1 F859.9 X161.694 Y160.52 E4.06489
G1 F864.2 X161.561 Y160.744 E4.07813
G1 F867 X161.392 Y160.964 E4.09218
G1 F865.6 X161.01 Y161.362 E4.12016
G1 F864.2 X160.507 Y161.702 E4.151
G1 F867 X160.263 Y161.841 E4.16522
G1 X160.019 Y161.931 E4.17839
G1 F865.6 X159.545 Y162.077 E4.20355
G1 F872.7 X159.392 Y162.102 E4.21135
G1 F865.6 X158.768 Y162.139 E4.24305
G1 F854.4 X158.583 Y162.13 E4.25257
G1 F915.1 X158.285 Y162.026 E4.26771
G1 F1088.7 X157.986 Y161.921 E4.28049
G1 F1200 X157.826 Y161.868 E4.28666
G1 X157.258 Y161.595 E4.30972
G1 X157.12 Y161.505 E4.31574
G1 X156.643 Y161.105 E4.33852
G1 F2700 E-0.66148
G0 F2100 X156.547 Y161.218
G0 X76.797 Y162.131
G1 F2700 E4.33852
G0 F2100 X76.619 Y161.569
;TYPE:WALL-OUTER
G1 F1200 X76.564 Y161.579 E4.34057
G1 X75.908 Y161.612 E4.3646
G1 X75.648 Y161.563 E4.37428
G1 X75.256 Y161.485 E4.3889
G1 X75.217 Y161.471 E4.39041
G1 X74.649 Y161.198 E4.41347
G1 X74.367 Y160.97 E4.42674
G1 X74.112 Y160.755 E4.43894
G1 X74.062 Y160.691 E4.44191
G1 X73.717 Y160.21 E4.46357
G1 X73.553 Y159.805 E4.47956
G1 X73.462 Y159.566 E4.48891
G1 X73.443 Y159.418 E4.49437
G1 X73.382 Y158.904 E4.51331
G1 X73.398 Y158.734 E4.51956
G1 X73.466 Y158.23 E4.53816
G1 X73.48 Y158.176 E4.5402
G1 X73.711 Y157.602 E4.56284
G1 X73.738 Y157.554 E4.56486
G1 X74.113 Y157.046 E4.58796
G1 X74.151 Y157.006 E4.58998
G1 X74.635 Y156.611 E4.61283
G1 X74.681 Y156.582 E4.61482
G1 X75.248 Y156.317 E4.63772
G1 X75.302 Y156.3 E4.63979
G1 X75.919 Y156.188 E4.66273
G1 X75.975 Y156.185 E4.66479
G1 X76.599 Y156.229 E4.68767
G1 X76.653 Y156.24 E4.68969
G1 X77.271 Y156.445 E4.71351
G1 X77.302 Y156.462 E4.7148
G1 X77.843 Y156.813 E4.7384
G1 X77.867 Y156.835 E4.73959
G1 X78.308 Y157.312 E4.76336
G1 X78.328 Y157.343 E4.76471
G1 X78.631 Y157.904 E4.78803
G1 X78.644 Y157.941 E4.78947
G1 X78.796 Y158.547 E4.81233
G1 X78.802 Y158.604 E4.81442
G1 X78.797 Y159.232 E4.8374
G1 X78.789 Y159.285 E4.83936
G1 X78.63 Y159.89 E4.86225
G1 X78.61 Y159.941 E4.86425
G1 X78.305 Y160.49 E4.88723
G1 X78.272 Y160.535 E4.88927
G1 X77.843 Y160.987 E4.91207
G1 X77.8 Y161.022 E4.9141
G1 X77.265 Y161.356 E4.93717
G1 X77.215 Y161.379 E4.93919
G1 X76.619 Y161.569 E4.96207
G0 F2100 X76.772 Y162.048
;TYPE:WALL-INNER
G1 F878.5 X76.683 Y162.107 E4.96741
G1 F834.1 X76.592 Y162.113 E4.97221
G1 F847.5 X76.092 Y162.132 E4.99813
G1 F864.2 X75.785 Y162.121 E5.01374
G1 F872.7 X75.17 Y162.001 E5.04526
G1 F869.9 X74.99 Y161.944 E5.05479
G1 F864.2 X74.46 Y161.692 E5.0846
G1 F858.5 X74.026 Y161.375 E5.11209
G1 F865.6 X73.743 Y161.124 E5.13127
G1 F868.4 X73.634 Y160.997 E5.13973
G1 F864.2 X73.282 Y160.504 E5.17051
G1 F861.3 X73.061 Y159.997 E5.1987
G1 F867 X72.958 Y159.701 E5.21457
G1 X72.918 Y159.479 E5.22599
G1 F862.7 X72.86 Y158.95 E5.25307
G1 F858.5 X72.872 Y158.664 E5.26771
G1 F994.4 X73.015 Y158.281 E5.28576
G1 F1200 X73.073 Y158.012 E5.29583
G1 X73.303 Y157.438 E5.31846
G1 X73.384 Y157.292 E5.32456
G1 X73.759 Y156.784 E5.34766
G1 X73.873 Y156.665 E5.35369
G1 X74.357 Y156.27 E5.37655
G1 X74.495 Y156.183 E5.38252
G1 X75.062 Y155.918 E5.40542
G1 X75.224 Y155.867 E5.41163
G1 X75.841 Y155.755 E5.43457
G1 X76.006 Y155.746 E5.44062
G1 X76.63 Y155.79 E5.46351
G1 X76.791 Y155.822 E5.46951
G1 X77.39 Y156.02 E5.49259
G1 X77.541 Y156.092 E5.49871
G1 X78.093 Y156.45 E5.52278
G1 X78.19 Y156.536 E5.52753
G1 X78.637 Y157.019 E5.5516
G1 X78.715 Y157.133 E5.55666
G1 X79.011 Y157.68 E5.57941
G1 X79.071 Y157.834 E5.58546
G1 X79.223 Y158.44 E5.60832
G1 X79.242 Y158.608 E5.6145
G1 X79.237 Y159.236 E5.63748
G1 X79.215 Y159.397 E5.64342
G1 X79.056 Y160.002 E5.66631
G1 X78.994 Y160.155 E5.67235
G1 X78.69 Y160.704 E5.69531
G1 X78.591 Y160.838 E5.70141
G1 X78.163 Y161.29 E5.72418
G1 X78.033 Y161.396 E5.73032
G1 X77.498 Y161.729 E5.75337
G1 X77.349 Y161.798 E5.75938
G1 F1121 X77.061 Y161.923 E5.77168
G1 F990.6 X76.772 Y162.048 E5.78563
G0 F2100 X76.797 Y162.131
G0 X76.092 Y162.688
G0 X76.071 Y163.277
;TYPE:WALL-OUTER
G1 F1200 X158.889 Y163.279 E8.81562
G1 X159.658 Y163.212 E8.84386
G1 X160.399 Y163.014 E8.87193
G1 X161.09 Y162.691 E8.89983
G1 X161.712 Y162.255 E8.92762
G1 X162.255 Y161.713 E8.95569
G1 X162.691 Y161.09 E8.98351
G1 X163.016 Y160.395 E9.01158
G1 X163.212 Y159.658 E9.03948
G1 X163.273 Y158.964 E9.06497
G1 X163.277 Y158.611 E9.07789
G1 X163.279 Y76.111 E12.09625
G1 X163.212 Y75.342 E12.12449
G1 X163.014 Y74.601 E12.15255
G1 X162.691 Y73.91 E12.18045
G1 X162.255 Y73.288 E12.20825
G1 X161.712 Y72.745 E12.23634
G1 X161.09 Y72.309 E12.26413
G1 X160.399 Y71.986 E12.29204
G1 X159.658 Y71.788 E12.3201
G1 X158.931 Y71.723 E12.3468
G1 X156.692 Y71.724 E12.42872
G1 X76.111 Y71.721 E15.37687
G1 X75.415 Y71.781 E15.40243
G1 X74.944 Y71.894 E15.42015
G1 X74.601 Y71.986 E15.43314
G1 X73.91 Y72.309 E15.46105
G1 X73.704 Y72.451 E15.4702
G1 X73.348 Y72.703 E15.48616
G1 X73.048 Y72.984 E15.5012
G1 X72.745 Y73.288 E15.5169
G1 X72.309 Y73.91 E15.54469
G1 X71.984 Y74.605 E15.57276
G1 X71.788 Y75.342 E15.60066
G1 X71.724 Y76.071 E15.62744
G1 X71.723 Y76.79 E15.65374
G1 F1202.7 X71.722 Y77.118 E15.66571
G1 X71.724 Y79.711 E15.76037
G1 F1200 X71.723 Y81.611 E15.82988
G1 X71.724 Y83.882 E15.91297
G1 X71.721 Y158.225 E18.63289
G1 X71.721 Y158.853 E18.65587
G1 X71.737 Y159.077 E18.66408
G1 X71.788 Y159.658 E18.68542
G1 X71.984 Y160.395 E18.71332
G1 X72.309 Y161.09 E18.74139
G1 X72.745 Y161.712 E18.76918
G1 X73.288 Y162.255 E18.79728
G1 X73.91 Y162.691 E18.82507
G1 X74.507 Y162.969 E18.84916
G1 X74.83 Y163.076 E18.86161
G1 X75.342 Y163.212 E18.88099
G1 X76.071 Y163.277 E18.90777
G0 F2100 X76.092 Y162.688
G0 X77.511 Y162.688
G0 X77.51 Y162.837
;TYPE:WALL-INNER
G1 F1200 X82.804 Y162.836 E19.10146
G1 X155.579 Y162.839 E21.76402
G1 X157.898 Y162.839 E21.84886
G1 F1088.7 X158.211 Y162.794 E21.86161
G1 F915.1 X158.524 Y162.748 E21.87679
G1 F854.4 X158.784 Y162.752 E21.89015
G1 F858.5 X158.879 Y162.75 E21.89501
G1 F864.2 X159.433 Y162.706 E21.92325
G1 F872.7 X159.7 Y162.66 E21.93688
G1 F865.6 X160.218 Y162.516 E21.96415
