;FLAVOR:Marlin
;TIME:2769
;Filament used: 1.36749m
;Layer height: 0.2
;MINX:88.774
;MINY:101.269
;MINZ:0.2
;MAXX:146.223
;MAXY:133.73
;MAXZ:39.4
;POSTPROCESSED
;Generated with Cura_SteamEngine 4.13.1
M140 S60
M105
M190 S60
M104 S210
M105
M109 S210
M82 ;absolute extrusion mode
; Ender 3 Custom Start G-code
M420 S1 ; enable bed levelling
G92 E0 ; Reset Extruder
G28 ; Home all axes
G1 Z2.0 F3000 ; Move Z Axis up little to prevent scratching of Heat Bed
G1 X0.1 Y20 Z0.3 F5000.0 ; Move to start position
G1 X0.1 Y200.0 Z0.3 F1500.0 E15 ; Draw the first line
G1 X0.4 Y200.0 Z0.3 F5000.0 ; Move to side a little
G1 X0.4 Y20 Z0.3 F1500.0 E30 ; Draw the second line
G92 E0 ; Reset Extruder
G1 Z2.0 F3000 ; Move Z Axis up little to prevent scratching of Heat Bed
G1 X5 Y20 Z0.3 F5000.0 ; Move over to prevent blob squish
G92 E0
G92 E0
G1 F2700 E-5
;LAYER_COUNT:197
;LAYER:0
M117 distance (1.0/1.0)
M107
G0 F2100 X92.675 Y103.986 Z0.2
;TYPE:SKIRT
G1 F2700 E0
G1 F1200 X93.417 Y103.405 E0.03448
G1 X94.205 Y102.889 E0.06894
G1 X95.034 Y102.442 E0.1034
G1 X95.898 Y102.067 E0.13786
G1 X96.46 Y101.868 E0.15967
G1 X96.605 Y101.821 E0.16525
G1 X97.513 Y101.569 E0.19972
G1 X98.439 Y101.394 E0.2342
G1 X99.376 Y101.299 E0.26866
G1 X99.86 Y101.281 E0.28638
G1 X100.753 Y101.269 E0.31905
G1 X134.481 Y101.271 E1.55303
G1 X135.18 Y101.281 E1.57861
G1 X136.12 Y101.335 E1.61305
G1 X137.053 Y101.468 E1.64753
G1 X137.971 Y101.679 E1.682
G1 X138.868 Y101.968 E1.71647
G1 X139.737 Y102.332 E1.75094
G1 X140.572 Y102.768 E1.78541
G1 X141.367 Y103.273 E1.81987
G1 X142.117 Y103.844 E1.85435
G1 X142.815 Y104.477 E1.88883
G1 X143.457 Y105.166 E1.92328
G1 X143.891 Y105.706 E1.94863
G1 X143.97 Y105.811 E1.95344
G1 X144.504 Y106.588 E1.98793
G1 X144.97 Y107.406 E2.02237
G1 X145.365 Y108.262 E2.05686
G1 X145.686 Y109.147 E2.09131
G1 X145.931 Y110.057 E2.12579
G1 X146.098 Y110.984 E2.16025
G1 X146.197 Y112.247 E2.2066
G1 X146.22 Y113.321 E2.2459
G1 X146.223 Y113.56 E2.25464
G1 X146.221 Y121.925 E2.56069
G1 X146.211 Y122.641 E2.58689
G1 X146.158 Y123.582 E2.62137
G1 X146.025 Y124.514 E2.65581
G1 X145.814 Y125.432 E2.69027
G1 X145.525 Y126.329 E2.72475
G1 X145.162 Y127.199 E2.75924
G1 X144.726 Y128.034 E2.79371
G1 X144.215 Y128.837 E2.82853
G1 X144.125 Y128.966 E2.83428
G1 X143.554 Y129.715 E2.86874
G1 X142.921 Y130.413 E2.90322
G1 X142.231 Y131.055 E2.9377
G1 X141.49 Y131.636 E2.97215
G1 X140.702 Y132.152 E3.00661
G1 X139.872 Y132.599 E3.0411
G1 X139.008 Y132.975 E3.07557
G1 X138.115 Y133.275 E3.11004
G1 X137.2 Y133.499 E3.1445
G1 X136.269 Y133.645 E3.17898
G1 X135.215 Y133.713 E3.21762
G1 X134.158 Y133.73 E3.2563
G1 X100.565 Y133.73 E4.48534
G1 X99.856 Y133.719 E4.51128
G1 X98.915 Y133.664 E4.54577
G1 X97.983 Y133.53 E4.58022
G1 X97.065 Y133.317 E4.61469
G1 X95.809 Y132.887 E4.66326
G1 X95.663 Y132.827 E4.66904
G1 X94.807 Y132.432 E4.70353
G1 X93.988 Y131.966 E4.73801
G1 X93.212 Y131.433 E4.77245
G1 X92.484 Y130.835 E4.80692
G1 X91.809 Y130.178 E4.84138
G1 X91.192 Y129.466 E4.87585
G1 X90.637 Y128.704 E4.91034
G1 X90.15 Y127.898 E4.94479
G1 X89.732 Y127.053 E4.97928
G1 X89.388 Y126.176 E5.01375
G1 X89.119 Y125.273 E5.04822
G1 X88.927 Y124.351 E5.08268
G1 X88.815 Y123.416 E5.11713
G1 X88.786 Y122.856 E5.13765
G1 X88.778 Y122.556 E5.14863
G1 X88.774 Y122.261 E5.15942
G1 X88.774 Y112.926 E5.50095
G1 X88.784 Y112.26 E5.52532
G1 X88.838 Y111.32 E5.55977
G1 X88.972 Y110.387 E5.59425
G1 X89.184 Y109.469 E5.62872
G1 X89.474 Y108.573 E5.66318
G1 X89.838 Y107.704 E5.69765
G1 X90.275 Y106.869 E5.73213
G1 X90.781 Y106.074 E5.76661
G1 X91.352 Y105.325 E5.80106
G1 X91.985 Y104.627 E5.83554
G1 X92.675 Y103.986 E5.86999
G0 F2100 X93.102 Y104.202
G1 F1200 X93.839 Y103.646 E5.90377
G1 X94.622 Y103.156 E5.93757
G1 X95.444 Y102.735 E5.97135
G1 X96.596 Y102.286 E6.01659
G1 X96.741 Y102.239 E6.02217
G1 X97.631 Y101.993 E6.05595
G1 X98.539 Y101.825 E6.08973
G1 X99.866 Y101.721 E6.13843
G1 X100.753 Y101.709 E6.17089
G1 X134.474 Y101.711 E7.40461
G1 X135.173 Y101.721 E7.43018
G1 X136.095 Y101.774 E7.46397
G1 X137.009 Y101.907 E7.49776
G1 X137.908 Y102.118 E7.53155
G1 X138.785 Y102.407 E7.56533
G1 X139.634 Y102.77 E7.59911
G1 X140.448 Y103.205 E7.63288
G1 X141.221 Y103.709 E7.66664
G1 X141.948 Y104.278 E7.70042
G1 X142.624 Y104.908 E7.73423
G1 X143.242 Y105.593 E7.76798
G1 X143.539 Y105.971 E7.78557
G1 X143.618 Y106.076 E7.79037
G1 X144.141 Y106.837 E7.82416
G1 X144.596 Y107.641 E7.85796
G1 X144.979 Y108.48 E7.8917
G1 X145.289 Y109.35 E7.92549
G1 X145.522 Y110.244 E7.95929
G1 X145.677 Y111.154 E7.99306
G1 X145.758 Y112.257 E8.03353
G1 X145.781 Y113.331 E8.07283
G1 X145.783 Y113.56 E8.08121
G1 X145.781 Y121.919 E8.38703
G1 X145.771 Y122.635 E8.41323
G1 X145.718 Y123.557 E8.44702
G1 X145.586 Y124.47 E8.48077
G1 X145.375 Y125.369 E8.51455
G1 X145.087 Y126.246 E8.54833
G1 X144.724 Y127.095 E8.58211
G1 X144.289 Y127.91 E8.61591
G1 X143.855 Y128.585 E8.64527
G1 X143.765 Y128.714 E8.65102
G1 X143.204 Y129.448 E8.68482
G1 X142.582 Y130.13 E8.71859
G1 X141.903 Y130.756 E8.75238
G1 X141.173 Y131.321 E8.78615
G1 X140.397 Y131.821 E8.81993
G1 X139.58 Y132.251 E8.8537
G1 X138.729 Y132.61 E8.8875
G1 X137.85 Y132.893 E8.92128
G1 X136.95 Y133.099 E8.95506
G1 X136.036 Y133.227 E8.98883
G1 X135.207 Y133.273 E9.0192
G1 X134.158 Y133.29 E9.05759
G1 X100.572 Y133.29 E10.28637
G1 X99.863 Y133.279 E10.31231
G1 X98.941 Y133.224 E10.3461
G1 X98.027 Y133.091 E10.3799
G1 X97.129 Y132.878 E10.41366
G1 X95.976 Y132.48 E10.45829
G1 X95.83 Y132.42 E10.46406
G1 X94.992 Y132.032 E10.49785
G1 X94.191 Y131.574 E10.53161
G1 X93.432 Y131.047 E10.56541
G1 X92.722 Y130.457 E10.59919
G1 X92.065 Y129.808 E10.63298
G1 X91.468 Y129.105 E10.66672
G1 X90.933 Y128.352 E10.70051
G1 X90.465 Y127.556 E10.7343
G1 X90.068 Y126.722 E10.76809
G1 X89.745 Y125.858 E10.80184
G1 X89.498 Y124.968 E10.83563
G1 X89.328 Y124.061 E10.86939
G1 X89.226 Y122.844 E10.91407
G1 X89.218 Y122.544 E10.92505
G1 X89.214 Y122.261 E10.93541
G1 X89.214 Y112.933 E11.27668
G1 X89.224 Y112.267 E11.30105
G1 X89.278 Y111.345 E11.33484
G1 X89.411 Y110.432 E11.3686
G1 X89.623 Y109.533 E11.40239
G1 X89.912 Y108.656 E11.43617
G1 X90.276 Y107.808 E11.46994
G1 X90.712 Y106.994 E11.50372
G1 X91.216 Y106.22 E11.53751
G1 X91.786 Y105.494 E11.57128
G1 X92.416 Y104.819 E11.60506
G1 X93.102 Y104.202 E11.63882
G0 F2100 X93.529 Y104.422
G1 F1200 X94.261 Y103.892 E11.67188
G1 X95.037 Y103.429 E11.70494
G1 X95.851 Y103.036 E11.73801
G1 X96.732 Y102.705 E11.77245
G1 X96.877 Y102.658 E11.77802
G1 X97.748 Y102.418 E11.81108
G1 X98.637 Y102.255 E11.84414
G1 X99.873 Y102.161 E11.8895
G1 X100.753 Y102.149 E11.92169
G1 X134.468 Y102.151 E13.1552
G1 X135.167 Y102.161 E13.18077
G1 X136.07 Y102.214 E13.21387
G1 X136.964 Y102.346 E13.24693
G1 X137.843 Y102.557 E13.28
G1 X138.7 Y102.845 E13.31308
G1 X139.528 Y103.207 E13.34614
G1 X140.321 Y103.642 E13.37923
G1 X141.072 Y104.144 E13.41228
G1 X141.777 Y104.711 E13.44538
G1 X142.428 Y105.338 E13.47845
G1 X143.188 Y106.236 E13.52149
G1 X143.267 Y106.341 E13.5263
G1 X143.778 Y107.086 E13.55935
G1 X144.221 Y107.874 E13.59242
G1 X144.593 Y108.698 E13.6255
G1 X144.89 Y109.552 E13.65858
G1 X145.111 Y110.428 E13.69164
G1 X145.254 Y111.321 E13.72472
G1 X145.318 Y112.266 E13.75938
G1 X145.341 Y113.34 E13.79868
G1 X145.343 Y113.56 E13.80673
G1 X145.341 Y121.913 E14.11233
G1 X145.331 Y122.629 E14.13853
G1 X145.278 Y123.531 E14.17159
G1 X145.146 Y124.425 E14.20465
G1 X144.936 Y125.305 E14.23775
G1 X144.648 Y126.162 E14.27083
G1 X144.286 Y126.99 E14.30389
G1 X143.852 Y127.783 E14.33696
G1 X143.494 Y128.334 E14.361
G1 X143.404 Y128.463 E14.36676
G1 X142.854 Y129.18 E14.39982
G1 X142.243 Y129.847 E14.43291
G1 X141.576 Y130.457 E14.46598
G1 X140.857 Y131.005 E14.49906
G1 X140.093 Y131.488 E14.53213
G1 X139.289 Y131.901 E14.5652
G1 X138.452 Y132.242 E14.59826
G1 X137.588 Y132.508 E14.63134
G1 X136.704 Y132.696 E14.6644
G1 X135.806 Y132.805 E14.6975
G1 X135.199 Y132.833 E14.71973
G1 X134.158 Y132.85 E14.75782
G1 X100.578 Y132.85 E15.98638
G1 X99.869 Y132.839 E16.01233
G1 X98.967 Y132.785 E16.04539
G1 X98.073 Y132.651 E16.07846
G1 X97.194 Y132.439 E16.11154
G1 X96.143 Y132.073 E16.15226
G1 X95.997 Y132.013 E16.15803
G1 X95.177 Y131.633 E16.1911
G1 X94.394 Y131.181 E16.22418
G1 X93.653 Y130.663 E16.25725
G1 X92.962 Y130.081 E16.29031
G1 X92.324 Y129.44 E16.3234
G1 X91.746 Y128.745 E16.35647
G1 X91.231 Y128.002 E16.38954
G1 X90.784 Y127.216 E16.42262
G1 X90.408 Y126.394 E16.45569
G1 X90.107 Y125.542 E16.48875
G1 X89.881 Y124.666 E16.52185
G1 X89.734 Y123.774 E16.55493
G1 X89.666 Y122.832 E16.58948
G1 X89.658 Y122.532 E16.60046
G1 X89.654 Y122.261 E16.61038
G1 X89.654 Y112.94 E16.9514
G1 X89.664 Y112.274 E16.97577
G1 X89.718 Y111.371 E17.00886
G1 X89.851 Y110.477 E17.04193
G1 X90.062 Y109.598 E17.075
G1 X90.351 Y108.741 E17.10809
G1 X90.714 Y107.913 E17.14117
G1 X91.148 Y107.121 E17.17421
G1 X91.651 Y106.37 E17.20728
G1 X92.219 Y105.666 E17.24037
G1 X92.846 Y105.015 E17.27344
G1 X93.529 Y104.422 E17.30654
G1 F2700 E12.30654
;MESH:RetractTower
G0 F2100 X99.924 Y111.705
G0 X100.307 Y112.803
G0 X100.364 Y122.11
G1 F2700 E17.30654
G0 F2100 X100.093 Y122.411
;TYPE:WALL-OUTER
G1 F1200 X100.093 Y112.589 E17.66588
G1 X134.903 Y112.59 E18.93945
G1 X134.902 Y122.41 E19.29872
G1 X100.093 Y122.411 E20.57225
G0 F2100 X100.533 Y121.971
;TYPE:WALL-INNER
G1 F1200 X100.533 Y113.029 E20.89941
G1 X134.463 Y113.03 E22.14077
G1 X134.462 Y121.97 E22.46785
G1 X100.533 Y121.971 E23.70918
G1 F2700 E18.70918
G0 F2100 X104.893 Y121.761
G0 X104.893 Y118.051
;TYPE:SKIN
G1 F2700 E23.70918
G1 F1200 X104.453 Y118.051 E23.72528
G1 X104.453 Y117.384 E23.74969
G1 X104.013 Y117.384 E23.76578
G1 X104.013 Y118.491 E23.80628
G1 X130.982 Y118.49 E24.79298
G1 X130.983 Y116.51 E24.86542
G1 X104.013 Y116.509 E25.85215
G1 X103.573 Y116.509 E25.86824
G1 X103.573 Y116.504 E25.86843
G1 X103.133 Y116.504 E25.88452
G1 X103.133 Y119.371 E25.98942
G1 X131.862 Y119.37 E27.0405
G1 X131.863 Y115.63 E27.17733
G1 X103.568 Y115.629 E28.21254
G1 X103.569 Y115.19 E28.2286
G1 X131.868 Y115.19 E29.26395
G1 X131.84 Y114.75 E29.28008
G1 X102.253 Y114.749 E30.36255
G1 X102.253 Y120.251 E30.56385
G1 X132.742 Y120.25 E31.67933
G1 X132.743 Y114.75 E31.88055
G1 X132.567 Y114.31 E31.89789
G1 X133.007 Y113.87 E31.92065
G1 X101.373 Y113.869 E33.07802
G1 X101.373 Y121.131 E33.34371
G1 X133.622 Y121.13 E34.52358
G1 X133.623 Y114.305 E34.77328
G1 X134.063 Y114.305 E34.78937
G1 X134.062 Y121.57 E35.05517
G1 X100.933 Y121.571 E36.26724
G1 X100.933 Y113.429 E36.56512
G1 X134.063 Y113.43 E37.77722
G1 X134.063 Y113.87 E37.79332
G1 X133.623 Y113.87 E37.80941
G1 X133.183 Y114.31 E37.83218
G1 X133.182 Y120.69 E38.0656
G1 X101.813 Y120.691 E39.21327
G1 X101.813 Y114.309 E39.44676
G1 X132.099 Y114.31 E40.55481
G1 X132.275 Y114.75 E40.57215
G1 X132.303 Y115.19 E40.58828
G1 X132.302 Y119.81 E40.75731
G1 X102.693 Y119.811 E41.84059
G1 X102.693 Y115.189 E42.00969
G1 X103.134 Y115.19 E42.02582
G1 X103.133 Y115.629 E42.04188
G1 X103.133 Y116.069 E42.05798
G1 X103.573 Y116.069 E42.07408
G1 X131.423 Y116.07 E43.093
G1 X131.422 Y118.93 E43.19764
G1 X103.573 Y118.931 E44.21653
G1 X103.573 Y116.944 E44.28923
G1 X104.013 Y116.944 E44.30532
G1 X104.013 Y116.949 E44.30551
G1 X104.453 Y116.949 E44.3216
G1 X130.543 Y116.95 E45.27614
G1 X130.542 Y118.05 E45.31638
G1 X105.328 Y118.051 E46.23886
G1 X105.328 Y117.611 E46.25496
G1 X130.102 Y117.61 E47.16135
G1 X130.103 Y117.39 E47.1694
G1 X104.893 Y117.389 E48.09173
G1 X104.893 Y117.611 E48.09986
G1 X104.893 Y118.051 E48.11595
G1 F2700 E43.11595
;MESH:NONMESH
G0 F300 X104.893 Y118.051 Z0.4
G0 F2100 X104.893 Y121.761
G0 X100.364 Y122.11
G1 F2700 E48.11595
G0 F2100 X100.055 Y122.449
;TIME_ELAPSED:75.877154
;LAYER:1
M117 distance (1.0/1.0)
;TYPE:WALL-OUTER
;MESH:RetractTower
G1 F1350 X100.055 Y112.551 E48.44516
G1 X100.065 Y112.548 E48.44551
G1 X134.932 Y112.548 E49.60519
G1 X134.945 Y112.566 E49.60593
G1 X134.945 Y122.434 E49.93414
G1 X134.932 Y122.452 E49.93488
G1 X100.065 Y122.452 E51.09456
G1 X100.055 Y122.449 E51.09491
G0 F5550 X100.455 Y122.052
;TYPE:WALL-INNER
G1 F1350 X100.455 Y112.948 E51.39771
G1 X134.545 Y112.948 E52.53155
G1 X134.545 Y122.052 E52.83435
G1 X100.455 Y122.052 E53.96818
G0 F5550 X100.845 Y121.662
;TYPE:SKIN
G1 F1350 X100.845 Y113.338 E54.24504
G1 X134.155 Y113.338 E55.35294
G1 X134.155 Y121.662 E55.62979
G1 X100.845 Y121.662 E56.73769
G0 F5550 X100.565 Y121.662
G0 X100.565 Y113.955
G0 X101.005 Y113.955
G1 F1350 X101.463 Y113.497 E56.75923
G0 F5550 X102.029 Y113.497
G1 F1350 X101.005 Y114.52 E56.80737
G0 F5550 X101.005 Y115.086
G1 F1350 X102.594 Y113.497 E56.88212
G0 F5550 X103.16 Y113.497
G1 F1350 X101.005 Y115.652 E56.98348
G0 F5550 X101.005 Y116.217
G1 F1350 X103.726 Y113.497 E57.11144
G0 F5550 X104.291 Y113.497
G1 F1350 X101.005 Y116.783 E57.26601
G0 F5550 X101.005 Y117.349
G1 F1350 X104.857 Y113.497 E57.44719
G0 F5550 X105.423 Y113.497
G1 F1350 X101.005 Y117.915 E57.655
G0 F5550 X101.005 Y118.48
G1 F1350 X105.988 Y113.497 E57.88939
G0 F5550 X106.554 Y113.497
G1 F1350 X101.005 Y119.046 E58.1504
G0 F5550 X101.005 Y119.612
G1 F1350 X107.12 Y113.497 E58.43803
G0 F5550 X107.685 Y113.497
G1 F1350 X101.005 Y120.177 E58.75223
G0 F5550 X101.005 Y120.743
G1 F1350 X108.251 Y113.497 E59.09306
G0 F5550 X108.817 Y113.497
G1 F1350 X101.005 Y121.309 E59.46052
G0 F5550 X101.377 Y121.502
G1 F1350 X109.383 Y113.497 E59.83707
G0 F5550 X109.948 Y113.497
G1 F1350 X101.943 Y121.502 E60.2136
G0 F5550 X102.509 Y121.502
G1 F1350 X110.514 Y113.497 E60.59013
G0 F5550 X111.08 Y113.497
G1 F1350 X103.074 Y121.502 E60.96669
G0 F5550 X103.64 Y121.502
G1 F1350 X111.645 Y113.497 E61.34322
G0 F5550 X112.211 Y113.497
G1 F1350 X104.206 Y121.502 E61.71975
G0 F5550 X104.772 Y121.502
G1 F1350 X112.777 Y113.497 E62.09628
G0 F5550 X113.342 Y113.497
G1 F1350 X105.337 Y121.502 E62.47281
G0 F5550 X105.903 Y121.502
G1 F1350 X113.908 Y113.497 E62.84934
G0 F5550 X114.474 Y113.497
G1 F1350 X106.469 Y121.502 E63.22587
G0 F5550 X107.034 Y121.502
G1 F1350 X115.039 Y113.497 E63.6024
G0 F5550 X115.605 Y113.497
G1 F1350 X107.6 Y121.502 E63.97893
G0 F5550 X108.166 Y121.502
G1 F1350 X116.171 Y113.497 E64.35546
G0 F5550 X116.736 Y113.497
G1 F1350 X108.731 Y121.502 E64.73199
G0 F5550 X109.297 Y121.502
G1 F1350 X117.302 Y113.497 E65.10852
G0 F5550 X117.868 Y113.497
G1 F1350 X109.863 Y121.502 E65.48505
G0 F5550 X110.428 Y121.502
G1 F1350 X118.434 Y113.497 E65.86161
G0 F5550 X118.999 Y113.497
G1 F1350 X110.994 Y121.502 E66.23814
G0 F5550 X111.56 Y121.502
G1 F1350 X119.565 Y113.497 E66.61467
G0 F5550 X120.131 Y113.497
G1 F1350 X112.125 Y121.502 E66.99122
G0 F5550 X112.691 Y121.502
G1 F1350 X120.696 Y113.497 E67.36775
G0 F5550 X121.262 Y113.497
G1 F1350 X113.257 Y121.502 E67.74428
G0 F5550 X113.822 Y121.502
G1 F1350 X121.828 Y113.497 E68.12084
G0 F5550 X122.393 Y113.497
G1 F1350 X114.388 Y121.502 E68.49737
G0 F5550 X114.954 Y121.502
G1 F1350 X122.959 Y113.497 E68.8739
G0 F5550 X123.525 Y113.497
G1 F1350 X115.52 Y121.502 E69.25043
G0 F5550 X116.085 Y121.502
G1 F1350 X124.09 Y113.497 E69.62696
G0 F5550 X124.656 Y113.497
G1 F1350 X116.651 Y121.502 E70.00349
G0 F5550 X117.217 Y121.502
G1 F1350 X125.222 Y113.497 E70.38002
G0 F5550 X125.787 Y113.497
G1 F1350 X117.782 Y121.502 E70.75655
G0 F5550 X118.348 Y121.502
G1 F1350 X126.353 Y113.497 E71.13308
G0 F5550 X126.919 Y113.497
G1 F1350 X118.914 Y121.502 E71.50961
G0 F5550 X119.479 Y121.502
G1 F1350 X127.484 Y113.497 E71.88615
G0 F5550 X128.05 Y113.497
G1 F1350 X120.045 Y121.502 E72.26268
G0 F5550 X120.611 Y121.502
G1 F1350 X128.616 Y113.497 E72.63921
G0 F5550 X129.182 Y113.497
G1 F1350 X121.176 Y121.502 E73.01576
G0 F5550 X121.742 Y121.502
G1 F1350 X129.747 Y113.497 E73.39229
G0 F5550 X130.313 Y113.497
G1 F1350 X122.308 Y121.502 E73.76882
G0 F5550 X122.873 Y121.502
G1 F1350 X130.879 Y113.497 E74.14538
G0 F5550 X131.444 Y113.497
G1 F1350 X123.439 Y121.502 E74.52191
G0 F5550 X124.005 Y121.502
G1 F1350 X132.01 Y113.497 E74.89844
G0 F5550 X132.576 Y113.497
G1 F1350 X124.571 Y121.502 E75.27497
G0 F5550 X125.136 Y121.502
G1 F1350 X133.141 Y113.497 E75.6515
G0 F5550 X133.707 Y113.497
