;FLAVOR:Marlin
;TIME:972
;Filament used: 0.279658m
;Layer height: 0.16
;MINX:86.2
;MINY:91.2
;MINZ:0.28
;MAXX:148.8
;MAXY:154.488
;MAXZ:4.44
;Generated with Cura_SteamEngine 5.0.0
M140 S60
M105
M190 S60
M104 S240
M105
M109 S240
M82 ;absolute extrusion mode
; Ender 3 Custom Start G-code
G92 E0 ; Reset Extruder
M140 S60 ; Start heating the heated bed
M190 S60 ; Wait until the heated bed reaches the desired temperature
G28 ; Auto Home
G29 A; Activate Bed Leveling
G29 L0; Loads the saved mesh in slot 0
G29  J3; 9 point autotilt

G92 E0 ; Reset extruder origin
G1 Z2.0 F3000 ; Move Z Axis up little to prevent scratching of Heat Bed
G1 X0.1 Y20 Z0.3 F5000.0 ; Move to start position
G1 X0.1 Y200.0 Z0.3 F1500.0 E15 ; Draw the first line
G1 X0.4 Y200.0 Z0.3 F5000.0 ; Move to side a little
G1 X0.4 Y20 Z0.3 F1500.0 E30 ; Draw the second line
G92 E0 ; Reset Extruder
G1 Z2.0 F3000 ; Move Z Axis up little to prevent scratching of Heat Bed
G1 X5 Y20 Z0.3 F5000.0 ; Move over to prevent blob squish

; End of Ender 3 Custom Start G-code
G92 E0
G92 E0
;LAYER_COUNT:27
;LAYER:0
M107
G0 F2100 X89.416 Y94.624 Z0.28
G0 X86.201 Y103.004
;TYPE:SKIRT
G1 F600 X86.211 Y102.339 E0.04429
G1 X86.266 Y101.39 E0.10758
G1 X86.399 Y100.449 E0.17086
G1 X86.612 Y99.522 E0.2342
G1 X86.901 Y98.617 E0.29746
G1 X87.266 Y97.739 E0.36077
G1 X87.703 Y96.895 E0.42406
G1 X88.21 Y96.091 E0.48735
G1 X88.782 Y95.332 E0.55063
G1 X89.416 Y94.624 E0.61391
G1 X90.108 Y93.971 E0.67727
G1 X90.851 Y93.379 E0.74053
G1 X91.642 Y92.852 E0.80382
G1 X92.475 Y92.393 E0.86715
G1 X93.343 Y92.005 E0.93045
G1 X94.24 Y91.692 E0.99372
G1 X95.161 Y91.456 E1.05702
G1 X96.098 Y91.298 E1.1203
G1 X97.192 Y91.213 E1.19336
G1 X97.83 Y91.2 E1.23585
G1 X136.793 Y91.2 E3.83027
G1 X137.653 Y91.211 E3.88754
G1 X138.602 Y91.265 E3.95084
G1 X139.543 Y91.398 E4.01412
G1 X140.47 Y91.61 E4.07744
G1 X141.375 Y91.899 E4.1407
G1 X142.254 Y92.263 E4.20404
G1 X143.098 Y92.699 E4.2673
G1 X143.903 Y93.205 E4.33061
G1 X144.662 Y93.777 E4.3939
G1 X145.371 Y94.411 E4.45723
G1 X146.024 Y95.102 E4.52053
G1 X146.616 Y95.845 E4.58379
G1 X147.144 Y96.635 E4.64706
G1 X147.604 Y97.467 E4.71037
G1 X147.992 Y98.335 E4.77368
G1 X148.305 Y99.233 E4.837
G1 X148.542 Y100.153 E4.90026
G1 X148.701 Y101.09 E4.96354
G1 X148.787 Y102.192 E5.03714
G1 X148.8 Y102.83 E5.07964
G1 X148.798 Y110.967 E5.62145
G1 X148.785 Y111.727 E5.67207
G1 X148.73 Y112.665 E5.73463
G1 X148.578 Y114.18 E5.83602
G1 X148.362 Y116.76 E6.00841
G1 X148.224 Y119.275 E6.17613
G1 X148.157 Y121.775 E6.34266
G1 X148.161 Y124.282 E6.50959
G1 X148.236 Y126.785 E6.67633
G1 X148.382 Y129.281 E6.84282
G1 X148.741 Y133.142 E7.10102
G1 X148.785 Y133.846 E7.14799
G1 X148.8 Y134.518 E7.19274
G1 X148.799 Y142.607 E7.73136
G1 X148.789 Y143.334 E7.77978
G1 X148.736 Y144.284 E7.84313
G1 X148.603 Y145.225 E7.90641
G1 X148.392 Y146.152 E7.96972
G1 X148.104 Y147.057 E8.03296
G1 X147.74 Y147.936 E8.09631
G1 X147.304 Y148.78 E8.15956
G1 X146.799 Y149.585 E8.22284
G1 X146.227 Y150.345 E8.28618
G1 X145.594 Y151.054 E8.34946
G1 X144.903 Y151.707 E8.41277
G1 X144.16 Y152.3 E8.47607
G1 X143.37 Y152.829 E8.53938
G1 X142.538 Y153.289 E8.60268
G1 X141.671 Y153.677 E8.66593
G1 X140.774 Y153.991 E8.72921
G1 X139.853 Y154.229 E8.79255
G1 X138.916 Y154.389 E8.85585
G1 X137.808 Y154.475 E8.92985
G1 X137.17 Y154.488 E8.97234
G1 X98.061 Y154.487 E11.57648
G1 X97.363 Y154.478 E11.62296
G1 X96.414 Y154.426 E11.68625
G1 X95.473 Y154.294 E11.74952
G1 X94.546 Y154.084 E11.81281
G1 X93.64 Y153.796 E11.87611
G1 X92.761 Y153.433 E11.93944
G1 X91.916 Y152.998 E12.00272
G1 X91.111 Y152.493 E12.066
G1 X90.35 Y151.922 E12.12935
G1 X89.641 Y151.29 E12.19259
G1 X88.987 Y150.6 E12.25589
G1 X88.394 Y149.857 E12.31919
G1 X87.865 Y149.067 E12.3825
G1 X87.404 Y148.236 E12.44578
G1 X87.014 Y147.369 E12.50908
G1 X86.699 Y146.472 E12.57239
G1 X86.461 Y145.552 E12.63566
G1 X86.301 Y144.615 E12.69896
G1 X86.213 Y143.484 E12.7745
G1 X86.2 Y142.846 E12.81699
G1 X86.202 Y134.697 E13.3596
G1 X86.215 Y133.956 E13.40895
G1 X86.27 Y133.023 E13.47118
G1 X86.422 Y131.508 E13.57257
G1 X86.638 Y128.928 E13.74496
G1 X86.776 Y126.413 E13.91268
G1 X86.843 Y123.913 E14.07921
G1 X86.839 Y121.406 E14.24614
G1 X86.764 Y118.903 E14.41288
G1 X86.618 Y116.41 E14.57917
G1 X86.258 Y112.537 E14.83817
G1 X86.213 Y111.809 E14.88674
G1 X86.2 Y111.171 E14.92923
G1 X86.201 Y103.442 E15.44388
G0 F540 X86.201 Y103.004
G0 F2100 X86.721 Y103.012
G1 F600 X86.731 Y102.347 E15.48817
G1 X86.785 Y101.42 E15.55
G1 X86.919 Y100.501 E15.61184
G1 X87.131 Y99.597 E15.67366
G1 X87.42 Y98.715 E15.73547
G1 X87.784 Y97.861 E15.79728
G1 X88.22 Y97.041 E15.85912
G1 X88.725 Y96.262 E15.92094
G1 X89.295 Y95.529 E15.98277
G1 X89.926 Y94.848 E16.04458
G1 X90.613 Y94.224 E16.10638
G1 X91.351 Y93.661 E16.16819
G1 X92.136 Y93.164 E16.23006
G1 X92.96 Y92.736 E16.29188
G1 X93.817 Y92.381 E16.35365
G1 X94.703 Y92.101 E16.41552
G1 X95.609 Y91.898 E16.47735
G1 X96.529 Y91.774 E16.53916
G1 X97.207 Y91.733 E16.58439
G1 X97.83 Y91.72 E16.62588
G1 X136.793 Y91.72 E19.2203
G1 X137.645 Y91.731 E19.27704
G1 X138.572 Y91.784 E19.33887
G1 X139.491 Y91.917 E19.4007
G1 X140.395 Y92.129 E19.46252
G1 X141.278 Y92.417 E19.52437
G1 X142.132 Y92.78 E19.58616
G1 X142.952 Y93.216 E19.648
G1 X143.732 Y93.72 E19.70983
G1 X144.465 Y94.29 E19.77166
G1 X145.146 Y94.92 E19.83344
G1 X145.771 Y95.607 E19.89528
G1 X146.334 Y96.345 E19.95709
G1 X146.832 Y97.129 E20.01893
G1 X147.26 Y97.953 E20.08076
G1 X147.616 Y98.81 E20.14255
G1 X147.897 Y99.695 E20.20438
G1 X148.101 Y100.601 E20.26622
G1 X148.226 Y101.521 E20.32804
G1 X148.267 Y102.207 E20.3738
G1 X148.28 Y102.83 E20.4153
G1 X148.278 Y110.958 E20.95651
G1 X148.265 Y111.718 E21.00713
G1 X148.213 Y112.613 E21.06682
G1 X148.059 Y114.142 E21.16915
G1 X147.844 Y116.723 E21.3416
G1 X147.703 Y119.269 E21.51139
G1 X147.637 Y121.762 E21.67745
G1 X147.641 Y124.297 E21.84625
G1 X147.716 Y126.796 E22.01273
G1 X147.862 Y129.301 E22.17981
G1 X148.224 Y133.19 E22.43988
G1 X148.265 Y133.861 E22.48465
G1 X148.28 Y134.518 E22.52841
G1 X148.279 Y142.6 E23.06656
G1 X148.269 Y143.327 E23.11497
G1 X148.216 Y144.254 E23.1768
G1 X148.084 Y145.173 E23.23862
G1 X147.873 Y146.077 E23.30043
G1 X147.585 Y146.96 E23.36228
G1 X147.222 Y147.815 E23.42413
G1 X146.787 Y148.635 E23.48594
G1 X146.283 Y149.415 E23.54777
G1 X145.714 Y150.148 E23.60956
G1 X145.084 Y150.83 E23.67138
G1 X144.398 Y151.455 E23.73318
G1 X143.66 Y152.019 E23.79503
G1 X142.876 Y152.517 E23.85687
G1 X142.053 Y152.946 E23.91867
G1 X141.196 Y153.302 E23.98046
G1 X140.311 Y153.583 E24.04229
G1 X139.405 Y153.788 E24.10414
G1 X138.485 Y153.913 E24.16597
G1 X137.793 Y153.955 E24.21213
G1 X137.17 Y153.968 E24.25362
G1 X98.068 Y153.967 E26.8573
G1 X97.37 Y153.958 E26.90378
G1 X96.443 Y153.906 E26.9656
G1 X95.524 Y153.775 E27.02742
G1 X94.62 Y153.565 E27.08921
G1 X93.737 Y153.277 E27.15106
G1 X92.882 Y152.915 E27.21288
G1 X92.061 Y152.481 E27.27472
G1 X91.281 Y151.978 E27.33652
G1 X90.547 Y151.409 E27.39836
G1 X89.865 Y150.78 E27.46014
G1 X89.239 Y150.094 E27.52198
G1 X88.675 Y149.356 E27.58382
G1 X88.176 Y148.573 E27.64565
G1 X87.746 Y147.75 E27.70748
G1 X87.389 Y146.893 E27.7693
G1 X87.107 Y146.009 E27.83108
G1 X86.902 Y145.103 E27.89293
G1 X86.776 Y144.183 E27.95477
G1 X86.733 Y143.47 E28.00233
G1 X86.72 Y142.846 E28.04389
G1 X86.722 Y134.706 E28.5859
G1 X86.735 Y133.965 E28.63525
G1 X86.787 Y133.075 E28.69462
G1 X86.941 Y131.546 E28.79694
G1 X87.156 Y128.965 E28.9694
G1 X87.297 Y126.419 E29.13919
G1 X87.363 Y123.926 E29.30525
G1 X87.359 Y121.391 E29.47404
G1 X87.284 Y118.892 E29.64052
G1 X87.138 Y116.387 E29.8076
G1 X86.775 Y112.488 E30.06835
G1 X86.733 Y111.794 E30.11464
G1 X86.72 Y111.171 E30.15614
G1 X86.721 Y103.45 E30.67025
G0 F540 X86.721 Y103.012
G0 F2100 X87.241 Y103.02
G1 F600 X87.251 Y102.355 E30.71454
G1 X87.305 Y101.451 E30.77484
G1 X87.438 Y100.555 E30.83516
G1 X87.649 Y99.674 E30.89548
G1 X87.938 Y98.815 E30.95583
G1 X88.301 Y97.986 E31.01609
G1 X88.736 Y97.191 E31.07643
G1 X89.239 Y96.438 E31.13673
G1 X89.807 Y95.732 E31.19706
G1 X90.434 Y95.079 E31.25734
G1 X91.117 Y94.484 E31.31766
G1 X91.85 Y93.951 E31.37801
G1 X92.627 Y93.486 E31.4383
G1 X93.442 Y93.09 E31.49864
G1 X94.288 Y92.768 E31.55891
G1 X95.16 Y92.522 E31.61924
G1 X96.05 Y92.353 E31.67956
G1 X97.222 Y92.253 E31.75789
G1 X97.83 Y92.24 E31.79838
G1 X136.793 Y92.24 E34.3928
G1 X137.638 Y92.251 E34.44907
G1 X138.542 Y92.304 E34.50937
G1 X139.438 Y92.436 E34.56967
G1 X140.319 Y92.647 E34.63
G1 X141.178 Y92.935 E34.69032
G1 X142.008 Y93.298 E34.75065
G1 X142.803 Y93.732 E34.81096
G1 X143.556 Y94.235 E34.87125
G1 X144.262 Y94.802 E34.93155
G1 X144.916 Y95.429 E34.99188
G1 X145.511 Y96.112 E35.05219
G1 X146.045 Y96.844 E35.11252
G1 X146.511 Y97.62 E35.1728
G1 X146.907 Y98.435 E35.23313
G1 X147.23 Y99.281 E35.29343
G1 X147.477 Y100.153 E35.35378
G1 X147.646 Y101.043 E35.4141
G1 X147.747 Y102.222 E35.49289
G1 X147.76 Y102.83 E35.53339
G1 X147.758 Y110.949 E36.07401
G1 X147.745 Y111.709 E36.12462
G1 X147.695 Y112.561 E36.18145
G1 X147.546 Y114.046 E36.28083
G1 X147.322 Y116.723 E36.4597
G1 X147.184 Y119.226 E36.62662
G1 X147.117 Y121.748 E36.79461
G1 X147.121 Y124.314 E36.96548
G1 X147.196 Y126.806 E37.13148
G1 X147.344 Y129.351 E37.30123
G1 X147.706 Y133.238 E37.56118
G1 X147.745 Y133.877 E37.60381
G1 X147.76 Y134.518 E37.6465
G1 X147.759 Y142.593 E38.18419
G1 X147.749 Y143.32 E38.2326
G1 X147.697 Y144.224 E38.29289
G1 X147.565 Y145.12 E38.3532
G1 X147.354 Y146.001 E38.41352
G1 X147.067 Y146.86 E38.47383
G1 X146.705 Y147.691 E38.53418
G1 X146.271 Y148.486 E38.5945
G1 X145.769 Y149.24 E38.65481
G1 X145.202 Y149.946 E38.71511
G1 X144.575 Y150.6 E38.77543
G1 X143.893 Y151.196 E38.83574
G1 X143.161 Y151.729 E38.89604
G1 X142.385 Y152.196 E38.95634
G1 X141.571 Y152.593 E39.01665
G1 X140.724 Y152.916 E39.07701
G1 X139.853 Y153.163 E39.13729
G1 X138.963 Y153.333 E39.19763
G1 X137.778 Y153.435 E39.27682
G1 X137.17 Y153.448 E39.31732
G1 X98.075 Y153.447 E41.92053
G1 X97.377 Y153.438 E41.96701
G1 X96.472 Y153.387 E42.02737
G1 X95.576 Y153.255 E42.08767
G1 X94.695 Y153.046 E42.14796
G1 X93.836 Y152.759 E42.20827
G1 X93.005 Y152.398 E42.2686
G1 X92.21 Y151.965 E42.32888
G1 X91.456 Y151.463 E42.38919
G1 X90.749 Y150.897 E42.4495
G1 X90.094 Y150.27 E42.50987
G1 X89.498 Y149.589 E42.57013
G1 X88.964 Y148.857 E42.63047
G1 X88.496 Y148.082 E42.69075
G1 X88.099 Y147.268 E42.75105
G1 X87.775 Y146.422 E42.81138
G1 X87.527 Y145.551 E42.87168
G1 X87.357 Y144.661 E42.93201
G1 X87.253 Y143.456 E43.01255
G1 X87.24 Y142.846 E43.05317
G1 X87.242 Y134.715 E43.59459
G1 X87.255 Y133.974 E43.64394
G1 X87.305 Y133.127 E43.70044
G1 X87.454 Y131.642 E43.79982
G1 X87.678 Y128.965 E43.97869
G1 X87.816 Y126.462 E44.14561
G1 X87.883 Y123.94 E44.3136
G1 X87.879 Y121.374 E44.48446
G1 X87.804 Y118.882 E44.65047
G1 X87.656 Y116.337 E44.82022
G1 X87.293 Y112.44 E45.08084
G1 X87.253 Y111.779 E45.12493
G1 X87.24 Y111.171 E45.16542
G1 X87.241 Y103.458 E45.67901
G0 F540 X87.241 Y103.02
;MESH:rubber jaw v1.stl(1)
G0 F2100 X96.835 Y103.02
G0 X97.93 Y103.02
G0 X98.18 Y110.82
G0 X97.76 Y111.24
;TYPE:WALL-OUTER
G1 F600 X137.24 Y111.24 E48.30785
G1 X137.24 Y102.76 E48.87251
G1 X97.76 Y102.76 E51.50136
G1 X97.76 Y110.802 E52.03685
G0 F540 X97.76 Y111.24
G0 F2100 X98.28 Y110.72
;TYPE:WALL-INNER
G1 F600 X136.72 Y110.72 E54.59644
G1 X136.72 Y103.28 E55.09185
G1 X98.28 Y103.28 E57.65145
G1 X98.28 Y110.282 E58.11769
G0 F540 X98.28 Y110.72
G0 F2100 X98.8 Y110.2
G1 F600 X136.2 Y110.2 E60.60803
G1 X136.2 Y103.8 E61.03419
G1 X98.8 Y103.8 E63.52453
G1 X98.8 Y109.762 E63.92152
G0 F540 X98.8 Y110.2
G0 F2100 X99.28 Y109.72
;TYPE:SKIN
G1 F600 X99.28 Y106.08 E64.1639
G1 X99.8 Y106.08 E64.19853
G1 X100.32 Y106.08 E64.23315
G1 X100.32 Y105.32 E64.28376
G1 X134.68 Y105.32 E66.57168
G1 X134.68 Y108.68 E66.79541
G1 X100.32 Y108.68 E69.08333
G1 X100.32 Y107.12 E69.18721
G1 X100.84 Y107.12 E69.22183
G1 X101.36 Y107.12 E69.25646
G1 X101.36 Y106.36 E69.30706
G1 X133.64 Y106.36 E71.45649
G1 X133.64 Y107.64 E71.54172
G1 X101.36 Y107.64 E73.69114
G1 X100.84 Y107.64 E73.72576
G1 X100.84 Y108.16 E73.76039
G1 X134.16 Y108.16 E75.97906
G1 X134.16 Y105.84 E76.13354
G1 X100.84 Y105.84 E78.35221
G1 X100.84 Y106.6 E78.40282
G1 X100.32 Y106.6 E78.43744
G1 X99.8 Y106.6 E78.47207
G1 X99.8 Y109.2 E78.6452
G1 X135.2 Y109.2 E81.00237
G1 X135.2 Y104.8 E81.29535
G1 X99.8 Y104.8 E83.65252
G1 X99.8 Y105.56 E83.70313
G1 X99.28 Y105.56 E83.73775
G1 X99.28 Y104.28 E83.82298
G1 X135.72 Y104.28 E86.24941
G1 X135.72 Y109.72 E86.61164
G1 X99.718 Y109.72 E89.0089
G0 F540 X99.28 Y109.72
G0 F2100 X98.96 Y109.72
G0 X99.06 Y107
G0 X102 Y107
G1 F410.5 X133 Y107 E92.02579
;MESH:rubber jaw v1.stl
G0 F2100 X138.165 Y107
G0 X138.153 Y112.153
G0 X133 Y133.523
G0 X133 Y134.618
G0 X99.032 Y135.72
G0 X98.18 Y142.508
G0 X97.76 Y142.928
;TYPE:WALL-OUTER
G1 F600 X137.24 Y142.928 E94.65464
G1 X137.24 Y134.448 E95.21929
G1 X97.76 Y134.448 E97.84814
G1 X97.76 Y142.49 E98.38363
G0 F540 X97.76 Y142.928
G0 F2100 X98.28 Y142.408
;TYPE:WALL-INNER
G1 F600 X136.72 Y142.408 E100.94323
G1 X136.72 Y134.968 E101.43863
G1 X98.28 Y134.968 E103.99823
G1 X98.28 Y141.97 E104.46447
G0 F540 X98.28 Y142.408
G0 F2100 X98.8 Y141.888
G1 F600 X136.2 Y141.888 E106.95482
G1 X136.2 Y135.488 E107.38097
G1 X98.8 Y135.488 E109.87132
G1 X98.8 Y141.45 E110.26831
G0 F540 X98.8 Y141.888
G0 F2100 X99.28 Y141.408
;TYPE:SKIN
G1 F600 X99.28 Y137.768 E110.51068
G1 X99.8 Y137.768 E110.54531
G1 X100.32 Y137.768 E110.57993
G1 X100.32 Y137.008 E110.63054
G1 X134.68 Y137.008 E112.91846
G1 X134.68 Y140.368 E113.14219
G1 X100.32 Y140.368 E115.43011
G1 X100.32 Y138.808 E115.53399
G1 X100.84 Y138.808 E115.56862
G1 X101.36 Y138.808 E115.60324
G1 X101.36 Y138.048 E115.65385
G1 X133.64 Y138.048 E117.80327
G1 X133.64 Y139.328 E117.8885
G1 X101.36 Y139.328 E120.03792
G1 X100.84 Y139.328 E120.07255
G1 X100.84 Y139.848 E120.10717
G1 X134.16 Y139.848 E122.32584
G1 X134.16 Y137.528 E122.48032
G1 X100.84 Y137.528 E124.699
G1 X100.84 Y138.288 E124.7496
G1 X100.32 Y138.288 E124.78423
G1 X99.8 Y138.288 E124.81885
G1 X99.8 Y140.888 E124.99198
G1 X135.2 Y140.888 E127.34915
G1 X135.2 Y136.488 E127.64213
G1 X99.8 Y136.488 E129.9993
G1 X99.8 Y137.248 E130.04991
G1 X99.28 Y137.248 E130.08454
G1 X99.28 Y135.968 E130.16977
G1 X135.72 Y135.968 E132.59619
G1 X135.72 Y141.408 E132.95842
G1 X99.718 Y141.408 E135.35568
G0 F540 X99.28 Y141.408
G0 F2100 X98.96 Y141.408
G0 X99.06 Y138.688
G0 X102 Y138.688
M104 S225
G1 F410.5 X133 Y138.688 E138.37257
;MESH:NONMESH
G0 F300 X133 Y138.688 Z0.44
G0 F2100 X138.165 Y138.688
G0 X138.153 Y133.535
G0 X133 Y112.165
G0 X133 Y111.07
G0 X98.18 Y110.82
G0 X97.7 Y111.3
;TIME_ELAPSED:218.788809
;LAYER:1
;WIPE_SCRIPT_BEGIN
G0 F9000 X100 Y111.3
G0 X120 Y111.3
G0 X100 Y111.3
G0 X120 Y111.3
G0 X100 Y111.3
G0 X120 Y111.3
G0 X97.7 Y111.3
;WIPE_SCRIPT_END
;TYPE:WALL-OUTER
;MESH:rubber jaw v1.stl(1)
G1 F525 X137.3 Y111.3 E139.53162
G1 X137.3 Y102.7 E139.78334
G1 X97.7 Y102.7 E140.94238
G1 X97.7 Y110.3 E141.16483
G0 F472.5 X97.7 Y111.3
G0 F5550 X98.1 Y110.9
;TYPE:WALL-INNER
G1 F525 X136.9 Y110.9 E142.30046
G1 X136.9 Y103.1 E142.52876
G1 X98.1 Y103.1 E143.66439
G1 X98.1 Y109.9 E143.86342
G0 F472.5 X98.1 Y110.9
G0 F5550 X98.5 Y110.5
G1 F525 X136.5 Y110.5 E144.97564
G1 X136.5 Y103.5 E145.18052
G1 X98.5 Y103.5 E146.29274
G1 X98.5 Y109.5 E146.46836
G0 F472.5 X98.5 Y110.5
G0 F5550 X98.86 Y110.14
;TYPE:SKIN
G1 F525 X136.14 Y110.14 E147.5595
G1 X136.14 Y103.86 E147.74331
G1 X98.86 Y103.86 E148.83446
G1 X98.86 Y109.14 E148.989
G0 F472.5 X98.86 Y110.14
G0 F5550 X98.6 Y110.14
G0 X98.6 Y104.586
G0 X99.06 Y104.586
G1 F525 X99.587 Y104.059 E149.01081
G0 F5550 X100.153 Y104.059
G1 F525 X99.06 Y105.152 E149.05605
G0 F5550 X99.06 Y105.718
G1 F525 X100.718 Y104.059 E149.1247
G0 F5550 X101.284 Y104.059
G1 F525 X99.06 Y106.283 E149.21676
G0 F5550 X99.06 Y106.849
G1 F525 X101.85 Y104.059 E149.33224
G0 F5550 X102.415 Y104.059
G1 F525 X99.06 Y107.415 E149.47114
G0 F5550 X99.06 Y107.98
G1 F525 X102.981 Y104.059 E149.63344
G0 F5550 X103.547 Y104.059
G1 F525 X99.06 Y108.546 E149.81916
G0 F5550 X99.06 Y109.112
