;FLAVOR:Marlin
;TIME:2424
;Filament used: 0.635132m
;Layer height: 0.16
;MINX:86.2
;MINY:91.2
;MINZ:0.28
;MAXX:148.8
;MAXY:201.325
;MAXZ:5.08
;Generated with Cura_SteamEngine 5.0.0
M140 S60
M105
M190 S60
M104 S240
M105
M109 S240
M82 ;absolute extrusion mode
; Ender 3 Custom Start G-code
G92 E0 ; Reset Extruder
M140 S60 ; Start heating the heated bed
M190 S60 ; Wait until the heated bed reaches the desired temperature
G28 ; Auto Home
G29 A; Activate Bed Leveling
G29 L0; Loads the saved mesh in slot 0
G29  J3; 9 point autotilt

G92 E0 ; Reset extruder origin
G1 Z2.0 F3000 ; Move Z Axis up little to prevent scratching of Heat Bed
G1 X0.1 Y20 Z0.3 F5000.0 ; Move to start position
G1 X0.1 Y200.0 Z0.3 F1500.0 E15 ; Draw the first line
G1 X0.4 Y200.0 Z0.3 F5000.0 ; Move to side a little
G1 X0.4 Y20 Z0.3 F1500.0 E30 ; Draw the second line
G92 E0 ; Reset Extruder
G1 Z2.0 F3000 ; Move Z Axis up little to prevent scratching of Heat Bed
G1 X5 Y20 Z0.3 F5000.0 ; Move over to prevent blob squish

; End of Ender 3 Custom Start G-code
G92 E0
G92 E0
;LAYER_COUNT:31
;LAYER:0
M107
G0 F2100 X89.403 Y94.636 Z0.28
G0 X86.201 Y103.021
;TYPE:SKIRT
G1 F600 X86.21 Y102.356 E0.04428
G1 X86.263 Y101.407 E0.10757
G1 X86.395 Y100.466 E0.17085
G1 X86.606 Y99.539 E0.23415
G1 X86.895 Y98.633 E0.29747
G1 X87.258 Y97.755 E0.36074
G1 X87.694 Y96.91 E0.42405
G1 X88.199 Y96.105 E0.48733
G1 X88.77 Y95.345 E0.55062
G1 X89.403 Y94.636 E0.61391
G1 X90.094 Y93.982 E0.67726
G1 X90.837 Y93.389 E0.74056
G1 X91.627 Y92.861 E0.80383
G1 X92.458 Y92.4 E0.86711
G1 X93.326 Y92.012 E0.93042
G1 X94.223 Y91.697 E0.99372
G1 X95.143 Y91.459 E1.057
G1 X96.08 Y91.3 E1.12028
G1 X97.192 Y91.213 E1.19456
G1 X97.83 Y91.2 E1.23705
G1 X136.793 Y91.2 E3.83147
G1 X137.653 Y91.211 E3.88874
G1 X138.602 Y91.265 E3.95203
G1 X139.543 Y91.398 E4.01531
G1 X140.47 Y91.61 E4.07863
G1 X141.375 Y91.899 E4.14189
G1 X142.254 Y92.263 E4.20524
G1 X143.098 Y92.699 E4.26849
G1 X143.903 Y93.205 E4.33181
G1 X144.662 Y93.777 E4.39509
G1 X145.371 Y94.411 E4.45842
G1 X146.024 Y95.102 E4.52173
G1 X146.616 Y95.845 E4.58499
G1 X147.144 Y96.635 E4.64826
G1 X147.604 Y97.467 E4.71156
G1 X147.992 Y98.335 E4.77487
G1 X148.305 Y99.233 E4.83819
G1 X148.542 Y100.153 E4.90145
G1 X148.701 Y101.09 E4.96474
G1 X148.787 Y102.192 E5.03834
G1 X148.8 Y102.83 E5.08083
G1 X148.798 Y110.967 E5.62265
G1 X148.785 Y111.727 E5.67326
G1 X148.731 Y112.653 E5.73503
G1 X148.627 Y113.688 E5.80429
G1 X148.556 Y114.308 E5.84584
G1 X148.338 Y116.836 E6.0148
G1 X148.194 Y119.317 E6.18028
G1 X148.121 Y121.825 E6.34735
G1 X148.118 Y124.337 E6.51462
G1 X148.186 Y126.842 E6.68148
G1 X148.326 Y129.368 E6.84993
G1 X148.538 Y131.9 E7.01912
G1 X148.726 Y133.64 E7.13566
G1 X148.786 Y134.532 E7.19519
G1 X148.8 Y135.17 E7.23768
G1 X148.799 Y143.27 E7.77703
G1 X148.789 Y143.995 E7.82531
G1 X148.771 Y144.488 E7.85816
G1 X148.612 Y147.249 E8.04231
G1 X148.54 Y149.754 E8.20918
G1 X148.54 Y152.261 E8.37611
G1 X148.611 Y154.798 E8.54511
G1 X148.785 Y158.013 E8.7595
G1 X148.8 Y158.685 E8.80426
G1 X148.799 Y166.786 E9.34368
G1 X148.789 Y167.511 E9.39196
G1 X148.773 Y167.971 E9.42261
G1 X148.641 Y170.381 E9.58332
G1 X148.57 Y172.938 E9.75365
G1 X148.57 Y175.445 E9.92058
G1 X148.641 Y177.939 E10.08672
G1 X148.785 Y180.682 E10.26962
G1 X148.8 Y181.354 E10.31437
G1 X148.799 Y189.444 E10.85306
G1 X148.789 Y190.171 E10.90147
G1 X148.736 Y191.121 E10.96483
G1 X148.603 Y192.062 E11.02811
G1 X148.392 Y192.989 E11.09141
G1 X148.104 Y193.894 E11.15465
G1 X147.74 Y194.773 E11.218
G1 X147.304 Y195.617 E11.28126
G1 X146.799 Y196.422 E11.34453
G1 X146.227 Y197.182 E11.40787
G1 X145.594 Y197.891 E11.47116
G1 X144.903 Y198.544 E11.53447
G1 X144.16 Y199.137 E11.59777
G1 X143.37 Y199.666 E11.66107
G1 X142.538 Y200.126 E11.72438
G1 X141.671 Y200.514 E11.78763
G1 X140.774 Y200.828 E11.85091
G1 X139.853 Y201.066 E11.91425
G1 X138.916 Y201.226 E11.97754
G1 X137.808 Y201.312 E12.05154
G1 X137.17 Y201.325 E12.09403
G1 X98.061 Y201.324 E14.69818
G1 X97.363 Y201.315 E14.74466
G1 X96.414 Y201.263 E14.80794
G1 X95.473 Y201.131 E14.87122
G1 X94.546 Y200.921 E14.93451
G1 X93.64 Y200.633 E14.99781
G1 X92.761 Y200.27 E15.06113
G1 X91.916 Y199.835 E15.12442
G1 X91.111 Y199.33 E15.18769
G1 X90.35 Y198.759 E15.25104
G1 X89.641 Y198.127 E15.31429
G1 X88.987 Y197.437 E15.37759
G1 X88.394 Y196.694 E15.44089
G1 X87.865 Y195.904 E15.5042
G1 X87.404 Y195.073 E15.56748
G1 X87.014 Y194.206 E15.63078
G1 X86.699 Y193.309 E15.69408
G1 X86.461 Y192.389 E15.75736
G1 X86.301 Y191.452 E15.82065
G1 X86.213 Y190.321 E15.89619
G1 X86.2 Y189.683 E15.93868
G1 X86.201 Y181.572 E16.47877
G1 X86.211 Y180.866 E16.52578
G1 X86.227 Y180.41 E16.55617
G1 X86.359 Y178 E16.71688
G1 X86.43 Y175.443 E16.88721
G1 X86.43 Y172.936 E17.05414
G1 X86.358 Y170.439 E17.22048
G1 X86.215 Y167.698 E17.40324
G1 X86.2 Y167.026 E17.448
G1 X86.201 Y158.904 E17.98882
G1 X86.211 Y158.193 E18.03616
G1 X86.229 Y157.702 E18.06888
G1 X86.389 Y154.929 E18.25383
G1 X86.46 Y152.433 E18.4201
G1 X86.46 Y149.929 E18.58683
G1 X86.389 Y147.401 E18.75523
G1 X86.213 Y144.149 E18.97209
G1 X86.2 Y143.511 E19.01458
G1 X86.202 Y135.349 E19.55806
G1 X86.215 Y134.608 E19.60741
G1 X86.269 Y133.687 E19.66884
G1 X86.373 Y132.652 E19.73811
G1 X86.446 Y132.011 E19.78106
G1 X86.662 Y129.504 E19.94862
G1 X86.807 Y127.003 E20.11543
G1 X86.879 Y124.503 E20.28196
G1 X86.882 Y121.992 E20.44916
G1 X86.814 Y119.484 E20.61622
G1 X86.674 Y116.968 E20.78402
G1 X86.462 Y114.442 E20.95281
G1 X86.274 Y112.699 E21.06954
G1 X86.214 Y111.808 E21.129
G1 X86.2 Y111.17 E21.1715
G1 X86.201 Y103.459 E21.68495
G0 F540 X86.201 Y103.021
G0 F2100 X86.721 Y103.028
G1 F600 X86.73 Y102.363 E21.72923
G1 X86.783 Y101.436 E21.79106
G1 X86.915 Y100.517 E21.85288
G1 X87.125 Y99.613 E21.91468
G1 X87.413 Y98.73 E21.97652
G1 X87.776 Y97.876 E22.03831
G1 X88.21 Y97.055 E22.10015
G1 X88.714 Y96.275 E22.16198
G1 X89.283 Y95.542 E22.22377
G1 X89.913 Y94.86 E22.28559
G1 X90.6 Y94.234 E22.34748
G1 X91.337 Y93.671 E22.40924
G1 X92.121 Y93.172 E22.47112
G1 X92.944 Y92.743 E22.53292
G1 X93.801 Y92.387 E22.59471
G1 X94.686 Y92.105 E22.65656
G1 X95.592 Y91.901 E22.7184
G1 X96.511 Y91.775 E22.78016
G1 X97.207 Y91.733 E22.82659
G1 X97.83 Y91.72 E22.86808
G1 X136.793 Y91.72 E25.4625
G1 X137.645 Y91.731 E25.51924
G1 X138.572 Y91.784 E25.58107
G1 X139.491 Y91.917 E25.6429
G1 X140.395 Y92.129 E25.70473
G1 X141.278 Y92.417 E25.76657
G1 X142.132 Y92.78 E25.82836
G1 X142.952 Y93.216 E25.8902
G1 X143.732 Y93.72 E25.95204
G1 X144.465 Y94.29 E26.01386
G1 X145.146 Y94.92 E26.07564
G1 X145.771 Y95.607 E26.13748
G1 X146.334 Y96.345 E26.19929
G1 X146.832 Y97.129 E26.26113
G1 X147.26 Y97.953 E26.32296
G1 X147.616 Y98.81 E26.38475
G1 X147.897 Y99.695 E26.44658
G1 X148.101 Y100.601 E26.50842
G1 X148.226 Y101.521 E26.57024
G1 X148.267 Y102.207 E26.616
G1 X148.28 Y102.83 E26.6575
G1 X148.278 Y110.958 E27.19871
G1 X148.265 Y111.718 E27.24933
G1 X148.214 Y112.602 E27.30829
G1 X148.111 Y113.629 E27.37702
G1 X148.038 Y114.265 E27.41964
G1 X147.82 Y116.785 E27.58807
G1 X147.673 Y119.327 E27.75761
G1 X147.601 Y121.819 E27.92362
G1 X147.598 Y124.353 E28.09235
G1 X147.666 Y126.872 E28.26014
G1 X147.807 Y129.409 E28.42933
G1 X148.017 Y131.915 E28.59678
G1 X148.209 Y133.696 E28.71606
G1 X148.267 Y134.547 E28.77286
G1 X148.28 Y135.17 E28.81435
G1 X148.279 Y143.263 E29.35324
G1 X148.269 Y143.988 E29.40152
G1 X148.252 Y144.458 E29.43284
G1 X148.093 Y147.22 E29.61705
G1 X148.02 Y149.763 E29.78645
G1 X148.02 Y152.275 E29.95372
G1 X148.09 Y154.798 E30.12178
G1 X148.265 Y158.028 E30.33717
G1 X148.28 Y158.685 E30.38093
G1 X148.279 Y166.779 E30.91988
G1 X148.269 Y167.504 E30.96816
G1 X148.254 Y167.943 E30.99741
G1 X148.121 Y170.377 E31.15973
G1 X148.05 Y172.923 E31.32932
G1 X148.05 Y175.424 E31.49586
G1 X148.123 Y177.983 E31.66632
G1 X148.265 Y180.697 E31.84729
G1 X148.28 Y181.354 E31.89104
G1 X148.279 Y189.437 E32.42927
G1 X148.269 Y190.164 E32.47768
G1 X148.216 Y191.091 E32.53951
G1 X148.084 Y192.01 E32.60133
G1 X147.873 Y192.914 E32.66314
G1 X147.585 Y193.797 E32.72498
G1 X147.222 Y194.652 E32.78683
G1 X146.787 Y195.472 E32.84864
G1 X146.283 Y196.252 E32.91048
G1 X145.714 Y196.985 E32.97227
G1 X145.084 Y197.667 E33.03409
G1 X144.398 Y198.292 E33.09588
G1 X143.66 Y198.856 E33.15773
G1 X142.876 Y199.354 E33.21958
G1 X142.053 Y199.783 E33.28138
G1 X141.196 Y200.139 E33.34317
G1 X140.311 Y200.42 E33.405
G1 X139.405 Y200.625 E33.46685
G1 X138.485 Y200.75 E33.52867
G1 X137.793 Y200.792 E33.57484
G1 X137.17 Y200.805 E33.61633
G1 X98.068 Y200.804 E36.22001
G1 X97.37 Y200.795 E36.26649
G1 X96.443 Y200.743 E36.32831
G1 X95.524 Y200.612 E36.39012
G1 X94.62 Y200.402 E36.45192
G1 X93.737 Y200.114 E36.51376
G1 X92.882 Y199.752 E36.57559
G1 X92.061 Y199.318 E36.63742
G1 X91.281 Y198.815 E36.69922
G1 X90.547 Y198.246 E36.76106
G1 X89.865 Y197.617 E36.82284
G1 X89.239 Y196.931 E36.88468
G1 X88.675 Y196.193 E36.94653
G1 X88.176 Y195.41 E37.00835
G1 X87.746 Y194.587 E37.07018
G1 X87.389 Y193.73 E37.132
G1 X87.107 Y192.846 E37.19379
G1 X86.902 Y191.94 E37.25564
G1 X86.776 Y191.02 E37.31747
G1 X86.733 Y190.307 E37.36503
G1 X86.72 Y189.683 E37.40659
G1 X86.721 Y181.579 E37.94621
G1 X86.731 Y180.873 E37.99323
G1 X86.746 Y180.438 E38.02221
G1 X86.879 Y178.004 E38.18452
G1 X86.95 Y175.458 E38.35412
G1 X86.95 Y172.956 E38.52072
G1 X86.877 Y170.398 E38.69112
G1 X86.735 Y167.683 E38.87215
G1 X86.72 Y167.026 E38.91591
G1 X86.721 Y158.911 E39.45626
G1 X86.731 Y158.2 E39.50361
G1 X86.748 Y157.732 E39.53479
G1 X86.907 Y154.974 E39.71874
G1 X86.98 Y152.422 E39.88874
G1 X86.98 Y149.914 E40.05574
G1 X86.908 Y147.357 E40.22607
G1 X86.733 Y144.134 E40.441
G1 X86.72 Y143.511 E40.48249
G1 X86.722 Y135.358 E41.02537
G1 X86.735 Y134.617 E41.07472
G1 X86.786 Y133.738 E41.13335
G1 X86.889 Y132.711 E41.20208
G1 X86.965 Y132.041 E41.24697
G1 X87.181 Y129.544 E41.41386
G1 X87.327 Y127.013 E41.58267
G1 X87.399 Y124.514 E41.74914
G1 X87.402 Y121.977 E41.91807
G1 X87.333 Y119.444 E42.0868
G1 X87.193 Y116.931 E42.25439
G1 X86.983 Y114.424 E42.42191
G1 X86.791 Y112.643 E42.54119
G1 X86.733 Y111.793 E42.59792
G1 X86.72 Y111.17 E42.63941
G1 X86.721 Y103.466 E43.1524
G0 F540 X86.721 Y103.028
G0 F2100 X87.241 Y103.035
G1 F600 X87.25 Y102.37 E43.19668
G1 X87.302 Y101.466 E43.25697
G1 X87.434 Y100.57 E43.31728
G1 X87.644 Y99.689 E43.37759
G1 X87.931 Y98.83 E43.43789
G1 X88.293 Y97.999 E43.49825
G1 X88.727 Y97.204 E43.55856
G1 X89.229 Y96.45 E43.61888
G1 X89.796 Y95.744 E43.67917
G1 X90.422 Y95.09 E43.73945
G1 X91.104 Y94.494 E43.79976
G1 X91.836 Y93.96 E43.86009
G1 X92.612 Y93.493 E43.9204
G1 X93.426 Y93.096 E43.98071
G1 X94.272 Y92.773 E44.041
G1 X95.144 Y92.525 E44.10137
G1 X96.033 Y92.356 E44.16163
G1 X97.221 Y92.253 E44.24103
G1 X97.83 Y92.24 E44.28159
G1 X136.793 Y92.24 E46.87601
G1 X137.638 Y92.251 E46.93228
G1 X138.542 Y92.304 E46.99258
G1 X139.438 Y92.436 E47.05288
G1 X140.319 Y92.647 E47.11321
G1 X141.178 Y92.935 E47.17353
G1 X142.008 Y93.298 E47.23385
G1 X142.803 Y93.732 E47.29417
G1 X143.556 Y94.235 E47.35446
G1 X144.262 Y94.802 E47.41476
G1 X144.916 Y95.429 E47.47509
G1 X145.511 Y96.112 E47.5354
G1 X146.045 Y96.844 E47.59573
G1 X146.511 Y97.62 E47.65601
G1 X146.907 Y98.435 E47.71634
G1 X147.23 Y99.281 E47.77664
G1 X147.477 Y100.153 E47.83699
G1 X147.646 Y101.043 E47.89731
G1 X147.747 Y102.222 E47.9761
G1 X147.76 Y102.83 E48.0166
G1 X147.758 Y110.949 E48.55721
G1 X147.745 Y111.709 E48.60783
G1 X147.697 Y112.55 E48.66392
G1 X147.594 Y113.57 E48.73218
G1 X147.518 Y114.232 E48.77655
G1 X147.301 Y116.756 E48.94524
G1 X147.155 Y119.282 E49.11372
G1 X147.081 Y121.826 E49.28319
G1 X147.078 Y124.368 E49.45245
G1 X147.147 Y126.902 E49.62124
G1 X147.288 Y129.444 E49.79077
G1 X147.5 Y131.972 E49.95969
G1 X147.692 Y133.752 E50.0789
G1 X147.747 Y134.562 E50.13296
G1 X147.76 Y135.17 E50.17345
G1 X147.759 Y143.256 E50.71187
G1 X147.749 Y143.981 E50.76015
G1 X147.733 Y144.428 E50.78994
G1 X147.573 Y147.209 E50.97542
G1 X147.5 Y149.759 E51.14529
G1 X147.5 Y152.29 E51.31382
G1 X147.571 Y154.849 E51.48428
G1 X147.745 Y158.044 E51.69734
G1 X147.76 Y158.685 E51.74003
G1 X147.759 Y166.772 E52.27852
G1 X147.749 Y167.497 E52.3268
G1 X147.735 Y167.914 E52.35458
G1 X147.601 Y170.369 E52.5183
G1 X147.53 Y172.909 E52.68749
G1 X147.53 Y175.439 E52.85596
G1 X147.604 Y178.024 E53.02816
G1 X147.745 Y180.713 E53.20745
G1 X147.76 Y181.354 E53.25015
G1 X147.759 Y189.43 E53.7879
G1 X147.749 Y190.157 E53.83632
G1 X147.697 Y191.061 E53.89661
G1 X147.565 Y191.957 E53.95692
G1 X147.354 Y192.838 E54.01724
G1 X147.067 Y193.697 E54.07754
G1 X146.705 Y194.528 E54.1379
G1 X146.271 Y195.323 E54.19821
G1 X145.769 Y196.077 E54.25853
G1 X145.202 Y196.783 E54.31882
G1 X144.575 Y197.437 E54.37915
G1 X143.893 Y198.033 E54.43946
G1 X143.161 Y198.566 E54.49975
G1 X142.385 Y199.033 E54.56006
G1 X141.571 Y199.43 E54.62036
G1 X140.724 Y199.753 E54.68072
G1 X139.853 Y200 E54.74101
G1 X138.963 Y200.17 E54.80134
G1 X137.778 Y200.272 E54.88054
G1 X137.17 Y200.285 E54.92103
G1 X98.075 Y200.284 E57.52424
G1 X97.377 Y200.275 E57.57072
G1 X96.472 Y200.224 E57.63108
G1 X95.576 Y200.092 E57.69139
G1 X94.695 Y199.883 E57.75168
G1 X93.836 Y199.596 E57.81198
G1 X93.005 Y199.235 E57.87231
G1 X92.21 Y198.802 E57.93259
G1 X91.456 Y198.3 E57.99291
G1 X90.749 Y197.734 E58.05321
G1 X90.094 Y197.107 E58.11359
G1 X89.498 Y196.426 E58.17385
G1 X88.964 Y195.694 E58.23418
G1 X88.496 Y194.919 E58.29447
G1 X88.099 Y194.105 E58.35477
G1 X87.775 Y193.259 E58.41509
G1 X87.527 Y192.388 E58.47539
G1 X87.357 Y191.498 E58.53573
G1 X87.253 Y190.293 E58.61626
G1 X87.24 Y189.683 E58.65689
G1 X87.241 Y181.587 E59.19598
G1 X87.251 Y180.881 E59.24299
G1 X87.265 Y180.467 E59.27057
G1 X87.399 Y178.012 E59.43429
G1 X87.47 Y175.472 E59.60349
G1 X87.47 Y172.941 E59.77202
G1 X87.396 Y170.355 E59.94428
G1 X87.255 Y167.667 E60.12351
G1 X87.24 Y167.026 E60.16621
G1 X87.241 Y158.919 E60.70602
G1 X87.251 Y158.208 E60.75337
G1 X87.267 Y157.762 E60.78309
G1 X87.427 Y154.976 E60.96891
G1 X87.5 Y152.433 E61.13831
G1 X87.5 Y149.899 E61.30704
G1 X87.429 Y147.352 E61.4767
G1 X87.253 Y144.119 E61.69229
G1 X87.24 Y143.511 E61.73279
G1 X87.242 Y135.367 E62.27507
G1 X87.255 Y134.626 E62.32442
G1 X87.303 Y133.79 E62.38018
G1 X87.406 Y132.77 E62.44844
G1 X87.482 Y132.108 E62.49281
G1 X87.699 Y129.584 E62.6615
G1 X87.845 Y127.052 E62.83037
G1 X87.919 Y124.5 E63.00037
G1 X87.922 Y121.964 E63.16924
G1 X87.853 Y119.435 E63.3377
G1 X87.712 Y116.896 E63.50702
G1 X87.5 Y114.364 E63.67621
G1 X87.308 Y112.587 E63.79522
G1 X87.253 Y111.778 E63.84922
G1 X87.24 Y111.17 E63.88971
G1 X87.241 Y103.473 E64.40223
G0 F540 X87.241 Y103.035
;MESH:rubber jaw v2.stl(1)
G0 F2100 X96.835 Y103.035
G0 X97.93 Y103.035
G0 X98.18 Y110.82
G0 X97.76 Y111.24
;TYPE:WALL-OUTER
G1 F600 X137.24 Y111.24 E67.03108
G1 X137.24 Y102.76 E67.59573
G1 X97.76 Y102.76 E70.22458
G1 X97.76 Y110.802 E70.76007
G0 F540 X97.76 Y111.24
G0 F2100 X98.28 Y110.72
;TYPE:WALL-INNER
G1 F600 X136.72 Y110.72 E73.31967
G1 X136.72 Y103.28 E73.81507
G1 X98.28 Y103.28 E76.37467
G1 X98.28 Y110.282 E76.84091
G0 F540 X98.28 Y110.72
G0 F2100 X98.8 Y110.2
G1 F600 X136.2 Y110.2 E79.33125
G1 X136.2 Y103.8 E79.75741
G1 X98.8 Y103.8 E82.24776
G1 X98.8 Y109.762 E82.64475
G0 F540 X98.8 Y110.2
G0 F2100 X99.28 Y109.72
;TYPE:SKIN
G1 F600 X99.28 Y106.08 E82.88712
G1 X99.8 Y106.08 E82.92175
G1 X100.32 Y106.08 E82.95637
G1 X100.32 Y105.32 E83.00698
G1 X134.68 Y105.32 E85.2949
G1 X134.68 Y108.68 E85.51863
G1 X100.32 Y108.68 E87.80655
G1 X100.32 Y107.12 E87.91043
G1 X100.84 Y107.12 E87.94506
G1 X101.36 Y107.12 E87.97968
G1 X101.36 Y106.36 E88.03029
G1 X133.64 Y106.36 E90.17971
G1 X133.64 Y107.64 E90.26494
G1 X101.36 Y107.64 E92.41436
G1 X100.84 Y107.64 E92.44899
G1 X100.84 Y108.16 E92.48361
G1 X134.16 Y108.16 E94.70228
G1 X134.16 Y105.84 E94.85676
G1 X100.84 Y105.84 E97.07544
G1 X100.84 Y106.6 E97.12604
G1 X100.32 Y106.6 E97.16067
G1 X99.8 Y106.6 E97.19529
G1 X99.8 Y109.2 E97.36842
G1 X135.2 Y109.2 E99.72559
G1 X135.2 Y104.8 E100.01857
G1 X99.8 Y104.8 E102.37574
G1 X99.8 Y105.56 E102.42635
G1 X99.28 Y105.56 E102.46098
G1 X99.28 Y104.28 E102.54621
