;FLAVOR:Marlin
;TIME:436
;Filament used: 0.306316m
;Layer height: 0.2
;MINX:96.4
;MINY:96.4
;MINZ:0.2
;MAXX:138.6
;MAXY:138.6
;MAXZ:2
;Generated with Cura_SteamEngine 4.13.1
M140 S60
M105
M190 S60
M104 S222
M105
M109 S222
M82 ;absolute extrusion mode
; Ender 3 Custom Start G-code
G92 E0 ; Reset Extruder
M140 S60 ; Start heating the heated bed
M190 S60 ; Wait until the heated bed reaches the desired temperature
G28 ; Auto Home
G29 A; Activate Bed Leveling 
G29 L0; Loads the saved mesh in slot 0
G29  J3; 9 point autotilt

G92 E0 ; Reset extruder origin

G1 Z2.0 F3000 ; Move Z Axis up little to prevent scratching of Heat Bed
G1 X0.1 Y20 Z0.3 F5000.0 ; Move to start position
G1 X0.1 Y200.0 Z0.3 F1500.0 E15 ; Draw the first line
G1 X0.4 Y200.0 Z0.3 F5000.0 ; Move to side a little
G1 X0.4 Y20 Z0.3 F1500.0 E30 ; Draw the second line
G92 E0 ; Reset Extruder
G1 Z2.0 F3000 ; Move Z Axis up little to prevent scratching of Heat Bed
G1 X5 Y20 Z0.3 F5000.0 ; Move over to prevent blob squish

; End of Ender 3 Custom Start G-code
G92 E0
G92 E0
G1 F2700 E-5
;LAYER_COUNT:10
;LAYER:0
M107
G0 F2100 X99.6 Y99.721 Z0.2
;TYPE:SKIRT
G1 F2700 E0
G1 F1200 X100.288 Y99.079 E0.03443
G1 X101.029 Y98.497 E0.0689
G1 X101.817 Y97.98 E0.10338
G1 X102.646 Y97.531 E0.13787
G1 X103.509 Y97.155 E0.17232
G1 X104.402 Y96.853 E0.2068
G1 X105.316 Y96.628 E0.24124
G1 X106.247 Y96.481 E0.27573
G1 X107.198 Y96.413 E0.31061
G1 X107.519 Y96.404 E0.32236
G1 X107.83 Y96.4 E0.33374
G1 X126.793 Y96.4 E1.02752
G1 X127.65 Y96.411 E1.05888
G1 X128.591 Y96.465 E1.09336
G1 X129.523 Y96.598 E1.1278
G1 X130.441 Y96.809 E1.16227
G1 X131.338 Y97.098 E1.19675
G1 X132.207 Y97.462 E1.23122
G1 X133.042 Y97.898 E1.26568
G1 X133.837 Y98.403 E1.30014
G1 X134.587 Y98.974 E1.33462
G1 X135.285 Y99.607 E1.3691
G1 X135.927 Y100.296 E1.40355
G1 X136.509 Y101.037 E1.43803
G1 X137.025 Y101.825 E1.47249
G1 X137.473 Y102.654 E1.50696
G1 X137.848 Y103.518 E1.54142
G1 X138.15 Y104.411 E1.57591
G1 X138.374 Y105.326 E1.61038
G1 X138.52 Y106.257 E1.64485
G1 X138.587 Y107.198 E1.67937
G1 X138.596 Y107.518 E1.69108
G1 X138.6 Y107.83 E1.7025
G1 X138.599 Y126.901 E2.40023
G1 X138.59 Y127.628 E2.42683
G1 X138.539 Y128.569 E2.46131
G1 X138.407 Y129.502 E2.49578
G1 X138.197 Y130.421 E2.53027
G1 X137.91 Y131.318 E2.56473
G1 X137.548 Y132.188 E2.5992
G1 X137.114 Y133.024 E2.63367
G1 X136.61 Y133.82 E2.66814
G1 X136.041 Y134.57 E2.70258
G1 X135.409 Y135.27 E2.73708
G1 X134.721 Y135.913 E2.77154
G1 X133.981 Y136.496 E2.806
G1 X133.194 Y137.014 E2.84047
G1 X132.366 Y137.463 E2.87493
G1 X131.503 Y137.841 E2.9094
G1 X130.611 Y138.144 E2.94387
G1 X129.696 Y138.37 E2.97835
G1 X128.766 Y138.518 E3.01281
G1 X127.802 Y138.587 E3.04816
G1 X127.481 Y138.596 E3.05991
G1 X127.17 Y138.6 E3.07129
G1 X108.064 Y138.599 E3.77031
G1 X107.366 Y138.59 E3.79585
G1 X106.425 Y138.538 E3.83033
G1 X105.492 Y138.406 E3.8648
G1 X104.574 Y138.196 E3.89926
G1 X103.677 Y137.908 E3.93372
G1 X102.807 Y137.546 E3.9682
G1 X101.971 Y137.111 E4.00268
G1 X101.176 Y136.607 E4.03712
G1 X100.425 Y136.037 E4.07161
G1 X99.726 Y135.405 E4.10609
G1 X99.083 Y134.717 E4.14054
G1 X98.501 Y133.976 E4.17501
G1 X97.983 Y133.189 E4.20948
G1 X97.534 Y132.361 E4.24394
G1 X97.157 Y131.497 E4.27843
G1 X96.855 Y130.605 E4.31289
G1 X96.629 Y129.691 E4.34733
G1 X96.482 Y128.76 E4.38182
G1 X96.413 Y127.791 E4.41736
G1 X96.404 Y127.458 E4.42955
G1 X96.4 Y127.158 E4.44052
G1 X96.401 Y108.024 E5.14056
G1 X96.41 Y107.359 E5.1649
G1 X96.463 Y106.418 E5.19938
G1 X96.595 Y105.485 E5.23385
G1 X96.806 Y104.567 E5.26831
G1 X97.094 Y103.67 E5.30278
G1 X97.457 Y102.801 E5.33724
G1 X97.892 Y101.965 E5.37172
G1 X98.397 Y101.17 E5.40617
G1 X98.968 Y100.42 E5.44066
G1 X99.6 Y99.721 E5.47514
G0 F2100 X100.031 Y99.912
G1 F1200 X100.716 Y99.294 E5.50889
G1 X101.452 Y98.737 E5.54266
G1 X102.234 Y98.246 E5.57644
G1 X103.056 Y97.824 E5.61025
G1 X103.91 Y97.475 E5.644
G1 X104.792 Y97.201 E5.67779
G1 X105.694 Y97.005 E5.71156
G1 X106.61 Y96.887 E5.74535
G1 X107.21 Y96.853 E5.76734
G1 X107.531 Y96.844 E5.77909
G1 X107.83 Y96.84 E5.79003
G1 X126.793 Y96.84 E6.48381
G1 X127.644 Y96.851 E6.51495
G1 X128.565 Y96.904 E6.5487
G1 X129.479 Y97.037 E6.58249
G1 X130.378 Y97.248 E6.61628
G1 X131.255 Y97.537 E6.65006
G1 X132.104 Y97.9 E6.68384
G1 X132.918 Y98.335 E6.71761
G1 X133.692 Y98.839 E6.7514
G1 X134.419 Y99.408 E6.78518
G1 X135.094 Y100.038 E6.81896
G1 X135.712 Y100.724 E6.85274
G1 X136.268 Y101.46 E6.88649
G1 X136.759 Y102.243 E6.9203
G1 X137.18 Y103.064 E6.95406
G1 X137.528 Y103.919 E6.98783
G1 X137.801 Y104.801 E7.02161
G1 X137.997 Y105.703 E7.05538
G1 X138.114 Y106.619 E7.08916
G1 X138.147 Y107.21 E7.11082
G1 X138.156 Y107.53 E7.12253
G1 X138.16 Y107.83 E7.13351
G1 X138.159 Y126.896 E7.83106
G1 X138.15 Y127.623 E7.85766
G1 X138.099 Y128.545 E7.89145
G1 X137.968 Y129.459 E7.92523
G1 X137.758 Y130.358 E7.959
G1 X137.472 Y131.236 E7.99279
G1 X137.11 Y132.085 E8.02655
G1 X136.677 Y132.9 E8.06032
G1 X136.174 Y133.675 E8.09412
G1 X135.607 Y134.403 E8.12788
G1 X134.978 Y135.079 E8.16166
G1 X134.293 Y135.699 E8.19547
G1 X133.558 Y136.256 E8.22921
G1 X132.776 Y136.748 E8.26301
G1 X131.956 Y137.171 E8.29677
G1 X131.101 Y137.521 E8.33057
G1 X130.22 Y137.796 E8.36433
G1 X129.318 Y137.993 E8.39811
G1 X128.402 Y138.112 E8.43191
G1 X127.79 Y138.147 E8.45433
G1 X127.469 Y138.156 E8.46608
G1 X127.17 Y138.16 E8.47702
G1 X108.07 Y138.159 E9.17582
G1 X107.372 Y138.15 E9.20136
G1 X106.45 Y138.098 E9.23514
G1 X105.536 Y137.967 E9.26893
G1 X104.637 Y137.757 E9.3027
G1 X103.759 Y137.47 E9.3365
G1 X102.91 Y137.108 E9.37026
G1 X102.095 Y136.674 E9.40405
G1 X101.321 Y136.171 E9.43782
G1 X100.593 Y135.603 E9.4716
G1 X99.917 Y134.974 E9.50538
G1 X99.298 Y134.289 E9.53916
G1 X98.741 Y133.553 E9.57293
G1 X98.249 Y132.772 E9.6067
G1 X97.827 Y131.951 E9.64047
G1 X97.477 Y131.096 E9.67428
G1 X97.203 Y130.215 E9.70803
G1 X97.006 Y129.313 E9.74181
G1 X96.888 Y128.397 E9.7756
G1 X96.853 Y127.779 E9.79825
G1 X96.844 Y127.446 E9.81043
G1 X96.84 Y127.158 E9.82097
G1 X96.841 Y108.03 E10.52079
G1 X96.85 Y107.365 E10.54512
G1 X96.902 Y106.443 E10.57891
G1 X97.034 Y105.529 E10.6127
G1 X97.245 Y104.63 E10.64648
G1 X97.533 Y103.753 E10.68025
G1 X97.895 Y102.904 E10.71402
G1 X98.33 Y102.089 E10.74782
G1 X98.833 Y101.315 E10.78159
G1 X99.401 Y100.588 E10.81534
G1 X100.031 Y99.912 E10.84915
G0 F2100 X100.461 Y100.108
G1 F1200 X101.143 Y99.514 E10.88224
G1 X101.874 Y98.983 E10.9153
G1 X102.65 Y98.518 E10.94839
G1 X103.463 Y98.124 E10.98145
G1 X104.309 Y97.803 E11.01455
G1 X105.179 Y97.558 E11.04762
G1 X106.067 Y97.391 E11.08068
G1 X107.223 Y97.293 E11.12312
G1 X107.544 Y97.284 E11.13487
G1 X107.83 Y97.28 E11.14534
G1 X126.793 Y97.28 E11.83912
G1 X127.637 Y97.291 E11.87
G1 X128.54 Y97.344 E11.9031
G1 X129.434 Y97.476 E11.93616
G1 X130.313 Y97.687 E11.96923
G1 X131.17 Y97.975 E12.00231
G1 X131.998 Y98.338 E12.03539
G1 X132.791 Y98.772 E12.06846
G1 X133.543 Y99.274 E12.10154
G1 X134.247 Y99.841 E12.13461
G1 X134.898 Y100.468 E12.16768
G1 X135.491 Y101.15 E12.20074
G1 X136.022 Y101.882 E12.23383
G1 X136.486 Y102.658 E12.26691
G1 X136.879 Y103.472 E12.29998
G1 X137.199 Y104.317 E12.33304
G1 X137.444 Y105.188 E12.36614
G1 X137.61 Y106.076 E12.39919
G1 X137.707 Y107.223 E12.44131
G1 X137.716 Y107.543 E12.45302
G1 X137.72 Y107.83 E12.46352
G1 X137.719 Y126.891 E13.16089
G1 X137.71 Y127.618 E13.18749
G1 X137.659 Y128.52 E13.22054
G1 X137.528 Y129.415 E13.25363
G1 X137.319 Y130.294 E13.28669
G1 X137.033 Y131.151 E13.31974
G1 X136.672 Y131.98 E13.35282
G1 X136.24 Y132.774 E13.3859
G1 X135.738 Y133.527 E13.41901
G1 X135.173 Y134.232 E13.45206
G1 X134.547 Y134.884 E13.48513
G1 X133.866 Y135.479 E13.51821
G1 X133.135 Y136.011 E13.55129
G1 X132.361 Y136.476 E13.58433
G1 X131.547 Y136.871 E13.61743
G1 X130.703 Y137.193 E13.65048
G1 X129.833 Y137.439 E13.68356
G1 X128.945 Y137.607 E13.71662
G1 X127.777 Y137.707 E13.75951
G1 X127.456 Y137.716 E13.77126
G1 X127.17 Y137.72 E13.78172
G1 X108.075 Y137.719 E14.48034
G1 X107.377 Y137.71 E14.50588
G1 X106.475 Y137.659 E14.53893
G1 X105.58 Y137.527 E14.57203
G1 X104.701 Y137.318 E14.60508
G1 X103.844 Y137.031 E14.63815
G1 X103.015 Y136.67 E14.67123
G1 X102.221 Y136.237 E14.70432
G1 X101.469 Y135.735 E14.7374
G1 X100.764 Y135.169 E14.77048
G1 X100.112 Y134.543 E14.80355
G1 X99.518 Y133.862 E14.83661
G1 X98.986 Y133.131 E14.86968
G1 X98.521 Y132.356 E14.90275
G1 X98.126 Y131.543 E14.93582
G1 X97.805 Y130.698 E14.96889
G1 X97.56 Y129.828 E15.00196
G1 X97.392 Y128.939 E15.03506
G1 X97.293 Y127.767 E15.07809
G1 X97.284 Y127.434 E15.09028
G1 X97.28 Y127.158 E15.10038
G1 X97.281 Y108.036 E15.79998
G1 X97.29 Y107.371 E15.82431
G1 X97.342 Y106.468 E15.8574
G1 X97.474 Y105.574 E15.89046
G1 X97.684 Y104.695 E15.92353
G1 X97.971 Y103.837 E15.95663
G1 X98.333 Y103.009 E15.98969
G1 X98.767 Y102.216 E16.02276
G1 X99.268 Y101.464 E16.05582
G1 X99.835 Y100.759 E16.08892
G1 X100.461 Y100.108 E16.12197
G1 F2700 E11.12197
;MESH:Sample flat square v1.stl
G0 F2100 X107.934 Y106.835
G0 X107.934 Y107.934
G0 X108.342 Y126.658
G0 X126.98 Y127.01
G1 F2700 E16.12197
G0 F2100 X127.28 Y127.28
;TYPE:WALL-OUTER
G1 F1200 X107.72 Y127.28 E16.83759
G1 X107.72 Y107.72 E17.55322
G1 X127.28 Y107.72 E18.26884
G1 X127.28 Y127.28 E18.98447
G0 F2100 X126.84 Y126.84
;TYPE:WALL-INNER
G1 F1200 X108.16 Y126.84 E19.6679
G1 X108.16 Y108.16 E20.35133
G1 X126.84 Y108.16 E21.03476
G1 X126.84 Y126.84 E21.71818
G1 F2700 E16.71818
G0 F2100 X116.915 Y126.63
G0 X116.915 Y118.52
M104 S205
;TYPE:SKIN
G1 F2700 E21.71818
G1 F1200 X116.915 Y118.96 E21.73428
G1 X118.96 Y118.96 E21.8091
G1 X118.96 Y116.04 E21.91593
G1 X116.04 Y116.04 E22.02276
G1 X116.04 Y118.96 E22.1296
G1 X116.04 Y119.4 E22.14569
G1 X116.035 Y119.4 E22.14588
G1 X116.03 Y119.84 E22.16198
G1 X119.84 Y119.84 E22.30137
G1 X119.84 Y115.16 E22.47259
G1 X115.16 Y115.16 E22.64381
G1 X115.16 Y119.84 E22.81504
G1 X115.16 Y120.28 E22.83114
G1 X115.155 Y120.28 E22.83132
G1 X115.155 Y120.72 E22.84742
G1 X120.72 Y120.72 E23.05102
G1 X120.72 Y114.28 E23.28663
G1 X114.28 Y114.28 E23.52225
G1 X114.28 Y120.72 E23.75786
G1 X114.275 Y121.16 E23.77396
G1 X114.275 Y121.6 E23.79006
G1 X121.6 Y121.6 E24.05805
G1 X121.6 Y113.4 E24.35806
G1 X113.4 Y113.4 E24.65807
G1 X113.4 Y121.6 E24.95807
G1 X113.4 Y122.04 E24.97417
G1 X113.395 Y122.04 E24.97435
G1 X113.39 Y122.48 E24.99045
G1 X122.48 Y122.48 E25.32302
G1 X122.48 Y112.52 E25.68742
G1 X112.52 Y112.52 E26.05182
G1 X112.52 Y122.48 E26.41621
G1 X112.52 Y122.92 E26.43231
G1 X112.515 Y122.92 E26.4325
G1 X112.515 Y123.36 E26.44859
G1 X123.36 Y123.36 E26.84537
G1 X123.36 Y111.64 E27.27416
G1 X111.64 Y111.64 E27.70295
G1 X111.64 Y123.36 E28.13174
G1 X111.635 Y123.8 E28.14784
G1 X111.635 Y124.24 E28.16394
G1 X124.24 Y124.24 E28.6251
G1 X124.24 Y110.76 E29.11829
G1 X110.76 Y110.76 E29.61147
G1 X110.76 Y124.24 E30.10465
G1 X110.76 Y124.68 E30.12075
G1 X110.755 Y124.68 E30.12093
G1 X110.75 Y125.12 E30.13703
G1 X125.12 Y125.12 E30.66277
G1 X125.12 Y109.88 E31.22034
G1 X109.88 Y109.88 E31.77792
G1 X109.88 Y125.12 E32.33549
G1 X109.88 Y125.56 E32.35159
G1 X109.875 Y125.56 E32.35177
G1 X109.875 Y126 E32.36787
G1 X126 Y126 E32.95782
G1 X126 Y109 E33.57978
G1 X109 Y109 E34.20175
G1 X109 Y126 E34.82371
G1 X109 Y126.44 E34.83981
G1 X108.56 Y126.44 E34.85591
G1 X108.56 Y108.56 E35.51007
G1 X126.44 Y108.56 E36.16423
G1 X126.44 Y126.44 E36.81839
G1 X109.435 Y126.44 E37.44054
G1 X109.435 Y126 E37.45664
G1 X109.44 Y126 E37.45682
G1 X109.44 Y125.56 E37.47292
G1 X109.44 Y109.44 E38.06269
G1 X125.56 Y109.44 E38.65245
G1 X125.56 Y125.56 E39.24222
G1 X110.315 Y125.56 E39.79998
G1 X110.315 Y125.12 E39.81608
G1 X110.32 Y124.68 E39.83218
G1 X110.32 Y110.32 E40.35755
G1 X124.68 Y110.32 E40.88293
G1 X124.68 Y124.68 E41.40831
G1 X111.195 Y124.68 E41.90167
G1 X111.195 Y124.24 E41.91777
G1 X111.2 Y124.24 E41.91795
G1 X111.2 Y123.8 E41.93405
G1 X111.2 Y111.2 E42.39504
G1 X123.8 Y111.2 E42.85602
G1 X123.8 Y123.8 E43.31701
G1 X112.07 Y123.8 E43.74616
G1 X112.075 Y123.36 E43.76226
G1 X112.08 Y123.36 E43.76244
G1 X112.08 Y122.92 E43.77854
G1 X112.08 Y112.08 E44.17514
G1 X122.92 Y112.08 E44.57173
G1 X122.92 Y122.92 E44.96832
G1 X112.955 Y122.92 E45.3329
G1 X112.955 Y122.48 E45.349
G1 X112.96 Y122.04 E45.3651
G1 X112.96 Y112.96 E45.6973
G1 X122.04 Y112.96 E46.02951
G1 X122.04 Y122.04 E46.36171
G1 X113.835 Y122.04 E46.6619
G1 X113.835 Y121.6 E46.67799
G1 X113.84 Y121.6 E46.67818
G1 X113.84 Y121.16 E46.69428
G1 X113.84 Y113.84 E46.96209
G1 X121.16 Y113.84 E47.2299
G1 X121.16 Y121.16 E47.49771
G1 X114.71 Y121.16 E47.73369
G1 X114.715 Y120.72 E47.74979
G1 X114.72 Y120.72 E47.74997
G1 X114.72 Y120.28 E47.76607
G1 X114.72 Y114.72 E47.96949
G1 X120.28 Y114.72 E48.17291
G1 X120.28 Y120.28 E48.37632
G1 X115.595 Y120.28 E48.54773
G1 X115.595 Y119.84 E48.56383
G1 X115.6 Y119.4 E48.57993
G1 X115.6 Y115.6 E48.71896
G1 X119.4 Y115.6 E48.85798
G1 X119.4 Y119.4 E48.99701
G1 X116.475 Y119.4 E49.10402
G1 X116.475 Y118.96 E49.12012
G1 X116.48 Y118.96 E49.12031
G1 X116.48 Y118.52 E49.1364
G1 X116.48 Y116.48 E49.21104
G1 X118.52 Y116.48 E49.28567
G1 X118.52 Y118.52 E49.36031
G1 X117.35 Y118.52 E49.40312
G1 X117.355 Y118.08 E49.41922
G1 X118.08 Y118.08 E49.44574
G1 X118.08 Y116.92 E49.48818
G1 X116.92 Y116.92 E49.53062
G1 X116.92 Y118.08 E49.57306
G1 X116.915 Y118.52 E49.58916
G0 F2100 X117.36 Y117.64
G1 F1200 X117.36 Y117.36 E49.5994
G1 X117.64 Y117.36 E49.60965
G1 X117.64 Y117.64 E49.61989
G1 X117.36 Y117.64 E49.63014
G1 F2700 E44.63014
;MESH:NONMESH
G0 F300 X117.36 Y117.64 Z0.4
G0 F2100 X117.36 Y126.63
G0 X126.98 Y127.01
G1 F2700 E49.63014
G0 F2100 X127.3 Y127.3
;TIME_ELAPSED:80.280407
;LAYER:1
;TYPE:WALL-OUTER
;MESH:Sample flat square v1.stl
G1 F1350 X107.7 Y127.3 E50.28203
G1 X107.7 Y107.7 E50.93393
G1 X127.3 Y107.7 E51.58583
G1 X127.3 Y127.3 E52.23773
G0 F5550 X126.9 Y126.9
;TYPE:WALL-INNER
G1 F1350 X108.1 Y126.9 E52.86302
G1 X108.1 Y108.1 E53.48831
G1 X126.9 Y108.1 E54.1136
G1 X126.9 Y126.9 E54.73889
G0 F5550 X126.51 Y126.51
;TYPE:SKIN
G1 F1350 X108.49 Y126.51 E55.33824
G1 X108.49 Y108.49 E55.93759
G1 X126.51 Y108.49 E56.53694
G1 X126.51 Y126.51 E57.13628
G0 F5550 X125.946 Y126.349
G1 F1350 X126.349 Y125.946 E57.15524
G0 F5550 X126.349 Y125.38
G1 F1350 X125.38 Y126.349 E57.20082
G0 F5550 X124.814 Y126.349
G1 F1350 X126.349 Y124.814 E57.27302
G0 F5550 X126.349 Y124.249
G1 F1350 X124.249 Y126.349 E57.3718
G0 F5550 X123.683 Y126.349
G1 F1350 X126.349 Y123.683 E57.4972
G0 F5550 X126.349 Y123.117
G1 F1350 X123.117 Y126.349 E57.64922
G0 F5550 X122.552 Y126.349
G1 F1350 X126.349 Y122.552 E57.82782
G0 F5550 X126.349 Y121.986
G1 F1350 X121.986 Y126.349 E58.03304
G0 F5550 X121.42 Y126.349
G1 F1350 X126.349 Y121.42 E58.26489
G0 F5550 X126.349 Y120.855
G1 F1350 X120.855 Y126.349 E58.52331
G0 F5550 X120.289 Y126.349
G1 F1350 X126.349 Y120.289 E58.80835
G0 F5550 X126.349 Y119.723
G1 F1350 X119.723 Y126.349 E59.12002
G0 F5550 X119.158 Y126.349
G1 F1350 X126.349 Y119.158 E59.45826
G0 F5550 X126.349 Y118.592
G1 F1350 X118.592 Y126.349 E59.82313
G0 F5550 X118.026 Y126.349
G1 F1350 X126.349 Y118.026 E60.21461
G0 F5550 X126.349 Y117.461
G1 F1350 X117.461 Y126.349 E60.63268
G0 F5550 X116.895 Y126.349
G1 F1350 X126.349 Y116.895 E61.07737
G0 F5550 X126.349 Y116.329
G1 F1350 X116.329 Y126.349 E61.54868
G0 F5550 X115.763 Y126.349
G1 F1350 X126.349 Y115.763 E62.04661
G0 F5550 X126.349 Y115.198
G1 F1350 X115.198 Y126.349 E62.57112
G0 F5550 X114.632 Y126.349
G1 F1350 X126.349 Y114.632 E63.12225
G0 F5550 X126.349 Y114.066
G1 F1350 X114.066 Y126.349 E63.7
G0 F5550 X113.501 Y126.349
G1 F1350 X126.349 Y113.501 E64.30434
G0 F5550 X126.349 Y112.935
G1 F1350 X112.935 Y126.349 E64.93529
G0 F5550 X112.369 Y126.349
G1 F1350 X126.349 Y112.369 E65.59286
G0 F5550 X126.349 Y111.804
G1 F1350 X111.804 Y126.349 E66.27702
G0 F5550 X111.238 Y126.349
G1 F1350 X126.349 Y111.238 E66.98779
G0 F5550 X126.349 Y110.672
G1 F1350 X110.672 Y126.349 E67.72519
G0 F5550 X110.107 Y126.349
G1 F1350 X126.349 Y110.107 E68.48916
G0 F5550 X126.349 Y109.541
G1 F1350 X109.541 Y126.349 E69.27976
G0 F5550 X108.975 Y126.349
G1 F1350 X126.349 Y108.975 E70.09698
