;FLAVOR:Marlin
;TIME:248
;Filament used: 0.16226m
;Layer height: 0.2
;MINX:87.224
;MINY:78.686
;MINZ:0.2
;MAXX:147.76
;MAXY:156.31
;MAXZ:0.6
;Generated with Cura_SteamEngine 5.0.0
M140 S60
M105
M190 S60
M104 S222
M105
M109 S222
M82 ;absolute extrusion mode
; Ender 3 Custom Start G-code
G92 E0 ; Reset Extruder
M140 S60 ; Start heating the heated bed
M190 S60 ; Wait until the heated bed reaches the desired temperature
G28 ; Auto Home
G29 A; Activate Bed Leveling
G29 L0; Loads the saved mesh in slot 0
G29  J3; 9 point autotilt

G92 E0 ; Reset extruder origin
G1 Z2.0 F3000 ; Move Z Axis up little to prevent scratching of Heat Bed
G1 X0.1 Y20 Z0.3 F5000.0 ; Move to start position
G1 X0.1 Y200.0 Z0.3 F1500.0 E15 ; Draw the first line
G1 X0.4 Y200.0 Z0.3 F5000.0 ; Move to side a little
G1 X0.4 Y20 Z0.3 F1500.0 E30 ; Draw the second line
G92 E0 ; Reset Extruder
G1 Z2.0 F3000 ; Move Z Axis up little to prevent scratching of Heat Bed
G1 X5 Y20 Z0.3 F5000.0 ; Move over to prevent blob squish

; End of Ender 3 Custom Start G-code
G92 E0
G92 E0
G1 F2700 E-5
;LAYER_COUNT:3
;LAYER:0
M107
G0 F2100 X115.373 Y85.996 Z0.2
G0 X114.499 Y87.403
;TYPE:SKIRT
G1 F2700 E0
G1 F1200 X114.861 Y86.787 E0.02614
G1 X115.373 Y85.996 E0.06061
G1 X115.949 Y85.251 E0.09507
G1 X116.587 Y84.557 E0.12956
G1 X117.281 Y83.92 E0.16402
G1 X118.027 Y83.345 E0.19848
G1 X118.819 Y82.834 E0.23297
G1 X119.651 Y82.393 E0.26742
G1 X120.518 Y82.024 E0.30189
G1 X121.413 Y81.729 E0.33637
G1 X121.94 Y81.594 E0.35627
G1 X122.746 Y81.41 E0.38652
G1 X133.792 Y79.037 E0.79987
G1 X134.459 Y78.902 E0.82477
G1 X135.39 Y78.754 E0.85926
G1 X136.329 Y78.686 E0.8937
G1 X137.271 Y78.698 E0.92817
G1 X138.209 Y78.789 E0.96265
G1 X139.135 Y78.96 E0.9971
G1 X140.044 Y79.209 E1.03158
G1 X140.928 Y79.534 E1.06604
G1 X141.782 Y79.933 E1.10053
G1 X142.599 Y80.403 E1.13501
G1 X143.373 Y80.94 E1.16948
G1 X144.098 Y81.541 E1.20393
G1 X144.77 Y82.201 E1.23839
G1 X145.384 Y82.916 E1.27287
G1 X145.934 Y83.681 E1.30734
G1 X146.418 Y84.489 E1.3418
G1 X146.832 Y85.335 E1.37626
G1 X147.172 Y86.214 E1.41074
G1 X147.437 Y87.118 E1.44521
G1 X147.624 Y88.041 E1.47966
G1 X147.732 Y88.977 E1.51413
G1 X147.76 Y89.919 E1.54861
G1 X147.708 Y90.86 E1.58309
G1 X147.577 Y91.793 E1.61756
G1 X147.367 Y92.711 E1.65202
G1 X147.08 Y93.608 E1.68647
G1 X146.718 Y94.478 E1.72095
G1 X146.415 Y95.079 E1.74557
G1 X145.91 Y96.004 E1.78413
G1 X117.371 Y146.39 E3.90273
G1 X117.003 Y147.018 E3.92936
G1 X116.492 Y147.81 E3.96384
G1 X115.917 Y148.556 E3.9983
G1 X115.28 Y149.25 E4.03276
G1 X114.586 Y149.888 E4.06725
G1 X113.841 Y150.464 E4.10171
G1 X113.05 Y150.976 E4.13618
G1 X111.888 Y151.57 E4.18393
G1 X110.888 Y152.007 E4.22385
G1 X103.129 Y155.25 E4.53152
G1 X102.474 Y155.514 E4.55736
G1 X101.586 Y155.829 E4.59183
G1 X100.674 Y156.067 E4.62632
G1 X99.746 Y156.228 E4.66078
G1 X98.807 Y156.308 E4.69525
G1 X97.865 Y156.31 E4.72972
G1 X96.926 Y156.231 E4.76419
G1 X95.997 Y156.072 E4.79868
G1 X95.085 Y155.836 E4.83314
G1 X94.197 Y155.523 E4.86759
G1 X93.338 Y155.136 E4.90206
G1 X92.515 Y154.677 E4.93654
G1 X91.734 Y154.151 E4.97099
G1 X91 Y153.56 E5.00546
G1 X90.319 Y152.909 E5.03993
G1 X89.696 Y152.202 E5.07441
G1 X89.135 Y151.445 E5.10888
G1 X88.64 Y150.644 E5.14333
G1 X88.215 Y149.803 E5.1778
G1 X87.862 Y148.929 E5.21229
G1 X87.585 Y148.029 E5.24674
G1 X87.386 Y147.108 E5.28122
G1 X87.265 Y146.173 E5.31571
G1 X87.224 Y145.232 E5.35017
G1 X87.261 Y144.318 E5.38364
G1 X87.33 Y143.478 E5.41447
G1 X87.995 Y136.606 E5.66707
G1 X88.077 Y135.878 E5.69387
G1 X88.222 Y134.947 E5.72834
G1 X88.445 Y134.031 E5.76283
G1 X88.746 Y133.138 E5.79731
G1 X89.121 Y132.274 E5.83177
G1 X89.348 Y131.831 E5.84998
G1 X89.727 Y131.136 E5.87895
G1 X114.499 Y87.403 E7.71782
G0 F2100 X114.878 Y87.626
G1 F1200 X115.24 Y87.01 E7.74396
G1 X115.742 Y86.235 E7.77775
G1 X116.309 Y85.506 E7.81154
G1 X116.937 Y84.83 E7.84529
G1 X117.621 Y84.21 E7.87907
G1 X118.356 Y83.651 E7.91285
G1 X119.137 Y83.158 E7.94664
G1 X119.958 Y82.735 E7.98043
G1 X120.812 Y82.384 E8.01421
G1 X122.039 Y82.023 E8.06101
G1 X122.838 Y81.84 E8.091
G1 X133.879 Y79.468 E8.50416
G1 X134.546 Y79.333 E8.52906
G1 X135.458 Y79.189 E8.56284
G1 X136.379 Y79.125 E8.59662
G1 X137.302 Y79.14 E8.63039
G1 X138.221 Y79.236 E8.6642
G1 X139.127 Y79.41 E8.69795
G1 X140.015 Y79.663 E8.73173
G1 X140.878 Y79.991 E8.76551
G1 X141.71 Y80.392 E8.7993
G1 X142.503 Y80.864 E8.83306
G1 X143.253 Y81.403 E8.86685
G1 X143.953 Y82.005 E8.90063
G1 X144.598 Y82.665 E8.93439
G1 X145.184 Y83.379 E8.96819
G1 X145.706 Y84.14 E9.00195
G1 X146.161 Y84.944 E9.03575
G1 X146.543 Y85.784 E9.06951
G1 X146.852 Y86.654 E9.10329
G1 X147.084 Y87.548 E9.13708
G1 X147.239 Y88.458 E9.17085
G1 X147.313 Y89.378 E9.20462
G1 X147.308 Y90.302 E9.23843
G1 X147.223 Y91.221 E9.27219
G1 X147.059 Y92.13 E9.30599
G1 X146.817 Y93.02 E9.33973
G1 X146.498 Y93.887 E9.37353
G1 X146.028 Y94.869 E9.41336
G1 X145.528 Y95.788 E9.45164
G1 X116.991 Y146.167 E11.56997
G1 X116.623 Y146.795 E11.5966
G1 X116.122 Y147.571 E11.6304
G1 X115.556 Y148.3 E11.66416
G1 X114.929 Y148.978 E11.69795
G1 X114.246 Y149.599 E11.73172
G1 X113.511 Y150.158 E11.76551
G1 X112.731 Y150.652 E11.79929
G1 X111.711 Y151.167 E11.84109
G1 X110.718 Y151.601 E11.88074
G1 X102.964 Y154.842 E12.18821
G1 X102.309 Y155.106 E12.21405
G1 X101.439 Y155.414 E12.24782
G1 X100.545 Y155.645 E12.2816
G1 X99.634 Y155.798 E12.31539
G1 X98.714 Y155.872 E12.34916
G1 X97.791 Y155.866 E12.38293
G1 X96.871 Y155.78 E12.41674
G1 X95.963 Y155.614 E12.45051
G1 X95.073 Y155.371 E12.48426
G1 X94.206 Y155.052 E12.51806
G1 X93.371 Y154.658 E12.55184
G1 X92.573 Y154.194 E12.58561
G1 X91.818 Y153.663 E12.61938
G1 X91.111 Y153.068 E12.65319
G1 X90.459 Y152.415 E12.68695
G1 X89.866 Y151.707 E12.72074
G1 X89.336 Y150.951 E12.75452
G1 X88.874 Y150.152 E12.78829
G1 X88.483 Y149.316 E12.82205
G1 X88.165 Y148.449 E12.85584
G1 X87.924 Y147.558 E12.88961
G1 X87.76 Y146.649 E12.9234
G1 X87.676 Y145.73 E12.95717
G1 X87.699 Y144.353 E13.00755
G1 X87.768 Y143.52 E13.03813
G1 X88.432 Y136.655 E13.29047
G1 X88.514 Y135.927 E13.31727
G1 X88.657 Y135.015 E13.35105
G1 X88.878 Y134.118 E13.38484
G1 X89.176 Y133.245 E13.41859
G1 X89.735 Y132.041 E13.46716
G1 X90.11 Y131.353 E13.49583
G1 X114.878 Y87.626 E15.33444
G0 F2100 X115.258 Y87.849
G1 F1200 X115.62 Y87.233 E15.36058
G1 X116.112 Y86.475 E15.39364
G1 X116.669 Y85.763 E15.42672
G1 X117.287 Y85.103 E15.4598
G1 X117.961 Y84.5 E15.49289
G1 X118.685 Y83.959 E15.52595
G1 X119.454 Y83.485 E15.559
G1 X120.263 Y83.08 E15.5921
G1 X121.103 Y82.748 E15.62515
G1 X122.137 Y82.452 E15.6645
G1 X122.931 Y82.27 E15.6943
G1 X133.967 Y79.899 E16.10728
G1 X134.634 Y79.764 E16.13218
G1 X135.527 Y79.624 E16.16525
G1 X136.429 Y79.564 E16.19832
G1 X137.332 Y79.583 E16.23136
G1 X138.231 Y79.682 E16.26445
G1 X139.117 Y79.861 E16.29752
G1 X139.984 Y80.116 E16.33059
G1 X140.825 Y80.448 E16.36367
G1 X141.634 Y80.852 E16.39675
G1 X142.403 Y81.327 E16.42982
G1 X143.128 Y81.867 E16.4629
G1 X143.802 Y82.47 E16.49598
G1 X144.42 Y83.129 E16.52904
G1 X144.977 Y83.841 E16.56211
G1 X145.47 Y84.599 E16.59519
G1 X145.893 Y85.398 E16.62827
G1 X146.245 Y86.231 E16.66135
G1 X146.521 Y87.091 E16.6944
G1 X146.72 Y87.973 E16.72748
G1 X146.84 Y88.869 E16.76055
G1 X146.881 Y89.772 E16.79362
G1 X146.842 Y90.675 E16.82669
G1 X146.723 Y91.572 E16.8598
G1 X146.525 Y92.454 E16.89287
G1 X146.251 Y93.315 E16.92593
G1 X145.901 Y94.148 E16.95898
G1 X145.642 Y94.659 E16.97994
G1 X145.145 Y95.571 E17.01794
G1 X116.612 Y145.945 E19.13605
G1 X116.244 Y146.573 E19.16268
G1 X115.753 Y147.332 E19.19575
G1 X115.196 Y148.045 E19.22885
G1 X114.579 Y148.705 E19.26191
G1 X113.906 Y149.309 E19.29499
G1 X113.183 Y149.851 E19.32805
G1 X112.414 Y150.326 E19.36112
G1 X111.534 Y150.764 E19.39708
G1 X110.548 Y151.195 E19.43645
G1 X102.8 Y154.434 E19.7437
G1 X102.145 Y154.698 E19.76953
G1 X101.292 Y154.999 E19.80263
G1 X100.416 Y155.223 E19.83571
G1 X99.524 Y155.368 E19.86877
G1 X98.622 Y155.435 E19.90186
G1 X97.719 Y155.421 E19.9349
G1 X96.819 Y155.328 E19.96801
G1 X95.932 Y155.155 E20.00107
G1 X95.063 Y154.905 E20.03415
G1 X94.22 Y154.579 E20.06722
G1 X93.409 Y154.18 E20.10029
G1 X92.637 Y153.71 E20.13336
G1 X91.908 Y153.174 E20.16646
G1 X91.231 Y152.576 E20.19951
G1 X90.608 Y151.921 E20.23258
G1 X90.046 Y151.213 E20.26565
G1 X89.549 Y150.458 E20.29872
G1 X89.12 Y149.662 E20.33181
G1 X88.764 Y148.831 E20.36488
G1 X88.482 Y147.972 E20.39796
G1 X88.277 Y147.092 E20.43102
G1 X88.151 Y146.197 E20.46408
G1 X88.104 Y145.294 E20.49717
G1 X88.138 Y144.389 E20.5303
G1 X88.206 Y143.563 E20.56062
G1 X88.869 Y136.704 E20.81274
G1 X88.951 Y135.976 E20.83954
G1 X89.092 Y135.083 E20.87262
G1 X89.311 Y134.206 E20.90569
G1 X89.607 Y133.352 E20.93876
G1 X90.122 Y132.251 E20.98323
G1 X90.492 Y131.57 E21.01158
G1 X115.258 Y87.849 E22.84997
G1 F2700 E17.84997
;MESH:Shirt collar stiffener v1.stl
G0 F2100 X122.809 Y93.905
G0 X124.155 Y94.666
G0 X99.918 Y137.377
G0 X98.962 Y144.353
G1 F2700 E22.84997
G0 F2100 X98.569 Y144.888
;TYPE:WALL-OUTER
G1 F1200 X107.273 Y141.249 E23.19513
G1 X136.252 Y90.086 E25.34639
G1 X124.567 Y92.598 E25.78367
G1 X99.312 Y137.186 E27.65847
G1 X98.569 Y144.888 E27.94157
G0 F2100 X99.077 Y144.198
;TYPE:WALL-INNER
G1 F1200 X106.964 Y140.901 E28.25432
G1 X135.386 Y90.722 E30.36421
G1 X124.853 Y92.987 E30.75839
G1 X99.741 Y137.322 E32.62256
G1 X99.077 Y144.198 E32.87529
G0 F2100 X99.542 Y143.571
M104 S205
;TYPE:SKIN
G1 F1200 X100.133 Y137.446 E33.10043
G1 X125.113 Y93.342 E34.95486
G1 X134.597 Y91.301 E35.30979
G1 X106.861 Y140.27 E37.3688
G1 X106.646 Y139.754 E37.38925
G1 X133.729 Y91.938 E39.39978
G1 X125.399 Y93.732 E39.71153
G1 X125.302 Y93.904 E39.71875
G1 X125.685 Y94.122 E39.73488
G1 X132.861 Y92.575 E40.00345
G1 X106.24 Y139.576 E41.9797
G1 X106.026 Y139.06 E42.00014
G1 X131.291 Y94.451 E43.87579
G1 X130.909 Y94.232 E43.8919
G1 X105.62 Y138.881 E45.76926
G1 X105.406 Y138.365 E45.7897
G1 X129.554 Y95.728 E47.58244
G1 X129.172 Y95.51 E47.59853
G1 X105 Y138.186 E49.39294
G1 X104.786 Y137.67 E49.41338
G1 X128.519 Y95.767 E51.17526
G1 X127.115 Y96.072 E51.22783
G1 X103.149 Y138.404 E53.00757
G1 X103.116 Y138.739 E53.01989
G1 X104.512 Y138.154 E53.07527
G1 X104.681 Y138.56 E53.09136
G1 X102.605 Y139.429 E53.17369
G1 X102.719 Y138.268 E53.21638
G1 X126.829 Y95.682 E55.0068
G1 X129.388 Y95.128 E55.1026
G1 X129.771 Y95.346 E55.11872
G1 X130.257 Y94.488 E55.1548
G1 X126.543 Y95.292 E55.29382
G1 X102.288 Y138.131 E57.09492
G1 X102.094 Y140.119 E57.168
G1 X105.132 Y138.849 E57.28847
G1 X105.301 Y139.255 E57.30456
G1 X101.583 Y140.81 E57.452
G1 X101.857 Y137.994 E57.55552
G1 X126.257 Y94.902 E59.36728
G1 X131.125 Y93.85 E59.54949
G1 X131.508 Y94.068 E59.56562
G1 X131.993 Y93.212 E59.60161
G1 X125.971 Y94.512 E59.82701
G1 X101.426 Y137.857 E61.64944
G1 X101.072 Y141.501 E61.78339
G1 X105.752 Y139.544 E61.96898
G1 X105.921 Y139.95 E61.98507
G1 X100.562 Y142.191 E62.19759
G1 X100.995 Y137.72 E62.36193
G1 X125.469 Y94.504 E64.17898
G1 X125.086 Y94.285 E64.19512
G1 X100.564 Y137.583 E66.01564
G1 X100.052 Y142.881 E66.21038
G1 X106.372 Y140.238 E66.46101
G1 X106.541 Y140.645 E66.47713
G1 X99.542 Y143.571 E66.75467
G1 F2700 E61.75467
G0 F2100 X99.648 Y143.829
G0 X104.646 Y141.631
G0 X104.138 Y137.735
G1 F2700 E66.75467
G1 F848.9 X104.526 Y137.049 E66.79543
G1 X104.915 Y136.362 E66.83627
G1 X105.304 Y135.676 E66.87705
G1 X105.693 Y134.989 E66.91788
G1 X106.081 Y134.303 E66.95865
G1 X106.47 Y133.616 E66.99948
G1 F847.5 X106.859 Y132.929 E67.04037
G1 X107.248 Y132.243 E67.08123
G1 X107.637 Y131.556 E67.12212
G1 X108.025 Y130.87 E67.16295
G1 X108.414 Y130.183 E67.20385
G1 X108.803 Y129.497 E67.2447
G1 F846.2 X109.192 Y128.81 E67.28566
G1 X109.581 Y128.123 E67.32663
G1 X109.969 Y127.437 E67.36752
G1 X110.358 Y126.75 E67.40848
G1 X110.747 Y126.064 E67.4494
G1 X111.136 Y125.377 E67.49036
G1 F844.8 X111.525 Y124.691 E67.53135
G1 X111.913 Y124.004 E67.57235
G1 X112.302 Y123.317 E67.61338
G1 X112.691 Y122.631 E67.65436
G1 X113.08 Y121.944 E67.69539
G1 X113.468 Y121.258 E67.73635
G1 F843.5 X113.857 Y120.571 E67.77745
G1 X114.246 Y119.885 E67.81849
G1 X114.635 Y119.198 E67.85959
G1 X115.024 Y118.511 E67.90068
G1 X115.412 Y117.825 E67.94171
G1 X115.801 Y117.138 E67.9828
G1 F842.1 X116.19 Y116.452 E68.02392
G1 X116.579 Y115.765 E68.06508
G1 X116.968 Y115.079 E68.10619
G1 X117.356 Y114.392 E68.14733
G1 X117.745 Y113.705 E68.18849
G1 X118.134 Y113.019 E68.2296
G1 F840.8 X118.523 Y112.332 E68.27083
G1 X118.912 Y111.646 E68.31201
G1 X119.3 Y110.959 E68.35321
G1 X119.689 Y110.273 E68.39439
G1 X120.078 Y109.586 E68.43561
G1 X120.467 Y108.899 E68.47684
G1 F839.4 X120.856 Y108.213 E68.51808
G1 X121.244 Y107.526 E68.55935
G1 X121.633 Y106.84 E68.6006
G1 X122.022 Y106.153 E68.64189
G1 X122.411 Y105.467 E68.68313
G1 X122.799 Y104.78 E68.7244
G1 F838.1 X123.188 Y104.093 E68.76576
G1 X123.577 Y103.407 E68.80707
G1 X123.966 Y102.72 E68.84842
G1 X124.355 Y102.034 E68.88974
G1 X124.743 Y101.347 E68.93107
G1 X125.132 Y100.661 E68.97238
G1 F836.8 X125.521 Y99.974 E69.0138
G1 X125.91 Y99.287 E69.05522
G1 X126.299 Y98.601 E69.0966
G1 X126.687 Y97.914 E69.138
G1 X127.076 Y97.228 E69.17938
G1 X127.465 Y96.541 E69.2208
G1 F2700 E64.2208
;MESH:NONMESH
G0 F300 X127.465 Y96.541 Z0.4
G0 F2100 X126.341 Y91.311
G0 X136.965 Y89.034
G0 X137.469 Y89.721
G0 X108.079 Y141.622
G0 X107.128 Y141.084
G0 X98.962 Y144.353
G1 F2700 E69.2208
G0 F2100 X98.546 Y144.919
;TIME_ELAPSED:108.707625
;LAYER:1
;TYPE:WALL-OUTER
;MESH:Shirt collar stiffener v1.stl
G1 F1350 X107.287 Y141.264 E69.53592
G1 X136.292 Y90.057 E71.49331
G1 X124.554 Y92.58 E71.89264
G1 X123.564 Y94.331 E71.95954
G1 X99.293 Y137.18 E73.59745
G1 X98.546 Y144.919 E73.85605
G0 F5550 X99.008 Y144.292
;TYPE:WALL-INNER
G1 F1350 X107.007 Y140.948 E74.14441
G1 X135.504 Y90.635 E76.0676
G1 X124.814 Y92.934 E76.43128
G1 X99.683 Y137.303 E78.12728
G1 X99.008 Y144.292 E78.36082
G0 F5550 X99.426 Y143.728
;TYPE:SKIN
G1 F1350 X106.752 Y140.664 E78.62493
G1 X134.795 Y91.156 E80.51739
G1 X125.048 Y93.253 E80.84899
G1 X100.036 Y137.416 E82.53708
G1 X99.426 Y143.728 E82.74799
G0 F5550 X99.525 Y143.968
G0 X105.967 Y141.274
G0 X105.79 Y140.848
G1 F1350 X107.236 Y139.402 E82.81601
G0 F5550 X107.637 Y139.63
G0 X108.377 Y138.325
G0 X107.975 Y138.097
G1 F1350 X104.817 Y141.255 E82.96455
G0 F5550 X104.994 Y141.681
G0 X104.022 Y142.087
G0 X103.845 Y141.661
G1 F1350 X108.714 Y136.793 E83.19355
G0 F5550 X109.115 Y137.021
G0 X109.854 Y135.716
G0 X109.453 Y135.488
G1 F1350 X102.872 Y142.069 E83.5031
G0 F5550 X103.049 Y142.494
G0 X102.077 Y142.901
G0 X101.9 Y142.475
G1 F1350 X110.191 Y134.184 E83.89308
G0 F5550 X110.593 Y134.412
G0 X111.332 Y133.107
G0 X110.93 Y132.879
G1 F1350 X100.928 Y142.882 E84.36357
G0 F5550 X101.105 Y143.307
G0 X100.132 Y143.714
G0 X99.955 Y143.288
G1 F1350 X111.669 Y131.574 E84.91456
G0 F5550 X112.071 Y131.802
G0 X112.81 Y130.498
G0 X112.408 Y130.27
G1 F1350 X99.699 Y142.979 E85.51235
G0 F5550 X99.76 Y142.353
G1 F1350 X113.148 Y128.964 E86.14211
G0 F5550 X113.55 Y129.192
G0 X114.288 Y127.888
G0 X113.887 Y127.66
G1 F1350 X99.82 Y141.726 E86.80375
G0 F5550 X99.88 Y141.101
G1 F1350 X114.626 Y126.355 E87.49736
G0 F5550 X115.027 Y126.583
G0 X115.766 Y125.279
G0 X115.365 Y125.051
G1 F1350 X99.941 Y140.474 E88.22283
G0 F5550 X100.001 Y139.848
G1 F1350 X116.104 Y123.746 E88.98025
G0 F5550 X116.505 Y123.974
G0 X117.244 Y122.669
G0 X116.843 Y122.441
G1 F1350 X100.062 Y139.222 E89.76957
G0 F5550 X100.123 Y138.595
G1 F1350 X117.581 Y121.137 E90.59074
G0 F5550 X117.983 Y121.365
G0 X118.722 Y120.06
G0 X118.32 Y119.832
G1 F1350 X100.183 Y137.969 E91.44385
G0 F5550 X100.388 Y137.199
G1 F1350 X119.059 Y118.528 E92.32208
G0 F5550 X119.461 Y118.756
G0 X120.2 Y117.45
G0 X119.799 Y117.222
G1 F1350 X101.126 Y135.895 E93.2004
G0 F5550 X100.725 Y135.667
G0 X101.464 Y134.362
G0 X101.865 Y134.59
G1 F1350 X120.538 Y115.918 E94.0787
G0 F5550 X120.939 Y116.146
G0 X121.678 Y114.841
G0 X121.277 Y114.613
G1 F1350 X102.604 Y133.286 E94.95702
G0 F5550 X102.202 Y133.058
G0 X102.942 Y131.753
G0 X103.343 Y131.981
G1 F1350 X122.016 Y113.308 E95.83534
G0 F5550 X122.417 Y113.536
