;FLAVOR:Marlin
;TIME:678
;Filament used: 0.473737m
;Layer height: 0.2
;MINX:84.357
;MINY:74.534
;MINZ:0.2
;MAXX:150.655
;MAXY:160.468
;MAXZ:2.2
;Generated with Cura_SteamEngine 5.0.0
M140 S60
M105
M190 S60
M104 S222
M105
M109 S222
M82 ;absolute extrusion mode
; Ender 3 Custom Start G-code
G92 E0 ; Reset Extruder
M140 S60 ; Start heating the heated bed
M190 S60 ; Wait until the heated bed reaches the desired temperature
G28 ; Auto Home
G29 A; Activate Bed Leveling
G29 L0; Loads the saved mesh in slot 0
G29  J3; 9 point autotilt

G92 E0 ; Reset extruder origin
G1 Z2.0 F3000 ; Move Z Axis up little to prevent scratching of Heat Bed
G1 X0.1 Y20 Z0.3 F5000.0 ; Move to start position
G1 X0.1 Y200.0 Z0.3 F1500.0 E15 ; Draw the first line
G1 X0.4 Y200.0 Z0.3 F5000.0 ; Move to side a little
G1 X0.4 Y20 Z0.3 F1500.0 E30 ; Draw the second line
G92 E0 ; Reset Extruder
G1 Z2.0 F3000 ; Move Z Axis up little to prevent scratching of Heat Bed
G1 X5 Y20 Z0.3 F5000.0 ; Move over to prevent blob squish

; End of Ender 3 Custom Start G-code
G92 E0
G92 E0
G1 F2700 E-5
;LAYER_COUNT:11
;LAYER:0
M107
G0 F2100 X87.499 Y77.889 Z0.2
G0 X84.357 Y85.546
;TYPE:SKIRT
G1 F2700 E0
G1 F1200 X84.404 Y84.605 E0.03447
G1 X84.531 Y83.672 E0.06892
G1 X84.736 Y82.752 E0.1034
G1 X85.018 Y81.853 E0.13788
G1 X85.376 Y80.982 E0.17233
G1 X85.806 Y80.144 E0.20679
G1 X86.306 Y79.345 E0.24127
G1 X86.871 Y78.592 E0.27572
G1 X87.499 Y77.889 E0.3102
G1 X88.184 Y77.242 E0.34468
G1 X88.921 Y76.655 E0.37915
G1 X89.705 Y76.133 E0.41361
G1 X90.531 Y75.68 E0.44807
G1 X91.392 Y75.298 E0.48254
G1 X92.283 Y74.99 E0.51703
G1 X93.196 Y74.76 E0.55147
G1 X94.126 Y74.607 E0.58596
G1 X95.065 Y74.534 E0.62041
G1 X96.007 Y74.541 E0.65488
G1 X96.946 Y74.627 E0.68938
G1 X97.596 Y74.735 E0.71349
G1 X98.613 Y74.937 E0.75142
G1 X111.354 Y77.675 E1.22821
G1 X112.026 Y77.83 E1.25344
G1 X112.934 Y78.081 E1.2879
G1 X113.818 Y78.407 E1.32238
G1 X114.67 Y78.808 E1.35683
G1 X115.486 Y79.279 E1.3913
G1 X116.259 Y79.818 E1.42577
G1 X116.984 Y80.42 E1.46025
G1 X117.654 Y81.081 E1.49469
G1 X118.267 Y81.798 E1.5292
G1 X118.816 Y82.563 E1.56365
G1 X119.086 Y82.998 E1.58238
G1 X119.468 Y83.648 E1.60996
G1 X148.062 Y134.134 E3.73273
G1 X148.392 Y134.737 E3.75788
G1 X148.809 Y135.582 E3.79236
G1 X149.153 Y136.459 E3.82682
G1 X149.421 Y137.362 E3.86128
G1 X149.611 Y138.285 E3.89576
G1 X149.686 Y138.831 E3.91593
G1 X149.775 Y139.633 E3.94545
G1 X150.557 Y147.747 E4.24368
G1 X150.616 Y148.45 E4.26949
G1 X150.655 Y149.391 E4.30395
G1 X150.614 Y150.332 E4.33841
G1 X150.493 Y151.267 E4.3729
G1 X150.294 Y152.187 E4.40734
G1 X150.017 Y153.088 E4.44183
G1 X149.664 Y153.962 E4.47631
G1 X149.239 Y154.802 E4.51076
G1 X148.744 Y155.604 E4.54524
G1 X148.183 Y156.361 E4.57971
G1 X147.56 Y157.067 E4.61416
G1 X146.879 Y157.719 E4.64865
G1 X146.146 Y158.31 E4.6831
G1 X145.364 Y158.836 E4.71758
G1 X144.541 Y159.295 E4.75206
G1 X143.683 Y159.682 E4.78649
G1 X142.794 Y159.995 E4.82098
G1 X141.882 Y160.231 E4.85544
G1 X140.953 Y160.39 E4.88992
G1 X140.014 Y160.468 E4.9244
G1 X139.072 Y160.467 E4.95886
G1 X138.134 Y160.387 E4.9933
G1 X137.205 Y160.226 E5.0278
G1 X136.294 Y159.988 E5.06225
G1 X135.422 Y159.68 E5.09608
G1 X134.63 Y159.361 E5.12732
G1 X125.318 Y155.466 E5.49661
G1 X124.674 Y155.186 E5.52231
G1 X123.827 Y154.774 E5.55677
G1 X123.018 Y154.292 E5.59122
G1 X122.252 Y153.743 E5.6257
G1 X121.536 Y153.131 E5.66016
G1 X120.874 Y152.46 E5.69465
G1 X120.272 Y151.736 E5.72909
G1 X119.541 Y150.648 E5.77705
G1 X118.951 Y149.646 E5.81959
G1 X86.057 Y91.57 E8.26152
G1 X85.727 Y90.969 E8.2866
G1 X85.309 Y90.125 E8.32106
G1 X84.964 Y89.248 E8.35554
G1 X84.695 Y88.346 E8.38998
G1 X84.503 Y87.423 E8.42447
G1 X84.39 Y86.488 E8.45893
G1 X84.357 Y85.546 E8.49341
G0 F2100 X84.799 Y85.439
G1 F1200 X84.855 Y84.517 E8.52721
G1 X84.991 Y83.604 E8.56098
G1 X85.205 Y82.706 E8.59475
G1 X85.496 Y81.83 E8.62852
G1 X85.862 Y80.982 E8.66232
G1 X86.3 Y80.169 E8.6961
G1 X86.807 Y79.397 E8.72989
G1 X87.378 Y78.672 E8.76366
G1 X88.01 Y77.999 E8.79743
G1 X88.698 Y77.384 E8.8312
G1 X89.437 Y76.83 E8.86499
G1 X90.221 Y76.342 E8.89877
G1 X91.044 Y75.923 E8.93256
G1 X91.9 Y75.578 E8.96633
G1 X92.783 Y75.308 E9.00011
G1 X93.686 Y75.115 E9.03389
G1 X94.602 Y75.001 E9.06766
G1 X95.525 Y74.967 E9.10146
G1 X96.447 Y75.013 E9.13523
G1 X97.511 Y75.167 E9.17456
G1 X98.521 Y75.367 E9.21223
G1 X111.255 Y78.104 E9.68876
G1 X111.927 Y78.259 E9.71399
G1 X112.817 Y78.505 E9.74778
G1 X113.682 Y78.827 E9.78154
G1 X114.516 Y79.223 E9.81532
G1 X115.312 Y79.69 E9.84909
G1 X116.066 Y80.224 E9.88289
G1 X116.77 Y80.821 E9.91666
G1 X117.42 Y81.477 E9.95045
G1 X118.011 Y82.186 E9.98422
G1 X118.708 Y83.222 E10.0299
G1 X119.086 Y83.864 E10.05716
G1 X147.676 Y134.345 E12.1797
G1 X148.006 Y134.948 E12.20485
G1 X148.414 Y135.777 E12.23865
G1 X148.749 Y136.637 E12.27242
G1 X149.007 Y137.523 E12.30618
G1 X149.249 Y138.88 E12.35661
G1 X149.337 Y139.676 E12.38591
G1 X150.119 Y147.783 E12.68389
G1 X150.178 Y148.486 E12.7097
G1 X150.215 Y149.409 E12.7435
G1 X150.172 Y150.331 E12.77727
G1 X150.05 Y151.246 E12.81104
G1 X149.849 Y152.147 E12.84481
G1 X149.571 Y153.028 E12.87861
G1 X149.217 Y153.881 E12.9124
G1 X148.791 Y154.7 E12.94618
G1 X148.296 Y155.479 E12.97994
G1 X147.736 Y156.213 E13.01372
G1 X147.114 Y156.895 E13.04749
G1 X146.435 Y157.521 E13.08128
G1 X145.704 Y158.085 E13.11506
G1 X144.928 Y158.585 E13.14883
G1 X144.111 Y159.015 E13.18261
G1 X143.26 Y159.373 E13.21639
G1 X142.381 Y159.656 E13.25017
G1 X141.481 Y159.862 E13.28395
G1 X140.567 Y159.99 E13.31772
G1 X139.645 Y160.038 E13.3515
G1 X138.722 Y160.005 E13.38529
G1 X137.806 Y159.894 E13.41905
G1 X136.902 Y159.703 E13.45285
G1 X136.019 Y159.434 E13.48662
G1 X135.585 Y159.271 E13.50358
G1 X134.8 Y158.955 E13.53454
G1 X125.494 Y155.063 E13.90359
G1 X124.85 Y154.783 E13.92928
G1 X124.02 Y154.379 E13.96306
G1 X123.228 Y153.904 E13.99684
G1 X122.48 Y153.362 E14.03064
G1 X121.782 Y152.758 E14.06441
G1 X121.139 Y152.096 E14.09817
G1 X120.555 Y151.38 E14.13198
G1 X119.919 Y150.425 E14.17396
G1 X119.334 Y149.429 E14.21622
G1 X86.443 Y91.359 E16.6579
G1 X86.113 Y90.758 E16.68298
G1 X85.704 Y89.93 E16.71677
G1 X85.368 Y89.07 E16.75055
G1 X85.108 Y88.184 E16.78433
G1 X84.926 Y87.279 E16.81811
G1 X84.822 Y86.362 E16.85187
G1 X84.799 Y85.439 E16.88565
G0 F2100 X85.241 Y85.333
G1 F1200 X85.307 Y84.432 E16.9187
G1 X85.452 Y83.539 E16.9518
G1 X85.676 Y82.663 E16.98488
G1 X85.976 Y81.811 E17.01793
G1 X86.351 Y80.988 E17.05102
G1 X86.796 Y80.201 E17.0841
G1 X87.309 Y79.457 E17.11716
G1 X87.887 Y78.761 E17.15026
G1 X88.523 Y78.119 E17.18332
G1 X89.213 Y77.536 E17.21637
G1 X89.953 Y77.016 E17.24946
G1 X90.735 Y76.563 E17.28253
G1 X91.555 Y76.181 E17.31562
G1 X92.405 Y75.873 E17.3487
G1 X93.278 Y75.642 E17.38174
G1 X94.169 Y75.488 E17.41482
G1 X95.07 Y75.414 E17.4479
G1 X95.974 Y75.42 E17.48097
G1 X96.874 Y75.506 E17.51405
G1 X97.426 Y75.599 E17.53453
G1 X98.429 Y75.797 E17.57193
G1 X111.156 Y78.532 E18.04819
G1 X111.828 Y78.687 E18.07343
G1 X112.699 Y78.929 E18.1065
G1 X113.545 Y79.247 E18.13957
G1 X114.36 Y79.639 E18.17265
G1 X115.137 Y80.101 E18.20573
G1 X115.87 Y80.63 E18.2388
G1 X116.554 Y81.221 E18.27187
G1 X117.182 Y81.871 E18.30494
G1 X117.751 Y82.573 E18.338
G1 X118.329 Y83.446 E18.3763
G1 X118.703 Y84.081 E18.40327
G1 X147.29 Y134.557 E20.52559
G1 X147.62 Y135.16 E20.55074
G1 X148.019 Y135.971 E20.58381
G1 X148.344 Y136.815 E20.6169
G1 X148.593 Y137.683 E20.64994
G1 X148.812 Y138.929 E20.69622
G1 X148.899 Y139.718 E20.72526
G1 X149.68 Y147.82 E21.02306
G1 X149.739 Y148.523 E21.04887
G1 X149.775 Y149.427 E21.08197
G1 X149.731 Y150.329 E21.11501
G1 X149.607 Y151.225 E21.1481
G1 X149.404 Y152.106 E21.18118
G1 X149.125 Y152.966 E21.21426
G1 X148.77 Y153.797 E21.24732
G1 X148.344 Y154.594 E21.28038
G1 X147.848 Y155.35 E21.31346
G1 X147.288 Y156.06 E21.34654
G1 X146.667 Y156.717 E21.37962
G1 X145.991 Y157.317 E21.41269
G1 X145.264 Y157.855 E21.44578
G1 X144.493 Y158.326 E21.47883
G1 X143.683 Y158.727 E21.5119
G1 X142.841 Y159.055 E21.54496
G1 X141.973 Y159.308 E21.57804
G1 X141.086 Y159.483 E21.61112
G1 X140.187 Y159.578 E21.64419
G1 X139.283 Y159.594 E21.67727
G1 X138.381 Y159.53 E21.71035
G1 X137.489 Y159.387 E21.74341
G1 X136.612 Y159.165 E21.7765
G1 X135.749 Y158.863 E21.80995
G1 X134.97 Y158.549 E21.84068
G1 X125.669 Y154.659 E22.20953
G1 X125.025 Y154.379 E22.23523
G1 X124.213 Y153.983 E22.26828
G1 X123.439 Y153.516 E22.30135
G1 X122.709 Y152.982 E22.33444
G1 X122.029 Y152.386 E22.36752
G1 X121.405 Y151.733 E22.40057
G1 X120.841 Y151.026 E22.43366
G1 X120.298 Y150.201 E22.46979
G1 X119.716 Y149.212 E22.51178
G1 X86.829 Y91.147 E24.95323
G1 X86.499 Y90.546 E24.97831
G1 X86.099 Y89.735 E25.0114
G1 X85.773 Y88.892 E25.04446
G1 X85.522 Y88.023 E25.07756
G1 X85.349 Y87.136 E25.11062
G1 X85.255 Y86.237 E25.14369
G1 X85.241 Y85.333 E25.17677
G1 F2700 E20.17677
;MESH:Shirt collar stiffener v2.stl
G0 F2100 X95.33 Y86.768
G0 X96.281 Y86.229
G0 X129.675 Y144.344
G0 X138.916 Y148.513
G1 F2700 E25.17677
G0 F2100 X139.309 Y149.048
;TYPE:WALL-OUTER
G1 F1200 X138.448 Y140.129 E25.5046
G1 X109.395 Y88.833 E27.66143
G1 X95.87 Y85.926 E28.16756
G1 X129.238 Y144.837 E30.64461
G1 X139.309 Y149.048 E31.04398
G0 F2100 X138.801 Y148.358
;TYPE:WALL-INNER
G1 F1200 X138.019 Y140.265 E31.34146
G1 X109.109 Y89.221 E33.48769
G1 X96.736 Y86.562 E33.9507
G1 X129.546 Y144.489 E36.38637
G1 X138.801 Y148.358 E36.75337
G0 F2100 X138.336 Y147.731
;TYPE:SKIN
G1 F1200 X137.656 Y147.446 E36.78035
G1 X137.826 Y147.041 E36.79642
G1 X137.198 Y140.526 E37.03588
G1 X108.563 Y89.967 E39.16172
G1 X98.395 Y87.779 E39.54224
G1 X130.139 Y143.826 E41.89884
G1 X135.654 Y146.132 E42.11754
G1 X135.825 Y145.728 E42.13359
G1 X130.449 Y143.479 E42.34679
G1 X99.263 Y88.416 E44.66201
G1 X108.277 Y90.357 E44.99935
G1 X136.767 Y140.663 E47.11452
G1 X137.316 Y146.351 E47.32359
G1 X136.636 Y146.066 E47.35056
G1 X136.806 Y145.661 E47.36663
G1 X136.337 Y140.8 E47.5453
G1 X107.991 Y90.747 E49.64982
G1 X101.522 Y89.353 E49.89193
G1 X101.428 Y89.782 E49.90799
G1 X100.999 Y89.69 E49.92405
G1 X107.705 Y91.137 E50.17504
G1 X135.906 Y140.937 E52.26888
G1 X136.296 Y144.971 E52.41716
G1 X131.209 Y142.842 E52.61892
G1 X131.379 Y142.437 E52.63499
G1 X131.519 Y142.495 E52.64053
G1 X131.689 Y142.09 E52.6566
G1 X102.735 Y90.966 E54.80617
G1 X107.133 Y91.917 E54.9708
G1 X135.045 Y141.211 E57.04332
G1 X135.276 Y143.59 E57.13077
G1 X133.507 Y142.85 E57.20093
G1 X133.678 Y142.444 E57.21704
G1 X133.849 Y142.039 E57.23313
G1 X132.309 Y141.394 E57.29421
G1 X105.35 Y93.792 E59.29569
G1 F1113.9 X105.571 Y93.667 E59.3057
G1 F974.2 X105.792 Y93.542 E59.31714
G1 F916.7 X106.35 Y94.528 E59.3714
G1 X106.909 Y95.515 E59.42573
G1 X107.468 Y96.502 E59.48006
G1 X108.027 Y97.489 E59.53439
G1 X108.586 Y98.475 E59.58867
G1 X109.144 Y99.462 E59.64297
G1 X109.703 Y100.449 E59.6973
G1 F918.3 X110.262 Y101.436 E59.75153
G1 X110.821 Y102.422 E59.80573
G1 X111.38 Y103.409 E59.85996
G1 X111.938 Y104.396 E59.91417
G1 X112.497 Y105.383 E59.9684
G1 X113.056 Y106.369 E60.02259
G1 X113.615 Y107.356 E60.07682
G1 F919.9 X114.174 Y108.343 E60.13096
G1 X114.733 Y109.33 E60.1851
G1 X115.291 Y110.316 E60.23917
G1 X115.85 Y111.303 E60.29331
G1 X116.409 Y112.29 E60.34745
G1 X116.968 Y113.277 E60.40159
G1 X117.527 Y114.263 E60.45569
G1 F921.5 X118.085 Y115.25 E60.50971
G1 X118.644 Y116.237 E60.56375
G1 X119.203 Y117.224 E60.6178
G1 X119.762 Y118.211 E60.67184
G1 X120.321 Y119.197 E60.72584
G1 X120.879 Y120.184 E60.77986
G1 F923.1 X121.438 Y121.171 E60.83381
G1 X121.997 Y122.158 E60.88776
G1 X122.556 Y123.144 E60.94167
G1 X123.115 Y124.131 E60.99562
G1 X123.674 Y125.118 E61.04957
G1 X124.232 Y126.105 E61.1035
G1 X124.791 Y127.091 E61.15741
G1 F924.7 X125.35 Y128.078 E61.21126
G1 X125.909 Y129.065 E61.26512
G1 X126.468 Y130.052 E61.31897
G1 X127.026 Y131.038 E61.37276
G1 X127.585 Y132.025 E61.42662
G1 X128.144 Y133.012 E61.48048
G1 X128.703 Y133.999 E61.53433
G1 F926.3 X129.262 Y134.985 E61.58805
G1 X129.82 Y135.972 E61.64179
G1 X130.379 Y136.959 E61.69555
G1 X130.938 Y137.946 E61.74931
G1 X131.497 Y138.932 E61.80303
G1 X132.056 Y139.919 E61.85679
G1 X132.615 Y140.906 E61.91055
G1 X132.666 Y140.995 E61.91542
G1 X133.527 Y141.357 E61.95968
G1 X133.115 Y140.63 E61.99929
G1 X132.555 Y139.641 E62.05316
G1 X131.995 Y138.652 E62.10702
G1 X131.435 Y137.662 E62.16093
G1 X130.875 Y136.673 E62.2148
G1 X130.314 Y135.683 E62.26873
G1 X129.754 Y134.694 E62.3226
G1 X129.194 Y133.704 E62.3765
G1 F924.7 X128.634 Y132.715 E62.43047
G1 X128.074 Y131.726 E62.48443
G1 X127.513 Y130.736 E62.53845
G1 X126.953 Y129.747 E62.59242
G1 X126.393 Y128.757 E62.64642
G1 X125.833 Y127.768 E62.70038
G1 X125.272 Y126.778 E62.75441
G1 F923.1 X124.712 Y125.789 E62.80846
G1 X124.152 Y124.8 E62.86252
G1 X123.592 Y123.81 E62.91662
G1 X123.032 Y122.821 E62.97067
G1 X122.471 Y121.831 E63.02479
G1 X121.911 Y120.842 E63.07885
G1 X121.351 Y119.852 E63.13295
G1 F921.5 X120.791 Y118.863 E63.1871
G1 X120.231 Y117.874 E63.24125
G1 X119.67 Y116.884 E63.29546
G1 X119.11 Y115.895 E63.34961
G1 X118.55 Y114.905 E63.40381
G1 X117.99 Y113.916 E63.45796
G1 F919.9 X117.429 Y112.926 E63.51227
G1 X116.869 Y111.937 E63.56651
G1 X116.309 Y110.948 E63.62076
G1 X115.749 Y109.958 E63.67504
G1 X115.189 Y108.969 E63.72929
G1 X114.628 Y107.979 E63.7836
G1 X114.068 Y106.99 E63.83784
G1 F918.3 X113.508 Y106 E63.89222
G1 X112.948 Y105.011 E63.94656
G1 X112.387 Y104.022 E64.00093
G1 X111.827 Y103.032 E64.05531
G1 X111.267 Y102.043 E64.10965
G1 X110.707 Y101.053 E64.16403
G1 X110.147 Y100.064 E64.21837
G1 F916.7 X109.586 Y99.074 E64.27287
G1 X109.026 Y98.085 E64.3273
G1 X108.466 Y97.096 E64.38174
G1 X107.906 Y96.106 E64.43621
G1 X107.346 Y95.117 E64.49065
G1 X106.785 Y94.127 E64.54515
G1 X106.225 Y93.138 E64.59958
G1 F915.1 X105.475 Y92.983 E64.63632
G1 X105.542 Y93.101 E64.64283
G1 F974.2 X105.321 Y93.225 E64.65425
G1 F1113.9 X105.099 Y93.35 E64.6643
M104 S205
G1 F1200 X104.474 Y92.245 E64.71074
G1 X106.561 Y92.697 E64.78887
G1 X134.183 Y141.485 E66.84006
G1 X134.254 Y142.209 E66.86667
G1 X134.084 Y142.614 E66.88274
G1 X134.765 Y142.899 E66.90975
G1 X134.614 Y141.348 E66.96676
G1 X106.847 Y92.307 E69.02862
G1 X103.604 Y91.606 E69.15001
G1 X131.999 Y141.742 E71.25805
G1 X133.273 Y142.275 E71.30858
G1 X133.101 Y142.68 E71.32467
G1 X132.094 Y142.259 E71.36461
G1 X131.923 Y142.665 E71.38073
G1 X135.786 Y144.281 E71.53393
G1 X135.476 Y141.074 E71.6518
G1 X107.419 Y91.527 E73.735
G1 X101.867 Y90.328 E73.94281
G1 X131.106 Y141.954 E76.1135
G1 X130.89 Y142.467 E76.13386
G1 X100.999 Y89.69 E78.35295
G1 X101.092 Y89.261 E78.36901
G1 X100.131 Y89.053 E78.40499
G1 X130.759 Y143.132 E80.67881
G1 X136.401 Y145.492 E80.90256
G1 X136.23 Y145.897 E80.91865
G1 X136.06 Y146.302 E80.93472
G1 X137.421 Y146.872 E80.9887
G1 X137.25 Y147.277 E81.00478
G1 X129.829 Y144.174 E81.29907
G1 X102.276 Y95.53 E83.34443
G1 X97.527 Y87.142 E83.69709
G1 X108.849 Y89.577 E84.12079
G1 X137.628 Y140.389 E86.25727
G1 X138.336 Y147.731 E86.52713
G1 F2700 E81.52713
;MESH:NONMESH
G0 F300 X138.336 Y147.731 Z0.4
G0 F2100 X138.228 Y147.988
G0 X138.916 Y148.513
G1 F2700 E86.52713
G0 F2100 X139.332 Y149.079
;TIME_ELAPSED:129.130149
;LAYER:1
;TYPE:WALL-OUTER
;MESH:Shirt collar stiffener v2.stl
G1 F1350 X138.468 Y140.123 E86.82639
G1 X109.408 Y88.815 E88.78761
G1 X95.83 Y85.897 E89.24953
G1 X129.224 Y144.852 E91.5031
G1 X139.332 Y149.079 E91.8675
G0 F5550 X138.87 Y148.452
;TYPE:WALL-INNER
G1 F1350 X138.078 Y140.246 E92.1417
G1 X109.148 Y89.168 E94.09414
G1 X96.618 Y86.475 E94.5204
G1 X129.504 Y144.536 E96.73977
G1 X138.87 Y148.452 E97.07742
G0 F5550 X138.452 Y147.888
;TYPE:SKIN
G1 F1350 X137.726 Y140.359 E97.32899
G1 X109.892 Y91.216 E99.20746
G1 X108.914 Y89.488 E99.2735
G1 X97.329 Y86.997 E99.66762
G1 X129.759 Y144.252 E101.85619
G1 X138.452 Y147.888 E102.1696
G0 F5550 X138.132 Y147.538
G1 F1350 X138.209 Y147.461 E102.17322
G0 F5550 X137.733 Y147.371
G1 F1350 X138.16 Y146.945 E102.19328
G0 F5550 X138.109 Y146.429
G1 F1350 X137.334 Y147.204 E102.22973
G0 F5550 X136.936 Y147.037
G1 F1350 X138.06 Y145.913 E102.2826
G0 F5550 X138.01 Y145.398
