;FLAVOR:Marlin
;TIME:2372
;Filament used: 1.12288m
;Layer height: 0.2
;MINX:85.498
;MINY:88.339
;MINZ:0.2
;MAXX:147.412
;MAXY:147.674
;MAXZ:4
;Generated with Cura_SteamEngine 5.0.0
M140 S60
M105
M190 S60
M104 S222
M105
M109 S222
M82 ;absolute extrusion mode
; Ender 3 Custom Start G-code
G92 E0 ; Reset Extruder
M140 S60 ; Start heating the heated bed
M190 S60 ; Wait until the heated bed reaches the desired temperature
G28 ; Auto Home
G29 A; Activate Bed Leveling
G29 L0; Loads the saved mesh in slot 0
G29  J3; 9 point autotilt

G92 E0 ; Reset extruder origin
G1 Z2.0 F3000 ; Move Z Axis up little to prevent scratching of Heat Bed
G1 X0.1 Y20 Z0.3 F5000.0 ; Move to start position
G1 X0.1 Y200.0 Z0.3 F1500.0 E15 ; Draw the first line
G1 X0.4 Y200.0 Z0.3 F5000.0 ; Move to side a little
G1 X0.4 Y20 Z0.3 F1500.0 E30 ; Draw the second line
G92 E0 ; Reset Extruder
G1 Z2.0 F3000 ; Move Z Axis up little to prevent scratching of Heat Bed
G1 X5 Y20 Z0.3 F5000.0 ; Move over to prevent blob squish

; End of Ender 3 Custom Start G-code
G92 E0
G92 E0
G1 F2700 E-5
;LAYER_COUNT:20
;LAYER:0
M107
G0 F2100 X90.714 Y93.939 Z0.2
G0 X85.658 Y105.486
;TYPE:SKIRT
G1 F2700 E0
G1 F1200 X85.669 Y104.847 E0.02338
G1 X85.685 Y104.496 E0.03624
G1 X85.796 Y103.355 E0.07818
G1 X85.875 Y102.828 E0.09768
G1 X86.136 Y101.579 E0.14436
G1 X86.25 Y101.157 E0.16035
G1 X86.505 Y100.341 E0.19163
G1 X86.599 Y100.076 E0.20192
G1 X86.862 Y99.405 E0.22828
G1 X86.975 Y99.142 E0.23876
G1 X87.344 Y98.361 E0.27036
G1 X87.685 Y97.729 E0.29663
G1 X87.828 Y97.483 E0.30704
G1 X88.159 Y96.947 E0.33009
G1 X88.643 Y96.246 E0.36126
G1 X88.796 Y96.04 E0.37065
G1 X89.227 Y95.495 E0.39607
G1 X89.401 Y95.289 E0.40593
G1 X89.872 Y94.766 E0.43168
G1 X90.086 Y94.543 E0.44299
G1 X90.714 Y93.939 E0.47487
G1 X91.024 Y93.663 E0.49005
G1 X91.856 Y92.991 E0.52918
G1 X92.142 Y92.782 E0.54214
G1 X92.851 Y92.304 E0.57343
G1 X93.205 Y92.085 E0.58866
G1 X94.321 Y91.48 E0.6351
G1 X94.842 Y91.235 E0.65616
G1 X95.952 Y90.785 E0.69998
G1 X96.254 Y90.681 E0.71167
G1 X96.931 Y90.472 E0.73759
G1 X97.745 Y90.263 E0.76834
G1 X98.635 Y90.092 E0.8015
G1 X99.454 Y89.973 E0.83178
G1 X100.233 Y89.881 E0.86047
G1 X101.561 Y89.742 E0.90933
G1 X104.102 Y89.404 E1.00311
G1 X106.585 Y89.001 E1.09514
G1 X108.672 Y88.616 E1.17279
G1 X109.109 Y88.544 E1.18899
G1 X109.7 Y88.459 E1.21083
G1 X110.887 Y88.353 E1.25444
G1 X111.226 Y88.341 E1.26685
G1 X111.952 Y88.339 E1.29341
G1 X112.252 Y88.348 E1.30439
G1 X112.979 Y88.393 E1.33104
G1 X113.709 Y88.478 E1.35793
G1 X114.116 Y88.539 E1.37298
G1 X114.896 Y88.683 E1.402
G1 X115.595 Y88.853 E1.42832
G1 X116.972 Y89.237 E1.48062
G1 X117.694 Y89.45 E1.50816
G1 X120.111 Y90.09 E1.59964
G1 X122.579 Y90.669 E1.69239
G1 X125.026 Y91.17 E1.78377
G1 X127.516 Y91.607 E1.87626
G1 X129.978 Y91.969 E1.9673
G1 X132.544 Y92.271 E2.06183
G1 X133.398 Y92.355 E2.09323
G1 X133.95 Y92.423 E2.11358
G1 X134.386 Y92.488 E2.1297
G1 X135.118 Y92.623 E2.15694
G1 X135.867 Y92.801 E2.1851
G1 X136.073 Y92.857 E2.19291
G1 X136.772 Y93.072 E2.21967
G1 X137.115 Y93.19 E2.23294
G1 X137.809 Y93.455 E2.26012
G1 X138.48 Y93.75 E2.28694
G1 X138.671 Y93.841 E2.29468
G1 X139.313 Y94.173 E2.32112
G1 X139.61 Y94.339 E2.33357
G1 X140.312 Y94.764 E2.36359
G1 X141.049 Y95.27 E2.3963
G1 X141.717 Y95.789 E2.42725
G1 X142.076 Y96.091 E2.44441
G1 X142.92 Y96.88 E2.48668
G1 X143.164 Y97.133 E2.49954
G1 X143.662 Y97.685 E2.52674
G1 X143.887 Y97.952 E2.53952
G1 X144.491 Y98.738 E2.57578
G1 X144.727 Y99.075 E2.59083
G1 X145.257 Y99.907 E2.62693
G1 X145.429 Y100.206 E2.63955
G1 X145.827 Y100.961 E2.67077
G1 X146.107 Y101.565 E2.69513
G1 X146.233 Y101.86 E2.70686
G1 X146.485 Y102.507 E2.73227
G1 X146.746 Y103.285 E2.76229
G1 X146.807 Y103.49 E2.77012
G1 X146.985 Y104.165 E2.79566
G1 X147.055 Y104.469 E2.80707
G1 X147.249 Y105.557 E2.8475
G1 X147.321 Y106.122 E2.86834
G1 X147.41 Y107.482 E2.9182
G1 X147.412 Y107.998 E2.93708
G1 X147.384 Y108.827 E2.96743
G1 X147.298 Y110.015 E3.01101
G1 X147.207 Y111.068 E3.04968
G1 X147.059 Y113.589 E3.14207
G1 X146.985 Y116.098 E3.2339
G1 X146.98 Y118.622 E3.32625
G1 X147.047 Y121.138 E3.41833
G1 X147.184 Y123.626 E3.5095
G1 X147.296 Y124.931 E3.55742
G1 X147.38 Y126.093 E3.60004
G1 X147.409 Y126.831 E3.62706
G1 X147.412 Y127.37 E3.64678
G1 X147.338 Y128.711 E3.69592
G1 X147.275 Y129.254 E3.71592
G1 X147.056 Y130.507 E3.76246
G1 X146.948 Y130.968 E3.77978
G1 X146.696 Y131.871 E3.81408
G1 X146.6 Y132.166 E3.82543
G1 X146.205 Y133.201 E3.86596
G1 X146 Y133.667 E3.88458
G1 X145.421 Y134.802 E3.9312
G1 X145.156 Y135.255 E3.9504
G1 X144.523 Y136.219 E3.9926
G1 X144.28 Y136.55 E4.00762
G1 X143.618 Y137.367 E4.04609
G1 X143.38 Y137.634 E4.05918
G1 X142.859 Y138.179 E4.08676
G1 X142.62 Y138.413 E4.099
G1 X141.809 Y139.134 E4.1387
G1 X141.437 Y139.433 E4.15616
G1 X140.736 Y139.952 E4.18807
G1 X140.003 Y140.43 E4.22009
G1 X139.805 Y140.549 E4.22854
G1 X139.217 Y140.878 E4.25319
G1 X138.91 Y141.038 E4.26586
G1 X138.264 Y141.349 E4.29209
G1 X138.033 Y141.451 E4.30133
G1 X137.017 Y141.841 E4.34114
G1 X136.488 Y142.015 E4.36152
G1 X135.58 Y142.272 E4.39604
G1 X134.737 Y142.454 E4.42759
G1 X133.981 Y142.572 E4.45559
G1 X133.573 Y142.622 E4.47063
G1 X132.618 Y142.697 E4.50567
G1 X129.223 Y142.843 E4.63
G1 X126.754 Y143.024 E4.72057
G1 X124.214 Y143.283 E4.81398
G1 X121.756 Y143.604 E4.90468
G1 X119.238 Y144.006 E4.99797
G1 X116.783 Y144.469 E5.08937
G1 X114.34 Y145 E5.18084
G1 X111.915 Y145.603 E5.27226
G1 X109.453 Y146.288 E5.36576
G1 X107.734 Y146.821 E5.4316
G1 X106.715 Y147.117 E5.47042
G1 X106.363 Y147.209 E5.48373
G1 X105.725 Y147.356 E5.50769
G1 X105.459 Y147.409 E5.51761
G1 X104.691 Y147.534 E5.54608
G1 X104.353 Y147.577 E5.55854
G1 X103.323 Y147.66 E5.59635
G1 X102.904 Y147.674 E5.61169
G1 X102.025 Y147.668 E5.64385
G1 X101.676 Y147.652 E5.65663
G1 X100.628 Y147.554 E5.69514
G1 X100.19 Y147.492 E5.71132
G1 X99.275 Y147.323 E5.74537
G1 X99.021 Y147.265 E5.7549
G1 X98.248 Y147.059 E5.78417
G1 X97.803 Y146.923 E5.80119
G1 X96.771 Y146.552 E5.84131
G1 X96.426 Y146.408 E5.85499
G1 X95.7 Y146.073 E5.88424
G1 X95.492 Y145.968 E5.89277
G1 X94.916 Y145.655 E5.91675
G1 X94.154 Y145.194 E5.94934
G1 X93.95 Y145.06 E5.95827
G1 X93.404 Y144.677 E5.98267
G1 X93.187 Y144.515 E5.99258
G1 X92.673 Y144.107 E6.01658
G1 X92.463 Y143.93 E6.02663
G1 X91.908 Y143.429 E6.05399
G1 X91.329 Y142.846 E6.08405
G1 X91.028 Y142.521 E6.10026
G1 X90.247 Y141.579 E6.14502
G1 X89.983 Y141.222 E6.16127
G1 X89.352 Y140.269 E6.20309
G1 X89.092 Y139.829 E6.22178
G1 X88.608 Y138.915 E6.25962
G1 X88.476 Y138.635 E6.27095
G1 X88.092 Y137.716 E6.30739
G1 X87.931 Y137.276 E6.32453
G1 X87.659 Y136.429 E6.35708
G1 X87.588 Y136.173 E6.3668
G1 X87.401 Y135.397 E6.396
G1 X87.273 Y134.707 E6.42168
G1 X87.149 Y133.85 E6.45336
G1 X87.044 Y132.948 E6.48658
G1 X86.949 Y132.035 E6.52016
G1 X86.619 Y129.541 E6.6122
G1 X86.228 Y127.105 E6.70247
G1 X85.974 Y125.796 E6.75125
G1 X85.692 Y124.209 E6.81023
G1 X85.633 Y123.806 E6.82513
G1 X85.551 Y123.083 E6.85175
G1 X85.506 Y122.349 E6.87865
G1 X85.498 Y122.096 E6.88791
G1 X85.502 Y121.278 E6.91784
G1 X85.539 Y120.521 E6.94557
G1 X85.738 Y117.834 E7.04415
G1 X85.853 Y115.341 E7.13545
G1 X85.896 Y112.828 E7.22741
G1 X85.87 Y110.341 E7.3184
G1 X85.77 Y107.767 E7.41265
G1 X85.691 Y106.526 E7.45814
G1 X85.661 Y105.734 E7.48714
G1 X85.658 Y105.486 E7.49621
G0 F2100 X86.101 Y105.729
G1 F1200 X86.108 Y104.867 E7.52775
G1 X86.124 Y104.516 E7.54061
G1 X86.231 Y103.421 E7.58086
G1 X86.31 Y102.894 E7.60035
G1 X86.561 Y101.694 E7.64521
G1 X86.675 Y101.272 E7.6612
G1 X86.919 Y100.488 E7.69124
G1 X87.013 Y100.223 E7.70153
G1 X87.266 Y99.579 E7.72684
G1 X87.379 Y99.316 E7.73732
G1 X87.738 Y98.557 E7.76803
G1 X88.065 Y97.95 E7.79326
G1 X88.208 Y97.704 E7.80367
G1 X88.657 Y96.993 E7.83444
G1 X88.996 Y96.508 E7.85608
G1 X89.149 Y96.302 E7.86547
G1 X89.563 Y95.779 E7.88988
G1 X89.737 Y95.573 E7.89974
G1 X90.19 Y95.071 E7.92448
G1 X90.404 Y94.848 E7.93579
G1 X91.007 Y94.267 E7.96642
G1 X91.317 Y93.991 E7.98161
G1 X92.115 Y93.346 E8.01915
G1 X92.401 Y93.137 E8.03211
G1 X93.083 Y92.679 E8.06217
G1 X93.437 Y92.46 E8.0774
G1 X94.509 Y91.878 E8.12202
G1 X95.03 Y91.633 E8.14309
G1 X96.095 Y91.201 E8.18513
G1 X96.397 Y91.097 E8.19682
G1 X97.047 Y90.896 E8.22171
G1 X97.84 Y90.692 E8.25167
G1 X98.701 Y90.527 E8.28374
G1 X99.506 Y90.41 E8.3135
G1 X100.279 Y90.319 E8.34198
G1 X101.632 Y90.178 E8.39175
G1 X104.118 Y89.846 E8.48351
G1 X106.649 Y89.437 E8.57731
G1 X108.752 Y89.048 E8.65556
G1 X109.762 Y88.895 E8.69293
G1 X110.903 Y88.793 E8.73484
G1 X111.242 Y88.781 E8.74725
G1 X111.939 Y88.779 E8.77275
G1 X112.798 Y88.819 E8.80422
G1 X113.644 Y88.913 E8.83536
G1 X114.051 Y88.974 E8.85041
G1 X114.806 Y89.114 E8.87851
G1 X115.477 Y89.277 E8.90377
G1 X116.848 Y89.659 E8.95584
G1 X117.565 Y89.871 E8.9832
G1 X120.013 Y90.519 E9.07584
G1 X122.497 Y91.101 E9.16919
G1 X124.961 Y91.606 E9.26121
G1 X127.414 Y92.036 E9.35232
G1 X129.934 Y92.407 E9.44551
G1 X132.498 Y92.709 E9.53997
G1 X133.355 Y92.793 E9.57147
G1 X133.885 Y92.859 E9.59101
G1 X134.321 Y92.924 E9.60714
G1 X135.024 Y93.053 E9.63329
G1 X135.751 Y93.225 E9.66062
G1 X135.957 Y93.281 E9.66843
G1 X136.629 Y93.488 E9.69416
G1 X136.972 Y93.606 E9.70743
G1 X137.639 Y93.86 E9.73354
G1 X138.291 Y94.147 E9.75961
G1 X138.482 Y94.238 E9.76735
G1 X139.098 Y94.557 E9.79273
G1 X139.395 Y94.723 E9.80517
G1 X140.077 Y95.136 E9.83434
G1 X140.601 Y95.489 E9.85746
G1 X140.793 Y95.627 E9.86611
G1 X141.433 Y96.126 E9.8958
G1 X141.792 Y96.428 E9.91296
G1 X142.603 Y97.185 E9.95355
G1 X142.847 Y97.438 E9.96641
G1 X143.326 Y97.969 E9.99258
G1 X143.551 Y98.236 E10.00535
G1 X144.131 Y98.99 E10.04015
G1 X144.367 Y99.327 E10.05521
G1 X144.875 Y100.127 E10.08988
G1 X145.047 Y100.426 E10.1025
G1 X145.434 Y101.158 E10.13279
G1 X145.702 Y101.738 E10.15617
G1 X145.828 Y102.033 E10.1679
G1 X146.071 Y102.654 E10.1923
G1 X146.324 Y103.411 E10.2215
G1 X146.556 Y104.264 E10.25384
G1 X146.626 Y104.568 E10.26526
G1 X146.812 Y105.612 E10.30406
G1 X146.884 Y106.177 E10.32489
G1 X146.97 Y107.484 E10.37282
G1 X146.972 Y108 E10.39169
G1 X146.945 Y108.796 E10.42083
G1 X146.86 Y109.977 E10.46415
G1 X146.768 Y111.041 E10.50323
G1 X146.619 Y113.585 E10.59646
G1 X146.545 Y116.083 E10.68789
G1 X146.54 Y118.632 E10.78115
G1 X146.607 Y121.141 E10.87298
G1 X146.745 Y123.655 E10.96509
G1 X146.857 Y124.962 E11.01309
G1 X146.941 Y126.124 E11.05571
G1 X146.969 Y126.834 E11.08171
G1 X146.972 Y127.373 E11.10143
G1 X146.901 Y128.661 E11.14862
G1 X146.838 Y129.204 E11.16862
G1 X146.628 Y130.407 E11.2133
G1 X146.52 Y130.868 E11.23062
G1 X146.278 Y131.735 E11.26356
G1 X146.182 Y132.03 E11.27491
G1 X145.803 Y133.023 E11.31379
G1 X145.598 Y133.489 E11.33242
G1 X145.041 Y134.58 E11.37724
G1 X144.776 Y135.033 E11.39644
G1 X144.168 Y135.958 E11.43694
G1 X143.925 Y136.289 E11.45196
G1 X143.29 Y137.074 E11.4889
G1 X143.052 Y137.341 E11.50198
G1 X142.552 Y137.865 E11.52848
G1 X142.313 Y138.099 E11.54072
G1 X141.533 Y138.791 E11.57887
G1 X141.161 Y139.09 E11.59633
G1 X140.488 Y139.589 E11.62698
G1 X139.776 Y140.053 E11.65808
G1 X139.578 Y140.172 E11.66653
G1 X139.014 Y140.488 E11.69018
G1 X138.707 Y140.648 E11.70285
G1 X138.086 Y140.947 E11.72806
G1 X137.855 Y141.049 E11.7373
G1 X136.88 Y141.423 E11.77551
G1 X136.351 Y141.597 E11.79588
G1 X135.479 Y141.844 E11.82904
G1 X134.66 Y142.02 E11.85969
G1 X133.928 Y142.135 E11.8868
G1 X133.52 Y142.185 E11.90184
G1 X132.603 Y142.257 E11.93549
G1 X131.837 Y142.284 E11.96353
G1 X129.206 Y142.403 E12.05989
G1 X126.71 Y142.586 E12.15145
G1 X124.179 Y142.844 E12.24453
G1 X121.672 Y143.172 E12.33703
G1 X119.188 Y143.568 E12.42906
G1 X116.68 Y144.042 E12.52244
G1 X114.239 Y144.572 E12.61383
G1 X111.806 Y145.176 E12.70555
G1 X109.344 Y145.861 E12.79904
G1 X107.609 Y146.399 E12.8655
G1 X106.604 Y146.692 E12.9038
G1 X106.252 Y146.784 E12.91711
G1 X105.639 Y146.924 E12.94012
G1 X105.373 Y146.977 E12.95004
G1 X104.635 Y147.098 E12.9774
G1 X104.297 Y147.141 E12.98987
G1 X103.308 Y147.22 E13.02617
G1 X102.889 Y147.234 E13.04151
G1 X102.045 Y147.229 E13.07238
G1 X101.696 Y147.213 E13.08517
G1 X100.69 Y147.119 E13.12213
G1 X100.252 Y147.057 E13.13832
G1 X99.373 Y146.894 E13.17102
G1 X99.119 Y146.836 E13.18056
G1 X98.376 Y146.639 E13.20868
G1 X97.931 Y146.503 E13.2257
G1 X96.941 Y146.145 E13.26422
G1 X96.596 Y146.001 E13.2779
G1 X95.898 Y145.68 E13.30601
G1 X95.137 Y145.275 E13.33754
G1 X94.891 Y145.132 E13.34796
G1 X94.192 Y144.692 E13.37817
G1 X93.667 Y144.324 E13.40163
G1 X93.45 Y144.162 E13.41154
G1 X92.957 Y143.771 E13.43456
G1 X92.747 Y143.594 E13.44461
G1 X92.214 Y143.113 E13.47087
G1 X91.652 Y142.547 E13.50006
G1 X91.351 Y142.222 E13.51626
G1 X90.601 Y141.317 E13.55927
G1 X90.337 Y140.96 E13.57551
G1 X89.731 Y140.045 E13.61566
G1 X89.471 Y139.605 E13.63436
G1 X89.006 Y138.728 E13.67068
G1 X88.874 Y138.448 E13.682
G1 X88.505 Y137.565 E13.71702
G1 X88.344 Y137.125 E13.73416
G1 X88.083 Y136.311 E13.76543
G1 X88.012 Y136.055 E13.77515
G1 X87.831 Y135.303 E13.80345
G1 X87.708 Y134.641 E13.82809
G1 X87.586 Y133.799 E13.85921
G1 X87.482 Y132.902 E13.89225
G1 X87.389 Y132.003 E13.92532
G1 X87.056 Y129.486 E14.01821
G1 X86.658 Y127.014 E14.10981
G1 X86.407 Y125.717 E14.15814
G1 X86.127 Y124.145 E14.21656
G1 X86.068 Y123.742 E14.23146
G1 X85.974 Y122.848 E14.26435
G1 X85.937 Y122.082 E14.29241
G1 X85.941 Y121.297 E14.32113
G1 X85.978 Y120.553 E14.34839
G1 X86.176 Y117.886 E14.44623
G1 X86.293 Y115.334 E14.53969
G1 X86.336 Y112.831 E14.63128
G1 X86.31 Y110.32 E14.72316
G1 X86.21 Y107.761 E14.81685
G1 X86.131 Y106.505 E14.86289
G1 X86.101 Y105.729 E14.89131
G0 F2100 X86.541 Y105.724
G1 F1200 X86.548 Y104.887 E14.92193
G1 X86.564 Y104.536 E14.93479
G1 X86.666 Y103.486 E14.97338
G1 X86.745 Y102.959 E14.99288
G1 X86.986 Y101.809 E15.03587
G1 X87.1 Y101.387 E15.05186
G1 X87.334 Y100.635 E15.08067
G1 X87.428 Y100.37 E15.09096
G1 X87.67 Y99.753 E15.11521
G1 X87.783 Y99.49 E15.12568
G1 X88.132 Y98.753 E15.15552
G1 X88.445 Y98.171 E15.17969
G1 X88.588 Y97.925 E15.1901
G1 X89.024 Y97.235 E15.21996
G1 X89.502 Y96.564 E15.25011
G1 X89.899 Y96.063 E15.27349
G1 X90.073 Y95.857 E15.28336
G1 X90.507 Y95.376 E15.30706
G1 X90.721 Y95.153 E15.31837
G1 X91.299 Y94.596 E15.34774
G1 X91.609 Y94.32 E15.36292
G1 X92.375 Y93.701 E15.39895
G1 X92.661 Y93.492 E15.41191
G1 X93.314 Y93.053 E15.4407
G1 X93.668 Y92.834 E15.45593
G1 X94.696 Y92.277 E15.49871
G1 X95.217 Y92.032 E15.51977
G1 X96.238 Y91.617 E15.56009
G1 X96.54 Y91.513 E15.57178
G1 X97.164 Y91.32 E15.59568
G1 X97.935 Y91.122 E15.6248
G1 X98.767 Y90.962 E15.6558
G1 X99.559 Y90.847 E15.68508
G1 X100.325 Y90.756 E15.7133
G1 X101.699 Y90.613 E15.76384
G1 X104.18 Y90.282 E15.85541
G1 X106.749 Y89.866 E15.95063
G1 X108.832 Y89.481 E16.02813
G1 X109.825 Y89.33 E16.06488
G1 X110.918 Y89.232 E16.10502
G1 X111.257 Y89.22 E16.11744
G1 X111.925 Y89.219 E16.14187
G1 X112.762 Y89.258 E16.17253
G1 X113.579 Y89.348 E16.2026
G1 X113.986 Y89.409 E16.21766
G1 X114.716 Y89.544 E16.24482
G1 X115.359 Y89.701 E16.26904
G1 X116.723 Y90.081 E16.32084
G1 X117.467 Y90.301 E16.34923
G1 X119.898 Y90.944 E16.44122
G1 X122.381 Y91.526 E16.53453
G1 X124.87 Y92.036 E16.62748
G1 X127.381 Y92.477 E16.72076
G1 X129.852 Y92.84 E16.81213
G1 X132.458 Y93.147 E16.90814
G1 X133.312 Y93.231 E16.93953
G1 X133.82 Y93.294 E16.95826
G1 X134.256 Y93.359 E16.97439
G1 X134.93 Y93.482 E16.99945
G1 X135.636 Y93.65 E17.02601
G1 X135.842 Y93.706 E17.03382
G1 X136.486 Y93.904 E17.05847
G1 X136.829 Y94.022 E17.07174
G1 X137.468 Y94.266 E17.09676
G1 X138.102 Y94.545 E17.1221
G1 X138.293 Y94.636 E17.12984
G1 X138.883 Y94.941 E17.15414
G1 X139.18 Y95.107 E17.16659
G1 X139.842 Y95.507 E17.19489
G1 X140.536 Y95.984 E17.2257
G1 X141.15 Y96.462 E17.25417
G1 X141.509 Y96.764 E17.27133
G1 X142.286 Y97.49 E17.31024
G1 X142.53 Y97.743 E17.3231
G1 X142.989 Y98.252 E17.34817
G1 X143.214 Y98.519 E17.36095
G1 X143.77 Y99.243 E17.39435
G1 X144.006 Y99.58 E17.4094
G1 X144.494 Y100.346 E17.44263
G1 X144.666 Y100.645 E17.45525
G1 X145.04 Y101.354 E17.48457
G1 X145.298 Y101.911 E17.50703
G1 X145.424 Y102.206 E17.51877
G1 X145.656 Y102.801 E17.54213
