;FLAVOR:Marlin
;TIME:6128
;Filament used: 2.5768m
;Layer height: 0.15
;MINX:95.17
;MINY:86.972
;MINZ:0.2
;MAXX:140.226
;MAXY:148.028
;MAXZ:19.4
;Generated with Cura_SteamEngine 5.0.0
M140 S60
M105
M190 S60
M104 S222
M105
M109 S222
M82 ;absolute extrusion mode
; Ender 3 Custom Start G-code
G92 E0 ; Reset Extruder
M140 S60 ; Start heating the heated bed
M190 S60 ; Wait until the heated bed reaches the desired temperature
G28 ; Auto Home
G29 A; Activate Bed Leveling
G29 L0; Loads the saved mesh in slot 0
G29  J3; 9 point autotilt

G92 E0 ; Reset extruder origin
G1 Z2.0 F3000 ; Move Z Axis up little to prevent scratching of Heat Bed
G1 X0.1 Y20 Z0.3 F5000.0 ; Move to start position
G1 X0.1 Y200.0 Z0.3 F1500.0 E15 ; Draw the first line
G1 X0.4 Y200.0 Z0.3 F5000.0 ; Move to side a little
G1 X0.4 Y20 Z0.3 F1500.0 E30 ; Draw the second line
G92 E0 ; Reset Extruder
G1 Z2.0 F3000 ; Move Z Axis up little to prevent scratching of Heat Bed
G1 X5 Y20 Z0.3 F5000.0 ; Move over to prevent blob squish

; End of Ender 3 Custom Start G-code
G92 E0
G92 E0
G1 F2700 E-5
;LAYER_COUNT:129
;LAYER:0
M107
G0 F2100 X98.861 Y91.242 Z0.2
G0 X95.178 Y100.892
;TYPE:SKIRT
G1 F2700 E0
G1 F1200 X95.195 Y100.06 E0.03045
G1 X95.255 Y99.12 E0.06491
G1 X95.328 Y98.561 E0.08553
G1 X95.376 Y98.256 E0.09683
G1 X95.678 Y96.896 E0.1478
G1 X95.768 Y96.585 E0.15964
G1 X96.241 Y95.271 E0.21074
G1 X96.355 Y95.007 E0.22126
G1 X96.949 Y93.829 E0.26953
G1 X97.092 Y93.583 E0.27994
G1 X97.833 Y92.467 E0.32895
G1 X97.991 Y92.258 E0.33853
G1 X98.861 Y91.242 E0.38747
G1 X99.113 Y90.981 E0.40074
G1 X100.126 Y90.054 E0.45098
G1 X100.292 Y89.92 E0.45879
G1 X101.293 Y89.2 E0.5039
G1 X101.55 Y89.036 E0.51505
G1 X102.365 Y88.563 E0.54953
G1 X103.128 Y88.193 E0.58055
G1 X104.389 Y87.695 E0.63015
G1 X104.628 Y87.617 E0.63935
G1 X105.846 Y87.294 E0.68545
G1 X106.144 Y87.233 E0.69658
G1 X107.503 Y87.042 E0.74679
G1 X107.771 Y87.021 E0.75663
G1 X108.449 Y86.989 E0.78146
G1 X109.519 Y86.972 E0.82061
G1 X126.147 Y86.974 E1.42897
G1 X127.185 Y86.995 E1.46695
G1 X127.432 Y87.007 E1.476
G1 X128.675 Y87.138 E1.52173
G1 X129.05 Y87.199 E1.53563
G1 X130.395 Y87.505 E1.58609
G1 X130.63 Y87.574 E1.59505
G1 X131.853 Y88.012 E1.64258
G1 X132.123 Y88.127 E1.65332
G1 X133.348 Y88.741 E1.70345
G1 X133.62 Y88.899 E1.71496
G1 X134.75 Y89.651 E1.76462
G1 X134.969 Y89.817 E1.77467
G1 X135.963 Y90.667 E1.82252
G1 X136.178 Y90.874 E1.83344
G1 X137.095 Y91.872 E1.88303
G1 X137.268 Y92.085 E1.89307
G1 X138.013 Y93.119 E1.9397
G1 X138.164 Y93.356 E1.94998
G1 X138.636 Y94.171 E1.98443
G1 X138.997 Y94.915 E2.01469
G1 X139.503 Y96.191 E2.06491
G1 X139.581 Y96.43 E2.07411
G1 X139.901 Y97.634 E2.11969
G1 X139.962 Y97.93 E2.13074
G1 X140.156 Y99.303 E2.18148
G1 X140.177 Y99.571 E2.19131
G1 X140.209 Y100.243 E2.21592
G1 X140.226 Y101.292 E2.25431
G1 X140.224 Y133.925 E3.44822
G1 X140.204 Y134.971 E3.4865
G1 X140.192 Y135.225 E3.4958
G1 X140.059 Y136.491 E3.54238
G1 X140.001 Y136.846 E3.55554
G1 X139.704 Y138.157 E3.60472
G1 X139.624 Y138.432 E3.6152
G1 X139.178 Y139.681 E3.66372
G1 X139.083 Y139.904 E3.67259
G1 X138.47 Y141.128 E3.72267
G1 X138.308 Y141.407 E3.73447
G1 X137.556 Y142.536 E3.7841
G1 X137.359 Y142.796 E3.79604
G1 X136.497 Y143.803 E3.84453
G1 X136.329 Y143.977 E3.85338
G1 X135.338 Y144.886 E3.90258
G1 X135.094 Y145.084 E3.91408
G1 X134.046 Y145.838 E3.96131
G1 X133.819 Y145.982 E3.97115
G1 X132.584 Y146.66 E4.02269
G1 X132.296 Y146.795 E4.03433
G1 X131.05 Y147.289 E4.08337
G1 X130.767 Y147.382 E4.09427
G1 X129.544 Y147.708 E4.14057
G1 X129.287 Y147.761 E4.15018
G1 X127.927 Y147.955 E4.20044
G1 X127.626 Y147.979 E4.21148
G1 X126.923 Y148.013 E4.23723
G1 X125.877 Y148.028 E4.27551
G1 X109.249 Y148.026 E4.88386
G1 X108.227 Y148.006 E4.92126
G1 X107.973 Y147.994 E4.93056
G1 X106.707 Y147.861 E4.97714
G1 X106.352 Y147.803 E4.9903
G1 X105.027 Y147.502 E5.04001
G1 X104.75 Y147.421 E5.05057
G1 X103.515 Y146.979 E5.09856
G1 X103.292 Y146.884 E5.10743
G1 X102.064 Y146.269 E5.15767
G1 X101.787 Y146.108 E5.16939
G1 X100.653 Y145.352 E5.21926
G1 X100.383 Y145.147 E5.23166
G1 X99.657 Y144.546 E5.26614
G1 X98.788 Y143.668 E5.31134
G1 X98.414 Y143.246 E5.33197
G1 X97.82 Y142.515 E5.36643
G1 X97.344 Y141.824 E5.39713
G1 X97.204 Y141.603 E5.4067
G1 X96.541 Y140.397 E5.45705
G1 X96.417 Y140.134 E5.46769
G1 X95.915 Y138.874 E5.51731
G1 X95.829 Y138.613 E5.52736
G1 X95.488 Y137.322 E5.57622
G1 X95.418 Y136.973 E5.58924
G1 X95.234 Y135.641 E5.63844
G1 X95.187 Y134.766 E5.67049
G1 X95.17 Y133.676 E5.71038
G1 X95.178 Y100.892 E6.90982
G0 F2100 X95.618 Y100.901
G1 F1200 X95.635 Y100.069 E6.94027
G1 X95.694 Y99.148 E6.97403
G1 X95.811 Y98.325 E7.00444
G1 X96.101 Y97.019 E7.05339
G1 X96.191 Y96.708 E7.06523
G1 X96.644 Y95.445 E7.11432
G1 X96.758 Y95.181 E7.12484
G1 X97.329 Y94.05 E7.1712
G1 X97.472 Y93.804 E7.18161
G1 X98.184 Y92.732 E7.22869
G1 X98.342 Y92.523 E7.23828
G1 X99.177 Y91.548 E7.28524
G1 X99.429 Y91.287 E7.29852
G1 X100.402 Y90.396 E7.34678
G1 X100.568 Y90.262 E7.35459
G1 X101.53 Y89.571 E7.39792
G1 X101.787 Y89.407 E7.40908
G1 X102.586 Y88.944 E7.44286
G1 X103.315 Y88.592 E7.47248
G1 X104.526 Y88.113 E7.52013
G1 X104.765 Y88.035 E7.52933
G1 X105.934 Y87.726 E7.57356
G1 X106.232 Y87.665 E7.58469
G1 X107.537 Y87.481 E7.63291
G1 X107.805 Y87.46 E7.64274
G1 X108.456 Y87.429 E7.66659
G1 X109.519 Y87.412 E7.70549
G1 X126.141 Y87.414 E8.31362
G1 X127.163 Y87.435 E8.35102
G1 X127.41 Y87.447 E8.36007
G1 X128.605 Y87.572 E8.40403
G1 X128.98 Y87.633 E8.41793
G1 X130.271 Y87.927 E8.46637
G1 X130.506 Y87.996 E8.47533
G1 X131.68 Y88.417 E8.52096
G1 X131.95 Y88.532 E8.5317
G1 X133.127 Y89.121 E8.57985
G1 X133.399 Y89.279 E8.59136
G1 X134.484 Y90.002 E8.63906
G1 X134.703 Y90.168 E8.64911
G1 X135.658 Y90.984 E8.69507
G1 X135.873 Y91.191 E8.70599
G1 X136.754 Y92.149 E8.75361
G1 X136.927 Y92.362 E8.76365
G1 X137.642 Y93.355 E8.80841
G1 X137.793 Y93.592 E8.8187
G1 X138.451 Y94.787 E8.86861
G1 X138.599 Y95.102 E8.88134
G1 X139.085 Y96.328 E8.92959
G1 X139.163 Y96.567 E8.93879
G1 X139.47 Y97.722 E8.98251
G1 X139.531 Y98.018 E8.99357
G1 X139.717 Y99.337 E9.0423
G1 X139.738 Y99.605 E9.05214
G1 X139.769 Y100.251 E9.0758
G1 X139.786 Y101.292 E9.11389
G1 X139.784 Y133.919 E10.30759
G1 X139.764 Y134.95 E10.34532
G1 X139.752 Y135.204 E10.35462
G1 X139.625 Y136.42 E10.39935
G1 X139.567 Y136.775 E10.41251
G1 X139.282 Y138.034 E10.45974
G1 X139.202 Y138.309 E10.47022
G1 X138.773 Y139.509 E10.51684
G1 X138.678 Y139.732 E10.52571
G1 X138.09 Y140.907 E10.57378
G1 X137.928 Y141.186 E10.58558
G1 X137.206 Y142.271 E10.63326
G1 X137.009 Y142.531 E10.6452
G1 X136.181 Y143.497 E10.69175
G1 X136.013 Y143.671 E10.7006
G1 X135.061 Y144.545 E10.74788
G1 X134.817 Y144.743 E10.75937
G1 X133.81 Y145.467 E10.80475
G1 X133.583 Y145.611 E10.81459
G1 X132.397 Y146.261 E10.86407
G1 X132.109 Y146.396 E10.8757
G1 X130.913 Y146.871 E10.92279
G1 X130.63 Y146.964 E10.93368
G1 X129.455 Y147.277 E10.97817
G1 X129.198 Y147.33 E10.98777
G1 X127.892 Y147.516 E11.03604
G1 X127.591 Y147.54 E11.04708
G1 X126.916 Y147.573 E11.07181
G1 X125.877 Y147.588 E11.10983
G1 X109.255 Y147.586 E11.71796
G1 X108.248 Y147.566 E11.75481
G1 X107.994 Y147.554 E11.76411
G1 X106.778 Y147.427 E11.80884
G1 X106.423 Y147.369 E11.822
G1 X105.15 Y147.08 E11.86976
G1 X104.873 Y146.999 E11.88032
G1 X103.687 Y146.574 E11.92642
G1 X103.464 Y146.479 E11.93528
G1 X102.285 Y145.888 E11.98353
G1 X102.008 Y145.727 E11.99526
G1 X100.919 Y145.001 E12.04314
G1 X100.649 Y144.796 E12.05554
G1 X99.938 Y144.206 E12.08935
G1 X99.117 Y143.376 E12.13206
G1 X98.743 Y142.954 E12.15269
G1 X98.161 Y142.238 E12.18645
G1 X97.716 Y141.589 E12.21524
G1 X97.576 Y141.368 E12.22481
G1 X96.939 Y140.209 E12.27319
G1 X96.815 Y139.946 E12.28383
G1 X96.332 Y138.736 E12.3315
G1 X96.246 Y138.475 E12.34155
G1 X95.919 Y137.235 E12.38847
G1 X95.849 Y136.886 E12.40149
G1 X95.672 Y135.608 E12.4487
G1 X95.626 Y134.759 E12.4798
G1 X95.61 Y133.676 E12.51943
G1 X95.618 Y100.901 E13.71854
G0 F2100 X96.058 Y100.91
G1 F1200 X96.075 Y100.078 E13.74899
G1 X96.134 Y99.176 E13.78206
G1 X96.245 Y98.393 E13.81099
G1 X96.524 Y97.141 E13.85792
G1 X96.614 Y96.83 E13.86977
G1 X97.048 Y95.619 E13.91683
G1 X97.162 Y95.355 E13.92735
G1 X97.709 Y94.271 E13.97178
G1 X97.852 Y94.025 E13.98219
G1 X98.535 Y92.998 E14.02731
G1 X98.693 Y92.789 E14.0369
G1 X99.494 Y91.853 E14.08197
G1 X99.746 Y91.592 E14.09524
G1 X100.679 Y90.739 E14.14149
G1 X100.845 Y90.605 E14.1493
G1 X101.766 Y89.942 E14.19082
G1 X102.023 Y89.778 E14.20197
G1 X103.189 Y89.136 E14.25067
G1 X103.501 Y88.99 E14.26327
G1 X104.662 Y88.531 E14.30895
G1 X104.901 Y88.453 E14.31814
G1 X106.022 Y88.157 E14.36056
G1 X106.32 Y88.096 E14.37169
G1 X107.572 Y87.919 E14.41795
G1 X107.84 Y87.898 E14.42779
G1 X108.464 Y87.868 E14.45064
G1 X109.519 Y87.852 E14.48925
G1 X126.135 Y87.854 E15.09716
G1 X127.142 Y87.874 E15.13401
G1 X127.389 Y87.886 E15.14306
G1 X128.534 Y88.007 E15.18518
G1 X128.909 Y88.068 E15.19908
G1 X130.147 Y88.349 E15.24553
G1 X130.382 Y88.418 E15.25449
G1 X131.508 Y88.821 E15.29825
G1 X131.778 Y88.936 E15.30898
G1 X132.906 Y89.502 E15.35516
G1 X133.178 Y89.66 E15.36666
G1 X134.219 Y90.352 E15.4124
G1 X134.438 Y90.518 E15.42245
G1 X135.352 Y91.301 E15.46648
G1 X135.567 Y91.508 E15.4774
G1 X136.412 Y92.427 E15.52308
G1 X136.585 Y92.64 E15.53312
G1 X137.271 Y93.591 E15.57602
G1 X137.422 Y93.828 E15.5863
G1 X138.053 Y94.974 E15.63416
G1 X138.201 Y95.289 E15.6469
G1 X138.667 Y96.464 E15.69314
G1 X138.745 Y96.703 E15.70234
G1 X139.039 Y97.811 E15.74428
G1 X139.1 Y98.107 E15.75534
G1 X139.279 Y99.372 E15.80208
G1 X139.3 Y99.64 E15.81192
G1 X139.329 Y100.259 E15.83459
G1 X139.346 Y101.292 E15.87239
G1 X139.344 Y133.913 E17.06586
G1 X139.325 Y134.929 E17.10304
G1 X139.313 Y135.183 E17.11234
G1 X139.19 Y136.349 E17.15524
G1 X139.132 Y136.704 E17.1684
G1 X138.859 Y137.911 E17.21368
G1 X138.779 Y138.186 E17.22415
G1 X138.368 Y139.336 E17.26883
G1 X138.273 Y139.559 E17.2777
G1 X137.709 Y140.686 E17.32381
G1 X137.547 Y140.965 E17.33561
G1 X136.855 Y142.005 E17.38132
G1 X136.658 Y142.265 E17.39325
G1 X135.864 Y143.192 E17.43791
G1 X135.696 Y143.366 E17.44676
G1 X134.784 Y144.203 E17.49204
G1 X134.54 Y144.401 E17.50354
G1 X133.575 Y145.095 E17.54703
G1 X133.348 Y145.239 E17.55686
G1 X132.211 Y145.863 E17.60432
G1 X131.923 Y145.998 E17.61595
G1 X130.776 Y146.453 E17.6611
G1 X130.493 Y146.546 E17.672
G1 X129.366 Y146.846 E17.71467
G1 X129.109 Y146.899 E17.72427
G1 X127.857 Y147.078 E17.77054
G1 X127.556 Y147.102 E17.78158
G1 X126.909 Y147.133 E17.80528
G1 X125.877 Y147.148 E17.84304
G1 X109.261 Y147.146 E18.45096
G1 X108.269 Y147.127 E18.48726
G1 X108.015 Y147.115 E18.49656
G1 X106.849 Y146.992 E18.53946
G1 X106.494 Y146.934 E18.55262
G1 X105.274 Y146.657 E18.59839
G1 X104.997 Y146.576 E18.60895
G1 X103.86 Y146.169 E18.65313
G1 X103.637 Y146.074 E18.662
G1 X102.506 Y145.508 E18.70827
G1 X102.229 Y145.347 E18.71999
G1 X101.185 Y144.651 E18.7659
G1 X100.915 Y144.446 E18.7783
G1 X100.22 Y143.868 E18.81137
G1 X99.446 Y143.085 E18.85165
G1 X99.072 Y142.663 E18.87228
G1 X98.503 Y141.96 E18.90537
G1 X98.088 Y141.353 E18.93228
G1 X97.948 Y141.132 E18.94185
G1 X97.337 Y140.021 E18.98824
G1 X97.213 Y139.758 E18.99887
G1 X96.75 Y138.598 E19.04457
G1 X96.664 Y138.337 E19.05462
G1 X96.351 Y137.149 E19.09957
G1 X96.281 Y136.8 E19.11259
G1 X96.111 Y135.574 E19.15788
G1 X96.066 Y134.752 E19.188
G1 X96.05 Y133.676 E19.22737
G1 X96.058 Y100.91 E20.42615
G1 F2700 E15.42615
;MESH:Socket for Ball End v2.stl
G0 F2100 X113.705 Y106.278
G0 X116.965 Y108.604
;TYPE:WALL-INNER
G1 F2700 E20.42615
G1 F1200 X116.45 Y108.475 E20.44557
G1 X116.016 Y108.316 E20.46248
G1 X115.624 Y108.118 E20.47855
G1 X115.277 Y107.896 E20.49362
G1 X114.939 Y107.625 E20.50947
G1 X114.641 Y107.333 E20.52474
G1 X114.32 Y106.946 E20.54313
G1 X114.077 Y106.572 E20.55945
G1 X113.885 Y106.19 E20.57509
G1 X113.735 Y105.802 E20.59031
G1 X113.623 Y105.395 E20.60576
G1 X113.554 Y104.974 E20.62136
G1 X113.527 Y104.559 E20.63658
G1 X113.543 Y104.134 E20.65214
G1 X113.601 Y103.716 E20.66758
G1 X113.7 Y103.307 E20.68297
G1 X113.844 Y102.906 E20.69856
G1 X114.021 Y102.53 E20.71377
G1 X114.243 Y102.162 E20.72949
G1 X114.5 Y101.823 E20.74506
G1 X114.776 Y101.522 E20.76
G1 X115.1 Y101.235 E20.77583
G1 X115.447 Y100.988 E20.79142
G1 X115.807 Y100.781 E20.80661
G1 X116.201 Y100.607 E20.82237
G1 X116.589 Y100.478 E20.83733
G1 X117.015 Y100.385 E20.85328
G1 X117.429 Y100.337 E20.86853
G1 X117.853 Y100.332 E20.88404
G1 X118.277 Y100.369 E20.89961
G1 X118.688 Y100.447 E20.91492
G1 X119.102 Y100.573 E20.93075
G1 X119.479 Y100.727 E20.94565
G1 X119.859 Y100.932 E20.96145
G1 X120.204 Y101.165 E20.97668
G1 X120.532 Y101.438 E20.99229
G1 X120.828 Y101.744 E21.00787
G1 X121.088 Y102.07 E21.02312
G1 X121.316 Y102.425 E21.03856
G1 X121.509 Y102.805 E21.05415
G1 X121.661 Y103.197 E21.06953
G1 X121.773 Y103.605 E21.08501
G1 X121.842 Y104.023 E21.10051
G1 X121.869 Y104.442 E21.11587
G1 X121.853 Y104.866 E21.1314
G1 X121.796 Y105.285 E21.14687
G1 X121.696 Y105.693 E21.16224
G1 X121.552 Y106.094 E21.17783
G1 X121.373 Y106.473 E21.19316
G1 X121.152 Y106.838 E21.20877
G1 X120.898 Y107.175 E21.22421
G1 X120.617 Y107.48 E21.23938
G1 X120.297 Y107.763 E21.25501
G1 X119.949 Y108.012 E21.27067
G1 X119.589 Y108.219 E21.28586
G1 X119.195 Y108.393 E21.30162
G1 X118.805 Y108.522 E21.31665
G1 X118.382 Y108.615 E21.33249
G1 X117.966 Y108.663 E21.34782
G1 X117.543 Y108.668 E21.36329
G1 X117.196 Y108.639 E21.37603
G1 X116.965 Y108.604 E21.38458
G0 F2100 X117.241 Y108.201
G1 F1200 X117.072 Y108.177 E21.39082
G1 X116.557 Y108.048 E21.41025
G1 X116.174 Y107.905 E21.42521
G1 X115.83 Y107.728 E21.43936
G1 X115.518 Y107.528 E21.45292
G1 X115.219 Y107.286 E21.46699
G1 X114.952 Y107.022 E21.48073
G1 X114.663 Y106.67 E21.49739
G1 X114.45 Y106.339 E21.51179
G1 X114.281 Y105.998 E21.52572
G1 X114.147 Y105.648 E21.53943
G1 X114.049 Y105.285 E21.55318
G1 X113.989 Y104.908 E21.56715
G1 X113.966 Y104.536 E21.58079
G1 X113.982 Y104.156 E21.5947
G1 X114.036 Y103.782 E21.60853
G1 X114.126 Y103.417 E21.62228
G1 X114.256 Y103.06 E21.63618
G1 X114.417 Y102.722 E21.64988
G1 X114.617 Y102.395 E21.6639
G1 X114.847 Y102.094 E21.67776
G1 X115.097 Y101.823 E21.69125
G1 X115.387 Y101.569 E21.70536
G1 X115.698 Y101.35 E21.71927
G1 X116.021 Y101.165 E21.73289
G1 X116.372 Y101.013 E21.74689
G1 X116.724 Y100.897 E21.76044
G1 X117.102 Y100.816 E21.77459
G1 X117.475 Y100.775 E21.78832
G1 X117.853 Y100.772 E21.80215
G1 X118.231 Y100.807 E21.81604
G1 X118.601 Y100.878 E21.82982
G1 X118.968 Y100.992 E21.84388
G1 X119.307 Y101.132 E21.8573
G1 X119.644 Y101.316 E21.87135
G1 X119.954 Y101.527 E21.88507
G1 X120.245 Y101.772 E21.89898
G1 X120.508 Y102.046 E21.91288
G1 X120.74 Y102.34 E21.92658
G1 X120.943 Y102.659 E21.94041
G1 X121.113 Y102.998 E21.95429
G1 X121.249 Y103.351 E21.96813
G1 X121.347 Y103.715 E21.98192
G1 X121.407 Y104.089 E21.99578
G1 X121.43 Y104.465 E22.00956
G1 X121.414 Y104.844 E22.02344
G1 X121.36 Y105.219 E22.0373
G1 X121.27 Y105.583 E22.05102
G1 X121.14 Y105.94 E22.06492
G1 X120.978 Y106.28 E22.0787
G1 X120.778 Y106.605 E22.09266
G1 X120.55 Y106.905 E22.10645
G1 X120.297 Y107.178 E22.12006
G1 X120.01 Y107.43 E22.13404
G1 X119.698 Y107.65 E22.148
G1 X119.375 Y107.835 E22.16162
G1 X119.024 Y107.987 E22.17562
G1 X118.671 Y108.103 E22.18921
G1 X118.295 Y108.183 E22.20328
G1 X117.921 Y108.225 E22.21704
G1 X117.543 Y108.228 E22.23087
G1 X117.241 Y108.201 E22.24197
G0 F2100 X117.195 Y107.753
;TYPE:WALL-OUTER
G1 F1200 X116.664 Y107.621 E22.26199
G1 X116.333 Y107.495 E22.27494
G1 X116.017 Y107.329 E22.288
G1 X115.759 Y107.16 E22.29929
G1 X115.5 Y106.947 E22.31156
G1 X115.247 Y106.694 E22.32465
G1 X115.005 Y106.394 E22.33875
G1 X114.824 Y106.106 E22.35119
G1 X114.677 Y105.806 E22.36342
G1 X114.559 Y105.494 E22.37562
G1 X114.475 Y105.175 E22.38769
G1 X114.424 Y104.842 E22.40001
G1 X114.406 Y104.513 E22.41207
G1 X114.422 Y104.179 E22.4243
G1 X114.471 Y103.848 E22.43654
G1 X114.552 Y103.527 E22.44866
G1 X114.668 Y103.214 E22.46087
G1 X114.813 Y102.914 E22.47306
G1 X114.99 Y102.628 E22.48537
G1 X115.194 Y102.364 E22.49757
