;FLAVOR:Marlin
;TIME:5158
;Filament used: 2.14166m
;Layer height: 0.15
;MINX:94.972
;MINY:86.972
;MINZ:0.2
;MAXX:140.028
;MAXY:148.028
;MAXZ:15.5
;Generated with Cura_SteamEngine 5.0.0
M140 S60
M105
M190 S60
M104 S222
M105
M109 S222
M82 ;absolute extrusion mode
; Ender 3 Custom Start G-code
G92 E0 ; Reset Extruder
M140 S60 ; Start heating the heated bed
M190 S60 ; Wait until the heated bed reaches the desired temperature
G28 ; Auto Home
G29 A; Activate Bed Leveling
G29 L0; Loads the saved mesh in slot 0
G29  J3; 9 point autotilt

G92 E0 ; Reset extruder origin
G1 Z2.0 F3000 ; Move Z Axis up little to prevent scratching of Heat Bed
G1 X0.1 Y20 Z0.3 F5000.0 ; Move to start position
G1 X0.1 Y200.0 Z0.3 F1500.0 E15 ; Draw the first line
G1 X0.4 Y200.0 Z0.3 F5000.0 ; Move to side a little
G1 X0.4 Y20 Z0.3 F1500.0 E30 ; Draw the second line
G92 E0 ; Reset Extruder
G1 Z2.0 F3000 ; Move Z Axis up little to prevent scratching of Heat Bed
G1 X5 Y20 Z0.3 F5000.0 ; Move over to prevent blob squish

; End of Ender 3 Custom Start G-code
G92 E0
G92 E0
G1 F2700 E-5
;LAYER_COUNT:103
;LAYER:0
M107
G0 F2100 X99.696 Y91.947 Z0.2
G0 X95.095 Y101.608
;TYPE:SKIRT
G1 F2700 E0
G1 F1200 X95.15 Y101.178 E0.01586
G1 X95.294 Y100.32 E0.04769
G1 X95.382 Y99.898 E0.06346
G1 X95.617 Y98.972 E0.09841
G1 X95.741 Y98.559 E0.11419
G1 X96.03 Y97.72 E0.14666
G1 X96.198 Y97.289 E0.16358
G1 X96.558 Y96.465 E0.19648
G1 X96.754 Y96.062 E0.21287
G1 X97.208 Y95.222 E0.24781
G1 X97.419 Y94.869 E0.26285
G1 X97.89 Y94.147 E0.29439
G1 X98.172 Y93.749 E0.31224
G1 X98.766 Y92.983 E0.3477
G1 X99.069 Y92.626 E0.36484
G1 X99.696 Y91.947 E0.39865
G1 X99.994 Y91.65 E0.41404
G1 X100.715 Y90.992 E0.44975
G1 X101.097 Y90.673 E0.46796
G1 X101.887 Y90.071 E0.5043
G1 X102.311 Y89.777 E0.52318
G1 X103.119 Y89.267 E0.55814
G1 X103.421 Y89.094 E0.57087
G1 X104.072 Y88.749 E0.59782
G1 X104.439 Y88.57 E0.61276
G1 X105.214 Y88.229 E0.64374
G1 X105.615 Y88.07 E0.65952
G1 X106.44 Y87.778 E0.69154
G1 X107.067 Y87.592 E0.71547
G1 X107.529 Y87.47 E0.73295
G1 X108.367 Y87.283 E0.76436
G1 X108.646 Y87.232 E0.77474
G1 X109.279 Y87.135 E0.79817
G1 X109.659 Y87.088 E0.81218
G1 X110.791 Y87.006 E0.8537
G1 X112.559 Y86.972 E0.9184
G1 X122.74 Y86.976 E1.29088
G1 X124.235 Y87.008 E1.34559
G1 X125.448 Y87.1 E1.3901
G1 X125.865 Y87.155 E1.40549
G1 X126.657 Y87.289 E1.43487
G1 X127.069 Y87.374 E1.45027
G1 X128.02 Y87.615 E1.48616
G1 X128.436 Y87.74 E1.50205
G1 X129.235 Y88.013 E1.53294
G1 X129.663 Y88.178 E1.54973
G1 X130.551 Y88.566 E1.58518
G1 X130.984 Y88.778 E1.60282
G1 X131.806 Y89.224 E1.63703
G1 X132.14 Y89.424 E1.65128
G1 X132.85 Y89.887 E1.68229
G1 X133.23 Y90.156 E1.69932
G1 X133.972 Y90.73 E1.73364
G1 X134.329 Y91.031 E1.75073
G1 X135.023 Y91.668 E1.78519
G1 X135.336 Y91.981 E1.80139
G1 X135.996 Y92.702 E1.83715
G1 X136.316 Y93.084 E1.85538
G1 X136.882 Y93.82 E1.88935
G1 X137.106 Y94.138 E1.90358
G1 X137.542 Y94.808 E1.93283
G1 X137.767 Y95.182 E1.9488
G1 X138.219 Y96.01 E1.98331
G1 X138.416 Y96.411 E1.99965
G1 X138.763 Y97.192 E2.03092
G1 X138.917 Y97.578 E2.04613
G1 X139.221 Y98.436 E2.07943
G1 X139.408 Y99.067 E2.10351
G1 X139.53 Y99.529 E2.12099
G1 X139.714 Y100.349 E2.15174
G1 X139.764 Y100.62 E2.16182
G1 X139.863 Y101.264 E2.18566
G1 X139.911 Y101.65 E2.19989
G1 X139.994 Y102.789 E2.24167
G1 X140.028 Y104.56 E2.30648
G1 X140.024 Y130.741 E3.26434
G1 X139.992 Y132.236 E3.31905
G1 X139.9 Y133.449 E3.36355
G1 X139.845 Y133.866 E3.37894
G1 X139.705 Y134.688 E3.40945
G1 X139.619 Y135.099 E3.42481
G1 X139.391 Y135.997 E3.45871
G1 X139.267 Y136.413 E3.47459
G1 X138.985 Y137.241 E3.50659
G1 X138.817 Y137.676 E3.52365
G1 X138.434 Y138.553 E3.55866
G1 X138.235 Y138.96 E3.57524
G1 X137.803 Y139.759 E3.60847
G1 X137.593 Y140.112 E3.6235
G1 X137.093 Y140.879 E3.657
G1 X136.793 Y141.3 E3.67591
G1 X136.186 Y142.076 E3.71195
G1 X135.901 Y142.409 E3.72799
G1 X135.304 Y143.053 E3.76012
G1 X135.006 Y143.35 E3.77551
G1 X134.285 Y144.008 E3.81122
G1 X133.903 Y144.327 E3.82943
G1 X133.18 Y144.882 E3.86278
G1 X132.862 Y145.106 E3.87701
G1 X132.188 Y145.545 E3.90644
G1 X131.807 Y145.774 E3.9227
G1 X130.972 Y146.228 E3.95747
G1 X130.578 Y146.421 E3.97353
G1 X129.786 Y146.771 E4.00521
G1 X129.385 Y146.93 E4.02099
G1 X128.56 Y147.222 E4.05301
G1 X127.933 Y147.408 E4.07693
G1 X127.471 Y147.53 E4.09442
G1 X126.633 Y147.717 E4.12583
G1 X126.354 Y147.768 E4.13621
G1 X125.721 Y147.865 E4.15964
G1 X125.341 Y147.912 E4.17364
G1 X124.209 Y147.994 E4.21517
G1 X122.441 Y148.028 E4.27986
G1 X112.261 Y148.024 E4.65231
G1 X110.765 Y147.992 E4.70706
G1 X109.551 Y147.9 E4.7516
G1 X109.134 Y147.845 E4.76699
G1 X108.312 Y147.705 E4.7975
G1 X107.901 Y147.619 E4.81286
G1 X107.003 Y147.391 E4.84675
G1 X106.587 Y147.267 E4.86264
G1 X105.759 Y146.985 E4.89464
G1 X105.324 Y146.817 E4.9117
G1 X104.434 Y146.427 E4.94725
G1 X104.006 Y146.217 E4.96469
G1 X103.176 Y145.765 E4.99927
G1 X102.845 Y145.566 E5.0134
G1 X102.161 Y145.12 E5.04327
G1 X101.773 Y144.846 E5.06065
G1 X101.008 Y144.254 E5.09604
G1 X100.658 Y143.958 E5.11281
G1 X99.99 Y143.344 E5.14601
G1 X99.675 Y143.03 E5.16228
G1 X98.991 Y142.284 E5.19931
G1 X98.672 Y141.902 E5.21752
G1 X98.066 Y141.106 E5.25412
G1 X97.771 Y140.68 E5.27308
G1 X97.267 Y139.882 E5.30761
G1 X97.095 Y139.582 E5.32026
G1 X96.741 Y138.912 E5.34798
G1 X96.551 Y138.521 E5.36389
G1 X96.203 Y137.726 E5.39564
G1 X96.055 Y137.349 E5.41046
G1 X95.767 Y136.527 E5.44232
G1 X95.543 Y135.763 E5.47145
G1 X95.35 Y134.952 E5.50195
G1 X95.265 Y134.526 E5.51785
G1 X95.13 Y133.681 E5.54915
G1 X95.036 Y132.832 E5.5804
G1 X94.994 Y132.079 E5.608
G1 X94.972 Y130.997 E5.64759
G1 X94.98 Y104.161 E6.62942
G1 X95.007 Y102.796 E6.67937
G1 X95.095 Y101.608 E6.72295
G0 F2100 X95.42 Y104.17
G1 F1200 X95.447 Y102.805 E6.7729
G1 X95.531 Y101.664 E6.81476
G1 X95.586 Y101.234 E6.83062
G1 X95.724 Y100.41 E6.86118
G1 X95.812 Y99.988 E6.87696
G1 X96.038 Y99.099 E6.91052
G1 X96.162 Y98.686 E6.92629
G1 X96.44 Y97.88 E6.95749
G1 X96.608 Y97.449 E6.97441
G1 X96.954 Y96.658 E7.006
G1 X97.15 Y96.255 E7.02239
G1 X97.586 Y95.448 E7.05595
G1 X97.797 Y95.095 E7.071
G1 X98.249 Y94.401 E7.1013
G1 X98.531 Y94.003 E7.11914
G1 X99.102 Y93.268 E7.1532
G1 X99.405 Y92.911 E7.17033
G1 X100.007 Y92.259 E7.20279
G1 X100.305 Y91.962 E7.21819
G1 X100.997 Y91.33 E7.25247
G1 X101.379 Y91.011 E7.27068
G1 X102.138 Y90.433 E7.30559
G1 X102.562 Y90.139 E7.32446
G1 X103.337 Y89.649 E7.35801
G1 X103.639 Y89.476 E7.37074
G1 X104.265 Y89.145 E7.39665
G1 X104.632 Y88.966 E7.41159
G1 X105.376 Y88.638 E7.44134
G1 X105.777 Y88.479 E7.45712
G1 X106.577 Y88.196 E7.48817
G1 X107.179 Y88.017 E7.51114
G1 X107.641 Y87.895 E7.52863
G1 X108.446 Y87.716 E7.5588
G1 X108.725 Y87.665 E7.56917
G1 X109.333 Y87.572 E7.59168
G1 X109.713 Y87.525 E7.60569
G1 X110.8 Y87.446 E7.64556
G1 X112.559 Y87.412 E7.70993
G1 X122.73 Y87.415 E8.08205
G1 X124.225 Y87.447 E8.13675
G1 X125.391 Y87.537 E8.17954
G1 X125.808 Y87.592 E8.19493
G1 X126.568 Y87.72 E8.22313
G1 X126.98 Y87.805 E8.23852
G1 X127.894 Y88.036 E8.27301
G1 X128.31 Y88.161 E8.2889
G1 X129.077 Y88.424 E8.31857
G1 X129.505 Y88.589 E8.33535
G1 X130.358 Y88.961 E8.36939
G1 X130.791 Y89.173 E8.38703
G1 X131.579 Y89.601 E8.41984
G1 X131.913 Y89.801 E8.43408
G1 X132.596 Y90.246 E8.46391
G1 X132.976 Y90.515 E8.48094
G1 X133.688 Y91.066 E8.51388
G1 X134.045 Y91.367 E8.53096
G1 X134.712 Y91.979 E8.56408
G1 X135.025 Y92.292 E8.58028
G1 X135.659 Y92.985 E8.61464
G1 X135.979 Y93.367 E8.63287
G1 X136.522 Y94.073 E8.66546
G1 X136.746 Y94.391 E8.67969
G1 X137.165 Y95.035 E8.7078
G1 X137.39 Y95.409 E8.72377
G1 X137.824 Y96.204 E8.75691
G1 X138.021 Y96.605 E8.77325
G1 X138.354 Y97.355 E8.80328
G1 X138.508 Y97.741 E8.81848
G1 X138.734 Y98.363 E8.84269
G1 X138.983 Y99.179 E8.87391
G1 X139.105 Y99.641 E8.89139
G1 X139.281 Y100.429 E8.92093
G1 X139.331 Y100.7 E8.93101
G1 X139.427 Y101.319 E8.95393
G1 X139.475 Y101.705 E8.96816
G1 X139.554 Y102.799 E9.00829
G1 X139.588 Y104.56 E9.07273
G1 X139.585 Y130.731 E10.03022
G1 X139.553 Y132.226 E10.08493
G1 X139.463 Y133.392 E10.12772
G1 X139.408 Y133.809 E10.14311
G1 X139.274 Y134.598 E10.17239
G1 X139.188 Y135.009 E10.18775
G1 X138.97 Y135.871 E10.22028
G1 X138.846 Y136.287 E10.23616
G1 X138.574 Y137.083 E10.26694
G1 X138.406 Y137.518 E10.284
G1 X138.039 Y138.359 E10.31757
G1 X137.84 Y138.766 E10.33415
G1 X137.424 Y139.534 E10.3661
G1 X137.214 Y139.887 E10.38113
G1 X136.734 Y140.623 E10.41328
G1 X136.434 Y141.044 E10.43219
G1 X135.852 Y141.789 E10.46678
G1 X135.567 Y142.122 E10.48281
G1 X134.993 Y142.741 E10.5137
G1 X134.695 Y143.038 E10.52909
G1 X134.003 Y143.67 E10.56338
G1 X133.621 Y143.989 E10.58159
G1 X132.927 Y144.522 E10.6136
G1 X132.609 Y144.746 E10.62783
G1 X131.962 Y145.168 E10.65609
G1 X131.581 Y145.397 E10.67236
G1 X130.778 Y145.833 E10.70579
G1 X130.384 Y146.026 E10.72184
G1 X129.624 Y146.362 E10.75224
G1 X129.223 Y146.521 E10.76802
G1 X128.423 Y146.804 E10.79907
G1 X127.821 Y146.983 E10.82205
G1 X127.359 Y147.105 E10.83953
G1 X126.554 Y147.284 E10.8697
G1 X126.275 Y147.335 E10.88008
G1 X125.667 Y147.428 E10.90258
G1 X125.287 Y147.475 E10.91659
G1 X124.2 Y147.554 E10.95646
G1 X122.441 Y147.588 E11.02083
G1 X112.27 Y147.585 E11.39295
G1 X110.774 Y147.553 E11.44769
G1 X109.608 Y147.463 E11.49048
G1 X109.191 Y147.408 E11.50587
G1 X108.402 Y147.274 E11.53515
G1 X107.991 Y147.188 E11.55051
G1 X107.129 Y146.97 E11.58304
G1 X106.713 Y146.846 E11.59892
G1 X105.917 Y146.574 E11.6297
G1 X105.482 Y146.406 E11.64676
G1 X104.627 Y146.032 E11.6809
G1 X104.199 Y145.822 E11.69834
G1 X103.402 Y145.388 E11.73155
G1 X103.071 Y145.189 E11.74568
G1 X102.415 Y144.761 E11.77433
G1 X102.027 Y144.487 E11.79171
G1 X101.292 Y143.918 E11.82572
G1 X100.942 Y143.622 E11.84249
G1 X100.3 Y143.033 E11.87436
G1 X99.985 Y142.719 E11.89064
G1 X99.329 Y142.002 E11.92619
G1 X99.01 Y141.62 E11.9444
G1 X98.428 Y140.856 E11.97954
G1 X98.133 Y140.43 E11.9985
G1 X97.649 Y139.663 E12.03168
G1 X97.477 Y139.363 E12.04433
G1 X97.137 Y138.72 E12.07094
G1 X96.947 Y138.329 E12.08685
G1 X96.612 Y137.565 E12.11737
G1 X96.464 Y137.188 E12.13218
G1 X96.185 Y136.391 E12.16308
G1 X95.967 Y135.645 E12.19151
G1 X95.781 Y134.866 E12.22082
G1 X95.696 Y134.44 E12.23671
G1 X95.566 Y133.628 E12.26679
G1 X95.475 Y132.797 E12.29738
G1 X95.434 Y132.068 E12.32409
G1 X95.412 Y130.998 E12.36325
G1 X95.42 Y104.17 E13.34478
G0 F2100 X95.86 Y104.179
G1 F1200 X95.887 Y102.814 E13.39473
G1 X95.968 Y101.719 E13.4349
G1 X96.023 Y101.289 E13.45076
G1 X96.155 Y100.5 E13.48003
G1 X96.243 Y100.078 E13.4958
G1 X96.46 Y99.225 E13.528
G1 X96.584 Y98.812 E13.54378
G1 X96.85 Y98.039 E13.57369
G1 X97.018 Y97.608 E13.59061
G1 X97.349 Y96.85 E13.62087
G1 X97.545 Y96.447 E13.63727
G1 X97.964 Y95.673 E13.66947
G1 X98.175 Y95.32 E13.68452
G1 X98.608 Y94.656 E13.71352
G1 X98.89 Y94.258 E13.73136
G1 X99.437 Y93.553 E13.76401
G1 X99.74 Y93.196 E13.78114
G1 X100.318 Y92.57 E13.81232
G1 X100.616 Y92.273 E13.82771
G1 X101.279 Y91.668 E13.86055
G1 X101.661 Y91.349 E13.87875
G1 X102.388 Y90.794 E13.91222
G1 X102.812 Y90.5 E13.93109
G1 X103.556 Y90.031 E13.96327
G1 X103.858 Y89.858 E13.976
G1 X104.458 Y89.54 E14.00085
G1 X104.825 Y89.361 E14.01579
G1 X105.538 Y89.047 E14.04429
G1 X105.939 Y88.888 E14.06007
G1 X106.714 Y88.614 E14.09015
G1 X107.292 Y88.443 E14.1122
G1 X107.754 Y88.321 E14.12968
G1 X108.525 Y88.149 E14.15858
G1 X108.804 Y88.098 E14.16896
G1 X109.388 Y88.008 E14.19058
G1 X109.768 Y87.961 E14.20459
G1 X110.809 Y87.886 E14.24277
G1 X112.559 Y87.852 E14.30681
G1 X122.721 Y87.855 E14.6786
G1 X124.216 Y87.887 E14.73331
G1 X125.333 Y87.973 E14.7743
G1 X125.75 Y88.028 E14.78968
G1 X126.479 Y88.151 E14.81673
G1 X126.891 Y88.236 E14.83212
G1 X127.767 Y88.457 E14.86518
G1 X128.183 Y88.582 E14.88107
G1 X128.918 Y88.834 E14.9095
G1 X129.346 Y88.999 E14.92628
G1 X130.164 Y89.356 E14.95893
G1 X130.597 Y89.568 E14.97657
G1 X131.353 Y89.979 E15.00805
G1 X131.687 Y90.179 E15.0223
G1 X132.342 Y90.606 E15.0509
G1 X132.722 Y90.875 E15.06794
G1 X133.405 Y91.403 E15.09952
G1 X133.762 Y91.704 E15.11661
G1 X134.401 Y92.29 E15.14833
G1 X134.714 Y92.603 E15.16452
G1 X135.321 Y93.267 E15.19744
G1 X135.641 Y93.649 E15.21567
G1 X136.162 Y94.327 E15.24695
G1 X136.386 Y94.645 E15.26118
G1 X136.788 Y95.262 E15.28812
G1 X137.013 Y95.636 E15.30409
G1 X137.429 Y96.398 E15.33585
G1 X137.626 Y96.799 E15.3522
G1 X137.945 Y97.518 E15.38098
G1 X138.099 Y97.904 E15.39618
G1 X138.316 Y98.501 E15.41942
G1 X138.557 Y99.292 E15.44968
G1 X138.679 Y99.754 E15.46716
G1 X138.848 Y100.509 E15.49546
G1 X138.898 Y100.78 E15.50555
G1 X138.99 Y101.373 E15.5275
G1 X139.038 Y101.759 E15.54173
G1 X139.114 Y102.808 E15.58021
G1 X139.148 Y104.56 E15.64432
G1 X139.145 Y130.722 E16.60149
G1 X139.113 Y132.217 E16.6562
G1 X139.027 Y133.334 E16.69719
G1 X138.972 Y133.751 E16.71258
G1 X138.843 Y134.508 E16.74067
G1 X138.757 Y134.919 E16.75603
G1 X138.548 Y135.745 E16.78721
G1 X138.424 Y136.161 E16.80309
G1 X138.164 Y136.924 E16.83258
G1 X137.996 Y137.359 E16.84964
G1 X137.643 Y138.166 E16.88187
G1 X137.444 Y138.573 E16.89844
G1 X137.046 Y139.309 E16.92905
G1 X136.836 Y139.662 E16.94408
G1 X136.376 Y140.368 E16.97491
G1 X136.076 Y140.789 E16.99382
G1 X135.518 Y141.503 E17.02698
G1 X135.233 Y141.836 E17.04301
G1 X134.682 Y142.43 E17.07265
G1 X134.384 Y142.727 E17.08805
G1 X133.721 Y143.332 E17.12089
G1 X133.339 Y143.651 E17.13909
G1 X132.673 Y144.162 E17.16981
G1 X132.355 Y144.386 E17.18404
G1 X131.735 Y144.791 E17.21113
G1 X131.354 Y145.02 E17.22739
G1 X130.585 Y145.438 E17.25942
G1 X130.191 Y145.631 E17.27547
G1 X129.462 Y145.953 E17.30463
G1 X129.061 Y146.112 E17.32041
G1 X128.286 Y146.386 E17.35048
G1 X127.708 Y146.557 E17.37253
G1 X127.246 Y146.679 E17.39002
G1 X126.475 Y146.851 E17.41892
G1 X126.196 Y146.902 E17.42929
G1 X125.612 Y146.992 E17.45091
G1 X125.232 Y147.039 E17.46492
G1 X124.191 Y147.114 E17.50311
G1 X122.441 Y147.148 E17.56714
G1 X112.279 Y147.145 E17.93893
G1 X110.783 Y147.113 E17.99368
G1 X109.666 Y147.027 E18.03467
G1 X109.249 Y146.972 E18.05005
G1 X108.492 Y146.843 E18.07815
G1 X108.081 Y146.757 E18.09351
G1 X107.255 Y146.548 E18.12469
G1 X106.839 Y146.424 E18.14057
G1 X106.076 Y146.164 E18.17006
G1 X105.641 Y145.996 E18.18712
G1 X104.821 Y145.637 E18.21987
G1 X104.393 Y145.427 E18.23731
G1 X103.629 Y145.011 E18.26914
G1 X103.298 Y144.812 E18.28327
G1 X102.669 Y144.401 E18.31076
G1 X102.281 Y144.127 E18.32814
G1 X101.576 Y143.582 E18.36074
G1 X101.226 Y143.286 E18.37751
G1 X100.611 Y142.721 E18.40806
G1 X100.296 Y142.407 E18.42433
G1 X99.667 Y141.72 E18.45841
G1 X99.348 Y141.338 E18.47662
G1 X98.79 Y140.605 E18.51033
G1 X98.495 Y140.179 E18.52928
G1 X98.031 Y139.444 E18.56108
G1 X97.859 Y139.144 E18.57374
G1 X97.533 Y138.528 E18.59923
G1 X97.343 Y138.137 E18.61514
G1 X97.022 Y137.405 E18.64438
G1 X96.874 Y137.028 E18.6592
G1 X96.604 Y136.256 E18.68912
G1 X96.391 Y135.526 E18.71694
G1 X96.213 Y134.78 E18.745
G1 X96.128 Y134.354 E18.7609
G1 X96.003 Y133.576 E18.78973
G1 X95.914 Y132.762 E18.81968
G1 X95.874 Y132.058 E18.84548
G1 X95.852 Y130.998 E18.88427
G1 X95.86 Y104.179 E19.86548
G1 F2700 E14.86548
;MESH:Socket for Ball End v3.stl
G0 F2100 X114.163 Y107.326
G0 X116.74 Y108.602
;TYPE:WALL-INNER
G1 F2700 E19.86548
G1 F1200 X116.345 Y108.509 E19.88032
G1 X115.948 Y108.371 E19.8957
G1 X115.583 Y108.205 E19.91037
G1 X115.226 Y107.997 E19.92549
G1 X114.901 Y107.764 E19.94012
G1 X114.586 Y107.486 E19.95549
G1 X114.311 Y107.191 E19.97024
G1 X114.057 Y106.855 E19.98565
G1 X113.847 Y106.514 E20.0003
G1 X113.666 Y106.143 E20.01541
G1 X113.524 Y105.766 E20.03015
G1 X113.418 Y105.364 E20.04536
G1 X113.354 Y104.961 E20.06029
G1 X113.329 Y104.557 E20.07509
G1 X113.344 Y104.145 E20.09018
G1 X113.382 Y103.845 E20.10124
G1 X113.44 Y103.549 E20.11228
G1 X113.506 Y103.29 E20.12206
G1 X113.611 Y102.994 E20.13355
G1 X113.771 Y102.634 E20.14796
G1 X114.003 Y102.227 E20.1651
G1 X114.236 Y101.901 E20.17976
G1 X114.513 Y101.587 E20.19508
G1 X114.809 Y101.311 E20.20989
G1 X115.146 Y101.057 E20.22533
G1 X115.483 Y100.849 E20.23981
G1 X115.855 Y100.667 E20.25497
G1 X116.234 Y100.525 E20.26977
G1 X116.636 Y100.418 E20.28499
