;FLAVOR:Marlin
;TIME:5945
;Filament used: 3.5497m
;Layer height: 0.2
;MINX:85.682
;MINY:81.981
;MINZ:0.2
;MAXX:149.323
;MAXY:153.018
;MAXZ:29.8
;Generated with Cura_SteamEngine 5.0.0
M140 S60
M105
M190 S60
M104 S222
M105
M109 S222
M82 ;absolute extrusion mode
; Ender 3 Custom Start G-code
G92 E0 ; Reset Extruder
M140 S60 ; Start heating the heated bed
M190 S60 ; Wait until the heated bed reaches the desired temperature
G28 ; Auto Home
G29 A; Activate Bed Leveling
G29 L0; Loads the saved mesh in slot 0
G29  J3; 9 point autotilt

G92 E0 ; Reset extruder origin
G1 Z2.0 F3000 ; Move Z Axis up little to prevent scratching of Heat Bed
G1 X0.1 Y20 Z0.3 F5000.0 ; Move to start position
G1 X0.1 Y200.0 Z0.3 F1500.0 E15 ; Draw the first line
G1 X0.4 Y200.0 Z0.3 F5000.0 ; Move to side a little
G1 X0.4 Y20 Z0.3 F1500.0 E30 ; Draw the second line
G92 E0 ; Reset Extruder
G1 Z2.0 F3000 ; Move Z Axis up little to prevent scratching of Heat Bed
G1 X5 Y20 Z0.3 F5000.0 ; Move over to prevent blob squish

; End of Ender 3 Custom Start G-code
G92 E0
G92 E0
G1 F2700 E-5
;LAYER_COUNT:149
;LAYER:0
M107
G0 F2100 X88.904 Y85.558 Z0.2
G0 X85.682 Y93.179
;TYPE:SKIRT
G1 F2700 E0
G1 F1200 X85.731 Y92.456 E0.02651
G1 X85.752 Y92.248 E0.03416
G1 X85.886 Y91.315 E0.06865
G1 X86.099 Y90.398 E0.10309
G1 X86.389 Y89.501 E0.13758
G1 X86.754 Y88.633 E0.17203
G1 X87.192 Y87.798 E0.20653
G1 X87.698 Y87.004 E0.24097
G1 X88.27 Y86.255 E0.27545
G1 X88.904 Y85.558 E0.30993
G1 X89.594 Y84.917 E0.34438
G1 X90.336 Y84.336 E0.37886
G1 X91.443 Y83.639 E0.42672
G1 X91.859 Y83.41 E0.44409
G1 X92.703 Y82.991 E0.47857
G1 X93.579 Y82.645 E0.51303
G1 X94.482 Y82.375 E0.54751
G1 X95.404 Y82.182 E0.58197
G1 X96.249 Y82.076 E0.61313
G1 X96.743 Y82.033 E0.63127
G1 X97.489 Y81.993 E0.65861
G1 X98.217 Y81.981 E0.68524
G1 X136.774 Y81.984 E2.0959
G1 X137.554 Y81.997 E2.12444
G1 X138.404 Y82.043 E2.15558
G1 X138.831 Y82.083 E2.17127
G1 X139.765 Y82.211 E2.20576
G1 X140.684 Y82.417 E2.24022
G1 X141.582 Y82.701 E2.27468
G1 X142.749 Y83.201 E2.32113
G1 X143.118 Y83.385 E2.33621
G1 X143.943 Y83.841 E2.3707
G1 X144.726 Y84.365 E2.40517
G1 X145.461 Y84.954 E2.43963
G1 X146.144 Y85.603 E2.4741
G1 X146.77 Y86.307 E2.50857
G1 X147.334 Y87.062 E2.54305
G1 X147.831 Y87.862 E2.5775
G1 X148.259 Y88.702 E2.612
G1 X148.733 Y89.922 E2.65988
G1 X148.796 Y90.118 E2.66741
G1 X149.045 Y91.027 E2.7019
G1 X149.218 Y91.953 E2.73636
G1 X149.31 Y92.89 E2.77081
G1 X149.323 Y93.833 E2.80531
G1 X149.232 Y94.975 E2.84722
G1 X149.09 Y96.028 E2.8861
G1 X142.106 Y142.593 E4.60879
G1 X141.986 Y143.325 E4.63593
G1 X141.794 Y144.247 E4.67038
G1 X141.525 Y145.15 E4.70485
G1 X141.18 Y146.027 E4.73933
G1 X140.762 Y146.871 E4.77379
G1 X140.416 Y147.461 E4.79882
G1 X139.893 Y148.245 E4.8333
G1 X139.306 Y148.982 E4.86777
G1 X138.659 Y149.666 E4.90221
G1 X137.956 Y150.293 E4.93668
G1 X137.202 Y150.858 E4.97115
G1 X136.403 Y151.357 E5.00561
G1 X135.586 Y151.777 E5.03922
G1 X135.227 Y151.943 E5.05369
G1 X134.356 Y152.302 E5.08816
G1 X133.457 Y152.585 E5.12264
G1 X132.538 Y152.792 E5.15711
G1 X131.484 Y152.93 E5.196
G1 X131.001 Y152.97 E5.21373
G1 X130.24 Y153.007 E5.24161
G1 X129.37 Y153.018 E5.27344
G1 X105.425 Y153.016 E6.14949
G1 X104.657 Y153.003 E6.1776
G1 X103.84 Y152.959 E6.20753
G1 X103.411 Y152.92 E6.22329
G1 X102.477 Y152.795 E6.25777
G1 X101.557 Y152.592 E6.29224
G1 X100.658 Y152.311 E6.3267
G1 X99.908 Y152.009 E6.35628
G1 X99.575 Y151.861 E6.36961
G1 X98.731 Y151.442 E6.40408
G1 X97.926 Y150.954 E6.43852
G1 X97.165 Y150.398 E6.47301
G1 X96.453 Y149.78 E6.5075
G1 X95.797 Y149.104 E6.54196
G1 X95.201 Y148.375 E6.57641
G1 X94.463 Y147.257 E6.62542
G1 X94.349 Y147.059 E6.63378
G1 X93.914 Y146.223 E6.66826
G1 X93.552 Y145.353 E6.70274
G1 X93.264 Y144.456 E6.7372
G1 X93.019 Y143.337 E6.77911
G1 X92.872 Y142.443 E6.81226
G1 X85.862 Y95.702 E8.54146
G1 X85.775 Y95.059 E8.5652
G1 X85.689 Y94.121 E8.59966
G1 X85.682 Y93.179 E8.63413
G0 F2100 X86.123 Y93.158
G1 F1200 X86.19 Y92.292 E8.6659
G1 X86.322 Y91.378 E8.69969
G1 X86.533 Y90.48 E8.73344
G1 X86.821 Y89.602 E8.76725
G1 X87.184 Y88.753 E8.80103
G1 X87.619 Y87.939 E8.8348
G1 X88.123 Y87.165 E8.86859
G1 X88.692 Y86.438 E8.90236
G1 X89.321 Y85.763 E8.93612
G1 X90.007 Y85.145 E8.9699
G1 X90.743 Y84.588 E9.00367
G1 X91.655 Y84.024 E9.0429
G1 X92.071 Y83.795 E9.06027
G1 X92.899 Y83.386 E9.09406
G1 X93.758 Y83.049 E9.12782
G1 X94.644 Y82.788 E9.16161
G1 X95.549 Y82.605 E9.19539
G1 X96.288 Y82.514 E9.22264
G1 X96.782 Y82.471 E9.24078
G1 X97.497 Y82.433 E9.26697
G1 X98.217 Y82.421 E9.29332
G1 X136.767 Y82.423 E10.70372
G1 X137.547 Y82.436 E10.73226
G1 X138.363 Y82.481 E10.76216
G1 X138.79 Y82.521 E10.77785
G1 X139.705 Y82.647 E10.81164
G1 X140.605 Y82.852 E10.84541
G1 X141.484 Y83.133 E10.87917
G1 X142.553 Y83.595 E10.92178
G1 X142.922 Y83.779 E10.93687
G1 X143.73 Y84.227 E10.97067
G1 X144.495 Y84.742 E11.00441
G1 X145.214 Y85.322 E11.0382
G1 X145.879 Y85.962 E11.07197
G1 X146.487 Y86.657 E11.10576
G1 X147.032 Y87.402 E11.13953
G1 X147.511 Y88.192 E11.17333
G1 X147.92 Y89.02 E11.20711
G1 X148.314 Y90.057 E11.2477
G1 X148.377 Y90.253 E11.25523
G1 X148.621 Y91.143 E11.289
G1 X148.787 Y92.051 E11.32277
G1 X148.874 Y92.971 E11.35658
G1 X148.881 Y93.894 E11.39035
G1 X148.795 Y94.917 E11.42791
G1 X148.655 Y95.963 E11.46652
G1 X141.672 Y142.522 E13.18898
G1 X141.552 Y143.254 E13.21612
G1 X141.363 Y144.157 E13.24988
G1 X141.097 Y145.041 E13.28365
G1 X140.755 Y145.899 E13.31744
G1 X140.145 Y147.06 E13.36543
G1 X140.04 Y147.233 E13.37283
G1 X139.527 Y148.001 E13.40662
G1 X138.95 Y148.721 E13.44038
G1 X138.312 Y149.389 E13.47417
G1 X137.62 Y149.999 E13.50792
G1 X136.876 Y150.547 E13.54173
G1 X136.089 Y151.029 E13.57549
G1 X135.401 Y151.378 E13.60372
G1 X135.042 Y151.544 E13.61819
G1 X134.188 Y151.895 E13.65197
G1 X133.307 Y152.17 E13.68573
G1 X132.405 Y152.368 E13.71952
G1 X131.448 Y152.492 E13.75483
G1 X130.965 Y152.532 E13.77256
G1 X130.234 Y152.567 E13.79933
G1 X129.37 Y152.578 E13.83095
G1 X105.433 Y152.576 E14.70671
G1 X104.665 Y152.563 E14.73481
G1 X103.88 Y152.521 E14.76357
G1 X103.451 Y152.482 E14.77933
G1 X102.536 Y152.359 E14.81311
G1 X101.635 Y152.157 E14.84689
G1 X100.755 Y151.878 E14.88067
G1 X100.087 Y151.607 E14.90704
G1 X99.754 Y151.459 E14.92037
G1 X98.927 Y151.048 E14.95416
G1 X98.139 Y150.567 E14.98794
G1 X97.396 Y150.019 E15.02172
G1 X96.702 Y149.41 E15.0555
G1 X96.064 Y148.742 E15.08929
G1 X95.487 Y148.022 E15.12305
G1 X94.845 Y147.037 E15.16607
G1 X94.731 Y146.839 E15.17442
G1 X94.305 Y146.02 E15.2082
G1 X93.952 Y145.167 E15.24197
G1 X93.674 Y144.286 E15.27577
G1 X93.453 Y143.265 E15.31399
G1 X93.307 Y142.378 E15.34688
G1 X86.298 Y95.643 E17.07586
G1 X86.211 Y95 E17.0996
G1 X86.127 Y94.081 E17.13336
G1 X86.123 Y93.158 E17.16713
G0 F2100 X86.564 Y93.137
G1 F1200 X86.628 Y92.336 E17.19653
G1 X86.758 Y91.442 E17.22958
G1 X86.967 Y90.562 E17.26267
G1 X87.253 Y89.705 E17.29572
G1 X87.614 Y88.876 E17.32881
G1 X88.046 Y88.082 E17.36188
G1 X88.547 Y87.329 E17.39497
G1 X89.113 Y86.624 E17.42804
G1 X89.738 Y85.972 E17.46109
G1 X90.419 Y85.377 E17.49417
G1 X91.149 Y84.844 E17.52724
G1 X91.867 Y84.41 E17.55794
G1 X92.283 Y84.181 E17.57531
G1 X93.094 Y83.78 E17.60841
G1 X93.937 Y83.453 E17.64149
G1 X94.805 Y83.202 E17.67455
G1 X95.692 Y83.028 E17.70762
G1 X96.326 Y82.952 E17.73098
G1 X96.82 Y82.909 E17.74912
G1 X97.506 Y82.873 E17.77426
G1 X98.217 Y82.861 E17.80027
G1 X136.759 Y82.863 E19.21038
G1 X137.539 Y82.876 E19.23892
G1 X138.322 Y82.92 E19.26761
G1 X138.749 Y82.96 E19.2833
G1 X139.645 Y83.084 E19.31639
G1 X140.526 Y83.286 E19.34946
G1 X141.385 Y83.566 E19.38252
G1 X142.357 Y83.989 E19.4213
G1 X142.726 Y84.173 E19.43639
G1 X143.516 Y84.612 E19.46945
G1 X144.264 Y85.119 E19.50251
G1 X144.965 Y85.69 E19.53559
G1 X145.613 Y86.321 E19.56868
G1 X146.202 Y87.006 E19.60173
G1 X146.729 Y87.741 E19.63482
G1 X147.188 Y88.519 E19.66787
G1 X147.577 Y89.336 E19.70098
G1 X147.895 Y90.192 E19.73439
G1 X147.958 Y90.388 E19.74192
G1 X148.196 Y91.26 E19.77499
G1 X148.356 Y92.149 E19.80804
G1 X148.437 Y93.05 E19.84113
G1 X148.439 Y93.954 E19.87421
G1 X148.359 Y94.859 E19.90745
G1 X148.22 Y95.898 E19.9458
G1 X141.237 Y142.45 E21.66801
G1 X141.117 Y143.182 E21.69515
G1 X140.932 Y144.067 E21.72823
G1 X140.669 Y144.932 E21.76131
G1 X140.33 Y145.77 E21.79438
G1 X139.769 Y146.832 E21.83832
G1 X139.664 Y147.005 E21.84573
G1 X139.161 Y147.756 E21.8788
G1 X138.594 Y148.46 E21.91187
G1 X137.967 Y149.111 E21.94494
G1 X137.284 Y149.704 E21.97803
G1 X136.552 Y150.234 E22.01109
G1 X135.776 Y150.698 E22.04417
G1 X135.216 Y150.978 E22.06708
G1 X134.857 Y151.144 E22.08155
G1 X134.021 Y151.487 E22.11461
G1 X133.157 Y151.755 E22.1477
G1 X132.274 Y151.945 E22.18075
G1 X131.411 Y152.053 E22.21257
G1 X130.928 Y152.093 E22.2303
G1 X130.228 Y152.127 E22.25594
G1 X129.37 Y152.138 E22.28734
G1 X105.44 Y152.137 E23.16284
G1 X104.672 Y152.124 E23.19094
G1 X103.92 Y152.083 E23.2185
G1 X103.491 Y152.044 E23.23426
G1 X102.595 Y151.922 E23.26734
G1 X101.713 Y151.722 E23.30043
G1 X100.853 Y151.445 E23.33349
G1 X100.265 Y151.205 E23.35672
G1 X99.932 Y151.057 E23.37005
G1 X99.123 Y150.654 E23.40312
G1 X98.353 Y150.181 E23.43618
G1 X97.628 Y149.641 E23.46926
G1 X96.953 Y149.04 E23.50232
G1 X96.334 Y148.381 E23.5354
G1 X95.775 Y147.67 E23.56849
G1 X95.226 Y146.817 E23.6056
G1 X95.112 Y146.619 E23.61396
G1 X94.696 Y145.817 E23.64702
G1 X94.353 Y144.981 E23.68008
G1 X94.085 Y144.117 E23.71317
G1 X93.887 Y143.193 E23.74775
G1 X93.742 Y142.313 E23.78038
G1 X86.734 Y95.584 E25.50913
G1 X86.647 Y94.941 E25.53287
G1 X86.566 Y94.041 E25.56593
G1 X86.564 Y93.137 E25.599
G1 F2700 E20.599
;MESH:Soldering Jig v0.stl
G0 F2100 X104.679 Y98.169
G0 X108.504 Y137.18
G0 X108.581 Y137.52
G0 X108.751 Y137.861
G0 X109.001 Y138.15
G0 X109.254 Y138.329
G0 X110.044 Y138.61
G1 F2700 E25.599
G0 F2100 X110.044 Y138.22
;TYPE:WALL-OUTER
G1 F1200 X109.777 Y138.189 E25.60884
G1 X109.496 Y138.089 E25.61975
G1 X109.245 Y137.92 E25.63082
G1 X109.046 Y137.699 E25.6417
G1 X108.905 Y137.431 E25.65278
G1 X108.833 Y137.147 E25.6635
G1 X108.828 Y137.117 E25.66461
G1 X105.317 Y98.111 E27.09746
G1 X105.324 Y97.847 E27.10712
G1 X105.392 Y97.572 E27.11749
G1 X105.526 Y97.316 E27.12806
G1 X105.715 Y97.097 E27.13864
G1 X105.946 Y96.931 E27.14905
G1 X106.216 Y96.823 E27.15969
G1 X106.503 Y96.781 E27.1703
G1 X128.466 Y96.78 E27.97384
G1 X128.725 Y96.809 E27.98338
G1 X128.997 Y96.903 E27.99391
G1 X129.237 Y97.057 E28.00434
G1 X129.437 Y97.262 E28.01482
G1 X129.585 Y97.515 E28.02554
G1 X129.667 Y97.786 E28.0359
G1 X129.683 Y98.076 E28.04653
G1 X129.683 Y98.104 E28.04755
G1 X126.171 Y137.125 E29.48095
G1 X126.116 Y137.372 E29.49021
G1 X125.991 Y137.645 E29.50119
G1 X125.804 Y137.876 E29.51207
G1 X125.56 Y138.059 E29.52323
G1 X125.289 Y138.173 E29.53398
G1 X124.99 Y138.219 E29.54505
G1 X110.044 Y138.22 E30.09187
G0 F2100 X110.044 Y138.66
;TYPE:WALL-INNER
G1 F1200 X109.722 Y138.626 E30.10371
G1 X109.341 Y138.501 E30.11838
G1 X108.99 Y138.278 E30.1336
G1 X108.713 Y137.987 E30.1483
G1 X108.511 Y137.627 E30.1634
G1 X108.404 Y137.245 E30.17791
G1 X108.39 Y137.157 E30.18117
G1 X104.879 Y98.151 E31.61402
G1 X104.884 Y97.834 E31.62562
G1 X104.968 Y97.456 E31.63979
G1 X105.14 Y97.104 E31.65412
G1 X105.389 Y96.802 E31.66844
G1 X105.696 Y96.568 E31.68257
G1 X106.061 Y96.411 E31.6971
G1 X106.449 Y96.344 E31.71151
G1 X106.53 Y96.34 E31.71447
G1 X128.466 Y96.34 E32.51703
G1 X128.777 Y96.372 E32.52847
G1 X129.149 Y96.49 E32.54275
G1 X129.483 Y96.692 E32.55703
G1 X129.758 Y96.961 E32.5711
G1 X129.97 Y97.301 E32.58576
G1 X130.091 Y97.667 E32.59986
G1 X130.123 Y98.061 E32.61433
G1 X130.121 Y98.144 E32.61736
G1 X126.607 Y137.191 E34.05172
G1 X126.546 Y137.469 E34.06213
G1 X126.387 Y137.837 E34.0768
G1 X126.14 Y138.16 E34.09167
G1 X125.816 Y138.417 E34.1068
G1 X125.451 Y138.583 E34.12147
G1 X125.046 Y138.655 E34.13652
G1 X124.961 Y138.66 E34.13964
G1 X110.044 Y138.66 E34.68539
G1 F2700 E29.68539
G0 F2100 X109.073 Y138.584
G0 X109.073 Y141.488
G0 X104.928 Y141.309
G1 F2700 E34.68539
G0 F2100 X104.916 Y141.698
;TYPE:WALL-OUTER
G1 F1200 X130.083 Y141.698 E35.60616
G1 X130.525 Y141.66 E35.62239
G1 X130.778 Y141.549 E35.63249
G1 X130.853 Y141.29 E35.64236
G1 X138.017 Y93.533 E37.40915
G1 X137.965 Y93.455 E37.41258
G1 X137.733 Y93.339 E37.42207
G1 X137.285 Y93.303 E37.43852
G1 X106.29 Y93.302 E38.5725
G1 X97.69 Y93.303 E38.88715
G1 X97.281 Y93.335 E38.90216
G1 X96.998 Y93.479 E38.91377
G1 X96.984 Y93.539 E38.91603
G1 X97.619 Y97.779 E39.07288
G1 X104.172 Y141.456 E40.68874
G1 X104.223 Y141.55 E40.69265
G1 X104.474 Y141.661 E40.70269
G1 X104.916 Y141.698 E40.71892
G0 F2100 X104.584 Y141.228
;TYPE:WALL-INNER
G1 F1200 X104.951 Y141.258 E40.73239
G1 X130.065 Y141.258 E41.65122
G1 X130.415 Y141.224 E41.66408
G1 X130.468 Y140.895 E41.67628
G1 X137.537 Y93.765 E43.41987
G1 X137.258 Y93.743 E43.43011
G1 X106.29 Y93.742 E44.56311
G1 X97.724 Y93.743 E44.8765
G1 X97.462 Y93.763 E44.88612
G1 X104.075 Y137.844 E46.51692
G1 X104.144 Y138.298 E46.53372
G1 X104.183 Y138.57 E46.54377
G1 X104.281 Y139.217 E46.56771
G1 X104.584 Y141.228 E46.64212
G0 F2100 X104.933 Y140.856
;TYPE:SKIN
G1 F1200 X104.688 Y139.227 E46.70239
G1 X97.926 Y94.147 E48.37014
G1 X105.954 Y94.146 E48.66386
G1 X137.075 Y94.147 E49.80245
G1 X130.554 Y137.613 E51.41051
G1 X130.066 Y140.854 E51.53042
G1 X128.186 Y140.857 E51.5992
G1 X107.762 Y140.856 E52.34644
G1 X106.581 Y140.857 E52.38964
G1 X105.752 Y140.856 E52.41997
G1 X105.754 Y140.416 E52.43607
G1 X129.686 Y140.415 E53.31165
G1 X136.563 Y94.587 E55.00709
G1 X106.487 Y94.588 E56.10746
G1 X105.955 Y94.587 E56.12692
G1 X105.92 Y94.587 E56.1282
G1 F1082 X105.92 Y95.076 E56.14805
G1 X106.008 Y95.556 E56.16785
G1 F1200 X106.463 Y95.502 E56.18461
G1 X128.509 Y95.5 E56.99119
G1 X128.689 Y95.516 E56.9978
G1 X129.213 Y95.622 E57.01736
G1 X129.261 Y95.638 E57.01921
G1 X129.755 Y95.865 E57.0391
G1 X129.798 Y95.891 E57.04094
G1 X130.207 Y96.212 E57.05996
G1 X130.245 Y96.249 E57.0619
G1 X130.583 Y96.68 E57.08194
G1 X130.609 Y96.723 E57.08378
G1 X130.832 Y97.207 E57.10328
G1 X130.943 Y97.687 E57.1213
G1 X130.96 Y98.145 E57.13807
G1 X130.96 Y98.172 E57.13906
G1 X127.448 Y137.239 E58.57413
G1 X127.423 Y137.4 E58.58009
G1 X127.287 Y137.902 E58.59912
G1 X127.12 Y138.226 E58.61246
G1 X126.941 Y138.512 E58.6248
G1 X126.911 Y138.55 E58.62657
G1 X126.52 Y138.945 E58.64691
G1 X126.477 Y138.979 E58.64891
G1 X125.992 Y139.27 E58.66961
G1 X125.945 Y139.291 E58.67149
G1 X125.907 Y139.303 E58.67295
G1 F1178.6 X125.961 Y139.756 E58.68994
G1 F1086.4 X125.543 Y139.915 E58.70801
G1 F1064.5 X125.81 Y139.813 E58.7198
G1 F1152.8 X126.078 Y139.711 E58.73072
G1 F1200 X126.22 Y139.648 E58.73641
G1 X126.705 Y139.356 E58.75712
G1 X126.814 Y139.272 E58.76215
G1 X127.224 Y138.859 E58.78344
G1 X127.252 Y138.825 E58.78506
G1 X127.512 Y138.426 E58.80248
G1 X127.706 Y138.04 E58.81829
G1 X127.859 Y137.462 E58.84016
G1 X127.887 Y137.28 E58.8469
G1 X131.4 Y98.159 E60.28394
G1 X131.4 Y98.13 E60.285
G1 X131.376 Y97.604 E60.30427
G1 X131.239 Y97.041 E60.32547
G1 X131.011 Y96.541 E60.34557
G1 X130.943 Y96.428 E60.3504
G1 X130.767 Y96.202 E60.36088
G1 X131.061 Y95.866 E60.37721
G1 X131.288 Y96.153 E60.3906
G1 X131.385 Y96.307 E60.39726
G1 X131.637 Y96.853 E60.41926
G1 X131.691 Y97.005 E60.42516
G1 X131.811 Y97.528 E60.44479
G1 X131.814 Y97.558 E60.4459
G1 X131.84 Y98.141 E60.46725
G1 X128.773 Y132.345 E61.72366
G1 F1278.5 X129.185 Y132.382 E61.73787
G1 F1375 X129.166 Y132.57 E61.7439
G1 X129.192 Y132.32 E61.75192
G1 F1346.9 X129.218 Y132.069 E61.76015
G1 F1323.3 X129.244 Y131.819 E61.76849
G1 F1297.3 X129.27 Y131.568 E61.77703
G1 F1275.4 X129.297 Y131.317 E61.78572
G1 F1251.2 X129.323 Y131.067 E61.79454
G1 F1230.8 X129.349 Y130.816 E61.80354
G1 F1208.2 X129.375 Y130.565 E61.81271
G1 F1189.2 X129.402 Y130.315 E61.82199
G1 F1168.1 X129.428 Y130.064 E61.83148
G1 F1147.8 X129.454 Y129.813 E61.84113
G1 F1130.6 X129.48 Y129.563 E61.85089
G1 F1111.6 X129.507 Y129.312 E61.86086
G1 F1095.4 X129.533 Y129.062 E61.87093
G1 F1077.6 X129.559 Y128.811 E61.88121
G1 F1062.4 X129.585 Y128.56 E61.89164
G1 F1045.5 X129.612 Y128.31 E61.9022
