;FLAVOR:Marlin
;TIME:1871
;Filament used: 1.34504m
;Layer height: 0.2
;MINX:96.4
;MINY:96.4
;MINZ:0.2
;MAXX:138.6
;MAXY:138.6
;MAXZ:20
;Generated with Cura_SteamEngine 5.0.0
M140 S60
M105
M190 S60
M104 S222
M105
M109 S222
M82 ;absolute extrusion mode
; Ender 3 Custom Start G-code
G92 E0 ; Reset Extruder
M140 S60 ; Start heating the heated bed
M190 S60 ; Wait until the heated bed reaches the desired temperature
G28 ; Auto Home
G29 A; Activate Bed Leveling
G29 L0; Loads the saved mesh in slot 0
G29  J3; 9 point autotilt

G92 E0 ; Reset extruder origin
G1 Z2.0 F3000 ; Move Z Axis up little to prevent scratching of Heat Bed
G1 X0.1 Y20 Z0.3 F5000.0 ; Move to start position
G1 X0.1 Y200.0 Z0.3 F1500.0 E15 ; Draw the first line
G1 X0.4 Y200.0 Z0.3 F5000.0 ; Move to side a little
G1 X0.4 Y20 Z0.3 F1500.0 E30 ; Draw the second line
G92 E0 ; Reset Extruder
G1 Z2.0 F3000 ; Move Z Axis up little to prevent scratching of Heat Bed
G1 X5 Y20 Z0.3 F5000.0 ; Move over to prevent blob squish

; End of Ender 3 Custom Start G-code
G92 E0
G92 E0
G1 F2700 E-5
;LAYER_COUNT:100
;LAYER:0
M107
G0 F2100 X99.6 Y99.721 Z0.2
G0 X96.401 Y108.024
;TYPE:SKIRT
G1 F2700 E0
G1 F1200 X96.41 Y107.359 E0.02433
G1 X96.463 Y106.418 E0.05881
G1 X96.595 Y105.485 E0.09329
G1 X96.806 Y104.567 E0.12775
G1 X97.094 Y103.67 E0.16222
G1 X97.457 Y102.801 E0.19667
G1 X97.892 Y101.965 E0.23115
G1 X98.397 Y101.17 E0.26561
G1 X98.968 Y100.42 E0.3001
G1 X99.6 Y99.721 E0.33458
G1 X100.288 Y99.079 E0.369
G1 X101.029 Y98.497 E0.40348
G1 X101.817 Y97.98 E0.43796
G1 X102.646 Y97.531 E0.47245
G1 X103.509 Y97.155 E0.50689
G1 X104.402 Y96.853 E0.54138
G1 X105.316 Y96.628 E0.57582
G1 X106.247 Y96.481 E0.6103
G1 X107.198 Y96.413 E0.64518
G1 X107.83 Y96.4 E0.66831
G1 X126.793 Y96.4 E1.36209
G1 X127.65 Y96.411 E1.39345
G1 X128.591 Y96.465 E1.42794
G1 X129.523 Y96.598 E1.46238
G1 X130.441 Y96.809 E1.49684
G1 X131.338 Y97.098 E1.53132
G1 X132.207 Y97.462 E1.56579
G1 X133.042 Y97.898 E1.60025
G1 X133.837 Y98.403 E1.63471
G1 X134.587 Y98.974 E1.6692
G1 X135.285 Y99.607 E1.70367
G1 X135.927 Y100.296 E1.73813
G1 X136.509 Y101.037 E1.7726
G1 X137.025 Y101.825 E1.80706
G1 X137.473 Y102.654 E1.84154
G1 X137.848 Y103.518 E1.876
G1 X138.15 Y104.411 E1.91048
G1 X138.374 Y105.326 E1.94495
G1 X138.52 Y106.257 E1.97943
G1 X138.587 Y107.198 E2.01394
G1 X138.6 Y107.83 E2.03707
G1 X138.599 Y126.901 E2.7348
G1 X138.59 Y127.628 E2.7614
G1 X138.539 Y128.569 E2.79588
G1 X138.407 Y129.502 E2.83036
G1 X138.197 Y130.421 E2.86485
G1 X137.91 Y131.318 E2.8993
G1 X137.548 Y132.188 E2.93378
G1 X137.114 Y133.024 E2.96824
G1 X136.61 Y133.82 E3.00271
G1 X136.041 Y134.57 E3.03715
G1 X135.409 Y135.27 E3.07166
G1 X134.721 Y135.913 E3.10611
G1 X133.981 Y136.496 E3.14058
G1 X133.194 Y137.014 E3.17505
G1 X132.366 Y137.463 E3.20951
G1 X131.503 Y137.841 E3.24398
G1 X130.611 Y138.144 E3.27844
G1 X129.696 Y138.37 E3.31293
G1 X128.766 Y138.518 E3.34738
G1 X127.802 Y138.587 E3.38274
G1 X127.17 Y138.6 E3.40587
G1 X108.064 Y138.599 E4.10488
G1 X107.366 Y138.59 E4.13042
G1 X106.425 Y138.538 E4.1649
G1 X105.492 Y138.406 E4.19938
G1 X104.574 Y138.196 E4.23383
G1 X103.677 Y137.908 E4.2683
G1 X102.807 Y137.546 E4.30277
G1 X101.971 Y137.111 E4.33725
G1 X101.176 Y136.607 E4.37169
G1 X100.425 Y136.037 E4.40618
G1 X99.726 Y135.405 E4.44066
G1 X99.083 Y134.717 E4.47511
G1 X98.501 Y133.976 E4.50959
G1 X97.983 Y133.189 E4.54406
G1 X97.534 Y132.361 E4.57852
G1 X97.157 Y131.497 E4.61301
G1 X96.855 Y130.605 E4.64746
G1 X96.629 Y129.691 E4.68191
G1 X96.482 Y128.76 E4.71639
G1 X96.413 Y127.791 E4.75193
G1 X96.4 Y127.158 E4.7751
G1 X96.401 Y108.024 E5.47514
G0 F2100 X96.841 Y108.03
G1 F1200 X96.85 Y107.365 E5.49947
G1 X96.902 Y106.443 E5.53325
G1 X97.034 Y105.529 E5.56704
G1 X97.245 Y104.63 E5.60083
G1 X97.533 Y103.753 E5.6346
G1 X97.895 Y102.904 E5.66836
G1 X98.33 Y102.089 E5.70216
G1 X98.833 Y101.315 E5.73594
G1 X99.401 Y100.588 E5.76969
G1 X100.031 Y99.912 E5.8035
G1 X100.716 Y99.294 E5.83725
G1 X101.452 Y98.737 E5.87102
G1 X102.234 Y98.246 E5.9048
G1 X103.056 Y97.824 E5.93861
G1 X103.91 Y97.475 E5.97236
G1 X104.792 Y97.201 E6.00615
G1 X105.694 Y97.005 E6.03992
G1 X106.61 Y96.887 E6.07371
G1 X107.21 Y96.853 E6.0957
G1 X107.83 Y96.84 E6.11839
G1 X126.793 Y96.84 E6.81217
G1 X127.644 Y96.851 E6.84331
G1 X128.565 Y96.904 E6.87706
G1 X129.479 Y97.037 E6.91085
G1 X130.378 Y97.248 E6.94464
G1 X131.255 Y97.537 E6.97842
G1 X132.104 Y97.9 E7.0122
G1 X132.918 Y98.335 E7.04597
G1 X133.692 Y98.839 E7.07976
G1 X134.419 Y99.408 E7.11354
G1 X135.094 Y100.038 E7.14732
G1 X135.712 Y100.724 E7.1811
G1 X136.268 Y101.46 E7.21484
G1 X136.759 Y102.243 E7.24866
G1 X137.18 Y103.064 E7.28241
G1 X137.528 Y103.919 E7.31619
G1 X137.801 Y104.801 E7.34997
G1 X137.997 Y105.703 E7.38374
G1 X138.114 Y106.619 E7.41752
G1 X138.147 Y107.21 E7.43918
G1 X138.16 Y107.83 E7.46187
G1 X138.159 Y126.896 E8.15942
G1 X138.15 Y127.623 E8.18602
G1 X138.099 Y128.545 E8.2198
G1 X137.968 Y129.459 E8.25358
G1 X137.758 Y130.358 E8.28736
G1 X137.472 Y131.236 E8.32114
G1 X137.11 Y132.085 E8.35491
G1 X136.677 Y132.9 E8.38868
G1 X136.174 Y133.675 E8.42248
G1 X135.607 Y134.403 E8.45624
G1 X134.978 Y135.079 E8.49002
G1 X134.293 Y135.699 E8.52382
G1 X133.558 Y136.256 E8.55756
G1 X132.776 Y136.748 E8.59137
G1 X131.956 Y137.171 E8.62512
G1 X131.101 Y137.521 E8.65892
G1 X130.22 Y137.796 E8.69269
G1 X129.318 Y137.993 E8.72647
G1 X128.402 Y138.112 E8.76026
G1 X127.79 Y138.147 E8.78269
G1 X127.17 Y138.16 E8.80538
G1 X108.07 Y138.159 E9.50418
G1 X107.372 Y138.15 E9.52971
G1 X106.45 Y138.098 E9.5635
G1 X105.536 Y137.967 E9.59728
G1 X104.637 Y137.757 E9.63106
G1 X103.759 Y137.47 E9.66485
G1 X102.91 Y137.108 E9.69862
G1 X102.095 Y136.674 E9.7324
G1 X101.321 Y136.171 E9.76617
G1 X100.593 Y135.603 E9.79996
G1 X99.917 Y134.974 E9.83374
G1 X99.298 Y134.289 E9.86752
G1 X98.741 Y133.553 E9.90129
G1 X98.249 Y132.772 E9.93506
G1 X97.827 Y131.951 E9.96883
G1 X97.477 Y131.096 E10.00263
G1 X97.203 Y130.215 E10.03639
G1 X97.006 Y129.313 E10.07017
G1 X96.888 Y128.397 E10.10396
G1 X96.853 Y127.779 E10.1266
G1 X96.84 Y127.158 E10.14933
G1 X96.841 Y108.03 E10.84915
G0 F2100 X97.281 Y108.036
G1 F1200 X97.29 Y107.371 E10.87348
G1 X97.342 Y106.468 E10.90657
G1 X97.474 Y105.574 E10.93963
G1 X97.684 Y104.695 E10.9727
G1 X97.971 Y103.837 E11.0058
G1 X98.333 Y103.009 E11.03886
G1 X98.767 Y102.216 E11.07193
G1 X99.268 Y101.464 E11.10499
G1 X99.835 Y100.759 E11.13809
G1 X100.461 Y100.108 E11.17114
G1 X101.143 Y99.514 E11.20423
G1 X101.874 Y98.983 E11.23728
G1 X102.65 Y98.518 E11.27038
G1 X103.463 Y98.124 E11.30343
G1 X104.309 Y97.803 E11.33654
G1 X105.179 Y97.558 E11.36961
G1 X106.067 Y97.391 E11.40266
G1 X107.223 Y97.293 E11.44511
G1 X107.83 Y97.28 E11.46732
G1 X126.793 Y97.28 E12.1611
G1 X127.637 Y97.291 E12.19199
G1 X128.54 Y97.344 E12.22508
G1 X129.434 Y97.476 E12.25814
G1 X130.313 Y97.687 E12.29122
G1 X131.17 Y97.975 E12.32429
G1 X131.998 Y98.338 E12.35737
G1 X132.791 Y98.772 E12.39044
G1 X133.543 Y99.274 E12.42352
G1 X134.247 Y99.841 E12.45659
G1 X134.898 Y100.468 E12.48966
G1 X135.491 Y101.15 E12.52273
G1 X136.022 Y101.882 E12.55581
G1 X136.486 Y102.658 E12.58889
G1 X136.879 Y103.472 E12.62196
G1 X137.199 Y104.317 E12.65502
G1 X137.444 Y105.188 E12.68812
G1 X137.61 Y106.076 E12.72117
G1 X137.707 Y107.223 E12.76329
G1 X137.72 Y107.83 E12.7855
G1 X137.719 Y126.891 E13.48287
G1 X137.71 Y127.618 E13.50947
G1 X137.659 Y128.52 E13.54252
G1 X137.528 Y129.415 E13.57562
G1 X137.319 Y130.294 E13.60867
G1 X137.033 Y131.151 E13.64173
G1 X136.672 Y131.98 E13.67481
G1 X136.24 Y132.774 E13.70788
G1 X135.738 Y133.527 E13.74099
G1 X135.173 Y134.232 E13.77404
G1 X134.547 Y134.884 E13.80711
G1 X133.866 Y135.479 E13.8402
G1 X133.135 Y136.011 E13.87328
G1 X132.361 Y136.476 E13.90631
G1 X131.547 Y136.871 E13.93941
G1 X130.703 Y137.193 E13.97246
G1 X129.833 Y137.439 E14.00554
G1 X128.945 Y137.607 E14.03861
G1 X127.777 Y137.707 E14.08149
G1 X127.17 Y137.72 E14.10371
G1 X108.075 Y137.719 E14.80232
G1 X107.377 Y137.71 E14.82786
G1 X106.475 Y137.659 E14.86091
G1 X105.58 Y137.527 E14.89401
G1 X104.701 Y137.318 E14.92707
G1 X103.844 Y137.031 E14.96013
G1 X103.015 Y136.67 E14.99321
G1 X102.221 Y136.237 E15.0263
G1 X101.469 Y135.735 E15.05938
G1 X100.764 Y135.169 E15.09246
G1 X100.112 Y134.543 E15.12553
G1 X99.518 Y133.862 E15.15859
G1 X98.986 Y133.131 E15.19167
G1 X98.521 Y132.356 E15.22473
G1 X98.126 Y131.543 E15.2578
G1 X97.805 Y130.698 E15.29087
G1 X97.56 Y129.828 E15.32394
G1 X97.392 Y128.939 E15.35704
G1 X97.293 Y127.767 E15.40007
G1 X97.28 Y127.158 E15.42236
G1 X97.281 Y108.036 E16.12196
G1 F2700 E11.12196
;MESH:xyzCalibration_cube.stl
G0 F2100 X106.835 Y108.036
G0 X107.93 Y108.036
G0 X108.08 Y126.92
G1 F2700 E16.12196
G0 F2100 X107.72 Y127.28
;TYPE:WALL-OUTER
G1 F1200 X127.28 Y127.28 E16.83759
G1 X127.28 Y107.72 E17.55321
G1 X107.72 Y107.72 E18.26884
G1 X107.72 Y127.28 E18.98446
G0 F2100 X108.16 Y126.84
;TYPE:WALL-INNER
G1 F1200 X126.84 Y126.84 E19.66789
G1 X126.84 Y108.16 E20.35132
G1 X108.16 Y108.16 E21.03475
G1 X108.16 Y126.84 E21.71818
G0 F2100 X108.56 Y126.44
M104 S205
;TYPE:SKIN
G1 F1200 X108.56 Y110.16 E22.3138
G1 X109 Y110.16 E22.3299
G1 X109.44 Y110.16 E22.346
G1 X109.44 Y109.44 E22.37234
G1 X125.56 Y109.44 E22.96211
G1 X125.56 Y125.56 E23.55188
G1 X109.44 Y125.56 E24.14164
G1 X109.44 Y111.04 E24.67287
G1 X109.88 Y111.04 E24.68897
G1 X110.32 Y111.04 E24.70507
G1 X110.32 Y110.32 E24.73141
G1 X124.68 Y110.32 E25.25679
G1 X124.68 Y124.68 E25.78217
G1 X110.32 Y124.68 E26.30754
G1 X110.32 Y111.92 E26.77438
G1 X110.76 Y111.92 E26.79048
G1 X111.2 Y111.92 E26.80658
G1 X111.2 Y111.2 E26.83292
G1 X123.8 Y111.2 E27.29391
G1 X123.8 Y123.8 E27.75489
G1 X111.2 Y123.8 E28.21588
G1 X111.2 Y112.8 E28.61833
G1 X111.64 Y112.8 E28.63442
G1 X112.08 Y112.8 E28.65052
G1 X112.08 Y112.08 E28.67686
G1 X122.92 Y112.08 E29.07346
G1 X122.92 Y122.92 E29.47005
G1 X112.08 Y122.92 E29.86664
G1 X112.08 Y113.68 E30.2047
G1 X112.52 Y113.68 E30.2208
G1 X112.96 Y113.68 E30.2369
G1 X112.96 Y112.96 E30.26324
G1 X122.04 Y112.96 E30.59544
G1 X122.04 Y122.04 E30.92764
G1 X112.96 Y122.04 E31.25984
G1 X112.96 Y114.56 E31.53351
G1 X113.4 Y114.56 E31.54961
G1 X113.84 Y114.56 E31.56571
G1 X113.84 Y113.84 E31.59205
G1 X121.16 Y113.84 E31.85986
G1 X121.16 Y121.16 E32.12767
G1 X113.84 Y121.16 E32.39548
G1 X113.84 Y115.44 E32.60475
G1 X114.28 Y115.44 E32.62085
G1 X114.72 Y115.44 E32.63695
G1 X114.72 Y114.72 E32.66329
G1 X120.28 Y114.72 E32.86671
G1 X120.28 Y120.28 E33.07013
G1 X114.72 Y120.28 E33.27355
G1 X114.72 Y116.32 E33.41843
G1 X115.16 Y116.32 E33.43453
G1 X115.6 Y116.32 E33.45062
G1 X115.6 Y115.6 E33.47697
G1 X119.4 Y115.6 E33.61599
G1 X119.4 Y119.4 E33.75502
G1 X115.6 Y119.4 E33.89405
G1 X115.6 Y117.2 E33.97454
G1 X116.04 Y117.2 E33.99064
G1 X116.48 Y117.2 E34.00673
G1 X116.48 Y116.48 E34.03308
G1 X118.52 Y116.48 E34.10771
G1 X118.52 Y118.52 E34.18235
G1 X116.48 Y118.52 E34.25698
G1 X116.48 Y118.08 E34.27308
G1 X116.92 Y118.08 E34.28918
G1 X118.08 Y118.08 E34.33162
G1 X118.08 Y116.92 E34.37406
G1 X116.92 Y116.92 E34.4165
G1 X116.92 Y117.64 E34.44284
G1 X116.48 Y117.64 E34.45894
G1 X116.04 Y117.64 E34.47504
G1 X116.04 Y118.96 E34.52333
G1 X118.96 Y118.96 E34.63016
G1 X118.96 Y116.04 E34.73699
G1 X116.04 Y116.04 E34.84382
G1 X116.04 Y116.76 E34.87017
G1 X115.6 Y116.76 E34.88626
G1 X115.16 Y116.76 E34.90236
G1 X115.16 Y119.84 E35.01505
G1 X119.84 Y119.84 E35.18627
G1 X119.84 Y115.16 E35.35749
G1 X115.16 Y115.16 E35.52872
G1 X115.16 Y115.88 E35.55506
G1 X114.72 Y115.88 E35.57116
G1 X114.28 Y115.88 E35.58725
G1 X114.28 Y120.72 E35.76433
G1 X120.72 Y120.72 E35.99995
G1 X120.72 Y114.28 E36.23556
G1 X114.28 Y114.28 E36.47118
G1 X114.28 Y115 E36.49752
G1 X113.84 Y115 E36.51362
G1 X113.4 Y115 E36.52971
G1 X113.4 Y121.6 E36.77118
G1 X121.6 Y121.6 E37.07119
G1 X121.6 Y113.4 E37.3712
G1 X113.4 Y113.4 E37.6712
G1 X113.4 Y114.12 E37.69754
G1 X112.96 Y114.12 E37.71364
G1 X112.52 Y114.12 E37.72974
G1 X112.52 Y122.48 E38.0356
G1 X122.48 Y122.48 E38.4
G1 X122.48 Y112.52 E38.7644
G1 X112.52 Y112.52 E39.12879
G1 X112.52 Y113.24 E39.15514
G1 X112.08 Y113.24 E39.17123
G1 X111.64 Y113.24 E39.18733
G1 X111.64 Y123.36 E39.55758
G1 X123.36 Y123.36 E39.98637
G1 X123.36 Y111.64 E40.41516
G1 X111.64 Y111.64 E40.84395
G1 X111.64 Y112.36 E40.87029
G1 X111.2 Y112.36 E40.88639
G1 X110.76 Y112.36 E40.90249
G1 X110.76 Y124.24 E41.33713
G1 X124.24 Y124.24 E41.83031
G1 X124.24 Y110.76 E42.3235
G1 X110.76 Y110.76 E42.81668
G1 X110.76 Y111.48 E42.84302
G1 X110.32 Y111.48 E42.85912
G1 X109.88 Y111.48 E42.87522
G1 X109.88 Y125.12 E43.37425
G1 X125.12 Y125.12 E43.93182
G1 X125.12 Y109.88 E44.4894
G1 X109.88 Y109.88 E45.04697
G1 X109.88 Y110.6 E45.07331
G1 X109.44 Y110.6 E45.08941
G1 X109 Y110.6 E45.10551
G1 X109 Y126 E45.66893
G1 X126 Y126 E46.2909
G1 X126 Y109 E46.91286
G1 X109 Y109 E47.53483
G1 X109 Y109.72 E47.56117
G1 X108.56 Y109.72 E47.57727
G1 X108.56 Y108.56 E47.61971
G1 X126.44 Y108.56 E48.27387
G1 X126.44 Y126.44 E48.92803
G1 X108.56 Y126.44 E49.58219
G1 F2700 E44.58219
G0 F2100 X108.28 Y126.44
G0 X117.616 Y126.62
G0 X117.59 Y117.5
G1 F2700 E49.58219
G1 F733.3 X117.544 Y117.577 E49.58756
G1 X117.455 Y117.577 E49.59289
G1 X117.41 Y117.5 E49.59823
G1 X117.456 Y117.423 E49.6036
G1 X117.544 Y117.423 E49.60886
G1 F2700 E44.60886
;MESH:NONMESH
G0 F300 X117.544 Y117.423 Z0.4
G0 F2100 X108.38 Y117.423
G0 X108.08 Y126.92
G1 F2700 E49.60886
G0 F2100 X107.7 Y127.3
;TIME_ELAPSED:80.391037
;LAYER:1
;TYPE:WALL-OUTER
;MESH:xyzCalibration_cube.stl
G1 F1350 X127.3 Y127.3 E50.26076
G1 X127.3 Y107.7 E50.91266
G1 X107.7 Y107.7 E51.56456
G1 X107.7 Y127.3 E52.21646
G0 F5550 X108.1 Y126.9
;TYPE:WALL-INNER
G1 F1350 X126.9 Y126.9 E52.84175
G1 X126.9 Y108.1 E53.46704
G1 X108.1 Y108.1 E54.09233
G1 X108.1 Y126.9 E54.71762
G0 F5550 X108.46 Y126.54
;TYPE:SKIN
G1 F1350 X126.54 Y126.54 E55.31896
G1 X126.54 Y108.46 E55.92031
G1 X108.46 Y108.46 E56.52165
G1 X108.46 Y126.54 E57.12299
G0 F5550 X108.2 Y126.54
G0 X108.2 Y109.128
G0 X108.66 Y109.128
G1 F1350 X109.129 Y108.659 E57.14505
G0 F5550 X109.694 Y108.659
G1 F1350 X108.66 Y109.694 E57.19371
G0 F5550 X108.66 Y110.259
G1 F1350 X110.26 Y108.659 E57.26897
G0 F5550 X110.826 Y108.659
G1 F1350 X108.66 Y110.825 E57.37085
G0 F5550 X108.66 Y111.391
G1 F1350 X111.391 Y108.659 E57.49934
G0 F5550 X111.957 Y108.659
G1 F1350 X108.66 Y111.956 E57.65442
G0 F5550 X108.66 Y112.522
G1 F1350 X112.523 Y108.659 E57.83612
G0 F5550 X113.089 Y108.659
G1 F1350 X108.66 Y113.088 E58.04445
G0 F5550 X108.66 Y113.653
G1 F1350 X113.654 Y108.659 E58.27935
G0 F5550 X114.22 Y108.659
G1 F1350 X108.66 Y114.219 E58.54087
G0 F5550 X108.66 Y114.785
G1 F1350 X114.786 Y108.659 E58.82902
G0 F5550 X115.351 Y108.659
G1 F1350 X108.66 Y115.351 E59.14377
G0 F5550 X108.66 Y115.916
G1 F1350 X115.917 Y108.659 E59.48512
G0 F5550 X116.483 Y108.659
G1 F1350 X108.66 Y116.482 E59.85309
G0 F5550 X108.66 Y117.048
G1 F1350 X117.048 Y108.659 E60.24766
G0 F5550 X117.614 Y108.659
G1 F1350 X108.66 Y117.613 E60.66883
G0 F5550 X108.66 Y118.179
G1 F1350 X118.18 Y108.659 E61.11662
G0 F5550 X118.745 Y108.659
G1 F1350 X108.66 Y118.745 E61.59101
G0 F5550 X108.66 Y119.31
G1 F1350 X119.311 Y108.659 E62.092
G0 F5550 X119.877 Y108.659
G1 F1350 X108.66 Y119.876 E62.61961
G0 F5550 X108.66 Y120.442
G1 F1350 X120.442 Y108.659 E63.17382
G0 F5550 X121.008 Y108.659
G1 F1350 X108.66 Y121.007 E63.75464
G0 F5550 X108.66 Y121.573
G1 F1350 X121.574 Y108.659 E64.36207
G0 F5550 X122.139 Y108.659
G1 F1350 X108.66 Y122.139 E64.99611
G0 F5550 X108.66 Y122.704
G1 F1350 X122.705 Y108.659 E65.65674
G0 F5550 X123.271 Y108.659
G1 F1350 X108.66 Y123.27 E66.344
G0 F5550 X108.66 Y123.836
G1 F1350 X123.837 Y108.659 E67.05788
G0 F5550 X124.402 Y108.659
G1 F1350 X108.66 Y124.402 E67.79835
G0 F5550 X108.66 Y124.967
G1 F1350 X124.968 Y108.659 E68.56543
G0 F5550 X125.534 Y108.659
G1 F1350 X108.66 Y125.533 E69.35913
G0 F5550 X108.66 Y126.099
G1 F1350 X126.099 Y108.659 E70.17944
G0 F5550 X126.339 Y108.985
G1 F1350 X108.985 Y126.339 E70.99571
G0 F5550 X109.551 Y126.339
G1 F1350 X126.339 Y109.551 E71.78537
G0 F5550 X126.339 Y110.117
G1 F1350 X110.117 Y126.339 E72.5484
