;FLAVOR:Marlin
;TIME:373
;Filament used: 0.236042m
;Layer height: 0.2
;MINX:22.722
;MINY:22.721
;MINZ:0.2
;MAXX:212.985
;MAXY:212.276
;MAXZ:0.2
;Generated with Cura_SteamEngine 5.0.0
M140 S60
M105
M190 S60
M104 S222
M105
M109 S222
M82 ;absolute extrusion mode
; Ender 3 Custom Start G-code
G92 E0 ; Reset Extruder
M140 S60 ; Start heating the heated bed
M190 S60 ; Wait until the heated bed reaches the desired temperature
G28 ; Auto Home
G29 A; Activate Bed Leveling
G29 L0; Loads the saved mesh in slot 0
G29  J3; 9 point autotilt

G92 E0 ; Reset extruder origin
G1 Z2.0 F3000 ; Move Z Axis up little to prevent scratching of Heat Bed
G1 X0.1 Y20 Z0.3 F5000.0 ; Move to start position
G1 X0.1 Y200.0 Z0.3 F1500.0 E15 ; Draw the first line
G1 X0.4 Y200.0 Z0.3 F5000.0 ; Move to side a little
G1 X0.4 Y20 Z0.3 F1500.0 E30 ; Draw the second line
G92 E0 ; Reset Extruder
G1 Z2.0 F3000 ; Move Z Axis up little to prevent scratching of Heat Bed
G1 X5 Y20 Z0.3 F5000.0 ; Move over to prevent blob squish

; End of Ender 3 Custom Start G-code
G92 E0
G92 E0
G1 F2700 E-5
;LAYER_COUNT:1
;LAYER:0
M107
;MESH:TEST Full Bed Level Print.stl 6
G0 F2100 X35.801 Y41.706 Z0.2
;TYPE:WALL-OUTER
G1 F2700 E0
G1 F1200 X36.412 Y41.463 E0.02406
G1 X36.859 Y41.252 E0.04214
G1 X37.296 Y41.022 E0.06021
G1 X37.718 Y40.77 E0.07819
G1 X38.128 Y40.498 E0.09619
G1 X38.524 Y40.201 E0.1143
G1 X38.904 Y39.889 E0.13229
G1 X39.267 Y39.558 E0.15026
G1 X39.616 Y39.208 E0.16835
G1 X39.943 Y38.841 E0.18633
G1 X40.254 Y38.457 E0.20441
G1 X40.545 Y38.06 E0.22242
G1 X40.816 Y37.648 E0.24046
G1 X41.062 Y37.223 E0.25843
G1 X41.291 Y36.785 E0.27651
G1 X41.495 Y36.337 E0.29452
G1 X41.685 Y35.865 E0.31314
G1 X41.834 Y35.412 E0.33058
G1 X41.97 Y34.936 E0.34869
G1 X42.081 Y34.457 E0.36668
G1 X42.169 Y33.971 E0.38475
G1 X42.23 Y33.483 E0.40275
G1 X42.268 Y32.992 E0.42076
G1 X42.278 Y32.499 E0.4388
G1 X42.268 Y32.006 E0.45685
G1 X42.229 Y31.516 E0.47483
G1 X42.169 Y31.026 E0.49289
G1 X42.079 Y30.542 E0.5109
G1 X41.97 Y30.061 E0.52895
G1 X41.836 Y29.589 E0.5469
G1 X41.678 Y29.122 E0.56493
G1 X41.494 Y28.664 E0.58299
G1 X41.291 Y28.217 E0.60095
G1 X41.062 Y27.778 E0.61907
G1 X40.819 Y27.358 E0.63682
G1 X40.543 Y26.94 E0.65515
G1 X40.254 Y26.539 E0.67323
G1 X39.944 Y26.158 E0.6912
G1 X39.616 Y25.791 E0.70921
G1 X39.268 Y25.442 E0.72724
G1 X38.903 Y25.107 E0.74537
G1 X38.523 Y24.798 E0.76329
G1 X38.128 Y24.502 E0.78135
G1 X37.717 Y24.229 E0.7994
G1 X37.295 Y23.978 E0.81736
G1 X36.857 Y23.747 E0.83548
G1 X36.411 Y23.537 E0.85351
G1 X35.955 Y23.351 E0.87153
G1 X35.478 Y23.183 E0.89003
G1 X35.018 Y23.052 E0.90753
G1 X34.537 Y22.936 E0.92564
G1 X34.056 Y22.846 E0.94354
G1 X33.567 Y22.779 E0.9616
G1 X33.075 Y22.739 E0.97966
G1 X32.583 Y22.721 E0.99767
G1 X32.092 Y22.73 E1.01564
G1 X31.599 Y22.763 E1.03371
G1 X31.11 Y22.821 E1.05173
G1 X30.624 Y22.902 E1.06975
G1 X30.155 Y23.009 E1.08735
G1 X29.667 Y23.139 E1.10583
G1 X29.194 Y23.297 E1.12408
G1 X28.74 Y23.473 E1.14189
G1 X28.29 Y23.675 E1.15994
G1 X27.849 Y23.898 E1.17802
G1 X27.421 Y24.145 E1.1961
G1 X27.007 Y24.409 E1.21406
G1 X26.606 Y24.698 E1.23215
G1 X26.221 Y25.002 E1.25009
G1 X25.852 Y25.33 E1.26816
G1 X25.499 Y25.672 E1.28614
G1 X25.162 Y26.037 E1.30431
G1 X24.848 Y26.412 E1.32221
G1 X24.551 Y26.809 E1.34035
G1 X24.272 Y27.214 E1.35834
G1 X24.018 Y27.636 E1.37636
G1 X23.784 Y28.068 E1.39433
G1 X23.572 Y28.514 E1.4124
G1 X23.381 Y28.968 E1.43042
G1 X23.211 Y29.446 E1.44898
G1 X23.074 Y29.902 E1.4664
G1 X22.955 Y30.384 E1.48457
G1 X22.859 Y30.863 E1.50244
G1 X22.77 Y31.517 E1.52659
G1 X22.734 Y32.007 E1.54456
G1 X22.722 Y32.5 E1.56261
G1 X22.728 Y32.754 E1.5719
G1 X22.75 Y33.203 E1.58835
G1 X22.77 Y33.482 E1.59858
G1 X22.834 Y33.972 E1.61666
G1 X22.92 Y34.456 E1.63465
G1 X23.033 Y34.938 E1.65276
G1 X23.162 Y35.398 E1.67024
G1 X23.325 Y35.879 E1.68882
G1 X23.506 Y36.335 E1.70677
G1 X23.785 Y36.932 E1.73088
G1 X24.019 Y37.364 E1.74885
G1 X24.273 Y37.786 E1.76687
G1 X24.646 Y38.327 E1.79092
G1 X24.951 Y38.715 E1.80897
G1 X25.274 Y39.087 E1.827
G1 X25.617 Y39.443 E1.84508
G1 X25.973 Y39.78 E1.86302
G1 X26.351 Y40.1 E1.88114
G1 X26.74 Y40.402 E1.89915
G1 X27.146 Y40.681 E1.91718
G1 X27.563 Y40.941 E1.93516
G1 X27.996 Y41.179 E1.95323
G1 X28.44 Y41.395 E1.9713
G1 X28.893 Y41.588 E1.98931
G1 X29.368 Y41.765 E2.00786
G1 X29.825 Y41.904 E2.02534
G1 X30.303 Y42.028 E2.0434
G1 X30.785 Y42.127 E2.06141
G1 X31.274 Y42.202 E2.0795
G1 X31.764 Y42.25 E2.09752
G1 X32.257 Y42.276 E2.11558
G1 X32.746 Y42.275 E2.13347
G1 X33.237 Y42.251 E2.15146
G1 X33.729 Y42.2 E2.16955
G1 X34.214 Y42.128 E2.18749
G1 X34.859 Y41.99 E2.21162
G1 X35.32 Y41.862 E2.22913
G1 X35.801 Y41.706 E2.24763
G0 F2100 X35.651 Y41.292
;TYPE:WALL-INNER
G1 F1200 X36.236 Y41.059 E2.27067
G1 X36.663 Y40.858 E2.28793
G1 X37.081 Y40.638 E2.30521
G1 X37.483 Y40.398 E2.32234
G1 X37.874 Y40.138 E2.33952
G1 X38.252 Y39.855 E2.3568
G1 X38.616 Y39.556 E2.37403
G1 X38.963 Y39.24 E2.3912
G1 X39.296 Y38.906 E2.40846
G1 X39.607 Y38.556 E2.42559
G1 X39.906 Y38.188 E2.44294
G1 X40.183 Y37.809 E2.46011
G1 X40.442 Y37.416 E2.47733
G1 X40.676 Y37.011 E2.49444
G1 X40.895 Y36.591 E2.51177
G1 X41.091 Y36.163 E2.529
G1 X41.271 Y35.714 E2.5467
G1 X41.414 Y35.282 E2.56334
G1 X41.544 Y34.826 E2.58069
G1 X41.65 Y34.368 E2.59789
G1 X41.734 Y33.905 E2.61511
G1 X41.792 Y33.439 E2.63229
G1 X41.828 Y32.97 E2.6495
G1 X41.838 Y32.499 E2.66673
G1 X41.828 Y32.028 E2.68397
G1 X41.791 Y31.56 E2.70115
G1 X41.734 Y31.093 E2.71836
G1 X41.648 Y30.631 E2.73555
G1 X41.544 Y30.169 E2.75288
G1 X41.416 Y29.72 E2.76996
G1 X41.265 Y29.275 E2.78715
G1 X41.09 Y28.837 E2.80441
G1 X40.895 Y28.41 E2.82158
G1 X40.676 Y27.99 E2.83891
G1 X40.445 Y27.589 E2.85584
G1 X40.181 Y27.19 E2.87335
G1 X39.905 Y26.807 E2.89062
G1 X39.609 Y26.443 E2.90778
G1 X39.296 Y26.093 E2.92496
G1 X38.964 Y25.76 E2.94217
G1 X38.615 Y25.44 E2.95949
G1 X38.252 Y25.145 E2.9766
G1 X37.874 Y24.862 E2.99388
G1 X37.482 Y24.601 E3.01111
G1 X37.08 Y24.362 E3.02822
G1 X36.661 Y24.141 E3.04555
G1 X36.234 Y23.94 E3.06282
G1 X35.799 Y23.763 E3.08
G1 X35.344 Y23.603 E3.09764
G1 X34.906 Y23.478 E3.11431
G1 X34.445 Y23.366 E3.13167
G1 X33.986 Y23.28 E3.14875
G1 X33.519 Y23.217 E3.16599
G1 X33.049 Y23.179 E3.18324
G1 X32.579 Y23.161 E3.20045
G1 X32.111 Y23.17 E3.21758
G1 X31.639 Y23.201 E3.23488
G1 X31.172 Y23.257 E3.25209
G1 X30.709 Y23.334 E3.26926
G1 X30.261 Y23.436 E3.28607
G1 X29.793 Y23.561 E3.3038
G1 X29.343 Y23.711 E3.32115
G1 X28.91 Y23.879 E3.33814
G1 X28.48 Y24.072 E3.35539
G1 X28.058 Y24.285 E3.37268
G1 X27.649 Y24.521 E3.38996
G1 X27.255 Y24.773 E3.40707
G1 X26.871 Y25.049 E3.42437
G1 X26.504 Y25.34 E3.44151
G1 X26.152 Y25.652 E3.45871
G1 X25.814 Y25.98 E3.47595
G1 X25.492 Y26.328 E3.49329
G1 X25.193 Y26.685 E3.51033
G1 X24.909 Y27.065 E3.52769
G1 X24.642 Y27.453 E3.54492
G1 X24.4 Y27.854 E3.56205
G1 X24.176 Y28.267 E3.57924
G1 X23.974 Y28.694 E3.59652
G1 X23.791 Y29.128 E3.61376
G1 X23.629 Y29.583 E3.63143
G1 X23.498 Y30.018 E3.64805
G1 X23.385 Y30.48 E3.66545
G1 X23.293 Y30.936 E3.68247
G1 X23.208 Y31.563 E3.70562
G1 X23.174 Y32.029 E3.72271
G1 X23.162 Y32.5 E3.73995
G1 X23.168 Y32.742 E3.74881
G1 X23.189 Y33.171 E3.76452
G1 X23.208 Y33.438 E3.77431
G1 X23.269 Y33.905 E3.79155
G1 X23.351 Y34.368 E3.80875
G1 X23.459 Y34.828 E3.82604
G1 X23.582 Y35.268 E3.84275
G1 X23.738 Y35.727 E3.86049
G1 X23.91 Y36.161 E3.87757
G1 X24.046 Y36.454 E3.88939
G1 X24.178 Y36.734 E3.90071
G1 X24.401 Y37.146 E3.91785
G1 X24.643 Y37.547 E3.93499
G1 X25 Y38.066 E3.95803
G1 X25.29 Y38.435 E3.9752
G1 X25.599 Y38.79 E3.99242
G1 X25.927 Y39.131 E4.00973
G1 X26.267 Y39.452 E4.02684
G1 X26.628 Y39.758 E4.04415
G1 X27 Y40.047 E4.06139
G1 X27.387 Y40.313 E4.07857
G1 X27.785 Y40.561 E4.09573
G1 X28.198 Y40.788 E4.11297
G1 X28.622 Y40.995 E4.13023
G1 X29.056 Y41.179 E4.14748
G1 X29.509 Y41.348 E4.16517
G1 X29.944 Y41.48 E4.1818
G1 X30.403 Y41.599 E4.19915
G1 X30.863 Y41.694 E4.21633
G1 X31.329 Y41.765 E4.23358
G1 X31.797 Y41.811 E4.25078
G1 X32.268 Y41.836 E4.26804
G1 X32.734 Y41.835 E4.28509
G1 X33.204 Y41.812 E4.3023
G1 X33.674 Y41.764 E4.31959
G1 X34.136 Y41.695 E4.33668
G1 X34.754 Y41.562 E4.35981
G1 X35.194 Y41.44 E4.37651
G1 X35.651 Y41.292 E4.39409
G0 F2100 X35.517 Y40.916
;TYPE:SKIN
G1 F1200 X34.893 Y41.109 E4.41798
G1 X34.316 Y41.247 E4.43969
G1 X34.064 Y41.3 E4.44911
G1 X33.622 Y41.366 E4.46546
G1 X33.172 Y41.413 E4.48201
G1 X32.725 Y41.435 E4.49839
G1 X32.279 Y41.436 E4.51471
G1 X31.828 Y41.412 E4.53123
G1 X31.379 Y41.368 E4.54774
G1 X30.935 Y41.299 E4.56417
G1 X30.495 Y41.208 E4.58061
G1 X30.053 Y41.093 E4.59732
G1 X29.65 Y40.974 E4.6127
G1 X29.205 Y40.808 E4.63007
G1 X28.79 Y40.629 E4.64661
G1 X28.382 Y40.432 E4.66318
G1 X27.987 Y40.215 E4.67967
G1 X27.607 Y39.977 E4.69608
G1 X27.238 Y39.723 E4.71247
G1 X26.738 Y39.328 E4.73578
G1 X26.534 Y39.154 E4.74559
G1 X26.211 Y38.847 E4.76189
G1 X25.895 Y38.518 E4.77858
G1 X25.598 Y38.178 E4.7951
G1 X25.324 Y37.827 E4.81139
G1 X24.978 Y37.33 E4.83355
G1 X24.748 Y36.946 E4.84992
G1 X24.536 Y36.553 E4.86626
G1 X24.278 Y36.002 E4.88852
G1 X24.113 Y35.588 E4.90482
G1 X23.965 Y35.15 E4.92174
G1 X23.848 Y34.729 E4.93773
G1 X23.744 Y34.285 E4.95441
G1 X23.665 Y33.843 E4.97084
G1 X23.607 Y33.397 E4.98729
G1 X23.575 Y32.951 E5.00365
G1 X23.563 Y32.499 E5.02019
G1 X23.574 Y32.049 E5.03666
G1 X23.606 Y31.606 E5.05291
G1 X23.689 Y31.002 E5.07522
G1 X23.776 Y30.568 E5.09141
G1 X23.886 Y30.125 E5.10811
G1 X24.011 Y29.706 E5.12411
G1 X24.158 Y29.287 E5.14036
G1 X24.339 Y28.857 E5.15742
G1 X24.534 Y28.447 E5.17404
G1 X24.748 Y28.054 E5.19041
G1 X24.977 Y27.671 E5.20673
G1 X25.344 Y27.152 E5.22999
G1 X25.509 Y26.933 E5.24002
G1 X25.791 Y26.596 E5.2561
G1 X26.1 Y26.259 E5.27283
G1 X26.423 Y25.947 E5.28926
G1 X26.761 Y25.645 E5.30584
G1 X27.111 Y25.37 E5.32212
G1 X27.479 Y25.105 E5.33872
G1 X27.863 Y24.86 E5.35538
G1 X28.25 Y24.639 E5.37169
G1 X28.653 Y24.434 E5.38823
G1 X29.067 Y24.248 E5.40483
G1 X29.465 Y24.093 E5.42046
G1 X29.623 Y24.501 E5.43647
G1 X29.239 Y24.654 E5.45159
G1 X28.844 Y24.832 E5.46744
G1 X28.459 Y25.028 E5.48325
G1 X28.09 Y25.238 E5.49878
G1 X27.728 Y25.469 E5.51449
G1 X27.042 Y25.984 E5.54587
G1 X26.722 Y26.27 E5.56158
G1 X26.416 Y26.566 E5.57715
G1 X26.122 Y26.887 E5.59308
G1 X25.856 Y27.204 E5.60822
G1 X25.346 Y27.911 E5.64011
G1 X24.926 Y28.649 E5.67118
G1 X24.741 Y29.037 E5.68691
G1 X24.562 Y29.459 E5.70368
G1 X24.43 Y29.842 E5.7185
G1 X24.312 Y30.241 E5.73372
G1 X24.206 Y30.665 E5.74971
G1 X24.124 Y31.076 E5.76504
G1 X24.044 Y31.652 E5.78632
G1 X24.014 Y32.072 E5.80173
G1 X24.004 Y32.499 E5.81735
G1 X24.008 Y32.714 E5.82522
G1 X24.018 Y32.908 E5.83233
G1 X24.454 Y32.865 E5.84836
G1 X24.455 Y32.91 E5.85
G1 X24.445 Y32.498 E5.86508
G1 X24.454 Y32.095 E5.87983
G1 X24.482 Y31.698 E5.89439
G1 X24.558 Y31.15 E5.91463
G1 X24.637 Y30.761 E5.92915
G1 X24.737 Y30.359 E5.94431
G1 X24.968 Y29.629 E5.97232
G1 X25.143 Y29.217 E5.9887
G1 X25.317 Y28.853 E6.00346
G1 X25.716 Y28.15 E6.03303
G1 X26.205 Y27.473 E6.06359
G1 X26.452 Y27.177 E6.07769
G1 X26.731 Y26.874 E6.09276
G1 X27.12 Y26.505 E6.11238
G1 X27.322 Y26.324 E6.1223
G1 X27.978 Y25.832 E6.1523
G1 X28.456 Y25.536 E6.17287
G1 X28.867 Y25.314 E6.18996
G1 X29.208 Y25.152 E6.20377
G1 X29.769 Y24.915 E6.22606
G1 X30.163 Y24.787 E6.24121
G1 X30.991 Y24.587 E6.27238
G1 X31.358 Y24.525 E6.28599
G1 X31.765 Y24.478 E6.30098
G1 X32.168 Y24.45 E6.31576
G1 X32.566 Y24.444 E6.33033
G1 X32.974 Y24.458 E6.34526
G1 X33.378 Y24.491 E6.36009
G1 X33.784 Y24.546 E6.37508
G1 X34.162 Y24.619 E6.38917
G1 X34.955 Y24.826 E6.41915
G1 X35.315 Y24.948 E6.43306
G1 X35.72 Y25.115 E6.44909
G1 X36.088 Y25.287 E6.46395
G1 X36.454 Y25.482 E6.47912
G1 X36.802 Y25.689 E6.49393
G1 X37.13 Y25.908 E6.50836
G1 X37.784 Y26.415 E6.53864
G1 X38.08 Y26.686 E6.55332
G1 X38.362 Y26.969 E6.56794
G1 X38.632 Y27.272 E6.58279
G1 X38.888 Y27.592 E6.59778
G1 X39.126 Y27.918 E6.61255
G1 X39.347 Y28.256 E6.62732
G1 X39.64 Y28.78 E6.64929
G1 X39.835 Y29.172 E6.6653
G1 X40.066 Y29.718 E6.68699
G1 X40.207 Y30.163 E6.70407
G1 X40.3 Y30.495 E6.71669
G1 X40.467 Y31.289 E6.74637
G1 X40.537 Y31.948 E6.77062
G1 X40.553 Y32.343 E6.78508
G1 X40.548 Y32.91 E6.80583
G1 X40.518 Y33.309 E6.82047
G1 X40.466 Y33.712 E6.83533
G1 X40.394 Y34.104 E6.84991
G1 X40.254 Y34.669 E6.87121
G1 X40.076 Y35.259 E6.89376
G1 X39.745 Y36.026 E6.92432
G1 X39.462 Y36.551 E6.94614
G1 X39.231 Y36.925 E6.96222
G1 X39.022 Y37.224 E6.97557
G1 X38.742 Y37.582 E6.9922
G1 X38.358 Y38.028 E7.01373
G1 X38.073 Y38.312 E7.02845
G1 X37.771 Y38.589 E7.04344
G1 X37.459 Y38.85 E7.05833
G1 X37.136 Y39.09 E7.07305
G1 X36.796 Y39.316 E7.08799
G1 X36.457 Y39.518 E7.10242
G1 X35.929 Y39.787 E7.1241
G1 X35.205 Y40.089 E7.1528
G1 X34.662 Y40.256 E7.17359
G1 X33.897 Y40.433 E7.20232
G1 X33.356 Y40.508 E7.2223
G1 X33.1 Y40.535 E7.23172
G1 X32.697 Y40.555 E7.24648
G1 X32.301 Y40.555 E7.26097
G1 X31.895 Y40.534 E7.27584
G1 X31.492 Y40.494 E7.29066
G1 X31.093 Y40.431 E7.30544
G1 X30.701 Y40.35 E7.32008
G1 X29.921 Y40.134 E7.34969
G1 X29.536 Y39.99 E7.36473
G1 X28.99 Y39.748 E7.38658
G1 X28.615 Y39.554 E7.40203
G1 X28.253 Y39.342 E7.41738
G1 X27.761 Y39.012 E7.43905
G1 X27.224 Y38.584 E7.46417
G1 X26.934 Y38.315 E7.47865
G1 X26.686 Y38.07 E7.4914
G1 X26.359 Y37.702 E7.50941
G1 X26.157 Y37.464 E7.52083
G1 X25.715 Y36.845 E7.54866
G1 X25.512 Y36.508 E7.56305
G1 X25.324 Y36.157 E7.57762
G1 X25.167 Y35.822 E7.59116
G1 X25.014 Y35.471 E7.60517
G1 X24.943 Y35.276 E7.61276
G1 X25.35 Y35.128 E7.6286
G1 X25.49 Y35.472 E7.64219
G1 X25.718 Y35.959 E7.66186
G1 X25.894 Y36.289 E7.67555
G1 X26.083 Y36.602 E7.68892
G1 X26.503 Y37.192 E7.71542
G1 X27.006 Y37.764 E7.74329
G1 X27.516 Y38.252 E7.76911
G1 X28.021 Y38.656 E7.79277
G1 X28.485 Y38.968 E7.81323
G1 X28.827 Y39.167 E7.82771
G1 X29.181 Y39.351 E7.8423
G1 X29.703 Y39.582 E7.86319
G1 X30.055 Y39.714 E7.87694
G1 X30.804 Y39.921 E7.90537
G1 X31.173 Y39.998 E7.91916
G1 X31.548 Y40.057 E7.93305
G1 X31.928 Y40.095 E7.94703
G1 X32.312 Y40.115 E7.96109
G1 X32.683 Y40.115 E7.97467
G1 X33.216 Y40.08 E7.99421
G1 X33.815 Y39.999 E8.01632
G1 X34.547 Y39.829 E8.04382
G1 X35.041 Y39.678 E8.06272
G1 X35.745 Y39.387 E8.09059
G1 X36.243 Y39.133 E8.11104
G1 X36.559 Y38.944 E8.12451
G1 X36.881 Y38.73 E8.13866
G1 X37.185 Y38.504 E8.15252
G1 X37.662 Y38.091 E8.1756
G1 X38.036 Y37.726 E8.19472
G1 X38.4 Y37.302 E8.21516
G1 X38.668 Y36.96 E8.23106
G1 X38.863 Y36.682 E8.24348
G1 X39.082 Y36.329 E8.25868
G1 X39.348 Y35.836 E8.27918
G1 X39.668 Y35.093 E8.30877
G1 X39.679 Y35.054 E8.31026
G1 X39.26 Y34.929 E8.32625
G1 X38.951 Y35.646 E8.35482
G1 X38.702 Y36.107 E8.37399
G1 X38.495 Y36.439 E8.3883
G1 X38.315 Y36.695 E8.39975
G1 X37.951 Y37.148 E8.42101
G1 X37.714 Y37.423 E8.4343
G1 X37.362 Y37.766 E8.45228
G1 X36.909 Y38.159 E8.47422
G1 X36.628 Y38.368 E8.48703
G1 X36.026 Y38.749 E8.5131
G1 X35.562 Y38.986 E8.53216
G1 X34.879 Y39.267 E8.55918
G1 X34.433 Y39.402 E8.57623
G1 X33.733 Y39.565 E8.60252
G1 X33.171 Y39.641 E8.62327
G1 X32.825 Y39.665 E8.63596
G1 X32.509 Y39.675 E8.64753
G1 X32.324 Y39.667 E8.6543
G1 X32.342 Y39.235 E8.67012
G1 X32.651 Y39.235 E8.68143
G1 X33.126 Y39.203 E8.69884
G1 X33.651 Y39.131 E8.71823
G1 X34.319 Y38.975 E8.74333
G1 X34.732 Y38.85 E8.75912
G1 X35.377 Y38.585 E8.78463
G1 X35.808 Y38.365 E8.80233
G1 X36.376 Y38.005 E8.82694
G1 X36.633 Y37.814 E8.83865
G1 X37.06 Y37.444 E8.85932
G1 X37.547 Y36.939 E8.88499
G1 X37.963 Y36.428 E8.9091
G1 X38.128 Y36.195 E8.91954
G1 X38.322 Y35.884 E8.93295
G1 X38.554 Y35.455 E8.9508
G1 X38.85 Y34.767 E8.9782
G1 X38.861 Y34.724 E8.97982
G1 X38.44 Y34.608 E8.9958
G1 X38.157 Y35.263 E9.0219
G1 X37.941 Y35.662 E9.0385
G1 X37.761 Y35.951 E9.05096
G1 X37.612 Y36.161 E9.06038
G1 X37.216 Y36.646 E9.08329
G1 X36.755 Y37.125 E9.10761
G1 X36.357 Y37.47 E9.12688
G1 X36.125 Y37.642 E9.13745
G1 X35.59 Y37.981 E9.16062
G1 X35.192 Y38.184 E9.17697
G1 X34.585 Y38.433 E9.20097
G1 X34.205 Y38.548 E9.2155
G1 X33.568 Y38.697 E9.23943
G1 X33.079 Y38.765 E9.25749
G1 X32.633 Y38.794 E9.27384
G1 X32.358 Y38.794 E9.28391
G1 X31.706 Y38.744 E9.30783
G1 X31.416 Y38.699 E9.31857
G1 X30.994 Y38.6 E9.33442
G1 X30.539 Y38.481 E9.35163
