;FLAVOR:Marlin
;TIME:148
;Filament used: 0.0854366m
;Layer height: 0.2
;MINX:25.225
;MINY:25.221
;MINZ:0.2
;MAXX:209.778
;MAXY:209.779
;MAXZ:0.2
;Generated with Cura_SteamEngine 5.0.0
M140 S60
M105
M190 S60
M104 S222
M105
M109 S222
M82 ;absolute extrusion mode
; Ender 3 Custom Start G-code
G92 E0 ; Reset Extruder
M140 S60 ; Start heating the heated bed
M190 S60 ; Wait until the heated bed reaches the desired temperature
G28 ; Auto Home
G29 A; Activate Bed Leveling
G29 L0; Loads the saved mesh in slot 0
G29  J3; 9 point autotilt

G92 E0 ; Reset extruder origin
G1 Z2.0 F3000 ; Move Z Axis up little to prevent scratching of Heat Bed
G1 X0.1 Y20 Z0.3 F5000.0 ; Move to start position
G1 X0.1 Y200.0 Z0.3 F1500.0 E15 ; Draw the first line
G1 X0.4 Y200.0 Z0.3 F5000.0 ; Move to side a little
G1 X0.4 Y20 Z0.3 F1500.0 E30 ; Draw the second line
G92 E0 ; Reset Extruder
G1 Z2.0 F3000 ; Move Z Axis up little to prevent scratching of Heat Bed
G1 X5 Y20 Z0.3 F5000.0 ; Move over to prevent blob squish

; End of Ender 3 Custom Start G-code
G92 E0
G92 E0
G1 F2700 E-5
;LAYER_COUNT:1
;LAYER:0
M107
;MESH:TEST Eco Bed Level Print.stl
G0 F2100 X34.724 Y39.432 Z0.2
;TYPE:WALL-OUTER
G1 F2700 E0
G1 F1200 X35.209 Y39.256 E0.01888
G1 X35.683 Y39.047 E0.03783
G1 X36.141 Y38.803 E0.05682
G1 X36.578 Y38.53 E0.07567
G1 X36.998 Y38.224 E0.09468
G1 X37.294 Y37.978 E0.10876
G1 X37.579 Y37.715 E0.12295
G1 X37.937 Y37.342 E0.14186
G1 X38.186 Y37.045 E0.15604
G1 X38.419 Y36.738 E0.17014
G1 X38.707 Y36.306 E0.18914
G1 X38.898 Y35.97 E0.20328
G1 X39.074 Y35.624 E0.21748
G1 X39.281 Y35.149 E0.23644
G1 X39.416 Y34.772 E0.25109
G1 X39.522 Y34.416 E0.26468
G1 X39.642 Y33.909 E0.28374
G1 X39.724 Y33.402 E0.30253
G1 X39.77 Y32.886 E0.32148
G1 X39.778 Y32.373 E0.34026
G1 X39.751 Y31.855 E0.35923
G1 X39.687 Y31.343 E0.37811
G1 X39.586 Y30.835 E0.39706
G1 X39.452 Y30.338 E0.41589
G1 X39.326 Y29.97 E0.43012
G1 X39.182 Y29.613 E0.44421
G1 X38.96 Y29.143 E0.46322
G1 X38.772 Y28.806 E0.47734
G1 X38.566 Y28.477 E0.49155
G1 X38.267 Y28.056 E0.51044
G1 X38.02 Y27.757 E0.52463
G1 X37.76 Y27.469 E0.53882
G1 X37.484 Y27.196 E0.55302
G1 X37.195 Y26.939 E0.56717
G1 X36.891 Y26.696 E0.58141
G1 X36.579 Y26.47 E0.59551
G1 X36.139 Y26.195 E0.61449
G1 X35.685 Y25.954 E0.6333
G1 X35.214 Y25.746 E0.65213
G1 X34.726 Y25.57 E0.67111
G1 X34.352 Y25.462 E0.68536
G1 X33.976 Y25.372 E0.6995
G1 X33.465 Y25.285 E0.71847
G1 X32.953 Y25.234 E0.73729
G1 X32.439 Y25.221 E0.7561
G1 X31.92 Y25.244 E0.77511
G1 X31.41 Y25.303 E0.79389
G1 X30.899 Y25.4 E0.81292
G1 X30.537 Y25.492 E0.82659
G1 X30.155 Y25.609 E0.8412
G1 X29.671 Y25.793 E0.86015
G1 X29.202 Y26.011 E0.87907
G1 X28.749 Y26.262 E0.89802
G1 X28.318 Y26.544 E0.91686
G1 X28.006 Y26.777 E0.93111
G1 X27.709 Y27.021 E0.94517
G1 X27.331 Y27.375 E0.96412
G1 X26.981 Y27.755 E0.98302
G1 X26.737 Y28.058 E0.99725
G1 X26.507 Y28.369 E1.0114
G1 X26.228 Y28.806 E1.03037
G1 X25.983 Y29.258 E1.04918
G1 X25.769 Y29.731 E1.06818
G1 X25.591 Y30.213 E1.08698
G1 X25.446 Y30.711 E1.10595
G1 X25.335 Y31.216 E1.12487
G1 X25.262 Y31.729 E1.14383
G1 X25.225 Y32.241 E1.16261
G1 X25.225 Y32.759 E1.18156
G1 X25.262 Y33.274 E1.20045
G1 X25.315 Y33.655 E1.21452
G1 X25.386 Y34.036 E1.2287
G1 X25.51 Y34.525 E1.24716
G1 X25.674 Y35.03 E1.26659
G1 X25.87 Y35.504 E1.28535
G1 X26.101 Y35.969 E1.30435
G1 X26.363 Y36.413 E1.32321
G1 X26.657 Y36.84 E1.34218
G1 X26.98 Y37.244 E1.3611
G1 X27.241 Y37.53 E1.37527
G1 X27.515 Y37.802 E1.38939
G1 X27.905 Y38.144 E1.40837
G1 X28.319 Y38.457 E1.42736
G1 X28.641 Y38.671 E1.4415
G1 X28.97 Y38.867 E1.45551
G1 X29.433 Y39.102 E1.47451
G1 X29.923 Y39.31 E1.49399
G1 X30.398 Y39.469 E1.51231
G1 X30.901 Y39.6 E1.53133
G1 X31.28 Y39.676 E1.54547
G1 X31.664 Y39.731 E1.55966
G1 X32.048 Y39.765 E1.57377
G1 X32.436 Y39.779 E1.58797
G1 X32.822 Y39.771 E1.6021
G1 X33.208 Y39.744 E1.61625
G1 X33.722 Y39.676 E1.63522
G1 X34.229 Y39.571 E1.65417
G1 X34.724 Y39.432 E1.67298
G0 F2100 X34.59 Y39.013
;TYPE:WALL-INNER
G1 F1200 X35.045 Y38.848 E1.69068
G1 X35.491 Y38.651 E1.70852
G1 X35.921 Y38.421 E1.72636
G1 X36.332 Y38.165 E1.74408
G1 X36.727 Y37.877 E1.76196
G1 X37.004 Y37.647 E1.77514
G1 X37.271 Y37.401 E1.78842
G1 X37.609 Y37.048 E1.8063
G1 X37.842 Y36.771 E1.81954
G1 X38.06 Y36.483 E1.83276
G1 X38.332 Y36.075 E1.8507
G1 X38.51 Y35.761 E1.8639
G1 X38.676 Y35.436 E1.87725
G1 X38.872 Y34.987 E1.89518
G1 X38.998 Y34.635 E1.90886
G1 X39.096 Y34.303 E1.92152
G1 X39.21 Y33.823 E1.93957
G1 X39.287 Y33.347 E1.95721
G1 X39.33 Y32.863 E1.97499
G1 X39.338 Y32.381 E1.99263
G1 X39.313 Y31.894 E2.01047
G1 X39.253 Y31.413 E2.0282
G1 X39.157 Y30.935 E2.04604
G1 X39.031 Y30.467 E2.06377
G1 X38.914 Y30.124 E2.07703
G1 X38.779 Y29.789 E2.09025
G1 X38.568 Y29.345 E2.10823
G1 X38.393 Y29.03 E2.12141
G1 X38.2 Y28.721 E2.13474
G1 X37.918 Y28.324 E2.15256
G1 X37.687 Y28.045 E2.16581
G1 X37.442 Y27.773 E2.17921
G1 X37.182 Y27.517 E2.19255
G1 X36.911 Y27.275 E2.20585
G1 X36.625 Y27.046 E2.21925
G1 X36.333 Y26.835 E2.23243
G1 X35.919 Y26.576 E2.2503
G1 X35.493 Y26.35 E2.26794
G1 X35.05 Y26.155 E2.28565
G1 X34.59 Y25.989 E2.30354
G1 X34.24 Y25.888 E2.31687
G1 X33.888 Y25.803 E2.33012
G1 X33.406 Y25.721 E2.34801
G1 X32.925 Y25.674 E2.36569
G1 X32.443 Y25.661 E2.38333
G1 X31.955 Y25.683 E2.4012
G1 X31.476 Y25.738 E2.41884
G1 X30.995 Y25.83 E2.43676
G1 X30.655 Y25.916 E2.44959
G1 X30.298 Y26.025 E2.46325
G1 X29.842 Y26.199 E2.4811
G1 X29.402 Y26.403 E2.49885
G1 X28.976 Y26.639 E2.51666
G1 X28.57 Y26.905 E2.53442
G1 X28.278 Y27.123 E2.54775
G1 X27.999 Y27.352 E2.56096
G1 X27.644 Y27.685 E2.57877
G1 X27.314 Y28.043 E2.59658
G1 X27.085 Y28.327 E2.60993
G1 X26.87 Y28.618 E2.62317
G1 X26.607 Y29.03 E2.64105
G1 X26.377 Y29.454 E2.6587
G1 X26.176 Y29.898 E2.67653
G1 X26.009 Y30.351 E2.69419
G1 X25.872 Y30.819 E2.71203
G1 X25.769 Y31.294 E2.72981
G1 X25.7 Y31.776 E2.74763
G1 X25.665 Y32.257 E2.76527
G1 X25.665 Y32.743 E2.78305
G1 X25.7 Y33.228 E2.80084
G1 X25.749 Y33.585 E2.81403
G1 X25.816 Y33.942 E2.82732
G1 X25.933 Y34.403 E2.84472
G1 X26.087 Y34.878 E2.86299
G1 X26.271 Y35.322 E2.88057
G1 X26.488 Y35.759 E2.89842
G1 X26.734 Y36.176 E2.91614
G1 X27.011 Y36.578 E2.934
G1 X27.315 Y36.958 E2.9518
G1 X27.559 Y37.226 E2.96506
G1 X27.815 Y37.48 E2.97825
G1 X28.183 Y37.802 E2.99614
G1 X28.574 Y38.098 E3.01409
G1 X28.875 Y38.299 E3.02733
G1 X29.182 Y38.481 E3.04039
G1 X29.619 Y38.703 E3.05832
G1 X30.079 Y38.898 E3.0766
G1 X30.524 Y39.047 E3.09377
G1 X31 Y39.171 E3.11176
G1 X31.354 Y39.242 E3.12497
G1 X31.715 Y39.294 E3.13832
G1 X32.076 Y39.326 E3.15158
G1 X32.439 Y39.339 E3.16487
G1 X32.802 Y39.331 E3.17815
G1 X33.164 Y39.306 E3.19143
G1 X33.648 Y39.242 E3.20929
G1 X34.125 Y39.143 E3.22711
G1 X34.59 Y39.013 E3.24478
G0 F2100 X34.466 Y38.631
;TYPE:SKIN
G1 F1200 X34.029 Y38.753 E3.26138
G1 X33.578 Y38.846 E3.27822
G1 X33.124 Y38.907 E3.29498
G1 X32.63 Y38.935 E3.31309
G1 X32.257 Y38.931 E3.32673
G1 X31.927 Y38.91 E3.33883
G1 X31.584 Y38.87 E3.35146
G1 X31.264 Y38.815 E3.36334
G1 X30.977 Y38.748 E3.37413
G1 X30.639 Y38.663 E3.38688
G1 X30.22 Y38.524 E3.40303
G1 X29.79 Y38.339 E3.42015
G1 X29.376 Y38.129 E3.43714
G1 X28.952 Y37.869 E3.45534
G1 X28.66 Y37.662 E3.46843
G1 X28.435 Y37.491 E3.47877
G1 X28.089 Y37.187 E3.49562
G1 X27.847 Y36.947 E3.50809
G1 X27.619 Y36.697 E3.52047
G1 X27.331 Y36.337 E3.53734
G1 X27.071 Y35.961 E3.55406
G1 X26.84 Y35.567 E3.57077
G1 X26.634 Y35.153 E3.58769
G1 X26.462 Y34.74 E3.60406
G1 X26.319 Y34.292 E3.62126
G1 X26.207 Y33.855 E3.63777
G1 X26.144 Y33.519 E3.65028
G1 X26.098 Y33.184 E3.66265
G1 X26.065 Y32.727 E3.67941
G1 X26.065 Y32.272 E3.69606
G1 X26.098 Y31.819 E3.71267
G1 X26.163 Y31.366 E3.72942
G1 X26.262 Y30.918 E3.7462
G1 X26.391 Y30.476 E3.76305
G1 X26.548 Y30.051 E3.77963
G1 X26.736 Y29.63 E3.79649
G1 X26.952 Y29.235 E3.81297
G1 X27.2 Y28.845 E3.82987
G1 X27.4 Y28.572 E3.84226
G1 X27.619 Y28.306 E3.85486
G1 X27.929 Y27.968 E3.87164
G1 X28.264 Y27.654 E3.88844
G1 X28.641 Y27.353 E3.90609
G1 X28.969 Y27.122 E3.92077
G1 X29.183 Y26.983 E3.9301
G1 X29.584 Y26.76 E3.94689
G1 X29.851 Y26.636 E3.95766
G1 X30.005 Y26.572 E3.96376
G1 X30.17 Y26.975 E3.97969
G1 X29.788 Y27.152 E3.9951
G1 X29.285 Y27.443 E4.01636
G1 X28.906 Y27.706 E4.03324
G1 X28.557 Y27.983 E4.04954
G1 X28.243 Y28.277 E4.06528
G1 X27.949 Y28.597 E4.08117
G1 X27.75 Y28.843 E4.09275
G1 X27.564 Y29.096 E4.10424
G1 X27.333 Y29.459 E4.11998
G1 X27.131 Y29.826 E4.13531
G1 X26.956 Y30.218 E4.15101
G1 X26.809 Y30.615 E4.1665
G1 X26.69 Y31.026 E4.18216
G1 X26.597 Y31.445 E4.19786
G1 X26.536 Y31.867 E4.21346
G1 X26.505 Y32.29 E4.22898
G1 X26.505 Y32.71 E4.24434
G1 X26.536 Y33.136 E4.25997
G1 X26.579 Y33.448 E4.27149
G1 X26.634 Y33.746 E4.28258
G1 X26.742 Y34.17 E4.29859
G1 X26.876 Y34.593 E4.31482
G1 X26.885 Y34.615 E4.31569
G1 X27.29 Y34.446 E4.33175
G1 X27.165 Y34.05 E4.34694
G1 X27.063 Y33.64 E4.3624
G1 X26.996 Y33.245 E4.37705
G1 X26.945 Y32.691 E4.39741
G1 X26.945 Y32.308 E4.41142
G1 X26.974 Y31.915 E4.42584
G1 X27.031 Y31.524 E4.4403
G1 X27.118 Y31.134 E4.45491
G1 X27.227 Y30.754 E4.46938
G1 X27.364 Y30.385 E4.48378
G1 X27.526 Y30.023 E4.49829
G1 X27.713 Y29.683 E4.51249
G1 X27.927 Y29.347 E4.52706
G1 X28.177 Y29.017 E4.54221
G1 X28.557 Y28.584 E4.56328
G1 X28.851 Y28.314 E4.57789
G1 X29.17 Y28.06 E4.59281
G1 X29.522 Y27.816 E4.60848
G1 X29.993 Y27.543 E4.62839
G1 X30.339 Y27.384 E4.64233
G1 X30.882 Y27.192 E4.6634
G1 X31.164 Y27.115 E4.67409
G1 X31.526 Y27.039 E4.68762
G1 X31.873 Y26.983 E4.70048
G1 X32.253 Y26.952 E4.71443
G1 X32.659 Y26.95 E4.72929
G1 X33.04 Y26.975 E4.74326
G1 X33.43 Y27.028 E4.75766
G1 X33.8 Y27.104 E4.77148
G1 X34.208 Y27.215 E4.78695
G1 X34.573 Y27.345 E4.80112
G1 X34.932 Y27.504 E4.81549
G1 X35.278 Y27.689 E4.82984
G1 X35.607 Y27.896 E4.84406
G1 X35.819 Y28.054 E4.85374
G1 X35.96 Y28.167 E4.86035
G1 X35.688 Y28.507 E4.87628
G1 X35.356 Y28.26 E4.89142
G1 X35.057 Y28.071 E4.90436
G1 X34.738 Y27.9 E4.9176
G1 X34.409 Y27.754 E4.93077
G1 X34.079 Y27.637 E4.94358
G1 X33.698 Y27.534 E4.95802
G1 X33.355 Y27.463 E4.97083
G1 X32.995 Y27.414 E4.98413
G1 X32.647 Y27.391 E4.99689
G1 X32.279 Y27.392 E5.01035
G1 X31.749 Y27.449 E5.02985
G1 X31.268 Y27.545 E5.0478
G1 X31.012 Y27.614 E5.0575
G1 X30.507 Y27.793 E5.0771
G1 X30.195 Y27.935 E5.08964
G1 X29.758 Y28.187 E5.1081
G1 X29.432 Y28.414 E5.12263
G1 X29.138 Y28.648 E5.13638
G1 X28.871 Y28.893 E5.14964
G1 X28.518 Y29.296 E5.16924
G1 X28.289 Y29.598 E5.1831
G1 X28.091 Y29.909 E5.19659
G1 X27.921 Y30.217 E5.20946
G1 X27.774 Y30.549 E5.22275
G1 X27.647 Y30.891 E5.23609
G1 X27.546 Y31.244 E5.24953
G1 X27.465 Y31.604 E5.26303
G1 X27.412 Y31.966 E5.27641
G1 X27.385 Y32.324 E5.28955
G1 X27.385 Y32.48 E5.29525
G1 X27.394 Y32.671 E5.30225
G1 X27.825 Y32.651 E5.31804
G1 X27.825 Y32.34 E5.32941
G1 X27.85 Y32.017 E5.34127
G1 X27.899 Y31.685 E5.35355
G1 X27.974 Y31.354 E5.36596
G1 X28.067 Y31.028 E5.37837
G1 X28.184 Y30.713 E5.39066
G1 X28.316 Y30.412 E5.40268
G1 X28.47 Y30.134 E5.41431
G1 X28.651 Y29.85 E5.42663
G1 X28.86 Y29.575 E5.43927
G1 X29.187 Y29.201 E5.45745
G1 X29.425 Y28.982 E5.46928
G1 X29.694 Y28.768 E5.48185
G1 X29.994 Y28.559 E5.49523
G1 X30.397 Y28.328 E5.51223
G1 X30.675 Y28.202 E5.52339
G1 X30.732 Y28.181 E5.52562
G1 X30.857 Y28.605 E5.54179
G1 X30.842 Y28.611 E5.54238
G1 X30.597 Y28.721 E5.5522
G1 X30.23 Y28.931 E5.56767
G1 X29.956 Y29.122 E5.57989
G1 X29.712 Y29.316 E5.5913
G1 X29.505 Y29.508 E5.60163
G1 X29.205 Y29.851 E5.6183
G1 X28.923 Y30.247 E5.63609
G1 X28.636 Y30.778 E5.65817
G1 X28.481 Y31.178 E5.67386
G1 X28.332 Y31.77 E5.6962
G1 X28.288 Y32.068 E5.70722
G1 X28.265 Y32.356 E5.71779
G1 X28.265 Y32.631 E5.72785
G1 X28.307 Y33.069 E5.74395
G1 X28.356 Y33.353 E5.75449
G1 X28.417 Y33.6 E5.7638
G1 X28.528 Y33.982 E5.77836
G1 X28.73 Y34.418 E5.79594
G1 X28.929 Y34.778 E5.81099
G1 X29.218 Y35.177 E5.82901
G1 X29.435 Y35.42 E5.84093
G1 X29.593 Y35.573 E5.84898
G1 X29.896 Y35.26 E5.86491
G1 X29.693 Y35.054 E5.8755
G1 X29.301 Y34.541 E5.89912
G1 X29.123 Y34.218 E5.91261
G1 X28.942 Y33.826 E5.92841
G1 X28.818 Y33.382 E5.94527
G1 X28.744 Y33.007 E5.95926
G1 X28.718 Y32.739 E5.96911
G1 X28.705 Y32.373 E5.98251
G1 X28.726 Y32.12 E5.9918
G1 X28.765 Y31.858 E6.00149
G1 X28.896 Y31.326 E6.02153
G1 X29.037 Y30.964 E6.03575
G1 X29.297 Y30.481 E6.05581
G1 X29.55 Y30.125 E6.07179
G1 X29.726 Y29.923 E6.08159
G1 X30.003 Y29.648 E6.09588
G1 X30.306 Y29.415 E6.10986
G1 X30.795 Y29.115 E6.13085
G1 X31.397 Y28.882 E6.15447
G1 X31.788 Y28.792 E6.16914
G1 X31.925 Y28.773 E6.17421
G1 X31.948 Y29.215 E6.1904
G1 X31.868 Y29.226 E6.19335
G1 X31.525 Y29.305 E6.20623
G1 X30.99 Y29.511 E6.2272
G1 X30.56 Y29.777 E6.2457
G1 X30.129 Y30.13 E6.26609
G1 X29.895 Y30.398 E6.2791
G1 X29.671 Y30.714 E6.29327
G1 X29.438 Y31.15 E6.31136
G1 X29.311 Y31.473 E6.32406
G1 X29.198 Y31.944 E6.34178
G1 X29.166 Y32.285 E6.35431
G1 X29.146 Y32.596 E6.36571
G1 X29.18 Y32.939 E6.37832
G1 X29.248 Y33.279 E6.39101
G1 X29.356 Y33.672 E6.40592
G1 X29.516 Y34.018 E6.41987
G1 X29.671 Y34.297 E6.43154
G1 X30.023 Y34.759 E6.45279
G1 X30.229 Y34.962 E6.46337
G1 X30.484 Y35.169 E6.47539
G1 X30.779 Y35.362 E6.48829
G1 X31.022 Y35.503 E6.49857
G1 X31.522 Y35.708 E6.51834
G1 X31.949 Y35.8 E6.53432
G1 X32.388 Y35.849 E6.55048
G1 X33.033 Y35.805 E6.57413
G1 X33.579 Y35.67 E6.59471
G1 X34.086 Y35.449 E6.61494
G1 X34.352 Y35.287 E6.62634
G1 X34.65 Y35.066 E6.63991
G1 X34.911 Y34.816 E6.65314
G1 X35.155 Y34.525 E6.66703
G1 X35.215 Y34.438 E6.6709
G1 X34.826 Y34.23 E6.68704
G1 X34.897 Y34.135 E6.69137
G1 X34.729 Y34.361 E6.70168
G1 X34.518 Y34.596 E6.71323
G1 X34.306 Y34.762 E6.72308
G1 X34.103 Y34.923 E6.73256
G1 X33.884 Y35.057 E6.74196
G1 X33.423 Y35.254 E6.7603
G1 X33.368 Y35.268 E6.76237
G1 X33.264 Y34.843 E6.77838
G1 X33.858 Y34.554 E6.80255
G1 X34.217 Y34.271 E6.81927
G1 X34.388 Y34.082 E6.8286
G1 X34.43 Y34.022 E6.83128
G1 X34.033 Y33.806 E6.84781
G1 X34.121 Y33.702 E6.8528
G1 X33.913 Y33.948 E6.86458
G1 X33.62 Y34.179 E6.87824
G1 X33.116 Y34.424 E6.89874
G1 X32.82 Y34.494 E6.90987
G1 X32.417 Y34.523 E6.92465
G1 X32.065 Y34.473 E6.93766
G1 X31.696 Y34.349 E6.9519
G1 X31.604 Y34.301 E6.95569
G1 X31.805 Y33.917 E6.97155
G1 X32.158 Y34.033 E6.98515
G1 X32.432 Y34.08 E6.99532
G1 X32.75 Y34.057 E7.00698
G1 X33.082 Y33.95 E7.01974
G1 X33.382 Y33.804 E7.03195
G1 X33.606 Y33.627 E7.0424
G1 X33.823 Y33.351 E7.05524
G1 X33.998 Y33.013 E7.06917
G1 X34.083 Y32.512 E7.08776
G1 X34.054 Y32.209 E7.09889
G1 X33.972 Y31.929 E7.10957
G1 X33.834 Y31.666 E7.12043
G1 X33.621 Y31.394 E7.13307
G1 X33.241 Y31.104 E7.15056
G1 X32.888 Y30.987 E7.16417
G1 X32.589 Y30.931 E7.1753
G1 X32.267 Y30.961 E7.18713
G1 X32.015 Y31.005 E7.19649
G1 X31.77 Y31.096 E7.20605
G1 X31.541 Y31.26 E7.21636
G1 X31.257 Y31.52 E7.23044
G1 X31.206 Y31.611 E7.23426
G1 X31.651 Y31.774 E7.2516
G1 X31.555 Y31.869 E7.25654
G1 X31.867 Y31.559 E7.27263
G1 X32.138 Y31.431 E7.2836
G1 X32.487 Y31.371 E7.29655
G1 X32.677 Y31.409 E7.30364
G1 X32.969 Y31.464 E7.31451
G1 X33.312 Y31.714 E7.33004
G1 X33.462 Y31.908 E7.33901
G1 X33.597 Y32.216 E7.35132
G1 X33.639 Y32.493 E7.36157
G1 X33.575 Y32.872 E7.37563
G1 X33.415 Y33.17 E7.388
G1 X33.135 Y33.433 E7.40206
G1 X32.829 Y33.582 E7.41451
G1 X32.594 Y33.616 E7.4232
G1 X32.298 Y33.61 E7.43403
G1 X32.02 Y33.53 E7.44461
G1 X31.776 Y33.353 E7.45564
G1 X31.685 Y33.256 E7.46051
G1 X31.995 Y32.967 E7.47601
G1 X32.221 Y33.133 E7.48627
G1 X32.461 Y33.189 E7.49529
G1 X32.791 Y33.11 E7.5077
G1 X33.062 Y32.896 E7.52034
G1 X33.168 Y32.631 E7.53078
G1 X33.169 Y32.375 E7.54015
G1 X33.064 Y32.139 E7.5496
G1 X32.901 Y31.961 E7.55843
G1 X32.789 Y31.879 E7.5635
G1 F1202.7 X32.731 Y32.431 E7.58377
G1 F1205.5 X32.698 Y32.623 E7.59086
G1 X32.511 Y32.737 E7.59884
G1 X32.389 Y32.703 E7.60345
G1 X32.27 Y32.552 E7.61045
G1 X32.273 Y32.518 E7.61169
G1 X32.284 Y32.487 E7.61289
G1 F1202.7 X32.351 Y31.851 E7.63624
G1 F1200 X32.207 Y31.886 E7.64166
G1 X31.976 Y32.074 E7.65256
G1 X31.849 Y32.277 E7.66132
G1 X31.824 Y32.615 E7.67372
G1 X31.831 Y32.519 E7.67724
G1 X31.45 Y32.875 E7.69631
G1 X31.447 Y32.867 E7.69663
G1 X31.361 Y32.543 E7.70889
G1 X31.418 Y32.156 E7.7232
G1 X31.019 Y32.01 E7.73875
G1 X30.961 Y32.169 E7.74494
