;FLAVOR:Marlin
;TIME:8377
;Filament used: 5.98956m
;Layer height: 0.2
;MINX:42.908
;MINY:91.402
;MINZ:0.2
;MAXX:192.092
;MAXY:175.085
;MAXZ:7
;Generated with Cura_SteamEngine 5.0.0
M140 S60
M105
M190 S60
M104 S222
M105
M109 S222
M82 ;absolute extrusion mode
; Ender 3 Custom Start G-code
G92 E0 ; Reset Extruder
M140 S60 ; Start heating the heated bed
M190 S60 ; Wait until the heated bed reaches the desired temperature
G28 ; Auto Home
G29 A; Activate Bed Leveling
G29 L0; Loads the saved mesh in slot 0
G29  J3; 9 point autotilt

G92 E0 ; Reset extruder origin
G1 Z2.0 F3000 ; Move Z Axis up little to prevent scratching of Heat Bed
G1 X0.1 Y20 Z0.3 F5000.0 ; Move to start position
G1 X0.1 Y200.0 Z0.3 F1500.0 E15 ; Draw the first line
G1 X0.4 Y200.0 Z0.3 F5000.0 ; Move to side a little
G1 X0.4 Y20 Z0.3 F1500.0 E30 ; Draw the second line
G92 E0 ; Reset Extruder
G1 Z2.0 F3000 ; Move Z Axis up little to prevent scratching of Heat Bed
G1 X5 Y20 Z0.3 F5000.0 ; Move over to prevent blob squish

; End of Ender 3 Custom Start G-code
G92 E0
G92 E0
G1 F2700 E-5
;LAYER_COUNT:35
;LAYER:0
M107
G0 F2100 X49.79 Y92.817 Z0.2
G0 X42.918 Y104.54
;TYPE:SKIRT
G1 F2700 E0
G1 F1200 X42.933 Y103.755 E0.02873
G1 X42.981 Y102.919 E0.05936
G1 X43.003 Y102.687 E0.06789
G1 X43.131 Y101.754 E0.10234
G1 X43.339 Y100.835 E0.13682
G1 X43.531 Y100.199 E0.16112
G1 X43.656 Y99.827 E0.17548
G1 X43.994 Y98.948 E0.20993
G1 X44.405 Y98.1 E0.24441
G1 X44.951 Y97.193 E0.28314
G1 X45.175 Y96.858 E0.29789
G1 X45.731 Y96.098 E0.33234
G1 X46.35 Y95.388 E0.3668
G1 X47.082 Y94.683 E0.40398
G1 X47.367 Y94.433 E0.41785
G1 X48.101 Y93.843 E0.45231
G1 X48.883 Y93.317 E0.48679
G1 X49.79 Y92.817 E0.52468
G1 X50.148 Y92.641 E0.53928
G1 X51.01 Y92.261 E0.57374
G1 X51.902 Y91.956 E0.60823
G1 X52.875 Y91.716 E0.6449
G1 X53.201 Y91.651 E0.65706
G1 X54.131 Y91.506 E0.69149
G1 X55.144 Y91.439 E0.72864
G1 X56.446 Y91.415 E0.77628
G1 X178.741 Y91.402 E5.25058
G1 X179.591 Y91.413 E5.28168
G1 X180.334 Y91.449 E5.3089
G1 X180.738 Y91.482 E5.32373
G1 X181.673 Y91.598 E5.3582
G1 X182.594 Y91.794 E5.39265
G1 X183.501 Y92.068 E5.42732
G1 X183.861 Y92.194 E5.44127
G1 X184.736 Y92.543 E5.47574
G1 X185.579 Y92.965 E5.51023
G1 X186.432 Y93.49 E5.54687
G1 X186.744 Y93.702 E5.56067
G1 X187.501 Y94.264 E5.59517
G1 X188.206 Y94.888 E5.62961
G1 X188.797 Y95.503 E5.66082
G1 X189.048 Y95.785 E5.67463
G1 X189.644 Y96.515 E5.70911
G1 X190.176 Y97.292 E5.74356
G1 X190.691 Y98.212 E5.78213
G1 X190.869 Y98.569 E5.79673
G1 X191.253 Y99.429 E5.83119
G1 X191.563 Y100.319 E5.86567
G1 X191.817 Y101.333 E5.90391
G1 X191.852 Y101.507 E5.91041
G1 X191.998 Y102.438 E5.94488
G1 X192.068 Y103.472 E5.9828
G1 X192.092 Y104.785 E6.03085
G1 X192.092 Y118.637 E6.53764
G1 X192.079 Y119.638 E6.57426
G1 X192.044 Y120.574 E6.60853
G1 X191.965 Y121.79 E6.65311
G1 X191.838 Y124.379 E6.74795
G1 X191.785 Y126.899 E6.84017
G1 X191.804 Y129.409 E6.932
G1 X191.895 Y131.937 E7.02455
G1 X192.041 Y134.212 E7.10796
G1 X192.062 Y134.694 E7.12561
G1 X192.092 Y136.285 E7.18383
G1 X192.092 Y150.137 E7.69062
G1 X192.08 Y151.134 E7.7271
G1 X192.065 Y151.613 E7.74463
G1 X192.024 Y152.274 E7.76886
G1 X191.914 Y153.413 E7.81072
G1 X191.858 Y153.864 E7.82735
G1 X191.763 Y154.488 E7.85044
G1 X191.57 Y155.516 E7.88871
G1 X191.472 Y155.976 E7.90592
G1 X191.31 Y156.638 E7.93085
G1 X191.011 Y157.695 E7.97104
G1 X190.882 Y158.111 E7.98698
G1 X190.666 Y158.739 E8.01128
G1 X190.259 Y159.804 E8.05299
G1 X190.099 Y160.191 E8.06831
G1 X189.835 Y160.78 E8.09192
G1 X189.339 Y161.795 E8.13326
G1 X189.136 Y162.185 E8.14934
G1 X188.803 Y162.78 E8.17429
G1 X188.266 Y163.664 E8.21213
G1 X188.005 Y164.071 E8.22982
G1 X187.627 Y164.623 E8.2543
G1 X187.017 Y165.452 E8.29195
G1 X186.768 Y165.775 E8.30687
G1 X186.31 Y166.331 E8.33323
G1 X185.475 Y167.27 E8.3792
G1 X185.174 Y167.59 E8.39527
G1 X184.739 Y168.028 E8.41786
G1 X183.924 Y168.794 E8.45878
G1 X183.587 Y169.093 E8.47526
G1 X183.104 Y169.497 E8.4983
G1 X182.209 Y170.198 E8.53989
G1 X181.87 Y170.449 E8.55532
G1 X181.335 Y170.821 E8.57916
G1 X180.404 Y171.423 E8.61973
G1 X179.996 Y171.672 E8.63721
G1 X179.432 Y171.994 E8.66098
G1 X178.502 Y172.483 E8.69942
G1 X178.077 Y172.693 E8.71676
G1 X177.476 Y172.968 E8.74094
G1 X176.477 Y173.385 E8.78055
G1 X176.081 Y173.539 E8.79609
G1 X175.437 Y173.767 E8.82109
G1 X174.35 Y174.109 E8.86278
G1 X173.912 Y174.234 E8.87944
G1 X173.284 Y174.394 E8.90315
G1 X172.241 Y174.621 E8.94221
G1 X171.77 Y174.711 E8.95975
G1 X171.122 Y174.815 E8.98376
G1 X170.078 Y174.946 E9.02226
G1 X169.611 Y174.993 E9.03943
G1 X168.964 Y175.039 E9.06316
G1 X167.839 Y175.081 E9.10435
G1 X167.414 Y175.085 E9.1199
G1 X166.768 Y175.072 E9.14354
G1 X165.618 Y175.009 E9.18567
G1 X165.134 Y174.969 E9.20344
G1 X164.521 Y174.901 E9.22601
G1 X163.505 Y174.755 E9.26356
G1 X163.044 Y174.677 E9.28067
G1 X162.367 Y174.541 E9.30593
G1 X161.279 Y174.281 E9.34686
G1 X160.823 Y174.159 E9.36413
G1 X160.209 Y173.975 E9.38758
G1 X159.226 Y173.646 E9.4255
G1 X158.775 Y173.483 E9.44305
G1 X158.111 Y173.219 E9.46919
G1 X156.92 Y172.695 E9.51679
G1 X155.763 Y172.155 E9.56351
G1 X153.391 Y171.079 E9.6588
G1 X150.826 Y170.003 E9.76057
G1 X148.425 Y169.073 E9.85477
G1 X146.099 Y168.247 E9.94508
G1 X143.672 Y167.461 E10.03841
G1 X141.291 Y166.764 E10.12918
G1 X138.86 Y166.126 E10.22113
G1 X136.402 Y165.554 E10.31346
G1 X133.913 Y165.05 E10.40638
G1 X131.471 Y164.626 E10.49706
G1 X128.962 Y164.263 E10.58981
G1 X126.499 Y163.978 E10.68052
G1 X123.971 Y163.758 E10.77336
G1 X121.463 Y163.61 E10.86528
G1 X118.944 Y163.534 E10.95748
G1 X116.426 Y163.528 E11.0496
G1 X113.944 Y163.593 E11.14044
G1 X111.396 Y163.732 E11.2338
G1 X108.912 Y163.938 E11.32499
G1 X106.384 Y164.22 E11.41806
G1 X103.915 Y164.566 E11.50927
G1 X101.441 Y164.985 E11.60107
G1 X98.983 Y165.471 E11.69274
G1 X96.52 Y166.034 E11.78518
G1 X94.097 Y166.659 E11.87673
G1 X91.667 Y167.359 E11.96925
G1 X89.276 Y168.122 E12.06107
G1 X86.89 Y168.959 E12.15358
G1 X84.6 Y169.835 E12.24328
G1 X82.207 Y170.83 E12.3381
G1 X80.13 Y171.758 E12.42133
G1 X77.76 Y172.851 E12.51682
G1 X76.921 Y173.218 E12.55032
G1 X76.197 Y173.505 E12.57881
G1 X75.592 Y173.714 E12.60223
G1 X74.321 Y174.117 E12.65102
G1 X73.919 Y174.232 E12.66631
G1 X73.284 Y174.394 E12.69029
G1 X72.241 Y174.621 E12.72934
G1 X71.77 Y174.711 E12.74689
G1 X71.122 Y174.815 E12.7709
G1 X70.078 Y174.946 E12.80939
G1 X69.611 Y174.993 E12.82656
G1 X68.964 Y175.039 E12.8503
G1 X67.839 Y175.081 E12.89148
G1 X67.414 Y175.085 E12.90703
G1 X66.768 Y175.072 E12.93067
G1 X65.618 Y175.009 E12.97281
G1 X65.134 Y174.969 E12.99058
G1 X64.521 Y174.901 E13.01314
G1 X63.505 Y174.755 E13.0507
G1 X63.044 Y174.677 E13.0678
G1 X62.367 Y174.541 E13.09307
G1 X61.279 Y174.281 E13.13399
G1 X60.823 Y174.159 E13.15126
G1 X60.209 Y173.975 E13.17471
G1 X59.225 Y173.646 E13.21267
G1 X58.788 Y173.488 E13.22967
G1 X58.14 Y173.23 E13.25519
G1 X57.142 Y172.791 E13.29508
G1 X56.715 Y172.59 E13.31235
G1 X56.15 Y172.304 E13.33552
G1 X55.198 Y171.78 E13.37527
G1 X54.763 Y171.524 E13.39374
G1 X54.256 Y171.207 E13.41562
G1 X53.329 Y170.585 E13.45646
G1 X52.953 Y170.317 E13.47335
G1 X52.436 Y169.924 E13.49711
G1 X51.629 Y169.269 E13.53514
G1 X51.225 Y168.924 E13.55458
G1 X50.73 Y168.475 E13.57903
G1 X50.045 Y167.809 E13.61398
G1 X49.713 Y167.471 E13.63131
G1 X49.247 Y166.966 E13.65645
G1 X48.55 Y166.157 E13.69552
G1 X48.25 Y165.791 E13.71284
G1 X47.844 Y165.263 E13.7372
G1 X47.248 Y164.432 E13.77462
G1 X46.963 Y164.013 E13.79316
G1 X46.596 Y163.436 E13.81818
G1 X46.069 Y162.54 E13.85621
G1 X45.851 Y162.148 E13.87262
G1 X45.543 Y161.552 E13.89716
G1 X45.06 Y160.532 E13.93845
G1 X44.874 Y160.111 E13.95529
G1 X44.628 Y159.507 E13.97915
G1 X44.253 Y158.486 E14.01895
G1 X44.097 Y158.023 E14.03682
G1 X43.917 Y157.434 E14.05936
G1 X43.635 Y156.391 E14.09889
G1 X43.529 Y155.951 E14.11544
G1 X43.395 Y155.312 E14.13933
G1 X43.2 Y154.199 E14.18067
G1 X43.134 Y153.757 E14.19702
G1 X43.055 Y153.089 E14.22163
G1 X42.969 Y152.054 E14.25963
G1 X42.921 Y151.125 E14.29366
G1 X42.908 Y150.435 E14.31891
G1 X42.918 Y136.022 E14.84623
G1 X42.935 Y135.201 E14.87627
G1 X42.958 Y134.681 E14.89531
G1 X43.009 Y133.93 E14.92285
G1 X43.016 Y133.707 E14.93102
G1 X43.113 Y132.269 E14.98375
G1 X43.211 Y129.788 E15.07459
G1 X43.237 Y127.271 E15.16668
G1 X43.194 Y124.791 E15.25743
G1 X42.922 Y119.648 E15.44585
G1 X42.908 Y118.969 E15.4707
G1 X42.918 Y104.54 E15.9986
G0 F2100 X43.358 Y104.548
G1 F1200 X43.373 Y103.763 E16.02733
G1 X43.419 Y102.961 E16.05672
G1 X43.441 Y102.729 E16.06524
G1 X43.567 Y101.814 E16.09904
G1 X43.773 Y100.914 E16.13282
G1 X43.948 Y100.34 E16.15477
G1 X44.073 Y99.968 E16.16913
G1 X44.405 Y99.106 E16.20292
G1 X44.81 Y98.276 E16.23671
G1 X45.316 Y97.438 E16.27253
G1 X45.54 Y97.103 E16.28727
G1 X46.086 Y96.358 E16.32106
G1 X46.695 Y95.664 E16.35484
G1 X47.372 Y95.014 E16.38918
G1 X47.657 Y94.764 E16.40305
G1 X48.377 Y94.186 E16.43683
G1 X49.144 Y93.672 E16.47061
G1 X49.984 Y93.212 E16.50565
G1 X50.342 Y93.036 E16.52025
G1 X51.187 Y92.664 E16.55402
G1 X52.062 Y92.368 E16.58782
G1 X52.961 Y92.148 E16.62168
G1 X53.287 Y92.083 E16.63384
G1 X54.199 Y91.942 E16.66761
G1 X55.153 Y91.879 E16.70259
G1 X56.446 Y91.855 E16.7499
G1 X178.741 Y91.842 E21.2242
G1 X179.585 Y91.853 E21.25508
G1 X180.298 Y91.887 E21.2812
G1 X180.702 Y91.92 E21.29603
G1 X181.618 Y92.035 E21.32981
G1 X182.521 Y92.229 E21.3636
G1 X183.356 Y92.483 E21.39553
G1 X183.716 Y92.609 E21.40948
G1 X184.573 Y92.952 E21.44325
G1 X185.397 Y93.367 E21.47701
G1 X186.185 Y93.854 E21.5109
G1 X186.497 Y94.066 E21.5247
G1 X187.238 Y94.617 E21.55849
G1 X187.928 Y95.231 E21.59228
G1 X188.469 Y95.796 E21.6209
G1 X188.72 Y96.078 E21.63471
G1 X189.303 Y96.793 E21.66846
G1 X189.822 Y97.557 E21.70225
G1 X190.297 Y98.408 E21.73791
G1 X190.475 Y98.765 E21.7525
G1 X190.851 Y99.609 E21.78631
G1 X191.152 Y100.481 E21.82006
G1 X191.386 Y101.42 E21.85546
G1 X191.421 Y101.594 E21.86196
G1 X191.563 Y102.506 E21.89573
G1 X191.628 Y103.481 E21.93148
G1 X191.652 Y104.785 E21.97919
G1 X191.652 Y118.633 E22.48584
G1 X191.64 Y119.624 E22.5221
G1 X191.605 Y120.546 E22.55585
G1 X191.523 Y121.804 E22.60198
G1 X191.398 Y124.35 E22.69524
G1 X191.345 Y126.892 E22.78826
G1 X191.364 Y129.429 E22.88108
G1 X191.455 Y131.945 E22.97319
G1 X191.602 Y134.24 E23.05733
G1 X191.622 Y134.703 E23.07429
G1 X191.652 Y136.285 E23.13218
G1 X191.652 Y150.133 E23.63882
G1 X191.64 Y151.121 E23.67497
G1 X191.625 Y151.6 E23.6925
G1 X191.586 Y152.234 E23.71574
G1 X191.478 Y153.359 E23.75709
G1 X191.422 Y153.81 E23.77372
G1 X191.33 Y154.409 E23.79589
G1 X191.14 Y155.424 E23.83367
G1 X191.042 Y155.884 E23.85088
G1 X190.886 Y156.52 E23.87484
G1 X190.591 Y157.564 E23.91453
G1 X190.462 Y157.98 E23.93046
G1 X190.255 Y158.584 E23.95382
G1 X189.852 Y159.636 E23.99504
G1 X189.692 Y160.023 E24.01036
G1 X189.439 Y160.589 E24.03304
G1 X188.949 Y161.592 E24.07388
G1 X188.746 Y161.982 E24.08997
G1 X188.426 Y162.553 E24.11392
G1 X187.895 Y163.426 E24.1513
G1 X187.634 Y163.833 E24.16899
G1 X187.271 Y164.364 E24.19252
G1 X186.669 Y165.183 E24.22971
G1 X186.42 Y165.506 E24.24463
G1 X185.979 Y166.041 E24.27
G1 X185.155 Y166.969 E24.3154
G1 X184.854 Y167.289 E24.33148
G1 X184.436 Y167.709 E24.35315
G1 X183.632 Y168.465 E24.39353
G1 X183.295 Y168.764 E24.41001
G1 X182.831 Y169.152 E24.43214
G1 X181.947 Y169.844 E24.47322
G1 X181.608 Y170.095 E24.48865
G1 X181.095 Y170.453 E24.51154
G1 X180.175 Y171.047 E24.5516
G1 X179.767 Y171.296 E24.56909
G1 X179.225 Y171.606 E24.59193
G1 X178.307 Y172.089 E24.62988
G1 X177.882 Y172.299 E24.64723
G1 X177.305 Y172.563 E24.67044
G1 X176.318 Y172.975 E24.70957
G1 X175.922 Y173.129 E24.72512
G1 X175.303 Y173.348 E24.74914
G1 X174.229 Y173.686 E24.79033
G1 X173.791 Y173.811 E24.807
G1 X173.188 Y173.964 E24.82976
G1 X172.159 Y174.189 E24.8683
G1 X171.688 Y174.279 E24.88584
G1 X171.065 Y174.379 E24.90892
G1 X170.033 Y174.508 E24.94698
G1 X169.566 Y174.555 E24.96415
G1 X168.945 Y174.6 E24.98693
G1 X167.835 Y174.641 E25.02756
G1 X167.41 Y174.645 E25.04311
G1 X166.79 Y174.632 E25.0658
G1 X165.654 Y174.571 E25.10742
G1 X165.17 Y174.531 E25.12519
G1 X164.581 Y174.466 E25.14687
G1 X163.579 Y174.322 E25.18391
G1 X163.118 Y174.244 E25.20101
G1 X162.468 Y174.113 E25.22527
G1 X161.393 Y173.856 E25.26571
G1 X160.937 Y173.734 E25.28298
G1 X160.347 Y173.558 E25.30551
G1 X159.376 Y173.232 E25.34298
G1 X158.925 Y173.069 E25.36053
G1 X158.287 Y172.815 E25.38565
G1 X157.106 Y172.297 E25.43283
G1 X155.989 Y171.776 E25.47793
G1 X153.532 Y170.661 E25.57664
G1 X150.973 Y169.588 E25.67816
G1 X148.592 Y168.665 E25.77159
G1 X146.243 Y167.831 E25.86279
G1 X143.823 Y167.047 E25.95586
G1 X141.41 Y166.341 E26.04784
G1 X138.939 Y165.692 E26.14131
G1 X136.515 Y165.128 E26.23236
G1 X134.003 Y164.619 E26.32614
G1 X131.537 Y164.191 E26.41771
G1 X129.007 Y163.826 E26.51123
G1 X126.548 Y163.541 E26.6018
G1 X124.004 Y163.319 E26.69522
G1 X121.464 Y163.17 E26.78831
G1 X118.959 Y163.094 E26.88
G1 X116.416 Y163.088 E26.97304
G1 X113.908 Y163.154 E27.06483
G1 X111.372 Y163.292 E27.15775
G1 X108.86 Y163.501 E27.24997
G1 X106.381 Y163.777 E27.34123
G1 X103.853 Y164.132 E27.43463
G1 X101.319 Y164.56 E27.52865
G1 X98.931 Y165.033 E27.61772
G1 X96.385 Y165.614 E27.71326
G1 X93.972 Y166.237 E27.80444
G1 X91.55 Y166.935 E27.89665
G1 X89.147 Y167.702 E27.98894
G1 X86.726 Y168.55 E28.08279
G1 X84.413 Y169.435 E28.1734
G1 X82.04 Y170.422 E28.26743
G1 X80.028 Y171.321 E28.34805
G1 X77.584 Y172.448 E28.44652
G1 X76.745 Y172.815 E28.48002
G1 X76.049 Y173.09 E28.5074
G1 X75.457 Y173.296 E28.53034
G1 X74.2 Y173.694 E28.57857
G1 X73.798 Y173.809 E28.59387
G1 X73.188 Y173.964 E28.6169
G1 X72.159 Y174.189 E28.65544
G1 X71.688 Y174.279 E28.67298
G1 X71.065 Y174.379 E28.69606
G1 X70.033 Y174.508 E28.73411
G1 X69.566 Y174.555 E28.75129
G1 X68.945 Y174.6 E28.77407
G1 X67.835 Y174.641 E28.8147
G1 X67.41 Y174.645 E28.83025
G1 X66.79 Y174.632 E28.85294
G1 X65.654 Y174.571 E28.89456
G1 X65.17 Y174.531 E28.91233
G1 X64.581 Y174.466 E28.93401
G1 X63.579 Y174.322 E28.97105
G1 X63.118 Y174.244 E28.98815
G1 X62.468 Y174.113 E29.01241
G1 X61.393 Y173.856 E29.05285
G1 X60.937 Y173.734 E29.07012
G1 X60.347 Y173.558 E29.09265
G1 X59.374 Y173.232 E29.13019
G1 X58.937 Y173.074 E29.14719
G1 X58.315 Y172.827 E29.17168
G1 X57.329 Y172.393 E29.21109
G1 X56.902 Y172.192 E29.22836
G1 X56.36 Y171.918 E29.25058
G1 X55.421 Y171.401 E29.28979
G1 X54.986 Y171.145 E29.30826
G1 X54.5 Y170.841 E29.32923
G1 X53.585 Y170.227 E29.36955
G1 X53.209 Y169.959 E29.38644
G1 X52.711 Y169.582 E29.40929
G1 X51.914 Y168.934 E29.44687
G1 X51.51 Y168.589 E29.46631
G1 X51.036 Y168.159 E29.48973
G1 X50.359 Y167.501 E29.52427
G1 X50.027 Y167.163 E29.5416
G1 X49.579 Y166.678 E29.56576
G1 X48.891 Y165.878 E29.60436
G1 X48.591 Y165.512 E29.62167
G1 X48.2 Y165.005 E29.6451
G1 X47.612 Y164.184 E29.68205
G1 X47.327 Y163.765 E29.70058
G1 X46.974 Y163.211 E29.72462
G1 X46.454 Y162.326 E29.76217
G1 X46.236 Y161.934 E29.77858
G1 X45.94 Y161.362 E29.80215
G1 X45.462 Y160.354 E29.84296
G1 X45.276 Y159.933 E29.8598
G1 X45.04 Y159.354 E29.88268
G1 X44.67 Y158.346 E29.92196
G1 X44.514 Y157.883 E29.93984
G1 X44.341 Y157.317 E29.96149
G1 X44.062 Y156.288 E30.0005
G1 X43.956 Y155.848 E30.01705
G1 X43.828 Y155.235 E30.03997
G1 X43.635 Y154.134 E30.08086
G1 X43.569 Y153.692 E30.09721
G1 X43.493 Y153.051 E30.12083
G1 X43.408 Y152.029 E30.15835
G1 X43.361 Y151.114 E30.19187
G1 X43.348 Y150.435 E30.21671
G1 X43.358 Y136.031 E30.7437
G1 X43.375 Y135.21 E30.77375
G1 X43.397 Y134.71 E30.79206
G1 X43.455 Y133.861 E30.82319
G1 X43.455 Y133.737 E30.82773
G1 X43.551 Y132.317 E30.8798
G1 X43.651 Y129.774 E30.97291
G1 X43.677 Y127.269 E31.06456
G1 X43.634 Y124.788 E31.15535
G1 X43.362 Y119.637 E31.34406
G1 X43.348 Y118.969 E31.36851
G1 X43.358 Y104.548 E31.89612
G0 F2100 X43.798 Y104.557
G1 F1200 X43.813 Y103.772 E31.92484
G1 X43.857 Y103.002 E31.95306
G1 X43.879 Y102.77 E31.96159
G1 X44.004 Y101.875 E31.99465
G1 X44.207 Y100.994 E32.02773
G1 X44.365 Y100.48 E32.0474
G1 X44.49 Y100.108 E32.06176
G1 X44.816 Y99.264 E32.09486
G1 X45.215 Y98.453 E32.12793
G1 X45.682 Y97.682 E32.16091
