;FLAVOR:Marlin
;TIME:4491
;Filament used: 3.17813m
;Layer height: 0.2
;MINX:71.936
;MINY:83.304
;MINZ:0.2
;MAXX:163.057
;MAXY:151.696
;MAXZ:12
;Generated with Cura_SteamEngine 5.0.0
M140 S60
M105
M190 S60
M104 S222
M105
M109 S222
M82 ;absolute extrusion mode
; Ender 3 Custom Start G-code
G92 E0 ; Reset Extruder
M140 S60 ; Start heating the heated bed
M190 S60 ; Wait until the heated bed reaches the desired temperature
G28 ; Auto Home
G29 A; Activate Bed Leveling
G29 L0; Loads the saved mesh in slot 0
G29  J3; 9 point autotilt

G92 E0 ; Reset extruder origin
G1 Z2.0 F3000 ; Move Z Axis up little to prevent scratching of Heat Bed
G1 X0.1 Y20 Z0.3 F5000.0 ; Move to start position
G1 X0.1 Y200.0 Z0.3 F1500.0 E15 ; Draw the first line
G1 X0.4 Y200.0 Z0.3 F5000.0 ; Move to side a little
G1 X0.4 Y20 Z0.3 F1500.0 E30 ; Draw the second line
G92 E0 ; Reset Extruder
G1 Z2.0 F3000 ; Move Z Axis up little to prevent scratching of Heat Bed
G1 X5 Y20 Z0.3 F5000.0 ; Move over to prevent blob squish

; End of Ender 3 Custom Start G-code
G92 E0
G92 E0
G1 F2700 E-5
;LAYER_COUNT:60
;LAYER:0
M107
G0 F2100 X76.502 Y90.516 Z0.2
G0 X71.944 Y100.779
;TYPE:SKIRT
G1 F2700 E0
G1 F1200 X71.958 Y100.048 E0.02675
G1 X72.016 Y99.108 E0.06121
G1 X72.159 Y98.146 E0.09679
G1 X72.225 Y97.806 E0.10946
G1 X72.461 Y96.829 E0.14623
G1 X72.519 Y96.629 E0.15385
G1 X72.82 Y95.736 E0.18833
G1 X73.133 Y95.002 E0.21752
G1 X73.249 Y94.755 E0.22751
G1 X73.883 Y93.591 E0.276
G1 X74.008 Y93.391 E0.28463
G1 X74.541 Y92.614 E0.3191
G1 X74.973 Y92.074 E0.3444
G1 X75.175 Y91.837 E0.3558
G1 X75.816 Y91.146 E0.39028
G1 X76.268 Y90.723 E0.41293
G1 X76.502 Y90.516 E0.42436
G1 X77.287 Y89.884 E0.46123
G1 X77.926 Y89.42 E0.49012
G1 X78.721 Y88.877 E0.52534
G1 X79.377 Y88.457 E0.55384
G1 X80.076 Y88.036 E0.5837
G1 X80.833 Y87.607 E0.61553
G1 X81.528 Y87.24 E0.64429
G1 X82.345 Y86.84 E0.67757
G1 X82.954 Y86.564 E0.70203
G1 X84.006 Y86.122 E0.74378
G1 X84.774 Y85.827 E0.77388
G1 X85.573 Y85.546 E0.80486
G1 X86.533 Y85.237 E0.84176
G1 X87.208 Y85.042 E0.86747
G1 X88.026 Y84.823 E0.89845
G1 X88.586 Y84.688 E0.91952
G1 X90.099 Y84.366 E0.97612
G1 X90.56 Y84.278 E0.99329
G1 X91.743 Y84.078 E1.03718
G1 X92.153 Y84.017 E1.05235
G1 X93.598 Y83.835 E1.10563
G1 X94.818 Y83.72 E1.15047
G1 X96.392 Y83.62 E1.20817
G1 X98.179 Y83.565 E1.27358
G1 X99.798 Y83.566 E1.33281
G1 X101.375 Y83.609 E1.39053
G1 X103.17 Y83.705 E1.4563
G1 X104.652 Y83.809 E1.51065
G1 X106.107 Y83.928 E1.56406
G1 X108.397 Y84.147 E1.64823
G1 X109.356 Y84.248 E1.68351
G1 X111.927 Y84.48 E1.77795
G1 X114.421 Y84.634 E1.86937
G1 X116.947 Y84.719 E1.96184
G1 X119.466 Y84.732 E2.054
G1 X121.983 Y84.674 E2.14611
G1 X124.46 Y84.547 E2.23686
G1 X127.015 Y84.343 E2.33063
G1 X129.416 Y84.085 E2.41898
G1 X132.353 Y83.736 E2.52719
G1 X133.663 Y83.598 E2.57538
G1 X135.542 Y83.432 E2.6444
G1 X137.159 Y83.334 E2.70366
G1 X138.378 Y83.304 E2.74828
G1 X139.617 Y83.311 E2.79361
G1 X140.102 Y83.325 E2.81136
G1 X140.729 Y83.356 E2.83433
G1 X141.637 Y83.429 E2.86765
G1 X142.053 Y83.474 E2.88296
G1 X142.874 Y83.58 E2.91325
G1 X143.468 Y83.673 E2.93525
G1 X144.248 Y83.817 E2.96427
G1 X145.058 Y83.991 E2.99458
G1 X145.577 Y84.12 E3.01414
G1 X146.233 Y84.306 E3.03909
G1 X146.689 Y84.446 E3.05654
G1 X147.286 Y84.648 E3.0796
G1 X148.195 Y84.99 E3.11513
G1 X148.547 Y85.133 E3.12903
G1 X149.124 Y85.387 E3.1521
G1 X149.961 Y85.789 E3.18607
G1 X150.274 Y85.949 E3.19893
G1 X150.847 Y86.264 E3.22285
G1 X151.671 Y86.754 E3.25793
G1 X151.943 Y86.925 E3.26968
G1 X152.518 Y87.312 E3.29504
G1 X153.356 Y87.921 E3.33294
G1 X153.629 Y88.13 E3.34552
G1 X154.132 Y88.539 E3.36924
G1 X154.846 Y89.164 E3.40395
G1 X155.211 Y89.502 E3.42216
G1 X155.606 Y89.886 E3.44231
G1 X156.128 Y90.429 E3.46987
G1 X156.612 Y90.959 E3.49613
G1 X157.025 Y91.439 E3.51929
G1 X157.348 Y91.836 E3.53802
G1 X157.686 Y92.273 E3.55823
G1 X158.246 Y93.036 E3.59286
G1 X158.675 Y93.665 E3.62071
G1 X159.157 Y94.426 E3.65367
G1 X159.514 Y95.03 E3.67934
G1 X159.907 Y95.747 E3.70925
G1 X160.222 Y96.367 E3.7347
G1 X160.587 Y97.145 E3.76614
G1 X160.834 Y97.712 E3.78877
G1 X161.203 Y98.643 E3.82541
G1 X161.48 Y99.424 E3.85572
G1 X161.727 Y100.197 E3.88541
G1 X161.863 Y100.655 E3.90289
G1 X162.067 Y101.427 E3.93211
G1 X162.222 Y102.076 E3.95652
G1 X162.321 Y102.53 E3.97352
G1 X162.488 Y103.418 E4.00658
G1 X162.656 Y104.504 E4.04678
G1 X162.776 Y105.46 E4.08203
G1 X162.865 Y106.392 E4.11629
G1 X162.979 Y108.106 E4.17913
G1 X163.04 Y109.789 E4.24075
G1 X163.057 Y111.217 E4.293
G1 X163.056 Y123.917 E4.75764
G1 X163.035 Y125.405 E4.81209
G1 X162.978 Y126.895 E4.86664
G1 X162.864 Y128.607 E4.92941
G1 X162.778 Y129.521 E4.963
G1 X162.654 Y130.514 E4.99961
G1 X162.507 Y131.466 E5.03486
G1 X162.351 Y132.313 E5.06637
G1 X162.132 Y133.317 E5.10396
G1 X162.002 Y133.84 E5.12368
G1 X161.787 Y134.606 E5.15279
G1 X161.55 Y135.368 E5.18198
G1 X161.325 Y136.025 E5.20739
G1 X161.061 Y136.733 E5.23504
G1 X160.794 Y137.381 E5.26068
G1 X160.472 Y138.11 E5.28983
G1 X160.171 Y138.736 E5.31525
G1 X159.77 Y139.509 E5.34711
G1 X159.423 Y140.129 E5.3731
G1 X158.998 Y140.834 E5.40322
G1 X158.67 Y141.345 E5.42544
G1 X158.266 Y141.939 E5.45172
G1 X157.828 Y142.54 E5.47893
G1 X157.229 Y143.305 E5.51447
G1 X156.918 Y143.684 E5.53241
G1 X156.589 Y144.068 E5.55091
G1 X156.125 Y144.577 E5.57611
G1 X155.598 Y145.12 E5.60379
G1 X155.159 Y145.548 E5.62622
G1 X154.567 Y146.086 E5.65549
G1 X154.178 Y146.422 E5.6743
G1 X153.702 Y146.811 E5.69679
G1 X152.961 Y147.375 E5.73086
G1 X152.669 Y147.585 E5.74402
G1 X152.153 Y147.934 E5.76681
G1 X151.245 Y148.505 E5.80605
G1 X150.981 Y148.661 E5.81727
G1 X150.419 Y148.972 E5.84077
G1 X149.537 Y149.419 E5.87695
G1 X149.191 Y149.583 E5.89096
G1 X148.635 Y149.829 E5.9132
G1 X147.8 Y150.165 E5.94613
G1 X147.446 Y150.298 E5.95996
G1 X146.796 Y150.519 E5.98508
G1 X145.824 Y150.81 E6.0222
G1 X145.312 Y150.947 E6.04159
G1 X144.63 Y151.106 E6.06722
G1 X144.038 Y151.225 E6.08931
G1 X143.561 Y151.311 E6.10704
G1 X142.407 Y151.485 E6.14974
G1 X141.837 Y151.551 E6.17073
G1 X140.912 Y151.632 E6.2047
G1 X140.346 Y151.667 E6.22545
G1 X139.727 Y151.688 E6.24811
G1 X138.38 Y151.696 E6.29739
G1 X137.159 Y151.666 E6.34208
G1 X135.542 Y151.568 E6.40135
G1 X133.663 Y151.402 E6.47036
G1 X131.414 Y151.157 E6.55313
G1 X129.38 Y150.911 E6.62809
G1 X126.867 Y150.643 E6.72055
G1 X124.338 Y150.445 E6.81336
G1 X121.861 Y150.321 E6.9041
G1 X119.313 Y150.267 E6.99734
G1 X116.79 Y150.284 E7.08965
G1 X114.309 Y150.371 E7.18047
G1 X111.768 Y150.532 E7.27363
G1 X109.36 Y150.752 E7.36209
G1 X107.84 Y150.907 E7.41799
G1 X105.953 Y151.085 E7.48734
G1 X104.516 Y151.202 E7.54008
G1 X103.015 Y151.304 E7.59513
G1 X101.349 Y151.392 E7.65616
G1 X99.764 Y151.435 E7.71417
G1 X98.179 Y151.435 E7.77216
G1 X96.393 Y151.38 E7.83754
G1 X94.816 Y151.28 E7.89535
G1 X93.598 Y151.165 E7.94011
G1 X93.204 Y151.121 E7.95461
G1 X92.155 Y150.984 E7.99332
G1 X91.739 Y150.921 E8.00871
G1 X90.558 Y150.721 E8.05254
G1 X90.109 Y150.636 E8.06926
G1 X88.708 Y150.339 E8.12165
G1 X88.259 Y150.234 E8.13852
G1 X87.489 Y150.037 E8.1676
G1 X87.061 Y149.918 E8.18385
G1 X86.048 Y149.611 E8.22258
G1 X85.358 Y149.381 E8.24919
G1 X84.464 Y149.057 E8.28398
G1 X83.633 Y148.728 E8.31668
G1 X82.905 Y148.415 E8.34567
G1 X81.966 Y147.977 E8.38358
G1 X81.297 Y147.64 E8.41099
G1 X80.515 Y147.217 E8.44351
G1 X79.824 Y146.816 E8.47274
G1 X79.161 Y146.407 E8.50124
G1 X78.454 Y145.941 E8.53222
G1 X77.535 Y145.295 E8.57332
G1 X76.94 Y144.846 E8.60059
G1 X76.726 Y144.673 E8.61066
G1 X76.019 Y144.05 E8.64514
G1 X75.42 Y143.43 E8.67668
G1 X75.131 Y143.106 E8.69256
G1 X74.535 Y142.377 E8.72701
G1 X73.963 Y141.536 E8.76422
G1 X73.798 Y141.268 E8.77574
G1 X73.338 Y140.446 E8.8102
G1 X72.85 Y139.328 E8.85483
G1 X72.759 Y139.084 E8.86436
G1 X72.467 Y138.188 E8.89884
G1 X72.337 Y137.675 E8.9182
G1 X72.24 Y137.25 E8.93415
G1 X72.07 Y136.323 E8.96863
G1 X71.974 Y135.291 E9.00655
G1 X71.947 Y134.585 E9.0324
G1 X71.936 Y133.701 E9.06474
G1 X71.944 Y100.779 E10.26923
G0 F2100 X72.384 Y100.788
G1 F1200 X72.398 Y100.057 E10.29598
G1 X72.456 Y99.135 E10.32978
G1 X72.591 Y98.23 E10.36326
G1 X72.657 Y97.89 E10.37593
G1 X72.884 Y96.952 E10.41124
G1 X72.942 Y96.752 E10.41885
G1 X73.237 Y95.877 E10.45264
G1 X73.531 Y95.19 E10.47998
G1 X73.647 Y94.943 E10.48996
G1 X74.256 Y93.824 E10.53657
G1 X74.381 Y93.624 E10.5452
G1 X74.904 Y92.863 E10.57898
G1 X75.308 Y92.359 E10.60262
G1 X75.51 Y92.122 E10.61401
G1 X76.139 Y91.446 E10.64779
G1 X76.56 Y91.053 E10.66886
G1 X76.794 Y90.846 E10.68029
G1 X77.547 Y90.238 E10.7157
G1 X78.176 Y89.782 E10.74413
G1 X78.961 Y89.246 E10.7789
G1 X79.606 Y88.832 E10.80694
G1 X80.295 Y88.417 E10.83637
G1 X81.042 Y87.994 E10.86778
G1 X81.724 Y87.634 E10.89599
G1 X82.529 Y87.24 E10.92878
G1 X83.127 Y86.969 E10.9528
G1 X84.166 Y86.531 E10.99406
G1 X84.922 Y86.241 E11.02368
G1 X85.709 Y85.964 E11.0542
G1 X86.657 Y85.659 E11.09064
G1 X87.322 Y85.467 E11.11596
G1 X88.14 Y85.248 E11.14694
G1 X88.678 Y85.119 E11.16719
G1 X90.191 Y84.797 E11.22378
G1 X90.633 Y84.712 E11.24025
G1 X91.816 Y84.512 E11.28414
G1 X92.21 Y84.453 E11.29872
G1 X93.257 Y84.316 E11.33735
G1 X93.64 Y84.273 E11.35145
G1 X95.226 Y84.13 E11.40971
G1 X96.761 Y84.044 E11.46596
G1 X98.524 Y84.001 E11.53048
G1 X100.067 Y84.011 E11.58693
G1 X101.638 Y84.06 E11.64444
G1 X103.14 Y84.144 E11.69948
G1 X104.617 Y84.247 E11.75365
G1 X106.066 Y84.366 E11.80684
G1 X108.351 Y84.585 E11.89082
G1 X109.272 Y84.682 E11.9247
G1 X111.894 Y84.919 E12.02102
G1 X114.415 Y85.074 E12.11343
G1 X116.929 Y85.159 E12.20546
G1 X119.474 Y85.172 E12.29857
G1 X121.979 Y85.115 E12.39025
G1 X124.519 Y84.984 E12.4833
G1 X127.025 Y84.784 E12.57527
G1 X129.514 Y84.517 E12.66686
G1 X132.4 Y84.174 E12.77319
G1 X133.703 Y84.037 E12.82112
G1 X135.57 Y83.871 E12.8897
G1 X137.173 Y83.774 E12.94846
G1 X138.375 Y83.744 E12.99245
G1 X139.614 Y83.751 E13.03778
G1 X140.08 Y83.764 E13.05483
G1 X140.707 Y83.795 E13.0778
G1 X141.597 Y83.867 E13.11047
G1 X141.997 Y83.911 E13.12519
G1 X142.818 Y84.017 E13.15548
G1 X143.388 Y84.106 E13.17658
G1 X144.565 Y84.331 E13.22043
G1 X144.962 Y84.42 E13.23531
G1 X145.805 Y84.64 E13.26719
G1 X146.56 Y84.866 E13.29602
G1 X147.133 Y85.06 E13.31815
G1 X148.029 Y85.398 E13.35319
G1 X148.381 Y85.541 E13.36709
G1 X148.935 Y85.785 E13.38924
G1 X149.761 Y86.181 E13.42275
G1 X150.074 Y86.341 E13.43561
G1 X150.624 Y86.643 E13.45857
G1 X151.437 Y87.126 E13.49317
G1 X151.709 Y87.297 E13.50492
G1 X152.261 Y87.669 E13.52927
G1 X153.089 Y88.271 E13.56673
G1 X153.362 Y88.48 E13.57931
G1 X153.845 Y88.872 E13.60206
G1 X154.547 Y89.487 E13.63621
G1 X154.912 Y89.825 E13.65441
G1 X155.292 Y90.194 E13.67379
G1 X155.803 Y90.726 E13.70078
G1 X156.287 Y91.256 E13.72704
G1 X156.684 Y91.716 E13.74927
G1 X157.007 Y92.113 E13.76799
G1 X157.332 Y92.534 E13.78745
G1 X157.892 Y93.297 E13.82208
G1 X158.304 Y93.9 E13.8488
G1 X158.786 Y94.661 E13.88175
G1 X159.128 Y95.241 E13.90639
G1 X159.521 Y95.958 E13.9363
G1 X159.824 Y96.554 E13.96076
G1 X160.189 Y97.332 E13.9922
G1 X160.426 Y97.876 E14.01391
G1 X160.791 Y98.795 E14.05009
G1 X161.061 Y99.558 E14.0797
G1 X161.308 Y100.331 E14.10939
G1 X161.555 Y101.2 E14.14245
G1 X161.794 Y102.178 E14.17928
G1 X161.889 Y102.614 E14.19561
G1 X162.053 Y103.487 E14.2281
G1 X162.22 Y104.561 E14.26787
G1 X162.338 Y105.505 E14.30268
G1 X162.425 Y106.422 E14.33638
G1 X162.557 Y108.493 E14.4123
G1 X162.605 Y110.043 E14.46904
G1 X162.617 Y111.217 E14.51199
G1 X162.616 Y123.912 E14.97645
G1 X162.596 Y125.389 E15.03049
G1 X162.539 Y126.865 E15.08454
G1 X162.395 Y128.943 E15.16074
G1 X162.307 Y129.77 E15.19117
G1 X162.171 Y130.779 E15.22842
G1 X162.02 Y131.693 E15.26231
G1 X161.848 Y132.573 E15.29512
G1 X161.703 Y133.221 E15.31941
G1 X161.577 Y133.723 E15.33835
G1 X161.366 Y134.478 E15.36703
G1 X161.133 Y135.228 E15.39576
G1 X160.912 Y135.873 E15.42071
G1 X160.652 Y136.569 E15.44789
G1 X160.391 Y137.203 E15.47297
G1 X160.069 Y137.932 E15.50213
G1 X159.781 Y138.534 E15.52655
G1 X159.38 Y139.307 E15.55841
G1 X159.046 Y139.902 E15.58337
G1 X158.621 Y140.607 E15.61349
G1 X158.306 Y141.098 E15.63483
G1 X157.902 Y141.692 E15.66111
G1 X157.481 Y142.269 E15.68725
G1 X156.882 Y143.034 E15.72279
G1 X156.584 Y143.398 E15.74
G1 X156.255 Y143.782 E15.75851
G1 X155.81 Y144.27 E15.78267
G1 X155.283 Y144.813 E15.81035
G1 X154.86 Y145.225 E15.83196
G1 X154.279 Y145.753 E15.86068
G1 X153.89 Y146.089 E15.87948
G1 X153.434 Y146.462 E15.90104
G1 X152.704 Y147.017 E15.93459
G1 X152.412 Y147.227 E15.94775
G1 X151.917 Y147.563 E15.96964
G1 X151.021 Y148.126 E16.00835
G1 X150.757 Y148.282 E16.01957
G1 X150.218 Y148.58 E16.0421
G1 X149.349 Y149.022 E16.07777
G1 X149.003 Y149.186 E16.09178
G1 X148.468 Y149.421 E16.11316
G1 X147.645 Y149.753 E16.14563
G1 X147.291 Y149.886 E16.15946
G1 X146.667 Y150.099 E16.18359
G1 X145.71 Y150.385 E16.22013
G1 X145.198 Y150.522 E16.23952
G1 X144.544 Y150.675 E16.26409
G1 X143.952 Y150.794 E16.28619
G1 X143.493 Y150.876 E16.30325
G1 X142.352 Y151.049 E16.34547
G1 X141.796 Y151.113 E16.36594
G1 X140.885 Y151.193 E16.3994
G1 X140.319 Y151.228 E16.42015
G1 X139.724 Y151.248 E16.44193
G1 X138.377 Y151.256 E16.49121
G1 X137.172 Y151.226 E16.53531
G1 X135.57 Y151.129 E16.59403
G1 X133.505 Y150.944 E16.66988
G1 X131.467 Y150.72 E16.7449
G1 X129.478 Y150.479 E16.8182
G1 X126.877 Y150.202 E16.9139
G1 X124.396 Y150.008 E17.00494
G1 X121.858 Y149.881 E17.09792
G1 X119.319 Y149.827 E17.19083
G1 X116.772 Y149.844 E17.28402
G1 X114.302 Y149.931 E17.37444
G1 X111.734 Y150.094 E17.46858
G1 X109.276 Y150.318 E17.55888
G1 X107.798 Y150.469 E17.61324
G1 X105.918 Y150.647 E17.68233
G1 X104.486 Y150.763 E17.73489
G1 X102.991 Y150.865 E17.78972
G1 X101.336 Y150.952 E17.85035
G1 X99.762 Y150.995 E17.90796
G1 X98.191 Y150.995 E17.96543
G1 X96.419 Y150.941 E18.03029
G1 X94.857 Y150.842 E18.08756
G1 X93.639 Y150.727 E18.13232
G1 X92.212 Y150.547 E18.18494
G1 X91.812 Y150.487 E18.19974
G1 X90.631 Y150.287 E18.24356
G1 X90.2 Y150.205 E18.25961
G1 X88.799 Y149.908 E18.31201
G1 X88.368 Y149.807 E18.3282
G1 X87.187 Y149.497 E18.37288
G1 X86.185 Y149.193 E18.41119
G1 X85.505 Y148.966 E18.43741
G1 X84.624 Y148.647 E18.47169
G1 X83.805 Y148.323 E18.50392
G1 X83.088 Y148.015 E18.53247
G1 X82.161 Y147.583 E18.56989
G1 X81.505 Y147.252 E18.59677
G1 X80.734 Y146.835 E18.62884
G1 X80.054 Y146.44 E18.65761
G1 X79.399 Y146.037 E18.68575
G1 X78.707 Y145.581 E18.71607
G1 X77.788 Y144.935 E18.75716
G1 X77.216 Y144.504 E18.78337
G1 X77.002 Y144.331 E18.79343
G1 X76.31 Y143.72 E18.82721
G1 X75.749 Y143.137 E18.85681
G1 X75.46 Y142.813 E18.87269
G1 X74.876 Y142.098 E18.90647
G1 X74.337 Y141.306 E18.94152
G1 X74.172 Y141.038 E18.95303
G1 X73.723 Y140.231 E18.98682
G1 X73.262 Y139.174 E19.02901
G1 X73.171 Y138.93 E19.03854
G1 X72.886 Y138.052 E19.07231
G1 X72.766 Y137.577 E19.09024
G1 X72.669 Y137.152 E19.10618
G1 X72.503 Y136.244 E19.13996
G1 X72.413 Y135.271 E19.17571
G1 X72.387 Y134.579 E19.20104
G1 X72.376 Y133.701 E19.23317
G1 X72.384 Y100.788 E20.43733
G0 F2100 X72.824 Y100.796
G1 F1200 X72.838 Y100.065 E20.46408
G1 X72.895 Y99.163 E20.49714
G1 X73.023 Y98.313 E20.52859
G1 X73.089 Y97.973 E20.54126
G1 X73.306 Y97.074 E20.5751
G1 X73.364 Y96.874 E20.58272
G1 X73.654 Y96.018 E20.61578
G1 X73.929 Y95.377 E20.6413
G1 X74.045 Y95.13 E20.65129
G1 X74.629 Y94.057 E20.69598
G1 X74.754 Y93.857 E20.70461
G1 X75.267 Y93.113 E20.73767
G1 X75.643 Y92.645 E20.75964
G1 X75.845 Y92.408 E20.77103
G1 X76.461 Y91.746 E20.80411
G1 X76.851 Y91.382 E20.82363
G1 X77.085 Y91.175 E20.83506
G1 X77.807 Y90.593 E20.86899
G1 X78.426 Y90.145 E20.89695
G1 X79.201 Y89.615 E20.9313
G1 X79.834 Y89.208 E20.95883
G1 X80.514 Y88.799 E20.98786
G1 X81.25 Y88.382 E21.01881
G1 X81.919 Y88.028 E21.0465
G1 X82.713 Y87.639 E21.07885
G1 X83.299 Y87.374 E21.10238
G1 X84.326 Y86.941 E21.14316
G1 X85.07 Y86.655 E21.17232
G1 X85.846 Y86.383 E21.2024
G1 X86.782 Y86.081 E21.23839
G1 X87.436 Y85.892 E21.26329
G1 X88.254 Y85.673 E21.29428
G1 X88.77 Y85.549 E21.31369
G1 X90.283 Y85.227 E21.37029
G1 X90.706 Y85.146 E21.38604
G1 X91.889 Y84.946 E21.42994
G1 X92.267 Y84.889 E21.44392
G1 X93.314 Y84.752 E21.48256
