;FLAVOR:Marlin
;TIME:397
;Filament used: 0.307354m
;Layer height: 0.2
;MINX:65.901
;MINY:83.952
;MINZ:0.2
;MAXX:169.098
;MAXY:151.044
;MAXZ:3
;Generated with Cura_SteamEngine 5.0.0
M140 S60
M105
M190 S60
M104 S222
M105
M109 S222
M82 ;absolute extrusion mode
; Ender 3 Custom Start G-code
G92 E0 ; Reset Extruder
M140 S60 ; Start heating the heated bed
M190 S60 ; Wait until the heated bed reaches the desired temperature
G28 ; Auto Home
G29 A; Activate Bed Leveling
G29 L0; Loads the saved mesh in slot 0
G29  J3; 9 point autotilt

G92 E0 ; Reset extruder origin
G1 Z2.0 F3000 ; Move Z Axis up little to prevent scratching of Heat Bed
G1 X0.1 Y20 Z0.3 F5000.0 ; Move to start position
G1 X0.1 Y200.0 Z0.3 F1500.0 E15 ; Draw the first line
G1 X0.4 Y200.0 Z0.3 F5000.0 ; Move to side a little
G1 X0.4 Y20 Z0.3 F1500.0 E30 ; Draw the second line
G92 E0 ; Reset Extruder
G1 Z2.0 F3000 ; Move Z Axis up little to prevent scratching of Heat Bed
G1 X5 Y20 Z0.3 F5000.0 ; Move over to prevent blob squish

; End of Ender 3 Custom Start G-code
G92 E0
G92 E0
G1 F2700 E-5
;LAYER_COUNT:15
;LAYER:0
M107
G0 F2100 X72.033 Y95.904 Z0.2
G0 X66.166 Y107.42
;TYPE:SKIRT
G1 F2700 E0
G1 F1200 X66.239 Y106.784 E0.02342
G1 X66.354 Y105.979 E0.05317
G1 X66.477 Y105.277 E0.07925
G1 X66.578 Y104.794 E0.0973
G1 X66.808 Y103.886 E0.13157
G1 X67.043 Y103.1 E0.16158
G1 X67.351 Y102.21 E0.19604
G1 X67.644 Y101.533 E0.22303
G1 X67.882 Y101.03 E0.24339
G1 X68.321 Y100.196 E0.27787
G1 X68.625 Y99.704 E0.29903
G1 X68.959 Y99.193 E0.32136
G1 X69.507 Y98.427 E0.35582
G1 X69.967 Y97.877 E0.38206
G1 X70.314 Y97.488 E0.40113
G1 X70.97 Y96.812 E0.43559
G1 X71.551 Y96.3 E0.46392
G1 X72.033 Y95.904 E0.48675
G1 X72.785 Y95.338 E0.52118
G1 X73.606 Y94.824 E0.55662
G1 X74.13 Y94.527 E0.57866
G1 X75.101 Y94.038 E0.61843
G1 X75.735 Y93.771 E0.6436
G1 X76.651 Y93.416 E0.67954
G1 X79.131 Y92.415 E0.77739
G1 X81.398 Y91.424 E0.86791
G1 X83.665 Y90.357 E0.95957
G1 X85.931 Y89.21 E1.05249
G1 X87.707 Y88.249 E1.12637
G1 X89.046 Y87.563 E1.18142
G1 X89.757 Y87.223 E1.21025
G1 X90.179 Y87.037 E1.22712
G1 X90.988 Y86.703 E1.25915
G1 X91.579 Y86.478 E1.28228
G1 X92.501 Y86.153 E1.31805
G1 X93.308 Y85.893 E1.34907
G1 X94.303 Y85.602 E1.387
G1 X94.95 Y85.434 E1.41145
G1 X96.025 Y85.18 E1.45187
G1 X96.48 Y85.083 E1.46889
G1 X97.504 Y84.886 E1.50704
G1 X98.036 Y84.797 E1.52677
G1 X99.539 Y84.583 E1.58232
G1 X99.977 Y84.529 E1.59846
G1 X101.29 Y84.395 E1.64675
G1 X101.695 Y84.361 E1.66162
G1 X103.359 Y84.259 E1.72261
G1 X104.936 Y84.215 E1.78033
G1 X106.489 Y84.217 E1.83715
G1 X108.025 Y84.259 E1.89337
G1 X109.494 Y84.331 E1.94718
G1 X110.737 Y84.416 E1.99276
G1 X112.352 Y84.545 E2.05203
G1 X113.523 Y84.65 E2.09505
G1 X115.988 Y84.897 E2.18568
G1 X118.55 Y85.131 E2.27981
G1 X121.061 Y85.289 E2.37186
G1 X123.542 Y85.374 E2.46268
G1 X126.096 Y85.389 E2.55612
G1 X128.576 Y85.334 E2.64688
G1 X131.127 Y85.205 E2.74033
G1 X133.582 Y85.011 E2.83043
G1 X136.341 Y84.712 E2.93196
G1 X139.23 Y84.37 E3.0384
G1 X140.539 Y84.235 E3.08654
G1 X141.554 Y84.143 E3.12383
G1 X143.15 Y84.027 E3.18238
G1 X144.703 Y83.963 E3.23924
G1 X145.488 Y83.952 E3.26796
G1 X145.978 Y83.956 E3.28589
G1 X147.065 Y83.996 E3.32569
G1 X147.815 Y84.045 E3.35319
G1 X148.456 Y84.105 E3.37674
G1 X149.513 Y84.236 E3.41571
G1 X150.301 Y84.357 E3.44488
G1 X150.84 Y84.459 E3.46495
G1 X151.55 Y84.617 E3.49156
G1 X151.969 Y84.72 E3.50734
G1 X152.603 Y84.896 E3.53142
G1 X153.739 Y85.255 E3.575
G1 X154.1 Y85.381 E3.58899
G1 X154.668 Y85.597 E3.61123
G1 X155.438 Y85.926 E3.64186
G1 X156.073 Y86.222 E3.66749
G1 X156.768 Y86.577 E3.69605
G1 X157.233 Y86.835 E3.7155
G1 X157.647 Y87.077 E3.73305
G1 X158.086 Y87.346 E3.75188
G1 X158.692 Y87.745 E3.77843
G1 X159.285 Y88.164 E3.80499
G1 X159.825 Y88.57 E3.82971
G1 X160.32 Y88.967 E3.85293
G1 X160.897 Y89.463 E3.88076
G1 X161.457 Y89.979 E3.90862
G1 X161.976 Y90.49 E3.93527
G1 X162.488 Y91.028 E3.96244
G1 X162.973 Y91.573 E3.98913
G1 X163.459 Y92.156 E4.0169
G1 X163.835 Y92.633 E4.03913
G1 X164.425 Y93.437 E4.07561
G1 X164.749 Y93.907 E4.0965
G1 X165.042 Y94.354 E4.11605
G1 X165.338 Y94.831 E4.13659
G1 X165.629 Y95.33 E4.15772
G1 X165.977 Y95.962 E4.18412
G1 X166.241 Y96.471 E4.2051
G1 X166.519 Y97.044 E4.2284
G1 X166.773 Y97.606 E4.25096
G1 X167.067 Y98.309 E4.27884
G1 X167.286 Y98.877 E4.30111
G1 X167.536 Y99.581 E4.32845
G1 X167.721 Y100.151 E4.35037
G1 X167.942 Y100.899 E4.37891
G1 X168.085 Y101.432 E4.3991
G1 X168.27 Y102.196 E4.42786
G1 X168.377 Y102.686 E4.44621
G1 X168.53 Y103.496 E4.47636
G1 X168.646 Y104.242 E4.50399
G1 X168.871 Y106.036 E4.57014
G1 X168.931 Y106.687 E4.59405
G1 X168.992 Y107.548 E4.62563
G1 X169.031 Y108.329 E4.65424
G1 X169.083 Y110.121 E4.71983
G1 X169.096 Y111.219 E4.76001
G1 X169.098 Y121.286 E5.12832
G1 X169.094 Y124.052 E5.22952
G1 X169.062 Y125.856 E5.29553
G1 X169.026 Y126.808 E5.33038
G1 X168.978 Y127.674 E5.36212
G1 X168.91 Y128.564 E5.39477
G1 X168.832 Y129.313 E5.42232
G1 X168.646 Y130.758 E5.47563
G1 X168.533 Y131.489 E5.50269
G1 X168.395 Y132.225 E5.53009
G1 X168.148 Y133.325 E5.57133
G1 X168.005 Y133.878 E5.59223
G1 X167.791 Y134.626 E5.6207
G1 X167.612 Y135.194 E5.64248
G1 X167.367 Y135.904 E5.66996
G1 X167.148 Y136.484 E5.69265
G1 X166.872 Y137.159 E5.71933
G1 X166.66 Y137.645 E5.73872
G1 X166.387 Y138.231 E5.76238
G1 X166.119 Y138.768 E5.78433
G1 X165.799 Y139.368 E5.80921
G1 X165.544 Y139.82 E5.8282
G1 X165.259 Y140.299 E5.84859
G1 X164.928 Y140.821 E5.87121
G1 X164.512 Y141.439 E5.89846
G1 X164.007 Y142.141 E5.9301
G1 X163.749 Y142.477 E5.9456
G1 X163.287 Y143.055 E5.97267
G1 X162.846 Y143.573 E5.99756
G1 X162.379 Y144.089 E6.02302
G1 X161.945 Y144.542 E6.04597
G1 X161.492 Y144.989 E6.06926
G1 X160.968 Y145.474 E6.09538
G1 X160.426 Y145.944 E6.12163
G1 X159.861 Y146.403 E6.14826
G1 X159.348 Y146.792 E6.17182
G1 X158.757 Y147.21 E6.1983
G1 X158.136 Y147.62 E6.22552
G1 X157.456 Y148.035 E6.25467
G1 X156.799 Y148.404 E6.28224
G1 X156.04 Y148.793 E6.31344
G1 X155.288 Y149.137 E6.3437
G1 X154.759 Y149.364 E6.36476
G1 X154.071 Y149.632 E6.39177
G1 X153.394 Y149.864 E6.41795
G1 X152.916 Y150.015 E6.43629
G1 X152.261 Y150.2 E6.4612
G1 X151.06 Y150.492 E6.50642
G1 X150.675 Y150.573 E6.52081
G1 X150.031 Y150.689 E6.54475
G1 X149.362 Y150.789 E6.5695
G1 X148.772 Y150.861 E6.59124
G1 X147.742 Y150.959 E6.6291
G1 X147.128 Y151 E6.65161
G1 X146.265 Y151.034 E6.68321
G1 X145.841 Y151.043 E6.69873
G1 X145.016 Y151.044 E6.72891
G1 X144.514 Y151.033 E6.74728
G1 X142.795 Y150.952 E6.81024
G1 X141.391 Y150.843 E6.86176
G1 X140.405 Y150.752 E6.89799
G1 X139.088 Y150.614 E6.94644
G1 X137.32 Y150.409 E7.01156
G1 X136.322 Y150.285 E7.04835
G1 X133.733 Y150.004 E7.14363
G1 X131.244 Y149.803 E7.23499
G1 X128.73 Y149.672 E7.32709
G1 X126.21 Y149.613 E7.41931
G1 X123.695 Y149.623 E7.51133
G1 X121.179 Y149.706 E7.60343
G1 X118.69 Y149.859 E7.69466
G1 X115.523 Y150.15 E7.81102
G1 X113.41 Y150.36 E7.88871
G1 X112.237 Y150.465 E7.93179
G1 X110.588 Y150.595 E7.99231
G1 X109.048 Y150.694 E8.04877
G1 X107.592 Y150.757 E8.10209
G1 X106.187 Y150.787 E8.15351
G1 X104.609 Y150.78 E8.21124
G1 X103.359 Y150.741 E8.25699
G1 X101.695 Y150.638 E8.31799
G1 X101.293 Y150.605 E8.33275
G1 X99.978 Y150.471 E8.38111
G1 X99.544 Y150.418 E8.3971
G1 X98.162 Y150.222 E8.44817
G1 X97.717 Y150.15 E8.46466
G1 X96.78 Y149.978 E8.49952
G1 X96.32 Y149.883 E8.5167
G1 X95.213 Y149.631 E8.55824
G1 X94.763 Y149.519 E8.57521
G1 X93.681 Y149.221 E8.61627
G1 X93.075 Y149.035 E8.63946
G1 X92.182 Y148.738 E8.67389
G1 X91.327 Y148.426 E8.70719
G1 X90.527 Y148.108 E8.73868
G1 X90.08 Y147.919 E8.75644
G1 X89.599 Y147.703 E8.77573
G1 X89.089 Y147.458 E8.79643
G1 X87.473 Y146.627 E8.86291
G1 X86.16 Y145.911 E8.91763
G1 X83.929 Y144.775 E9.00922
G1 X81.625 Y143.683 E9.10251
G1 X79.353 Y142.683 E9.19333
G1 X76.949 Y141.706 E9.28827
G1 X75.651 Y141.196 E9.33929
G1 X75.292 Y141.045 E9.35354
G1 X74.44 Y140.643 E9.388
G1 X73.824 Y140.305 E9.41371
G1 X73.428 Y140.072 E9.43052
G1 X72.637 Y139.56 E9.46499
G1 X72.151 Y139.195 E9.48723
G1 X71.81 Y138.924 E9.50317
G1 X71.098 Y138.307 E9.53764
G1 X70.697 Y137.909 E9.55831
G1 X70.295 Y137.489 E9.57958
G1 X69.673 Y136.782 E9.61403
G1 X69.213 Y136.169 E9.64207
G1 X68.882 Y135.695 E9.66322
G1 X68.376 Y134.9 E9.6977
G1 X68.023 Y134.239 E9.72511
G1 X67.721 Y133.625 E9.75015
G1 X67.341 Y132.763 E9.78461
G1 X67.138 Y132.198 E9.80658
G1 X67 Y131.779 E9.82272
G1 X66.736 Y130.84 E9.85841
G1 X66.533 Y129.974 E9.89095
G1 X66.353 Y129.019 E9.9265
G1 X66.219 Y128.027 E9.96313
G1 X66.096 Y126.791 E10.00857
G1 X66.024 Y125.763 E10.04627
G1 X65.987 Y125.002 E10.07415
G1 X65.938 Y123.22 E10.13937
G1 X65.92 Y122.181 E10.17739
G1 X65.901 Y119.655 E10.26981
G1 X65.906 Y114.417 E10.46144
G1 X65.937 Y111.784 E10.55778
G1 X65.996 Y109.809 E10.63007
G1 X66.068 Y108.58 E10.67511
G1 X66.166 Y107.42 E10.71771
G1 F2700 E5.71771
G0 F2100 X66.377 Y111.796
G1 F2700 E10.71771
G1 F1200 X66.436 Y109.833 E10.78956
G1 X66.507 Y108.617 E10.83412
G1 X66.605 Y107.457 E10.87671
G1 X66.674 Y106.846 E10.89921
G1 X66.789 Y106.041 E10.92896
G1 X66.908 Y105.367 E10.954
G1 X67.009 Y104.884 E10.97205
G1 X67.23 Y104.012 E11.00496
G1 X67.465 Y103.226 E11.03498
G1 X67.767 Y102.354 E11.06874
G1 X68.042 Y101.721 E11.09399
G1 X68.28 Y101.218 E11.11435
G1 X68.711 Y100.401 E11.14815
G1 X68.993 Y99.945 E11.16776
G1 X69.327 Y99.434 E11.1901
G1 X69.865 Y98.684 E11.22387
G1 X70.295 Y98.17 E11.24838
G1 X70.642 Y97.781 E11.26746
G1 X71.286 Y97.119 E11.30125
G1 X71.83 Y96.64 E11.32776
G1 X72.312 Y96.244 E11.35059
G1 X73.05 Y95.69 E11.38435
G1 X73.823 Y95.207 E11.4177
G1 X74.347 Y94.91 E11.43973
G1 X75.28 Y94.44 E11.47795
G1 X75.894 Y94.181 E11.50233
G1 X76.836 Y93.816 E11.5393
G1 X79.291 Y92.825 E11.63616
G1 X81.579 Y91.825 E11.72751
G1 X83.882 Y90.741 E11.82064
G1 X86.129 Y89.604 E11.91277
G1 X87.907 Y88.641 E11.98675
G1 X89.246 Y87.955 E12.04179
G1 X89.942 Y87.622 E12.07002
G1 X90.348 Y87.443 E12.08626
G1 X91.148 Y87.113 E12.11792
G1 X91.727 Y86.892 E12.14059
G1 X92.638 Y86.571 E12.17593
G1 X93.433 Y86.315 E12.20649
G1 X94.417 Y86.027 E12.244
G1 X95.051 Y85.863 E12.26796
G1 X96.126 Y85.609 E12.30837
G1 X96.563 Y85.515 E12.32472
G1 X97.587 Y85.318 E12.36287
G1 X98.098 Y85.232 E12.38183
G1 X99.601 Y85.018 E12.43738
G1 X100.022 Y84.967 E12.45289
G1 X101.335 Y84.833 E12.50118
G1 X103.013 Y84.717 E12.56272
G1 X103.373 Y84.699 E12.5759
G1 X104.937 Y84.655 E12.63315
G1 X106.478 Y84.656 E12.68953
G1 X108.004 Y84.698 E12.74538
G1 X109.464 Y84.77 E12.79886
G1 X110.703 Y84.854 E12.84429
G1 X112.312 Y84.983 E12.90335
G1 X113.48 Y85.088 E12.94625
G1 X115.915 Y85.332 E13.03579
G1 X118.519 Y85.57 E13.13146
G1 X121.017 Y85.727 E13.22303
G1 X123.56 Y85.814 E13.31612
G1 X126.103 Y85.829 E13.40916
G1 X128.61 Y85.773 E13.50091
G1 X131.113 Y85.647 E13.5926
G1 X133.662 Y85.445 E13.68615
G1 X136.378 Y85.151 E13.7861
G1 X139.145 Y84.822 E13.88804
G1 X140.579 Y84.673 E13.94079
G1 X141.588 Y84.582 E13.97785
G1 X143.169 Y84.466 E14.03585
G1 X144.71 Y84.403 E14.09228
G1 X145.495 Y84.392 E14.121
G1 X145.965 Y84.396 E14.1382
G1 X147.036 Y84.435 E14.17741
G1 X147.786 Y84.484 E14.20491
G1 X148.402 Y84.542 E14.22754
G1 X149.459 Y84.673 E14.26651
G1 X150.229 Y84.791 E14.29501
G1 X150.747 Y84.889 E14.3143
G1 X151.445 Y85.044 E14.34046
G1 X151.864 Y85.147 E14.35624
G1 X152.473 Y85.316 E14.37937
G1 X153.594 Y85.67 E14.42238
G1 X153.955 Y85.796 E14.43637
G1 X154.501 Y86.004 E14.45774
G1 X155.252 Y86.325 E14.48762
G1 X155.887 Y86.621 E14.51325
G1 X156.555 Y86.962 E14.54069
G1 X157.02 Y87.22 E14.56015
G1 X157.418 Y87.452 E14.577
G1 X157.857 Y87.721 E14.59584
G1 X158.438 Y88.104 E14.6213
G1 X159.031 Y88.523 E14.64787
G1 X159.549 Y88.913 E14.67159
G1 X160.044 Y89.31 E14.6948
G1 X160.598 Y89.787 E14.72155
G1 X161.158 Y90.303 E14.74941
G1 X161.657 Y90.793 E14.775
G1 X162.169 Y91.331 E14.80217
G1 X162.635 Y91.854 E14.8278
G1 X163.121 Y92.437 E14.85557
G1 X163.483 Y92.896 E14.87695
G1 X164.063 Y93.687 E14.91284
G1 X164.387 Y94.157 E14.93372
G1 X164.668 Y94.586 E14.95249
G1 X164.964 Y95.063 E14.97303
G1 X165.244 Y95.542 E14.99333
G1 X165.592 Y96.174 E15.01972
G1 X165.845 Y96.663 E15.03986
G1 X166.123 Y97.236 E15.06317
G1 X166.367 Y97.776 E15.08485
G1 X166.661 Y98.479 E15.11272
G1 X166.871 Y99.025 E15.13413
G1 X167.121 Y99.729 E15.16146
G1 X167.299 Y100.276 E15.1825
G1 X167.52 Y101.024 E15.21104
G1 X167.658 Y101.535 E15.23041
G1 X167.843 Y102.299 E15.25917
G1 X167.945 Y102.77 E15.2768
G1 X168.096 Y103.568 E15.30651
G1 X168.21 Y104.298 E15.33354
G1 X168.434 Y106.078 E15.39918
G1 X168.493 Y106.719 E15.42273
G1 X168.553 Y107.571 E15.45398
G1 X168.591 Y108.343 E15.48226
G1 X168.643 Y110.127 E15.54755
G1 X168.656 Y111.22 E15.58755
G1 X168.658 Y121.285 E15.95579
G1 X168.654 Y124.045 E16.05676
G1 X168.622 Y125.84 E16.12245
G1 X168.586 Y126.785 E16.15705
G1 X168.539 Y127.642 E16.18845
G1 X168.472 Y128.522 E16.22074
G1 X168.396 Y129.257 E16.24777
G1 X168.21 Y130.702 E16.30107
G1 X168.098 Y131.417 E16.32755
G1 X167.962 Y132.142 E16.35454
G1 X167.719 Y133.226 E16.39518
G1 X167.582 Y133.757 E16.41525
G1 X167.368 Y134.505 E16.44371
G1 X167.196 Y135.05 E16.46462
G1 X166.951 Y135.76 E16.4921
G1 X166.741 Y136.318 E16.51391
G1 X166.465 Y136.993 E16.54059
G1 X166.261 Y137.46 E16.55924
G1 X165.988 Y138.046 E16.58289
G1 X165.731 Y138.56 E16.60391
G1 X165.411 Y139.16 E16.62879
G1 X165.166 Y139.595 E16.64706
G1 X164.881 Y140.074 E16.66745
G1 X164.563 Y140.576 E16.68919
G1 X164.147 Y141.194 E16.71645
G1 X163.653 Y141.88 E16.74737
G1 X163.405 Y142.203 E16.76227
G1 X162.943 Y142.781 E16.78935
G1 X162.52 Y143.278 E16.81322
G1 X162.053 Y143.794 E16.83869
G1 X161.636 Y144.229 E16.86073
G1 X161.183 Y144.676 E16.88402
G1 X160.68 Y145.142 E16.9091
G1 X160.138 Y145.612 E16.93535
G1 X159.595 Y146.052 E16.96092
G1 X159.082 Y146.441 E16.98447
G1 X158.514 Y146.843 E17.00993
G1 X157.893 Y147.253 E17.03716
G1 X157.24 Y147.651 E17.06514
G1 X156.583 Y148.02 E17.0927
G1 X155.855 Y148.394 E17.12265
G1 X155.115 Y148.732 E17.15241
G1 X154.586 Y148.959 E17.17347
G1 X153.925 Y149.217 E17.19943
G1 X153.261 Y149.445 E17.22512
G1 X152.783 Y149.596 E17.24346
G1 X152.154 Y149.773 E17.26737
G1 X150.97 Y150.062 E17.31196
G1 X150.585 Y150.143 E17.32635
G1 X149.966 Y150.254 E17.34936
G1 X149.297 Y150.354 E17.37411
G1 X148.731 Y150.423 E17.39497
G1 X147.701 Y150.521 E17.43282
G1 X147.111 Y150.561 E17.45446
G1 X146.248 Y150.595 E17.48605
G1 X145.016 Y150.604 E17.53113
G1 X144.533 Y150.594 E17.5488
G1 X142.829 Y150.513 E17.61122
G1 X141.431 Y150.405 E17.66252
G1 X140.45 Y150.314 E17.69856
G1 X139.138 Y150.177 E17.74683
G1 X137.374 Y149.972 E17.8118
G1 X136.36 Y149.846 E17.84918
G1 X133.811 Y149.569 E17.94299
G1 X131.268 Y149.364 E18.03633
G1 X128.728 Y149.232 E18.12938
G1 X126.219 Y149.173 E18.2212
G1 X123.678 Y149.183 E18.31417
G1 X121.173 Y149.266 E18.40587
G1 X118.654 Y149.42 E18.4982
G1 X115.552 Y149.706 E18.61217
G1 X113.37 Y149.922 E18.69239
G1 X112.203 Y150.027 E18.73526
G1 X110.559 Y150.156 E18.79559
G1 X109.028 Y150.254 E18.85172
G1 X107.581 Y150.317 E18.90471
G1 X106.188 Y150.347 E18.95569
G1 X104.623 Y150.34 E19.01295
G1 X103.373 Y150.301 E19.0587
G1 X101.724 Y150.199 E19.11915
G1 X101.337 Y150.167 E19.13335
G1 X100.022 Y150.033 E19.18171
G1 X99.606 Y149.982 E19.19705
G1 X98.224 Y149.786 E19.24812
G1 X97.796 Y149.717 E19.26398
G1 X96.859 Y149.545 E19.29883
G1 X96.418 Y149.454 E19.31531
G1 X95.311 Y149.202 E19.35684
G1 X94.879 Y149.094 E19.37313
G1 X93.807 Y148.799 E19.41381
G1 X93.212 Y148.617 E19.43658
G1 X92.33 Y148.324 E19.47058
G1 X91.489 Y148.017 E19.50333
G1 X90.689 Y147.699 E19.53483
G1 X90.26 Y147.517 E19.55188
G1 X89.779 Y147.301 E19.57117
G1 X89.29 Y147.067 E19.59101
G1 X87.684 Y146.241 E19.65708
G1 X86.374 Y145.527 E19.71166
G1 X84.092 Y144.365 E19.80535
G1 X81.822 Y143.289 E19.89726
G1 X79.526 Y142.279 E19.98903
G1 X77.111 Y141.297 E20.08441
G1 X75.822 Y140.79 E20.13509
G1 X75.463 Y140.639 E20.14934
G1 X74.645 Y140.253 E20.18243
G1 X74.047 Y139.926 E20.20737
G1 X73.651 Y139.693 E20.22418
G1 X72.876 Y139.19 E20.25798
G1 X72.425 Y138.851 E20.27862
G1 X72.084 Y138.58 E20.29456
G1 X71.386 Y137.974 E20.32838
