;FLAVOR:Marlin
;TIME:6461
;Filament used: 3.80077m
;Layer height: 0.2
;MINX:57.94
;MINY:41.734
;MINZ:0.2
;MAXX:184.207
;MAXY:195.176
;MAXZ:3.8
;Generated with Cura_SteamEngine 5.0.0
M140 S60
M105
M190 S60
M104 S222
M105
M109 S222
M82 ;absolute extrusion mode
; Ender 3 Custom Start G-code
G92 E0 ; Reset Extruder
M140 S60 ; Start heating the heated bed
M190 S60 ; Wait until the heated bed reaches the desired temperature
G28 ; Auto Home
G29 A; Activate Bed Leveling
G29 L0; Loads the saved mesh in slot 0
G29  J3; 9 point autotilt

G92 E0 ; Reset extruder origin
G1 Z2.0 F3000 ; Move Z Axis up little to prevent scratching of Heat Bed
G1 X0.1 Y20 Z0.3 F5000.0 ; Move to start position
G1 X0.1 Y200.0 Z0.3 F1500.0 E15 ; Draw the first line
G1 X0.4 Y200.0 Z0.3 F5000.0 ; Move to side a little
G1 X0.4 Y20 Z0.3 F1500.0 E30 ; Draw the second line
G92 E0 ; Reset Extruder
G1 Z2.0 F3000 ; Move Z Axis up little to prevent scratching of Heat Bed
G1 X5 Y20 Z0.3 F5000.0 ; Move over to prevent blob squish

; End of Ender 3 Custom Start G-code
G92 E0
G92 E0
G1 F2700 E-5
;LAYER_COUNT:19
;LAYER:0
M107
G0 F2100 X62.583 Y80.735 Z0.2
G0 X57.941 Y90.258
;TYPE:SKIRT
G1 F2700 E0
G1 F1200 X57.951 Y89.591 E0.02441
G1 X58.005 Y88.65 E0.05889
G1 X58.139 Y87.717 E0.09338
G1 X58.351 Y86.8 E0.12781
G1 X58.641 Y85.903 E0.1623
G1 X59.005 Y85.034 E0.19677
G1 X59.442 Y84.199 E0.23125
G1 X59.947 Y83.405 E0.26568
G1 X60.519 Y82.656 E0.30016
G1 X61.152 Y81.958 E0.33463
G1 X61.842 Y81.316 E0.36911
G1 X62.583 Y80.735 E0.40356
G1 X63.372 Y80.219 E0.43805
G1 X64.201 Y79.772 E0.47251
G1 X64.755 Y79.522 E0.49475
G1 X65.641 Y79.15 E0.52991
G1 X68.02 Y78.114 E0.62484
G1 X70.259 Y77.061 E0.71536
G1 X72.539 Y75.912 E0.80877
G1 X74.75 Y74.716 E0.90074
G1 X76.914 Y73.465 E0.99219
G1 X79.079 Y72.13 E1.08525
G1 X81.15 Y70.773 E1.17584
G1 X83.222 Y69.327 E1.26828
G1 X85.272 Y67.811 E1.36156
G1 X87.21 Y66.29 E1.45169
G1 X89.146 Y64.679 E1.54384
G1 X91.056 Y62.997 E1.63695
G1 X92.897 Y61.283 E1.72898
G1 X94.662 Y59.541 E1.81971
G1 X96.419 Y57.708 E1.9126
G1 X98.112 Y55.837 E2.00492
G1 X99.711 Y53.966 E2.09497
G1 X101.32 Y51.974 E2.18865
G1 X102.856 Y49.957 E2.28141
G1 X104.293 Y47.954 E2.3716
G1 X105.272 Y46.528 E2.43488
G1 X105.84 Y45.777 E2.46933
G1 X106.47 Y45.077 E2.50379
G1 X107.158 Y44.432 E2.53829
G1 X107.897 Y43.848 E2.57275
G1 X108.683 Y43.329 E2.60721
G1 X109.511 Y42.879 E2.64169
G1 X110.373 Y42.5 E2.67614
G1 X111.265 Y42.196 E2.71062
G1 X112.179 Y41.968 E2.74508
G1 X113.11 Y41.819 E2.77958
G1 X114.126 Y41.747 E2.81684
G1 X114.805 Y41.734 E2.84169
G1 X119.893 Y41.734 E3.02784
G1 X120.753 Y41.745 E3.0593
G1 X121.694 Y41.799 E3.09379
G1 X122.626 Y41.931 E3.12823
G1 X123.544 Y42.143 E3.1627
G1 X124.441 Y42.432 E3.19718
G1 X125.31 Y42.795 E3.23163
G1 X126.146 Y43.231 E3.26613
G1 X126.941 Y43.737 E3.30061
G1 X127.69 Y44.308 E3.33506
G1 X128.388 Y44.94 E3.36951
G1 X129.031 Y45.629 E3.40399
G1 X129.421 Y46.113 E3.42673
G1 X129.984 Y46.853 E3.46075
G1 X130.597 Y47.681 E3.49844
G1 X132.151 Y49.664 E3.59062
G1 X133.769 Y51.611 E3.68324
G1 X135.418 Y53.483 E3.77451
G1 X137.128 Y55.319 E3.8663
G1 X138.915 Y57.132 E3.95944
G1 X140.703 Y58.845 E4.05003
G1 X142.578 Y60.543 E4.14258
G1 X144.509 Y62.195 E4.23555
G1 X146.465 Y63.775 E4.32755
G1 X148.437 Y65.276 E4.41822
G1 X150.475 Y66.74 E4.51002
G1 X152.585 Y68.167 E4.60322
G1 X154.684 Y69.501 E4.69421
G1 X156.874 Y70.807 E4.7875
G1 X159.047 Y72.023 E4.8786
G1 X161.268 Y73.182 E4.97026
G1 X163.531 Y74.284 E5.06235
G1 X165.828 Y75.323 E5.15458
G1 X168.169 Y76.303 E5.24743
G1 X170.494 Y77.201 E5.33862
G1 X172.879 Y78.043 E5.43116
G1 X175.401 Y78.854 E5.52808
G1 X176.362 Y79.15 E5.56487
G1 X177.25 Y79.465 E5.59934
G1 X178.108 Y79.854 E5.63381
G1 X178.93 Y80.315 E5.66829
G1 X179.71 Y80.843 E5.70275
G1 X180.442 Y81.436 E5.73721
G1 X181.122 Y82.089 E5.77171
G1 X181.743 Y82.797 E5.80616
G1 X182.302 Y83.555 E5.84062
G1 X182.795 Y84.358 E5.87509
G1 X183.218 Y85.2 E5.90957
G1 X183.569 Y86.074 E5.94403
G1 X183.843 Y86.975 E5.97848
G1 X184.041 Y87.897 E6.01298
G1 X184.159 Y88.831 E6.04743
G1 X184.194 Y89.448 E6.07004
G1 X184.207 Y90.08 E6.09316
G1 X184.206 Y144.666 E8.09025
G1 X184.196 Y145.395 E8.11693
G1 X184.143 Y146.336 E8.15141
G1 X184.011 Y147.269 E8.18589
G1 X183.8 Y148.187 E8.22035
G1 X183.511 Y149.084 E8.25483
G1 X183.148 Y149.953 E8.28928
G1 X182.713 Y150.788 E8.32373
G1 X182.208 Y151.584 E8.35822
G1 X181.637 Y152.334 E8.3927
G1 X181.005 Y153.032 E8.42715
G1 X180.316 Y153.675 E8.46163
G1 X179.575 Y154.257 E8.49611
G1 X178.787 Y154.773 E8.53057
G1 X177.959 Y155.222 E8.56503
G1 X177.095 Y155.598 E8.5995
G1 X176.499 Y155.809 E8.62263
G1 X175.822 Y156.027 E8.64866
G1 X173.333 Y156.87 E8.7448
G1 X171.007 Y157.731 E8.83554
G1 X168.673 Y158.671 E8.9276
G1 X166.376 Y159.673 E9.01929
G1 X164.089 Y160.748 E9.11174
G1 X161.839 Y161.885 E9.20397
G1 X159.633 Y163.078 E9.29573
G1 X157.434 Y164.351 E9.38869
G1 X155.324 Y165.652 E9.47938
G1 X153.215 Y167.035 E9.57165
G1 X151.163 Y168.467 E9.6632
G1 X149.135 Y169.969 E9.75553
G1 X147.143 Y171.534 E9.84821
G1 X145.234 Y173.123 E9.93908
G1 X143.323 Y174.806 E10.03225
G1 X141.507 Y176.5 E10.12311
G1 X139.697 Y178.287 E10.21617
G1 X137.965 Y180.096 E10.30779
G1 X136.276 Y181.963 E10.3999
G1 X134.646 Y183.872 E10.49174
G1 X133.066 Y185.83 E10.58379
G1 X131.546 Y187.829 E10.67567
G1 X130.079 Y189.873 E10.76772
G1 X129.752 Y190.349 E10.78885
G1 X129.186 Y191.102 E10.82331
G1 X128.558 Y191.805 E10.8578
G1 X127.873 Y192.452 E10.89227
G1 X127.136 Y193.038 E10.92672
G1 X126.352 Y193.56 E10.96118
G1 X125.526 Y194.014 E10.99567
G1 X124.665 Y194.395 E11.03011
G1 X123.774 Y194.703 E11.0646
G1 X122.861 Y194.934 E11.09906
G1 X121.931 Y195.086 E11.13354
G1 X120.874 Y195.163 E11.17231
G1 X120.195 Y195.176 E11.19716
G1 X114.949 Y195.175 E11.38909
G1 X114.247 Y195.165 E11.41477
G1 X113.306 Y195.111 E11.44926
G1 X112.374 Y194.979 E11.4837
G1 X111.456 Y194.767 E11.51817
G1 X110.559 Y194.478 E11.55265
G1 X109.69 Y194.115 E11.5871
G1 X108.854 Y193.679 E11.6216
G1 X108.059 Y193.173 E11.65608
G1 X107.31 Y192.602 E11.69053
G1 X106.612 Y191.97 E11.72498
G1 X105.969 Y191.281 E11.75946
G1 X105.388 Y190.539 E11.79394
G1 X105.038 Y190.022 E11.81678
G1 X104.695 Y189.483 E11.84016
G1 X103.293 Y187.346 E11.93367
G1 X101.854 Y185.284 E12.02566
G1 X100.347 Y183.247 E12.11837
G1 X98.797 Y181.274 E12.21016
G1 X97.197 Y179.351 E12.30168
G1 X95.521 Y177.448 E12.39446
G1 X93.809 Y175.613 E12.48628
G1 X92.064 Y173.843 E12.57721
G1 X90.231 Y172.088 E12.67006
G1 X88.354 Y170.39 E12.76266
G1 X86.473 Y168.782 E12.8532
G1 X84.501 Y167.191 E12.9459
G1 X82.497 Y165.666 E13.03803
G1 X80.46 Y164.205 E13.12975
G1 X78.367 Y162.792 E13.22214
G1 X76.244 Y161.444 E13.31414
G1 X74.107 Y160.17 E13.40517
G1 X71.88 Y158.927 E13.49848
G1 X69.676 Y157.777 E13.58943
G1 X67.409 Y156.675 E13.68165
G1 X64.574 Y155.398 E13.79541
G1 X63.729 Y154.982 E13.82987
G1 X62.922 Y154.496 E13.86434
G1 X62.159 Y153.943 E13.89881
G1 X61.446 Y153.327 E13.93328
G1 X60.787 Y152.653 E13.96777
G1 X60.188 Y151.926 E14.00224
G1 X59.653 Y151.15 E14.03672
G1 X59.186 Y150.332 E14.07118
G1 X58.79 Y149.478 E14.10562
G1 X58.467 Y148.592 E14.14012
G1 X58.221 Y147.683 E14.17458
G1 X58.053 Y146.756 E14.20904
G1 X57.953 Y145.552 E14.25325
G1 X57.94 Y144.92 E14.27637
G1 X57.941 Y90.258 E16.27624
G0 F2100 X58.381 Y90.264
G1 F1200 X58.391 Y89.597 E16.30065
G1 X58.445 Y88.676 E16.3344
G1 X58.578 Y87.762 E16.3682
G1 X58.79 Y86.863 E16.40199
G1 X59.079 Y85.986 E16.43577
G1 X59.443 Y85.138 E16.46954
G1 X59.879 Y84.324 E16.50332
G1 X60.383 Y83.551 E16.53708
G1 X60.953 Y82.824 E16.57088
G1 X61.583 Y82.149 E16.60466
G1 X62.269 Y81.532 E16.63842
G1 X63.006 Y80.976 E16.67219
G1 X63.789 Y80.486 E16.70599
G1 X64.925 Y79.927 E16.75231
G1 X65.805 Y79.558 E16.78722
G1 X68.213 Y78.509 E16.88332
G1 X70.481 Y77.443 E16.975
G1 X72.722 Y76.313 E17.06682
G1 X74.969 Y75.098 E17.16028
G1 X77.154 Y73.834 E17.25264
G1 X79.299 Y72.512 E17.34482
G1 X81.406 Y71.131 E17.43699
G1 X83.466 Y69.693 E17.5289
G1 X85.529 Y68.167 E17.62279
G1 X87.487 Y66.631 E17.71383
G1 X89.444 Y65.004 E17.80695
G1 X91.355 Y63.321 E17.90011
G1 X93.195 Y61.607 E17.99211
G1 X94.978 Y59.847 E18.08377
G1 X96.734 Y58.015 E18.17661
G1 X98.428 Y56.143 E18.26898
G1 X100.091 Y54.198 E18.36261
G1 X101.652 Y52.264 E18.45354
G1 X103.19 Y50.244 E18.54643
G1 X104.671 Y48.18 E18.63937
G1 X105.634 Y46.779 E18.70157
G1 X106.191 Y46.043 E18.73534
G1 X106.811 Y45.358 E18.76914
G1 X107.487 Y44.73 E18.8029
G1 X108.215 Y44.162 E18.83668
G1 X108.989 Y43.659 E18.87045
G1 X109.804 Y43.225 E18.90423
G1 X110.654 Y42.864 E18.93802
G1 X111.532 Y42.577 E18.97181
G1 X112.431 Y42.367 E19.00559
G1 X113.345 Y42.236 E19.03937
G1 X114.137 Y42.187 E19.0684
G1 X114.805 Y42.174 E19.09285
G1 X119.893 Y42.174 E19.279
G1 X120.747 Y42.185 E19.31025
G1 X121.669 Y42.238 E19.34403
G1 X122.582 Y42.371 E19.37779
G1 X123.481 Y42.582 E19.41157
G1 X124.358 Y42.87 E19.44535
G1 X125.207 Y43.233 E19.47913
G1 X126.021 Y43.668 E19.51289
G1 X126.795 Y44.172 E19.54669
G1 X127.522 Y44.741 E19.58046
G1 X128.197 Y45.371 E19.61424
G1 X129.071 Y46.379 E19.66305
G1 X129.631 Y47.115 E19.69689
G1 X130.262 Y47.967 E19.73568
G1 X131.806 Y49.938 E19.82728
G1 X133.43 Y51.891 E19.92021
G1 X135.094 Y53.782 E20.01237
G1 X136.821 Y55.635 E20.10504
G1 X138.591 Y57.43 E20.19727
G1 X140.415 Y59.178 E20.2897
G1 X142.289 Y60.876 E20.38222
G1 X144.218 Y62.526 E20.47509
G1 X146.18 Y64.11 E20.56735
G1 X148.166 Y65.623 E20.65869
G1 X150.265 Y67.13 E20.75323
G1 X152.314 Y68.516 E20.84373
G1 X154.46 Y69.879 E20.93674
G1 X156.66 Y71.192 E21.03048
G1 X158.839 Y72.411 E21.12183
G1 X161.054 Y73.567 E21.21324
G1 X163.355 Y74.687 E21.30687
G1 X165.659 Y75.729 E21.39938
G1 X167.991 Y76.706 E21.49188
G1 X170.359 Y77.62 E21.58475
G1 X172.736 Y78.46 E21.67699
G1 X175.193 Y79.25 E21.77141
G1 X176.233 Y79.57 E21.81122
G1 X177.103 Y79.88 E21.84501
G1 X177.943 Y80.263 E21.87879
G1 X178.746 Y80.718 E21.91255
G1 X179.507 Y81.241 E21.94634
G1 X180.22 Y81.827 E21.9801
G1 X180.88 Y82.473 E22.01389
G1 X181.481 Y83.174 E22.04767
G1 X182.019 Y83.924 E22.08144
G1 X182.491 Y84.718 E22.11524
G1 X182.892 Y85.55 E22.14903
G1 X183.219 Y86.413 E22.18279
G1 X183.471 Y87.301 E22.21656
G1 X183.645 Y88.208 E22.25035
G1 X183.754 Y89.46 E22.29633
G1 X183.767 Y90.08 E22.31902
G1 X183.766 Y144.66 E24.31589
G1 X183.756 Y145.389 E24.34257
G1 X183.703 Y146.311 E24.37635
G1 X183.571 Y147.225 E24.41014
G1 X183.36 Y148.124 E24.44393
G1 X183.073 Y149.001 E24.47769
G1 X182.71 Y149.85 E24.51147
G1 X182.275 Y150.664 E24.54523
G1 X181.772 Y151.438 E24.57901
G1 X181.203 Y152.166 E24.61281
G1 X180.574 Y152.841 E24.64657
G1 X179.888 Y153.46 E24.68037
G1 X179.152 Y154.016 E24.71412
G1 X178.37 Y154.507 E24.7479
G1 X177.549 Y154.929 E24.78168
G1 X176.365 Y155.39 E24.82816
G1 X175.645 Y155.622 E24.85584
G1 X173.232 Y156.439 E24.94904
G1 X170.83 Y157.328 E25.04275
G1 X168.502 Y158.266 E25.13457
G1 X166.166 Y159.285 E25.22782
G1 X163.9 Y160.35 E25.31942
G1 X161.642 Y161.491 E25.41198
G1 X159.429 Y162.688 E25.50403
G1 X157.219 Y163.967 E25.59745
G1 X155.079 Y165.287 E25.68944
G1 X152.981 Y166.662 E25.78122
G1 X150.878 Y168.131 E25.87507
G1 X148.876 Y169.613 E25.9662
G1 X146.882 Y171.18 E26.05898
G1 X144.936 Y172.799 E26.1516
G1 X143.025 Y174.483 E26.24479
G1 X141.191 Y176.192 E26.3365
G1 X139.398 Y177.963 E26.42871
G1 X137.649 Y179.79 E26.52124
G1 X135.96 Y181.657 E26.61335
G1 X134.284 Y183.62 E26.70778
G1 X132.717 Y185.561 E26.79905
G1 X131.199 Y187.558 E26.89083
G1 X129.71 Y189.633 E26.98427
G1 X129.389 Y190.1 E27.005
G1 X128.834 Y190.838 E27.03878
G1 X128.217 Y191.525 E27.07257
G1 X127.543 Y192.156 E27.10635
G1 X126.817 Y192.726 E27.14012
G1 X126.045 Y193.231 E27.17387
G1 X125.231 Y193.668 E27.20767
G1 X124.383 Y194.033 E27.24144
G1 X123.506 Y194.322 E27.27523
G1 X122.608 Y194.535 E27.30899
G1 X121.694 Y194.67 E27.3428
G1 X120.863 Y194.723 E27.37326
G1 X120.195 Y194.736 E27.39771
G1 X114.955 Y194.735 E27.58942
G1 X114.253 Y194.725 E27.6151
G1 X113.331 Y194.672 E27.64889
G1 X112.418 Y194.539 E27.68265
G1 X111.519 Y194.328 E27.71643
G1 X110.642 Y194.04 E27.7502
G1 X109.793 Y193.677 E27.78398
G1 X108.979 Y193.242 E27.81775
G1 X108.205 Y192.738 E27.85154
G1 X107.478 Y192.169 E27.88532
G1 X106.803 Y191.539 E27.9191
G1 X106.185 Y190.853 E27.95288
G1 X105.41 Y189.786 E28.00113
G1 X105.09 Y189.282 E28.02297
G1 X103.65 Y187.089 E28.11896
G1 X102.208 Y185.023 E28.21113
G1 X100.703 Y182.988 E28.30374
G1 X99.151 Y181.013 E28.39563
G1 X97.521 Y179.053 E28.4889
G1 X95.844 Y177.15 E28.5817
G1 X94.134 Y175.315 E28.67347
G1 X92.37 Y173.527 E28.76536
G1 X90.538 Y171.773 E28.85815
G1 X88.66 Y170.074 E28.95081
G1 X86.743 Y168.435 E29.04308
G1 X84.747 Y166.825 E29.1369
G1 X82.773 Y165.323 E29.22765
G1 X80.703 Y163.838 E29.32086
G1 X78.622 Y162.433 E29.41272
G1 X76.468 Y161.066 E29.50606
G1 X74.309 Y159.779 E29.59802
G1 X72.115 Y158.554 E29.68996
G1 X69.857 Y157.376 E29.78313
G1 X67.601 Y156.278 E29.87493
G1 X64.751 Y154.995 E29.98928
G1 X63.923 Y154.587 E30.02305
G1 X63.134 Y154.108 E30.05682
G1 X62.389 Y153.563 E30.09059
G1 X61.693 Y152.956 E30.12438
G1 X61.053 Y152.29 E30.15817
G1 X60.473 Y151.572 E30.19194
G1 X59.958 Y150.806 E30.22571
G1 X59.51 Y149.999 E30.25948
G1 X59.134 Y149.155 E30.29328
G1 X58.833 Y148.283 E30.32703
G1 X58.608 Y147.387 E30.36083
G1 X58.461 Y146.476 E30.39459
G1 X58.393 Y145.54 E30.42893
G1 X58.38 Y144.92 E30.45162
G1 X58.381 Y90.264 E32.45127
G0 F2100 X58.821 Y90.271
G1 F1200 X58.831 Y89.604 E32.47568
G1 X58.885 Y88.701 E32.50877
G1 X59.018 Y87.807 E32.54184
G1 X59.229 Y86.928 E32.57491
G1 X59.518 Y86.072 E32.60797
G1 X59.881 Y85.244 E32.64104
G1 X60.315 Y84.451 E32.67412
G1 X60.818 Y83.7 E32.70719
G1 X61.386 Y82.996 E32.74028
G1 X62.013 Y82.345 E32.77335
G1 X62.696 Y81.753 E32.80642
G1 X63.428 Y81.222 E32.8395
G1 X64.204 Y80.759 E32.87256
G1 X65.095 Y80.333 E32.9087
G1 X66.014 Y79.947 E32.94516
G1 X68.373 Y78.92 E33.0393
G1 X70.68 Y77.835 E33.13257
G1 X72.933 Y76.699 E33.22488
G1 X75.188 Y75.48 E33.31867
G1 X77.364 Y74.222 E33.41063
G1 X79.534 Y72.884 E33.5039
G1 X81.66 Y71.49 E33.59691
G1 X83.744 Y70.035 E33.6899
G1 X85.788 Y68.524 E33.78289
G1 X87.787 Y66.955 E33.87587
G1 X89.724 Y65.344 E33.96804
G1 X91.615 Y63.679 E34.06022
G1 X93.528 Y61.897 E34.15587
G1 X95.276 Y60.173 E34.2457
G1 X97.067 Y58.303 E34.34043
G1 X98.744 Y56.45 E34.43187
G1 X100.424 Y54.485 E34.52645
G1 X102.001 Y52.532 E34.61829
G1 X103.567 Y50.475 E34.71288
G1 X105.016 Y48.455 E34.80383
G1 X105.996 Y47.029 E34.86713
G1 X106.542 Y46.309 E34.90019
G1 X107.15 Y45.64 E34.93326
G1 X107.815 Y45.028 E34.96633
G1 X108.532 Y44.477 E34.99941
G1 X109.294 Y43.991 E35.03248
G1 X110.097 Y43.574 E35.06558
G1 X110.932 Y43.23 E35.09862
G1 X111.796 Y42.961 E35.13173
G1 X112.679 Y42.77 E35.16478
G1 X113.576 Y42.657 E35.19786
G1 X114.148 Y42.627 E35.21882
G1 X114.805 Y42.614 E35.24286
G1 X119.893 Y42.614 E35.42901
G1 X120.741 Y42.625 E35.46004
G1 X121.643 Y42.678 E35.49309
G1 X122.537 Y42.81 E35.52616
G1 X123.416 Y43.021 E35.55923
G1 X124.273 Y43.309 E35.59231
G1 X125.101 Y43.671 E35.62537
G1 X125.894 Y44.105 E35.65844
G1 X126.646 Y44.608 E35.69154
G1 X127.35 Y45.175 E35.72461
G1 X128.001 Y45.802 E35.75768
G1 X128.721 Y46.646 E35.79827
G1 X129.277 Y47.376 E35.83184
G1 X129.918 Y48.242 E35.87126
G1 X131.468 Y50.22 E35.9632
G1 X133.088 Y52.168 E36.0559
G1 X134.771 Y54.08 E36.14909
G1 X136.497 Y55.933 E36.24174
G1 X138.284 Y57.746 E36.33487
G1 X140.126 Y59.511 E36.42821
G1 X141.982 Y61.192 E36.51982
G1 X143.951 Y62.876 E36.61461
G1 X145.907 Y64.456 E36.70661
G1 X147.918 Y65.988 E36.7991
G1 X149.989 Y67.474 E36.89236
G1 X152.092 Y68.897 E36.98526
G1 X154.225 Y70.252 E37.07771
G1 X156.43 Y71.567 E37.17164
G1 X158.631 Y72.798 E37.2639
G1 X160.869 Y73.967 E37.35628
G1 X163.15 Y75.077 E37.44909
G1 X165.49 Y76.136 E37.54306
G1 X167.832 Y77.117 E37.63596
G1 X170.204 Y78.032 E37.72897
G1 X172.584 Y78.873 E37.82133
G1 X175.104 Y79.683 E37.91817
G1 X176.104 Y79.991 E37.95645
G1 X176.955 Y80.295 E37.98951
G1 X177.776 Y80.673 E38.02258
G1 X178.561 Y81.122 E38.05567
G1 X179.303 Y81.638 E38.08873
